Arnibjarnst/BoxLift/logs/rsl_rl/jointtarget/2026-03-29_23-01-23_DelayedPD_kp100.0_kd10.00_scale0.2/ur_rtde_logs/trajectory_debug_2026-03-30_17-31-13.csv
arm_idx,step,actual_q,expected_q,loop_time,robot_mode,safety_mode
0,-1,"[-0.0006006399737756851, -1.5684932282059272, -0.004667308647185564, -0.002177433376647997, -0.000970188771383107, 0.004240144044160843]","[0.0, -1.5707963267948966, 0.0, 0.0, 0.0, 0.0]",0.002,7,1
0,-1,"[-0.0006082693683069351, -1.5685467284968873, -0.004659372381865978, -0.0022263091853638173, -0.0010646025287073257, 0.004286519251763821]","[0.0, -1.5707963267948966, 0.0, 0.0, 0.0, 0.0]",0.002,7,1
0,-1,"[-0.0006006399737756851, -1.568497793549188, -0.004667308647185564, -0.002173141842224169, -0.001008335744039357, 0.0042459070682525635]","[0.0, -1.5707963267948966, 0.0, 0.0, 0.0, 0.0]",0.002,7,1
0,-1,"[-0.0006464163409631851, -1.5685227848919858, -0.004641293548047543, -0.0022382301143188954, -0.001035038624898732, 0.004220548551529646]","[0.0, -1.5707963267948966, 0.0, 0.0, 0.0, 0.0]",0.002,7,1
0,-1,"[-0.000649754201070607, -1.5685095833944906, -0.004680938087403774, -0.0022131961635132313, -0.0010646025287073257, 0.004229498095810413]","[0.0, -1.5707963267948966, 0.0, 0.0, 0.0, 0.0]",0.002,7,1
0,-1,"[-0.0006778875934045914, -1.568505175444745, -0.00468089897185564, -0.002184943561889696, -0.001019779835836232, 0.004202497191727161]","[0.0, -1.5707963267948966, 0.0, 0.0, 0.0, 0.0]",0.002,7,1
0,-1,"[-0.000695530568258107, -1.568562062955909, -0.0046463110484182835, -0.002190546398498583, -0.0010035673724573257, 0.004058688413351774]","[0.0, -1.5707963267948966, 0.0, 0.0, 0.0, 0.0]",0.002,7,1
0,-1,"[-0.0006249586688440445, -1.568582813754194, -0.004456482827663422, -0.0021247428706665517, -0.0009911696063440445, 0.004058901220560074]","[0.0, -1.5707963267948966, 0.0, 0.0, 0.0, 0.0]",0.002,7,1
0,-1,"[-0.0006049315081995132, -1.568621990536787, -0.004280744586139917, -0.0021423858455200673, -0.0009883085833948257, 0.0038232856895774603]","[0.0, -1.5707963267948966, 0.0, 0.0, 0.0, 0.0]",0.002,7,1
0,-1,"[-0.0006058851825159195, -1.5688316570925345, -0.00400631595402956, -0.001991586094238329, -0.0009158293353479507, 0.0035684823524206877]","[0.0, -1.5707963267948966, 0.0, 0.0, 0.0, 0.0]",0.002,7,1
0,-1,"[-0.0006058851825159195, -1.568923213668615, -0.0037752105854451656, -0.001862482433654833, -0.000871006642476857, 0.0034366368781775236]","[0.0, -1.5707963267948966, 0.0, 0.0, 0.0, 0.0]",0.002,7,1
0,-1,"[-0.0005252997027795914, -1.5690911128516127, -0.0035449638962745667, -0.0016734165004272938, -0.0008109251605432632, 0.0032460452057421207]","[0.0, -1.5707963267948966, 0.0, 0.0, 0.0, 0.0]",0.002,7,1
0,-1,"[-0.0004728476153772476, -1.5692875626594578, -0.0032627859618514776, -0.0015863937190552235, -0.0007346312152307632, 0.0030212760902941227]","[0.0, -1.5707963267948966, 0.0, 0.0, 0.0, 0.0]",0.002,7,1
0,-1,"[-0.00044137636293584137, -1.569490286088996, -0.0029056700877845287, -0.0014094871333618642, -0.0006783644305627945, 0.002652424154803157]","[0.0, -1.5707963267948966, 0.0, 0.0, 0.0, 0.0]",0.002,7,1
0,-1,"[-0.00036508241762334137, -1.5697357504726206, -0.0024624671787023544, -0.001173571949340868, -0.0004957357989709976, 0.0023241573944687843]","[0.0, -1.5707963267948966, 0.0, 0.0, 0.0, 0.0]",0.002,7,1
0,-1,"[-0.00028115907777959137, -1.5699221046273415, -0.0020571115892380476, -0.0009580415538330556, -0.00045854250063115387, 0.0019297957187518477]","[0.0, -1.5707963267948966, 0.0, 0.0, 0.0, 0.0]",0.002,7,1
0,-1,"[-0.0002816359149377945, -1.5701426850030948, -0.001536030089482665, -0.0008078378489990712, -0.00034982362856084137, 0.0015081992605701089]","[0.0, -1.5707963267948966, 0.0, 0.0, 0.0, 0.0]",0.002,7,1
0,-1,"[-0.00018483797182256012, -1.5703434252103143, -0.0011604088358581066, -0.0005453389934082509, -0.0003030935870569351, 0.001141097629442811]","[0.0, -1.5707963267948966, 0.0, 0.0, 0.0, 0.0]",0.002,7,1
0,-1,"[-0.00012380281557256012, -1.5705276402917043, -0.0008184089092537761, -0.00041897714648442275, -0.00022489229311162262, 0.0007978945504873991]","[0.0, -1.5707963267948966, 0.0, 0.0, 0.0, 0.0]",0.002,7,1
0,-1,"[-0.00019056001772099762, -1.5706466175800706, -0.0005181009764783084, -0.0003079932979126454, -0.00024301210512334137, 0.0004979437799192965]","[0.0, -1.5707963267948966, 0.0, 0.0, 0.0, 0.0]",0.002,7,1
0,-1,"[-0.00013333955873662262, -1.5707678326510468, -0.00025847231154330075, -0.00014634550128178603, -0.00016957918276006012, 0.0003075241984333843]","[0.0, -1.5707963267948966, 0.0, 0.0, 0.0, 0.0]",0.002,7,1
0,-1,"[-7.7549611226857e-05, -1.570789174442627, -1.3589502486865968e-05, -7.493913684086806e-05, -8.422533144170075e-05, 5.5754186178091913e-05]","[0.0, -1.5707963267948966, 0.0, 0.0, 0.0, 0.0]",0.002,7,1
0,-1,"[-7.278123964482575e-05, -1.5707698190274932, -7.486343383789062e-05, -0.00011630476031498915, -0.00011808076967412262, 5.41026602149941e-05]","[0.0, -1.5707963267948966, 0.0, 0.0, 0.0, 0.0]",0.002,7,1
0,-1,"[-0.0001137892352502945, -1.5708004436888636, -0.00010537278285482898, -8.376062426762587e-05, -7.230440248662262e-05, 9.918212890625e-05]","[0.0, -1.5707963267948966, 0.0, 0.0, 0.0, 0.0]",0.002,7,1
0,-1,"[-7.278123964482575e-05, -1.5706618241859651, -5.8448313211556524e-05, -9.5681553222704e-05, -6.133714784795075e-05, 8.726119995117188e-05]","[0.0, -1.5707963267948966, 0.0, 0.0, 0.0, 0.0]",0.002,7,1
0,-1,"[-0.00012666383852177887, -1.5706988734057923, -9.412122017238289e-05, -4.620969805912978e-05, -6.133714784795075e-05, 9.63153870543465e-05]","[0.0, -1.5707963267948966, 0.0, 0.0, 0.0, 0.0]",0.002,7,1
0,-1,"[-6.372133363896637e-05, -1.570718465878901, -0.00010537278285482898, -2.6778583862352434e-05, -6.276765932256012e-05, 8.406639244640246e-05]","[0.0, -1.5707963267948966, 0.0, 0.0, 0.0, 0.0]",0.002,7,1
0,-1,"[-0.00013524690736943512, -1.5707032418252602, -7.486343383789062e-05, -5.491197619633681e-05, -2.080598940068512e-05, 4.67777244921308e-05]","[0.0, -1.5707963267948966, 0.0, 0.0, 0.0, 0.0]",0.002,7,1
0,-1,"[-3.5587941304981996e-05, -1.5706901155757187, -6.124603532953188e-05, -2.2248630859422747e-05, -1.7468129293263246e-05, 1.7223364920937456e-06]","[0.0, -1.5707963267948966, 0.0, 0.0, 0.0, 0.0]",0.002,7,1
0,-1,"[-5.5615101949513246e-05, -1.5707600637000105, -0.00011567798355827108, -2.057970080571181e-05, 1.1042507139791269e-05, 5.125999450683594e-05]","[0.0, -1.5707963267948966, 0.0, 0.0, 0.0, 0.0]",0.002,7,1
0,-1,"[-2.748170961552887e-05, -1.5707021730234665, -9.180033521261066e-05, 4.573459289503035e-06, -4.1309987203419496e-05, 1.7223364920937456e-06]","[0.0, -1.5707963267948966, 0.0, 0.0, 0.0, 0.0]",0.002,7,1
0,-1,"[-4.083315004521637e-05, -1.5706857525186315, -0.00011110305786132812, -4.001081500248915e-05, 1.5435218301718123e-05, -3.4634266988575746e-05]","[0.0, -1.5707963267948966, 0.0, 0.0, 0.0, 0.0]",0.002,7,1
0,-1,"[-1.699129213506012e-05, -1.5706618416337115, -7.032429857645184e-05, -3.0559352417469654e-06, -4.1309987203419496e-05, 2.7179718017578125e-05]","[0.0, -1.5707963267948966, 0.0, 0.0, 0.0, 0.0]",0.002,7,1
0,-1,"[-5.3707753316700746e-05, -1.5707337743118224, -0.00014118051331024617, -7.34746966557509e-06, 1.5435218301718123e-05, -5.547200338185121e-06]","[0.0, -1.5707963267948966, 0.0, 0.0, 0.0, 0.0]",0.002,7,1
0,-1,"[1.1368392733857036e-05, -1.5706890143668097, -4.0282691770698875e-05, -5.312383685307509e-05, -3.0819569722950746e-05, -5.547200338185121e-06]","[0.0, -1.5707963267948966, 0.0, 0.0, 0.0, 0.0]",0.002,7,1
0,-1,"[-9.361897603810121e-06, -1.5706901889464753, -0.00014119880506768823, -4.8713093139696184e-05, 1.1024474588339217e-05, 3.61442580469884e-05]","[0.0, -1.5707963267948966, 0.0, 0.0, 0.0, 0.0]",0.002,7,1
0,-1,"[-3.415742983037262e-05, -1.5707271942631742, -7.03333062119782e-05, 2.9607410095167097e-05, 3.4689903259277344e-05, -2.9865895406544496e-05]","[0.0, -1.5707963267948966, 0.0, 0.0, 0.0, 0.0]",0.002,7,1
0,-1,"[2.631351662785164e-06, -1.5707110535771172, -8.726119995117188e-05, -1.1758213378953997e-05, 2.384185791015625e-06, 1.696395884209778e-05]","[0.0, -1.5707963267948966, 0.0, 0.0, 0.0, 0.0]",0.002,7,1
0,-1,"[-4.941621889287262e-05, -1.5707721868805784, -0.0001053727901307866, 1.6271557612412835e-07, 4.808975791092962e-05, -2.2236500875294496e-05]","[0.0, -1.5707963267948966, 0.0, 0.0, 0.0, 0.0]",0.002,7,1
0,-1,"[3.097832086496055e-05, -1.5707677965404692, -5.6706907344050705e-05, 1.649438824458116e-05, -1.3176594869435121e-05, -8.885060445606996e-06]","[0.0, -1.5707963267948966, 0.0, 0.0, 0.0, 0.0]",0.002,7,1
0,-1,"[-1.2699757711231996e-05, -1.5707109220569073, -0.00010768754873424768, -4.001081500248915e-05, -1.0792409078419496e-05, 1.9741059077205136e-05]","[0.0, -1.5707963267948966, 0.0, 0.0, 0.0, 0.0]",0.002,7,1
0,-1,"[2.6226043701171875e-06, -1.5707590368441124, -7.936663314467296e-05, 2.4481410644483503e-05, 1.5477617125725374e-05, -2.080598940068512e-05]","[0.0, -1.5707963267948966, 0.0, 0.0, 0.0, 0.0]",0.002,7,1
0,-1,"[7.005214229138801e-06, -1.5707097291200007, -5.8448313211556524e-05, 4.573459289503035e-06, 6.000227585900575e-05, -3.4634266988575746e-05]","[0.0, -1.5707963267948966, 0.0, 0.0, 0.0, 0.0]",0.002,7,1
0,-1,"[-1.732503072560121e-06, -1.5707096414374355, -6.751441833330318e-05, -1.1758213378953997e-05, 3.474677578196861e-05, 7.90977446740726e-06]","[0.0, -1.5707963267948966, 0.0, 0.0, 0.0, 0.0]",0.002,7,1
0,-1,"[-5.0846730367481996e-05, -1.5707842401373746, -2.3868149582995102e-05, -1.1758213378953997e-05, 4.666742461267859e-05, 1.2481688827392645e-05]","[0.0, -1.5707963267948966, 0.0, 0.0, 0.0, 0.0]",0.002,7,1
0,-1,"[2.6226043701171875e-06, -1.5707622927478333, -3.004646350746043e-05, 1.3394946716260847e-05, -1.5083943502247621e-05, 7.90977446740726e-06]","[0.0, -1.5707963267948966, 0.0, 0.0, 0.0, 0.0]",0.002,7,1
0,-1,"[3.97241092287004e-05, -1.570745834000565, -6.29425048828125e-05, 4.573459289503035e-06, 5.550388596020639e-05, 6.18646117800381e-06]","[0.0, -1.5707963267948966, 0.0, 0.0, 0.0, 0.0]",0.002,7,1
0,-1,"[-1.699129213506012e-05, -1.570803781548971, -8.389954746235162e-05, 2.901136364741319e-05, -3.892580141240387e-05, -2.080598940068512e-05]","[0.0, -1.5707963267948966, 0.0, 0.0, 0.0, 0.0]",0.002,7,1
0,-1,"[-2.9865895406544496e-05, -1.570705299386038, -4.5017113734502345e-06, 7.553691528272566e-06, 1.984596201509703e-05, 1.9741059077205136e-05]","[0.0, -1.5707963267948966, 0.0, 0.0, 0.0, 0.0]",0.002,7,1
0,-1,"[3.337860107421875e-06, -1.5707293871713155, -4.6425342588918284e-05, -3.560007128911025e-05, 2.276897430419922e-05, 2.1446227037813514e-05]","[0.0, -1.5707963267948966, 0.0, 0.0, 0.0, 0.0]",0.002,7,1
0,-1,"[3.337860107421875e-06, -1.5708157024779261, -5.553395749302581e-05, -1.1758213378953997e-05, 3.917830326827243e-05, -4.116688863575746e-06]","[0.0, -1.5707963267948966, 0.0, 0.0, 0.0, 0.0]",0.002,7,1
0,-1,"[1.892091859190259e-05, -1.5707622544581064, -4.363977859611623e-05, 1.3275737426710066e-05, 2.026558377110632e-06, -2.9865895406544496e-05]","[0.0, -1.5707963267948966, 0.0, 0.0, 0.0, 0.0]",0.002,7,1
0,-1,"[-1.699129213506012e-05, -1.5707697950659458, -6.455809489125386e-05, -1.6168957092332903e-05, -4.3217335836231996e-05, 7.909773557912558e-06]","[0.0, -1.5707963267948966, 0.0, 0.0, 0.0, 0.0]",0.002,7,1
0,-1,"[-1.794496645146637e-05, -1.5707741669214847, -1.360747864964651e-05, -7.34746966557509e-06, -6.024037496388246e-06, -3.892580141240387e-05]","[0.0, -1.5707963267948966, 0.0, 0.0, 0.0, 0.0]",0.002,7,1
0,-1,"[3.966195436078124e-05, -1.570745834000565, -8.105409506242722e-05, 3.7832851074171e-05, 6.440350989578292e-05, 7.903921869001351e-06]","[0.0, -1.5707963267948966, 0.0, 0.0, 0.0, 0.0]",0.002,7,1
0,-1,"[2.760457937256433e-05, -1.570766643886902, -2.2640586394118145e-05, -1.6168957092332903e-05, -5.6568776265919496e-05, 2.431297252769582e-05]","[0.0, -1.5707963267948966, 0.0, 0.0, 0.0, 0.0]",0.002,7,1
0,-1,"[7.017253210506169e-06, -1.570720686159195, -1.3083035810268484e-06, -5.312383685307509e-05, -2.652803529912262e-05, -4.116688863575746e-06]","[0.0, -1.5707963267948966, 0.0, 0.0, 0.0, 0.0]",0.002,7,1
0,-1,"[1.1394814464438241e-05, -1.5707491043870796, -3.461542655713856e-05, 1.2083644531202253e-05, 1.1042082405765541e-05, 1.9741059077205136e-05]","[0.0, -1.5707963267948966, 0.0, 0.0, 0.0, 0.0]",0.002,7,1
0,-1,"[-3.7495289937794496e-05, -1.5707294231727538, -7.362735050264746e-05, -1.6168957092332903e-05, -3.892580141240387e-05, -1.3653432027638246e-05]","[0.0, -1.5707963267948966, 0.0, 0.0, 0.0, 0.0]",0.002,7,1
0,-1,"[1.1361839824530762e-05, -1.570775457267093, -1.8188338799518533e-05, -5.193174395756728e-05, 1.1036872820113786e-05, 2.8884887797175907e-05]","[0.0, -1.5707963267948966, 0.0, 0.0, 0.0, 0.0]",0.002,7,1
0,-1,"[-7.516542543584137e-05, -1.5707741614827064, 1.732503072560121e-06, 2.4481410644483503e-05, 2.7380148821976036e-05, -4.116688863575746e-06]","[0.0, -1.5707963267948966, 0.0, 0.0, 0.0, 0.0]",0.002,7,1
0,1,"[3.814697265625e-06, -1.570799013177389, -6.908821524120867e-05, -8.777981140184465e-06, -6.024037496388246e-06, 2.8884887797175907e-05]","[0.0, -1.5707963267948966, 0.0, 0.0, 0.0, 0.0]",0.002,7,1
0,2,"[3.814697265625e-06, -1.570799013177389, -6.908821524120867e-05, -8.777981140184465e-06, -6.024037496388246e-06, 2.8884887797175907e-05]","[0.0, -1.5707963267948966, 0.0, 0.0, 0.0, 0.0]",0.002,7,1
0,3,"[3.814697265625e-06, -1.570799013177389, -6.908821524120867e-05, -8.777981140184465e-06, -6.024037496388246e-06, 2.8884887797175907e-05]","[0.0, -1.5707963267948966, 0.0, 0.0, 0.0, 0.0]",0.002,7,1
0,4,"[3.814697265625e-06, -1.570799013177389, -6.908821524120867e-05, -8.777981140184465e-06, -6.024037496388246e-06, 2.8884887797175907e-05]","[0.0, -1.5707963267948966, 0.0, 0.0, 0.0, 0.0]",0.002,7,1
0,5,"[3.814697265625e-06, -1.570799013177389, -6.908821524120867e-05, -8.777981140184465e-06, -6.024037496388246e-06, 2.8884887797175907e-05]","[0.0, -1.5707963267948966, 0.0, 0.0, 0.0, 0.0]",0.002,7,1
0,6,"[-1.794496645146637e-05, -1.5707916966060402, -5.1021575927734375e-05, -1.1758213378953997e-05, 1.106381751014851e-05, 3.356195975356968e-06]","[0.0, -1.5707963267948966, 0.0, 0.0, 0.0, 0.0]",0.002,7,1
0,7,"[2.587717744972906e-06, -1.5707206174159474, -4.811000690096989e-05, 3.7832851074171e-05, 3.622579242801294e-05, 1.52587890625e-05]","[0.0, -1.5707963267948966, 0.0, 0.0, 0.0, 0.0]",0.002,7,1
0,8,"[-2.9865895406544496e-05, -1.5707905523934933, -3.167097020195797e-05, 3.7832851074171e-05, -6.500874654591371e-06, 7.93112030805787e-06]","[0.0, -1.5707963267948966, 0.0, 0.0, 0.0, 0.0]",0.002,7,1
0,9,"[-3.4634266988575746e-05, -1.570810934106344, -6.0054895584471524e-05, -4.8832302429246965e-05, -4.7985707418263246e-05, -4.116688863575746e-06]","[0.0, -1.5707963267948966, 0.0, 0.0, 0.0, 0.0]",0.002,7,1
0,10,"[5.163741298019886e-05, -1.5708757839598597, -7.483616354875267e-05, -8.519113574223525e-05, -7.611909975224762e-05, 0.00011449624435044825]","[0.0, -1.5707963267948966, 0.0, 0.0, 0.0, 0.0]",0.002,7,1
0,11,"[0.00013252958888188004, -1.571101804772848, -0.00015755939239170402, -0.0003034633449097157, -0.00013906160463506012, 0.0001443129440303892]","[0.0, -1.5707963267948966, 0.0, 0.0, 0.0, 0.0]",0.002,7,1
0,12,"[0.00013252958888188004, -1.571101804772848, -0.00015755939239170402, -0.0003034633449097157, -0.00013906160463506012, 0.0001443129440303892]","[0.0, -1.5707963267948966, 0.0, 0.0, 0.0, 0.0]",0.002,7,1
0,13,"[0.0002709206601139158, -1.5715705356993617, -0.0004477336478885263, -0.0009820026210327626, -0.00028640428651982575, 0.0004742882738355547]","[0.0, -1.5707963267948966, 0.0, 0.0, 0.0, 0.0]",0.002,7,1
0,14,"[0.00041158744716085494, -1.5718585453429164, -0.0006247787387110293, -0.0014712375453491688, -0.0004499594317834976, 0.0006346534937620163]","[0.0, -1.5707963267948966, 0.0, 0.0, 0.0, 0.0]",0.002,7,1
0,15,"[0.0005481269326992333, -1.5722319088377894, -0.0007868363754823804, -0.002158359890319872, -0.0006106535540979507, 0.0009120261529460549]","[0.0, -1.5707963267948966, 0.0, 0.0, 0.0, 0.0]",0.002,7,1
0,16,"[0.0006800568080507219, -1.5726200542845667, -0.0009522722684778273, -0.0028544229320068837, -0.0008881727801721695, 0.0012132892152294517]","[0.0, -1.5707963267948966, 0.0, 0.0, 0.0, 0.0]",0.002,7,1
0,17,"[0.0008480226970277727, -1.5730768642821253, -0.0011818070197477937, -0.0037303727916260243, -0.0011175314532678726, 0.0015895889373496175]","[0.0, -1.5707963267948966, 0.0, 0.0, 0.0, 0.0]",0.002,7,1
0,18,"[0.0009310172754339874, -1.5735002956786097, -0.0013036379823461175, -0.004610971813537645, -0.0014451185809534195, 0.00203704577870667]","[0.0, -1.5707963267948966, 0.0, 0.0, 0.0, 0.0]",0.002,7,1
0,19,"[0.001052200561389327, -1.573904653588766, -0.0014851470477879047, -0.005711035137512255, -0.0018613974200647476, 0.0024763031397014856]","[0.0, -1.5707963267948966, 0.0, 0.0, 0.0, 0.0]",0.002,7,1
0,20,"[0.0011807807022705674, -1.5742842159666957, -0.0016488864785060287, -0.006904796963073778, -0.0022500197040002945, 0.002936508972197771]","[0.0, -1.5707963267948966, 0.0, 0.0, 0.0, 0.0]",0.002,7,1
0,21,"[0.001308693434111774, -1.5746356449522914, -0.001836725976318121, -0.008196191196777391, -0.0027354399310510757, 0.003504546359181404]","[0.0, -1.5707963267948966, 0.0, 0.0, 0.0, 0.0]",0.002,7,1
0,22,"[0.0014164121821522713, -1.5749556026854457, -0.0019476573215797544, -0.009530858402587938, -0.0033267180072229507, 0.0040579428896307945]","[0.0, -1.5707963267948966, 0.0, 0.0, 0.0, 0.0]",0.002,7,1
0,23,"[0.0014164121821522713, -1.5749556026854457, -0.0019476573215797544, -0.009530858402587938, -0.0033267180072229507, 0.0040579428896307945]","[0.0, -1.5707963267948966, 0.0, 0.0, 0.0, 0.0]",0.002,7,1
0,24,"[0.0014164121821522713, -1.5749556026854457, -0.0019476573215797544, -0.009530858402587938, -0.0033267180072229507, 0.0040579428896307945]","[0.0, -1.5707963267948966, 0.0, 0.0, 0.0, 0.0]",0.002,7,1
0,25,"[0.0014164121821522713, -1.5749556026854457, -0.0019476573215797544, -0.009530858402587938, -0.0033267180072229507, 0.0040579428896307945]","[0.0, -1.5707963267948966, 0.0, 0.0, 0.0, 0.0]",0.002,7,1
0,26,"[0.002106114523485303, -1.5767094097533167, -0.0026714554987847805, -0.015835480099060106, -0.006039444600240529, 0.006803941912949085]","[0.0, -1.5707963267948966, 0.0, 0.0, 0.0, 0.0]",0.002,7,1
0,27,"[0.002249860903248191, -1.5772177181639613, -0.002858111634850502, -0.01772065580401616, -0.006845776234762013, 0.0076119001023471355]","[0.0, -1.5707963267948966, 0.0, 0.0, 0.0, 0.0]",0.002,7,1
0,28,"[0.0024540165904909372, -1.5776435337462367, -0.003074127482250333, -0.01972539842639165, -0.007708374653951466, 0.008489075116813183]","[0.0, -1.5707963267948966, 0.0, 0.0, 0.0, 0.0]",0.002,7,1
0,29,"[0.002678745659068227, -1.578278204003805, -0.003320758929476142, -0.0217704337886353, -0.008549992238179982, 0.009316928684711456]","[0.0, -1.5707963267948966, 0.0, 0.0, 0.0, 0.0]",0.002,7,1
0,30,"[0.0029188767075538635, -1.5787893734373988, -0.0035563467536121607, -0.023877696400024462, -0.009531799946920216, 0.010223868303000927]","[0.0, -1.5707963267948966, 0.0, 0.0, 0.0, 0.0]",0.002,7,1
0,31,"[0.0031216167844831944, -1.5793706379332484, -0.0037678752560168505, -0.026044682865478563, -0.010501686726705373, 0.011138035915791988]","[0.0, -1.5707963267948966, 0.0, 0.0, 0.0, 0.0]",0.002,7,1
0,32,"[0.00343062961474061, -1.5799581013121546, -0.004036668688058853, -0.028391794567443895, -0.011405769978658498, 0.012106819078326225]","[0.0, -1.5707963267948966, 0.0, 0.0, 0.0, 0.0]",0.002,7,1
0,33,"[0.003744642250239849, -1.580461164514059, -0.004276958294212818, -0.03077741086993413, -0.012392822896138966, 0.013017462566494942]","[0.0, -1.5707963267948966, 0.0, 0.0, 0.0, 0.0]",0.002,7,1
0,34,"[0.003950695972889662, -1.5810371838011683, -0.004620971158146858, -0.0332675737193604, -0.013410870228902638, 0.013994559645652771]","[0.0, -1.5707963267948966, 0.0, 0.0, 0.0, 0.0]",0.002,7,1
0,35,"[0.004201772157102823, -1.5816580257811488, -0.0048266202211380005, -0.035798506145813036, -0.014448944722310841, 0.015103341080248356]","[0.0, -1.5707963267948966, 0.0, 0.0, 0.0, 0.0]",0.002,7,1
0,36,"[0.004510424565523863, -1.5822307072081507, -0.0050458116456866264, -0.03835208833728032, -0.015532318745748341, 0.01618032529950142]","[0.0, -1.5707963267948966, 0.0, 0.0, 0.0, 0.0]",0.002,7,1
0,37,"[0.0048433635383844376, -1.5827695331969203, -0.005290757864713669, -0.040925340061523485, -0.016632858906881154, 0.017265843227505684]","[0.0, -1.5707963267948966, 0.0, 0.0, 0.0, 0.0]",0.002,7,1
0,38,"[0.005138876847922802, -1.5832635364928187, -0.005529006477445364, -0.04354782522235112, -0.01785451570619756, 0.018431929871439934]","[0.0, -1.5707963267948966, 0.0, 0.0, 0.0, 0.0]",0.002,7,1
0,39,"[0.005476186517626047, -1.5837718449034632, -0.005780231207609177, -0.0463143152049561, -0.019069496785299123, 0.019607387483119965]","[0.0, -1.5707963267948966, 0.0, 0.0, 0.0, 0.0]",0.002,7,1
0,40,"[0.0057763815857470036, -1.5842606029906214, -0.005954191088676453, -0.04918141782794194, -0.020295445119039357, 0.02078838087618351]","[0.0, -1.5707963267948966, 0.0, 0.0, 0.0, 0.0]",0.002,7,1
0,41,"[0.006079495884478092, -1.5846969089903773, -0.006158124189823866, -0.0521809619716187, -0.021507088338033498, 0.022011617198586464]","[0.0, -1.5707963267948966, 0.0, 0.0, 0.0, 0.0]",0.002,7,1
0,42,"[0.006079495884478092, -1.5846969089903773, -0.006158124189823866, -0.0521809619716187, -0.021507088338033498, 0.022011617198586464]","[0.0, -1.5707963267948966, 0.0, 0.0, 0.0, 0.0]",0.002,7,1
0,43,"[0.006079495884478092, -1.5846969089903773, -0.006158124189823866, -0.0521809619716187, -0.021507088338033498, 0.022011617198586464]","[0.0, -1.5707963267948966, 0.0, 0.0, 0.0, 0.0]",0.002,7,1
0,44,"[0.007121386006474495, -1.585722108880514, -0.006539692170917988, -0.06156404436145024, -0.0254443327533167, 0.025820693001151085]","[0.0, -1.5707963267948966, 0.0, 0.0, 0.0, 0.0]",0.002,7,1
0,45,"[0.0074246106669306755, -1.5860783062376917, -0.006713659968227148, -0.06468756616625981, -0.026943031941549123, 0.02711603231728077]","[0.0, -1.5707963267948966, 0.0, 0.0, 0.0, 0.0]",0.002,7,1
0,46,"[0.00785792339593172, -1.5864302120604457, -0.006805493030697107, -0.0678137105754395, -0.028386894856588185, 0.028403759002685547]","[0.0, -1.5707963267948966, 0.0, 0.0, 0.0, 0.0]",0.002,7,1
0,47,"[0.008152478374540806, -1.5868026218810023, -0.006966531276702881, -0.070980505352356, -0.029894653950826466, 0.02974112331867218]","[0.0, -1.5707963267948966, 0.0, 0.0, 0.0, 0.0]",0.002,7,1
0,48,"[0.00851245503872633, -1.587078710595602, -0.007053215987980366, -0.07427199304614263, -0.03142387071718389, 0.031153852120041847]","[0.0, -1.5707963267948966, 0.0, 0.0, 0.0, 0.0]",0.002,7,1
0,49,"[0.009325088001787663, -1.587717195550436, -0.007277051918208599, -0.0809447330287476, -0.03459817567934209, 0.03404354304075241]","[0.0, -1.5707963267948966, 0.0, 0.0, 0.0, 0.0]",0.002,7,1
0,50,"[0.009325088001787663, -1.587717195550436, -0.007277051918208599, -0.0809447330287476, -0.03459817567934209, 0.03404354304075241]","[0.0, -1.5707963267948966, 0.0, 0.0, 0.0, 0.0]",0.002,7,1
0,51,"[0.009721298702061176, -1.5879932842650355, -0.007340020965784788, -0.08445222795520024, -0.03626901308168584, 0.03536504507064819]","[0.0004639905930817221, -1.5710233599742578, -0.0006551613322082325, -0.0008892154289512293, -0.000236237485997946, -0.0005330140864493588]",0.002,7,1
0,52,"[0.01016643550246954, -1.5882326565184535, -0.0074045839719474316, -0.08803196371112065, -0.03784162202943975, 0.03686988353729248]","[0.0009279811861634483, -1.571250393153619, -0.001310322664416471, -0.0017784308579024666, -0.00047247497199589405, -0.0010660281728987224]",0.002,7,1
0,53,"[0.010565664619207382, -1.588452001611227, -0.007472104858607054, -0.09160025537524419, -0.03949100175966436, 0.03829587996006012]","[0.0013919717792451704, -1.5714774263329803, -0.0019654839966247034, -0.002667646286853696, -0.00070871245799384, -0.001599042259348081]",0.002,7,1
0,54,"[0.010993244126439095, -1.5886599026122035, -0.007511138916015625, -0.09518654764208989, -0.04114371934999639, 0.03979366272687912]","[0.0018559623723268966, -1.5717044595123415, -0.002620645328832942, -0.0035568617158049333, -0.0009449499439917881, -0.0021320563457974447]",0.002,7,1
0,55,"[0.01151169091463089, -1.588778635064596, -0.007568326313048601, -0.09876687944445806, -0.042777363454000294, 0.04127662628889084]","[0.0023199529654086186, -1.5719314926917027, -0.003275806661041174, -0.0044460771447561625, -0.0011811874299897341, -0.0026650704322468033]",0.002,7,1
0,56,"[0.011898844502866268, -1.5889259777464808, -0.007595053408294916, -0.10233874738726811, -0.04442292848695928, 0.0427432619035244]","[0.002783943558490341, -1.572158525871064, -0.003930967993249407, -0.005335292573707392, -0.00141742491598768, -0.003198084518696162]",0.002,7,1
0,57,"[0.01231771893799305, -1.5889889202513636, -0.007599613629281521, -0.10590608537707524, -0.04613095918764287, 0.0442829355597496]","[0.003247934151572067, -1.5723855590504252, -0.004586129325457645, -0.006224508002658629, -0.0016536624019856281, -0.0037310986051455257]",0.002,7,1
0,58,"[0.01279504131525755, -1.5890566311278285, -0.0075258961878716946, -0.1093852084926148, -0.04786569276918584, 0.0458526611328125]","[0.003711924744653789, -1.5726125922297864, -0.0052412906576658775, -0.007113723431609859, -0.0018898998879835743, -0.004264112691594884]",0.002,7,1
0,59,"[0.013328072614967823, -1.589104791680807, -0.007417657412588596, -0.11309678972277837, -0.04957610765566045, 0.047486986964941025]","[0.004175915337735515, -1.5728396254091477, -0.0058964519898741154, -0.008002938860561096, -0.002126137373981522, -0.004797126778044248]",0.002,7,1
0,60,"[0.013778368942439556, -1.5890842876830042, -0.007317223120480776, -0.11688871801409917, -0.05134946504701787, 0.04909384623169899]","[0.004639905930817237, -1.573066658588509, -0.006551613322082348, -0.008892154289512325, -0.0023623748599794683, -0.005330140864493607]",0.002,7,1
0,61,"[0.014249598607420921, -1.589104791680807, -0.007210731506347656, -0.12080474317584233, -0.053171936665670216, 0.0507458858191967]","[0.005103896523898959, -1.5732936917678702, -0.007206774654290579, -0.009781369718463554, -0.002598612345977414, -0.005863154950942965]",0.002,7,1
0,62,"[0.014741772785782814, -1.5890122852721156, -0.007076941896229982, -0.12463899076495366, -0.0548175016986292, 0.052462588995695114]","[0.005567887116980684, -1.5735207249472314, -0.007861935986498817, -0.01067058514741479, -0.002834849831975362, -0.006396169037392327]",0.002,7,1
0,63,"[0.015242326073348522, -1.588919302026266, -0.006964052561670542, -0.12849564970050054, -0.05668479601015264, 0.05417070537805557]","[0.006031877710062406, -1.5737477581265926, -0.008517097318707048, -0.01155980057636602, -0.0030710873179733075, -0.006929183123841685]",0.002,7,1
0,64,"[0.015758391469717026, -1.5887500248351039, -0.006811005063354969, -0.13220961511645513, -0.05847770372499639, 0.05585101246833801]","[0.0064958683031441315, -1.5739747913059539, -0.009172258650915286, -0.012449016005317254, -0.0033073248039712554, -0.007462197210291048]",0.002,7,1
0,65,"[0.016291934996843338, -1.5886270008482875, -0.0066625881008803844, -0.13594801843676763, -0.060331169758931935, 0.05765492841601372]","[0.006959858896225853, -1.574201824485315, -0.009827419983123517, -0.013338231434268485, -0.003543562289969201, -0.007995211296740407]",0.002,7,1
0,66,"[0.01683076098561287, -1.5883761845030726, -0.0064789182506501675, -0.1396363538554688, -0.06225139299501592, 0.059431787580251694]","[0.007423849489307575, -1.5744288576646763, -0.01048258131533175, -0.014227446863219712, -0.003779799775967147, -0.008528225383189765]",0.002,7,1
0,67,"[0.01733211614191532, -1.5882746181883753, -0.006237478461116552, -0.1434493821910401, -0.06419307390321904, 0.06122232601046562]","[0.0078878400823893, -1.5746558908440376, -0.011137742647539988, -0.01511666229217095, -0.004016037261965095, -0.009061239469639127]",0.002,7,1
0,68,"[0.017937801778316498, -1.588020463983053, -0.006049960386008024, -0.14729030550036626, -0.06622344652284795, 0.06304257363080978]","[0.008351830675471022, -1.5748829240233988, -0.011792903979748219, -0.016005877721122178, -0.004252274747963041, -0.009594253556088485]",0.002,7,1
0,69,"[0.018407585099339485, -1.5878330669798792, -0.005866783205419779, -0.15132327497515874, -0.06814748445619756, 0.0648283064365387]","[0.008815821268552747, -1.57510995720276, -0.012448065311956457, -0.016895093150073415, -0.004488512233960989, -0.010127267642537848]",0.002,7,1
0,70,"[0.019016049802303314, -1.5876943073668421, -0.005698408465832472, -0.15527446687731938, -0.07007819810976201, 0.06661620736122131]","[0.00927981186163447, -1.5753369903821213, -0.013103226644164688, -0.017784308579024643, -0.004724749719958934, -0.010660281728987206]",0.002,7,1
0,71,"[0.019595365971326828, -1.5874458752074183, -0.005547052249312401, -0.15928740919146733, -0.07186824480165654, 0.06843005120754242]","[0.009743802454716191, -1.5755640235614825, -0.01375838797637292, -0.01867352400797587, -0.00496098720595688, -0.011193295815436564]",0.002,7,1
0,72,"[0.02020222879946232, -1.5872656307616175, -0.005376941524446011, -0.16315420091662602, -0.07378942171205694, 0.07028304040431976]","[0.010207793047797916, -1.5757910567408437, -0.014413549308581157, -0.019562739436927108, -0.005197224691954827, -0.011726309901885928]",0.002,7,1
0,73,"[0.020780326798558235, -1.5870496235289515, -0.00519848708063364, -0.1669423145106812, -0.07571536699403936, 0.07208245247602463]","[0.010671783640879638, -1.576018089920205, -0.01506871064078939, -0.020451954865878336, -0.005433462177952773, -0.012259323988335284]",0.002,7,1
0,74,"[0.02135542780160904, -1.586766859094137, -0.005025624297559261, -0.1708633464625855, -0.07768899599184209, 0.07395491003990173]","[0.011135774233961365, -1.5762451230995662, -0.015723871972997627, -0.02134117029482957, -0.005669699663950721, -0.012792338074784648]",0.002,7,1
0,75,"[0.021995259448885918, -1.5866300068297328, -0.004746214486658573, -0.17472036302600102, -0.07961780229677373, 0.0758277177810669]","[0.011599764827043085, -1.5764721562789275, -0.01637903330520586, -0.022230385723780798, -0.005905937149948666, -0.013325352161234007]",0.002,7,1
0,76,"[0.022592730820178986, -1.586510797540182, -0.004658152349293232, -0.17868061483416753, -0.08152801195253545, 0.07774417847394943]","[0.012063755420124809, -1.5766991894582887, -0.01703419463741409, -0.023119601152732025, -0.0061421746359466125, -0.013858366247683364]",0.002,7,1
0,77,"[0.023289036005735397, -1.5862728557982386, -0.004414427559822798, -0.18283911169085698, -0.0834124724017542, 0.0797329917550087]","[0.012527746013206534, -1.57692622263765, -0.017689355969622327, -0.024008816581683263, -0.00637841212194456, -0.014391380334132727]",0.002,7,1
0,78,"[0.023871254175901413, -1.5861226520934046, -0.00425226055085659, -0.18689413488421636, -0.08530980745424444, 0.08173259347677231]","[0.012991736606288256, -1.5771532558170112, -0.018344517301830558, -0.02489803201063449, -0.0066146496079425065, -0.014924394420582085]",0.002,7,1
0,79,"[0.02443609945476055, -1.585987230340475, -0.004198508802801371, -0.19093318403277593, -0.08723575273622686, 0.08381599187850952]","[0.013455727199369981, -1.5773802889963724, -0.018999678634038796, -0.025787247439585728, -0.0068508870939404535, -0.015457408507031449]",0.002,7,1
0,80,"[0.025105135515332222, -1.5858141384520472, -0.003979249857366085, -0.19477279603991704, -0.08918410936464483, 0.08588360995054245]","[0.013919717792451703, -1.5776073221757336, -0.019654839966247027, -0.026676462868536956, -0.0070871245799384, -0.015990422593480807]",0.002,7,1
0,81,"[0.025724271312355995, -1.5857111416258753, -0.0038890440482646227, -0.19862718999896245, -0.09110004106630498, 0.08796855062246323]","[0.014383708385533425, -1.5778343553550949, -0.020310001298455258, -0.027565678297488183, -0.007323362065936345, -0.016523436679930167]",0.002,7,1
0,82,"[0.026367666199803352, -1.5855170689024867, -0.0037240427918732166, -0.20250173032794194, -0.09321195283998662, 0.09008421003818512]","[0.014847698978615147, -1.578061388534456, -0.02096516263066349, -0.028454893726439414, -0.007559599551934291, -0.017056450766379523]",0.002,7,1
0,83,"[0.02699805609881878, -1.585374494592184, -0.0035631072241812944, -0.2064020198634644, -0.09517985979189092, 0.09223925322294235]","[0.015311689571696877, -1.5782884217138173, -0.021620323962871734, -0.02934410915539066, -0.0077958370379322415, -0.01758946485282889]",0.002,7,1
0,84,"[0.02759169042110443, -1.5853077373900355, -0.0035421904176473618, -0.210451678638794, -0.09718972841371709, 0.09435157477855682]","[0.015775680164778597, -1.5785154548931786, -0.022275485295079965, -0.030233324584341886, -0.008032074523930188, -0.01812247893927825]",0.002,7,1
0,85,"[0.02827911265194416, -1.5851627788939417, -0.0034628096036612988, -0.21459348619494634, -0.09921342531313115, 0.09648916870355606]","[0.01623967075786032, -1.5787424880725398, -0.0229306466272882, -0.031122540013293114, -0.008268312009928133, -0.01865549302572761]",0.002,7,1
0,86,"[0.02896023541688919, -1.5850869617857875, -0.0034476083237677813, -0.21856315553698735, -0.10107213655580694, 0.09859029203653336]","[0.01670366135094204, -1.578969521251901, -0.02358580795949643, -0.03201175544224434, -0.008504549495926078, -0.019188507112176966]",0.002,7,1
0,87,"[0.029545284807682037, -1.5850511989989222, -0.003357419278472662, -0.22257323682818608, -0.10313922563661748, 0.10072164982557297]","[0.01716765194402376, -1.5791965544312623, -0.02424096929170466, -0.032900970871195576, -0.008740786981924025, -0.019721521198626326]",0.002,7,1
0,88,"[0.03020521253347397, -1.585036417047018, -0.003432742552831769, -0.22648508966479497, -0.10491687456239873, 0.10282512754201889]","[0.01763164253710549, -1.5794235876106235, -0.024896130623912903, -0.03379018630014682, -0.008977024467921974, -0.020254535285075693]",0.002,7,1
0,89,"[0.03077809512615204, -1.5849749050536097, -0.0034475510474294424, -0.23026390493426518, -0.10695773759950811, 0.10503335297107697]","[0.018095633130187215, -1.5796506207899847, -0.025551291956121137, -0.034679401729098044, -0.00921326195391992, -0.020787549371525053]",0.002,7,1
0,90,"[0.03146590292453766, -1.585036417047018, -0.003390789031982422, -0.23413200796160893, -0.10882026353944951, 0.10718994587659836]","[0.018559623723268935, -1.579877653969346, -0.02620645328832937, -0.03556861715804927, -0.009449499439917866, -0.02132056345797441]",0.002,7,1
0,91,"[0.03215327858924866, -1.5851108036436976, -0.003431124147027731, -0.237986759548523, -0.11080819765199834, 0.10941997170448303]","[0.019023614316350655, -1.5801046871487072, -0.0268616146205376, -0.0364578325870005, -0.009685736925915813, -0.02185357754442377]",0.002,7,1
0,92,"[0.032840337604284286, -1.585076471368307, -0.003455433761700988, -0.24199409902606206, -0.11264259019960576, 0.1117815151810646]","[0.01948760490943238, -1.5803317203280685, -0.027516775952745834, -0.03734704801595173, -0.009921974411913757, -0.022386591630873125]",0.002,7,1
0,93,"[0.03345104679465294, -1.585165639916891, -0.003608565079048276, -0.24600072324786382, -0.11449796358217412, 0.11415884643793106]","[0.01995159550251411, -1.5805587535074297, -0.028171937284954075, -0.038236263444902975, -0.010158211897911707, -0.022919605717322492]",0.002,7,1
0,94,"[0.0340607613325119, -1.5852052174010218, -0.0037002747412770987, -0.25002654016528325, -0.11635286012758428, 0.11660515516996384]","[0.02041558609559583, -1.580785786686791, -0.02882709861716231, -0.0391254788738542, -0.010394449383909654, -0.02345261980377185]",0.002,7,1
0,95,"[0.034695398062467575, -1.5853907070555628, -0.003940843045711517, -0.25396819532427983, -0.11807519594301397, 0.11892608553171158]","[0.02087957668867755, -1.5810128198661522, -0.029482259949370537, -0.04001469430280543, -0.010630686869907598, -0.02398563389022121]",0.002,7,1
0,96,"[0.035322561860084534, -1.5855032406248988, -0.00408584950491786, -0.25772257268939214, -0.1198957602130335, 0.12138747423887253]","[0.021343567281759273, -1.5812398530455134, -0.030137421281578772, -0.04090390973175666, -0.010866924355905545, -0.02451864797667057]",0.002,7,1
0,97,"[0.03592046722769737, -1.5856872997679652, -0.004284190014004707, -0.26142437875781255, -0.12180740038026983, 0.12387367337942123]","[0.021807557874840993, -1.5814668862248746, -0.030792582613787, -0.041793125160707885, -0.011103161841903488, -0.02505166206311992]",0.002,7,1
0,98,"[0.03657131269574165, -1.585846563378805, -0.00453537842258811, -0.2651319068721314, -0.12365752855409795, 0.12634660303592682]","[0.022271548467922724, -1.5816939194042359, -0.03144774394599525, -0.042682340589659126, -0.011339399327901439, -0.025584676149569295]",0.002,7,1
0,99,"[0.03657131269574165, -1.585846563378805, -0.00453537842258811, -0.2651319068721314, -0.12365752855409795, 0.12634660303592682]","[0.022735539061004447, -1.581920952583597, -0.032102905278203475, -0.04357155601861036, -0.011575636813899386, -0.026117690236018648]",0.002,7,1
0,100,"[0.03657131269574165, -1.585846563378805, -0.00453537842258811, -0.2651319068721314, -0.12365752855409795, 0.12634660303592682]","[0.023199529654086167, -1.5821479857629583, -0.03275806661041171, -0.04446077144756159, -0.011811874299897331, -0.026650704322468008]",0.002,7,1
0,101,"[0.03657131269574165, -1.585846563378805, -0.00453537842258811, -0.2651319068721314, -0.12365752855409795, 0.12634660303592682]","[0.02366352024716789, -1.5823750189423196, -0.033413227942619944, -0.045349986876512816, -0.012048111785895278, -0.027183718408917364]",0.002,7,1
0,102,"[0.03657131269574165, -1.585846563378805, -0.00453537842258811, -0.2651319068721314, -0.12365752855409795, 0.12634660303592682]","[0.02412751084024961, -1.5826020521216808, -0.03406838927482818, -0.04623920230546404, -0.012284349271893223, -0.027716732495366728]",0.002,7,1
0,103,"[0.03948355093598366, -1.5867821178831996, -0.005805651657283306, -0.28400035322222905, -0.13251096407045537, 0.13869206607341766]","[0.02459150143333134, -1.582829085301042, -0.03472355060703641, -0.04712841773441529, -0.012520586757891172, -0.028249746581816094]",0.002,7,1
0,104,"[0.03948355093598366, -1.5867821178831996, -0.005805651657283306, -0.28400035322222905, -0.13251096407045537, 0.13869206607341766]","[0.025055492026413065, -1.5830561184804033, -0.03537871193924465, -0.04801763316336652, -0.012756824243889119, -0.028782760668265454]",0.002,7,1
0,105,"[0.04056120291352272, -1.5871759853758753, -0.006483020260930061, -0.29114122808489995, -0.13596898714174444, 0.143789142370224]","[0.025519482619494785, -1.5832831516597645, -0.03603387327145288, -0.04890684859231775, -0.012993061729887064, -0.02931577475471481]",0.002,7,1
0,106,"[0.04056120291352272, -1.5871759853758753, -0.006483020260930061, -0.29114122808489995, -0.13596898714174444, 0.143789142370224]","[0.02598347321257651, -1.5835101848391258, -0.036689034603661116, -0.049796064021268974, -0.013229299215885011, -0.029848788841164167]",0.002,7,1
0,107,"[0.04167645424604416, -1.5876804790892542, -0.007224702276289463, -0.29815741003070073, -0.13923532167543584, 0.14920148253440857]","[0.026447463805658232, -1.583737218018487, -0.037344195935869344, -0.05068527945022021, -0.013465536701882958, -0.030381802927613527]",0.002,7,1
0,108,"[0.0426153801381588, -1.5880753002562464, -0.007986276410520077, -0.3052366536906739, -0.1424949804889124, 0.1546018421649933]","[0.026911454398739963, -1.5839642511978482, -0.037999357268077585, -0.051574494879171456, -0.013701774187880907, -0.030914817014062894]",0.002,7,1
0,109,"[0.0426153801381588, -1.5880753002562464, -0.007986276410520077, -0.3052366536906739, -0.1424949804889124, 0.1546018421649933]","[0.027375444991821683, -1.5841912843772095, -0.03865451860028582, -0.052463710308122684, -0.013938011673878852, -0.031447831100512254]",0.002,7,1
0,110,"[0.043175987899303436, -1.5883475742735804, -0.00836401991546154, -0.308848575954773, -0.14398175874818975, 0.15735146403312683]","[0.027839435584903406, -1.5844183175565707, -0.039309679932494054, -0.05335292573707391, -0.0141742491598768, -0.031980845186961614]",0.002,7,1
0,111,"[0.04411331191658974, -1.5887710056700648, -0.009304728358983994, -0.31581468999896245, -0.14700109163393194, 0.1627647578716278]","[0.028303426177985126, -1.584645350735932, -0.03996484126470229, -0.05424214116602514, -0.014410486645874744, -0.032513859273410974]",0.002,7,1
0,112,"[0.04411331191658974, -1.5887710056700648, -0.009304728358983994, -0.31581468999896245, -0.14700109163393194, 0.1627647578716278]","[0.02876741677106685, -1.5848723839152932, -0.040620002596910516, -0.05513135659497637, -0.014646724131872691, -0.033046873359860326]",0.002,7,1
0,113,"[0.04451914504170418, -1.589027544061178, -0.009735935367643833, -0.31909389913592534, -0.14850980440248662, 0.16549518704414368]","[0.02923140736414858, -1.5850994170946544, -0.041275163929118765, -0.056020572023927614, -0.014882961617870642, -0.0335798874463097]",0.002,7,1
0,114,"[0.045067813247442245, -1.5892311535277308, -0.01024931762367487, -0.32230694711718755, -0.15001327196230108, 0.1681331843137741]","[0.0296953979572303, -1.5853264502740156, -0.041930325261327, -0.05690978745287885, -0.015119199103868587, -0.03411290153275906]",0.002,7,1
0,115,"[0.045888785272836685, -1.589630743066305, -0.011210423894226551, -0.3286493581584473, -0.15303069749941045, 0.1736346185207367]","[0.030159388550312024, -1.5855534834533769, -0.04258548659353523, -0.057799002881830076, -0.015355436589866534, -0.03464591561920842]",0.002,7,1
0,116,"[0.04623048007488251, -1.589883943597311, -0.011748382821679115, -0.33176179349932866, -0.15451461473573858, 0.17649954557418823]","[0.030623379143393744, -1.5857805166327381, -0.04324064792574346, -0.058688218310781304, -0.01559167407586448, -0.03517892970565777]",0.002,7,1
0,117,"[0.04666243493556976, -1.5900751552977503, -0.012288594618439674, -0.3350972694209595, -0.15593082109560186, 0.17939823865890503]","[0.031087369736475468, -1.5860075498120993, -0.043895809257951696, -0.05957743373973254, -0.015827911561862425, -0.03571194379210713]",0.002,7,1
0,118,"[0.04666243493556976, -1.5900751552977503, -0.012288594618439674, -0.3350972694209595, -0.15593082109560186, 0.17939823865890503]","[0.0315513603295572, -1.5862345829914606, -0.044550970590159944, -0.06046664916868378, -0.016064149047860375, -0.0362449578785565]",0.002,7,1
0,119,"[0.04702412337064743, -1.5902110538878382, -0.012783986516296864, -0.33834000051531987, -0.15731841722597295, 0.1822870671749115]","[0.03201535092263892, -1.5864616161708218, -0.04520613192236817, -0.061355864597635014, -0.016300386533858322, -0.036777971965005866]",0.002,7,1
0,120,"[0.04742475971579552, -1.5903822384276332, -0.013392250053584576, -0.3414665025523682, -0.15871125856508428, 0.18523037433624268]","[0.03247934151572064, -1.586688649350183, -0.045861293254576406, -0.06224508002658624, -0.01653662401985627, -0.03731098605145522]",0.002,7,1
0,121,"[0.04817588999867439, -1.5906907520689906, -0.014474875293672085, -0.3475138706019898, -0.16137773195375615, 0.19122397899627686]","[0.03294333210880236, -1.5869156825295443, -0.046516454586784634, -0.06313429545553748, -0.016772861505854216, -0.03784400013790458]",0.002,7,1
0,122,"[0.04817588999867439, -1.5906907520689906, -0.014474875293672085, -0.3475138706019898, -0.16137773195375615, 0.19122397899627686]","[0.03340732270188408, -1.5871427157089055, -0.04717161591899287, -0.0640235108844887, -0.01700909899185216, -0.03837701422435394]",0.002,7,1
0,123,"[0.04847339913249016, -1.5907823048033656, -0.015071083791553974, -0.3503706020167847, -0.16282159486879522, 0.1940709501504898]","[0.033871313294965816, -1.5873697488882668, -0.047826777251201116, -0.06491272631343994, -0.01724533647785011, -0.0389100283108033]",0.002,7,1
0,124,"[0.0488293394446373, -1.590893884698385, -0.015681028366088867, -0.35313435018573003, -0.1641147772418421, 0.19707386195659637]","[0.034335303888047536, -1.587596782067628, -0.04848193858340934, -0.06580194174239117, -0.017481573963848054, -0.03944304239725266]",0.002,7,1
0,125,"[0.049556560814380646, -1.5910645924010218, -0.016813088208436966, -0.35858698308978276, -0.16659337679018194, 0.20300626754760742]","[0.034799294481129256, -1.5878238152469892, -0.04913709991561757, -0.06669115717134239, -0.017717811449846, -0.03997605648370202]",0.002,7,1
0,126,"[0.04982646554708481, -1.5911804638304652, -0.017430605366826057, -0.36131008089099126, -0.16780025163759404, 0.206074059009552]","[0.035263285074210976, -1.5880508484263505, -0.049792261247825806, -0.06758037260029362, -0.017954048935843948, -0.04050907057015138]",0.002,7,1
0,127,"[0.05014995485544205, -1.5912448368468226, -0.018056197091937065, -0.364024357204773, -0.16894609132875615, 0.20923134684562683]","[0.035727275667292696, -1.5882778816057115, -0.05044742258003404, -0.06846958802924485, -0.01819028642184189, -0.04104208465660074]",0.002,7,1
0,128,"[0.050379276275634766, -1.5913988552489222, -0.018689000979065895, -0.36667879045520024, -0.17008573213686162, 0.2124064415693283]","[0.03619126626037443, -1.5885049147850727, -0.051102583912242275, -0.06935880345819609, -0.01842652390783984, -0.041575098743050105]",0.002,7,1
0,129,"[0.05077692121267319, -1.5913835964598597, -0.019321974366903305, -0.36924953878436284, -0.17118674913515264, 0.2155897468328476]","[0.03665525685345615, -1.5887319479644342, -0.05175774524445051, -0.07024801888714731, -0.01866276139383779, -0.04210811282949946]",0.002,7,1
0,130,"[0.05077692121267319, -1.5913835964598597, -0.019321974366903305, -0.36924953878436284, -0.17118674913515264, 0.2155897468328476]","[0.03711924744653787, -1.5889589811437952, -0.05241290657665874, -0.07113723431609854, -0.018898998879835732, -0.04264112691594882]",0.002,7,1
0,131,"[0.05132327228784561, -1.5915729008116664, -0.020722294226288795, -0.3743378680995484, -0.17327529588808233, 0.2220465987920761]","[0.03758323803961959, -1.5891860143231564, -0.05306806790886697, -0.07202644974504976, -0.01913523636583368, -0.04317414100239818]",0.002,7,1
0,132,"[0.05161406099796295, -1.5916406116881312, -0.021393820643424988, -0.37681622922930913, -0.1743720213519495, 0.2251729965209961]","[0.03804722863270131, -1.5894130475025177, -0.0537232292410752, -0.072915665174001, -0.019371473851831623, -0.04370715508884754]",0.002,7,1
0,133,"[0.051914408802986145, -1.5917054615416468, -0.02211548015475273, -0.3790911001018067, -0.17530519167055303, 0.22838516533374786]","[0.038511219225783044, -1.589640080681879, -0.05437839057328345, -0.07380488060295225, -0.019607711337829573, -0.0442401691752969]",0.002,7,1
0,134,"[0.05214532092213631, -1.591731687585348, -0.022787658497691154, -0.38138969362292485, -0.17623740831484014, 0.23152902722358704]","[0.038975209818864764, -1.5898671138612401, -0.05503355190549168, -0.07469409603190347, -0.01984394882382752, -0.04477318326174626]",0.002,7,1
0,135,"[0.05244462937116623, -1.5917359791197718, -0.023465830832719803, -0.38355811059985356, -0.17729360262026006, 0.2348223328590393]","[0.039439200411946485, -1.5900941470406014, -0.055688713237699916, -0.0755833114608547, -0.020080186309825464, -0.04530619734819562]",0.002,7,1
0,136,"[0.05263499915599823, -1.5917836628355921, -0.024175802245736122, -0.38568182409320073, -0.1781380812274378, 0.23809349536895752]","[0.039903191005028205, -1.5903211802199626, -0.05634387456990815, -0.07647252688980594, -0.02031642379582341, -0.04583921143464498]",0.002,7,1
0,137,"[0.05263499915599823, -1.5917836628355921, -0.024175802245736122, -0.38568182409320073, -0.1781380812274378, 0.23809349536895752]","[0.04036718159810993, -1.5905482133993238, -0.056999035902116385, -0.07736174231875717, -0.020552661281821358, -0.04637222552109434]",0.002,7,1
0,138,"[0.053178347647190094, -1.5918523273863734, -0.025624850764870644, -0.38983996332202153, -0.18006688753236944, 0.24492314457893372]","[0.040831172191191666, -1.590775246578685, -0.05765419723432462, -0.0782509577477084, -0.020788898767819308, -0.0469052396075437]",0.002,7,1
0,139,"[0.05345378816127777, -1.5918318233885707, -0.02632155455648899, -0.3917876046947022, -0.180885140095846, 0.24834135174751282]","[0.041295162784273386, -1.5910022797580463, -0.058309358566532854, -0.07914017317665965, -0.021025136253817252, -0.04743825369399306]",0.002,7,1
0,140,"[0.05368119478225708, -1.591839452783102, -0.027154190465807915, -0.3938172620585938, -0.1817382017718714, 0.25179681181907654]","[0.041759153377355106, -1.5912293129374075, -0.05896451989874109, -0.08002938860561087, -0.0212613737398152, -0.04797126778044242]",0.002,7,1
0,141,"[0.05396970361471176, -1.5918227634825648, -0.02788943238556385, -0.39570458353076177, -0.18251401582826787, 0.25514838099479675]","[0.042223143970436826, -1.5914563461167688, -0.059619681230949316, -0.08091860403456211, -0.021497611225813146, -0.04850428186689178]",0.002,7,1
0,142,"[0.05423756688833237, -1.5919019184508265, -0.028687497600913048, -0.397643045788147, -0.18333465257753545, 0.25856098532676697]","[0.04268713456351855, -1.59168337929613, -0.060274842563157544, -0.08180781946351333, -0.02173384871181109, -0.04903729595334113]",0.002,7,1
0,143,"[0.05446060746908188, -1.5919047794737757, -0.029446765780448914, -0.3994216483882447, -0.1841214338885706, 0.26195016503334045]","[0.04315112515660028, -1.5919104124754913, -0.06093000389536579, -0.08269703489246456, -0.02197008619780904, -0.0495703100397905]",0.002,7,1
0,144,"[0.054663095623254776, -1.591830392877096, -0.030225707218050957, -0.4011764091304322, -0.18492395082582647, 0.2653093934059143]","[0.04361511574968199, -1.5921374456548525, -0.061585165227574026, -0.0835862503214158, -0.022206323683806983, -0.05010332412623986]",0.002,7,1
0,145,"[0.054893895983695984, -1.5918714008727015, -0.031037990003824234, -0.40284843862567143, -0.18559056917299444, 0.2688046097755432]","[0.04407910634276372, -1.5923644788342137, -0.062240326559782254, -0.08447546575036702, -0.02244256116980493, -0.050636338212689216]",0.002,7,1
0,146,"[0.055152859538793564, -1.5918299160399378, -0.03183514624834061, -0.4045916360667725, -0.18642026582826787, 0.27243772149086]","[0.04454309693584545, -1.592591512013575, -0.06289548789199048, -0.08536468117931825, -0.022678798655802877, -0.051169352299138576]",0.002,7,1
0,147,"[0.05538482591509819, -1.5918637714781703, -0.032655928283929825, -0.4060968917659302, -0.18702537218202764, 0.27608951926231384]","[0.04500708752892716, -1.5928185451929362, -0.06355064922419872, -0.08625389660826947, -0.02291503614180082, -0.05170236638558793]",0.002,7,1
0,148,"[0.0556417740881443, -1.5919138393797816, -0.03343178331851959, -0.40768952787432866, -0.18773109117616826, 0.27969878911972046]","[0.04547107812200889, -1.5930455783722974, -0.06420581055640696, -0.08714311203722072, -0.02315127362779877, -0.0522353804720373]",0.002,7,1
0,149,"[0.05593796819448471, -1.5919329128661097, -0.03427901491522789, -0.40910180032763677, -0.18835765520204717, 0.2833758294582367]","[0.045935068715090614, -1.5932726115516587, -0.06486097188861518, -0.08803232746617194, -0.02338751111379672, -0.052768394558486656]",0.002,7,1
0,150,"[0.056173063814640045, -1.5918432674803675, -0.03514811396598816, -0.4104587596705933, -0.18899518648256475, 0.2869865894317627]","[0.046399059308172334, -1.59349964473102, -0.06551613322082342, -0.08892154289512318, -0.023623748599794662, -0.053301408644936016]",0.002,7,1
0,151,"[0.056397322565317154, -1.591933389703268, -0.03595579043030739, -0.41181011617694097, -0.18969518343080694, 0.29055455327033997]","[0.04686304990125406, -1.5937266779103811, -0.06617129455303165, -0.0898107583240744, -0.02385998608579261, -0.053834422731385376]",0.002,7,1
0,152,"[0.05658228322863579, -1.5918790302672328, -0.03681756556034088, -0.4130045932582398, -0.1902850309955042, 0.2941659688949585]","[0.047327040494335774, -1.5939537110897424, -0.06682645588523989, -0.09069997375302563, -0.024096223571790552, -0.054367436817834736]",0.002,7,1
0,153,"[0.056882794946432114, -1.5919319591917933, -0.03768699988722801, -0.4141497176936646, -0.19082481065859014, 0.2977791726589203]","[0.04779103108741751, -1.5941807442691036, -0.06748161721744812, -0.09158918918197688, -0.024332461057788503, -0.054900450904284095]",0.002,7,1
0,154,"[0.057159386575222015, -1.5918952427306117, -0.03853965923190117, -0.41529424608264165, -0.19130355516542608, 0.30145105719566345]","[0.048255021680499235, -1.5944077774484648, -0.06813677854965636, -0.09247840461092811, -0.024568698543786453, -0.05543346499073346]",0.002,7,1
0,155,"[0.057398904114961624, -1.5919319591917933, -0.03943822905421257, -0.41642315805468755, -0.1918709913836878, 0.3052390515804291]","[0.048719012273580956, -1.594634810627826, -0.06879193988186459, -0.09336762003987933, -0.024804936029784397, -0.055966479077182815]",0.002,7,1
0,156,"[0.057552024722099304, -1.5919276676573695, -0.04025210440158844, -0.4174024623683472, -0.1924198309527796, 0.3090808689594269]","[0.049183002866662676, -1.5948618438071873, -0.06944710121407283, -0.09425683546883057, -0.02504117351578234, -0.056499493163632175]",0.002,7,1
0,157,"[0.057775553315877914, -1.5919529400267542, -0.04119464382529259, -0.4183710378459473, -0.19295102754701787, 0.3128616213798523]","[0.0496469934597444, -1.5950888769865486, -0.07010226254628106, -0.0951460508977818, -0.02527741100178029, -0.057032507250081535]",0.002,7,1
0,158,"[0.058068495243787766, -1.5919691524901332, -0.04207110404968262, -0.419302300815918, -0.19339210191835576, 0.31668296456336975]","[0.05011098405282614, -1.5953159101659098, -0.0707574238784893, -0.09603526632673305, -0.02551364848777824, -0.0575655213365309]",0.002,7,1
0,159,"[0.05828390270471573, -1.5918995342650355, -0.04300442337989807, -0.42021317899737554, -0.19385320345033819, 0.3204279839992523]","[0.05057497464590785, -1.595542943345271, -0.07141258521069753, -0.09692448175568429, -0.025749885973776185, -0.05809853542298027]",0.002,7,1
0,160,"[0.05851911008358002, -1.5919190845885218, -0.043851062655448914, -0.4210520547679444, -0.19430810609926397, 0.324125200510025]","[0.05103896523898958, -1.5957699765246323, -0.07206774654290576, -0.0978136971846355, -0.025986123459774132, -0.05863154950942962]",0.002,7,1
0,161,"[0.05879884585738182, -1.5919023952879847, -0.04469558596611023, -0.4218307298472901, -0.19474298158754522, 0.32793867588043213]","[0.051502955832071304, -1.5959970097039935, -0.07272290787511401, -0.09870291261358675, -0.02622236094577208, -0.05916456359587899]",0.002,7,1
0,162,"[0.05904727056622505, -1.5919519863524378, -0.0456443727016449, -0.42260320604357915, -0.1951358954059046, 0.3317977488040924]","[0.051966946425153024, -1.5962240428833547, -0.07337806920732223, -0.09959212804253796, -0.026458598431770026, -0.05969757768232834]",0.002,7,1
0,163,"[0.05904727056622505, -1.5919519863524378, -0.0456443727016449, -0.42260320604357915, -0.1951358954059046, 0.3317977488040924]","[0.05243093701823475, -1.596451076062716, -0.07403323053953048, -0.10048134347148921, -0.026694835917767973, -0.06023059176877771]",0.002,7,1
0,164,"[0.05904727056622505, -1.5919519863524378, -0.0456443727016449, -0.42260320604357915, -0.1951358954059046, 0.3317977488040924]","[0.052894927611316464, -1.5966781092420772, -0.07468839187173869, -0.10137055890044042, -0.026931073403765916, -0.060763605855227054]",0.002,7,1
0,165,"[0.059761203825473785, -1.592015882531637, -0.04827513173222542, -0.42438431203875737, -0.19627219835390264, 0.3436231315135956]","[0.0533589182043982, -1.5969051424214384, -0.07534355320394694, -0.10225977432939166, -0.027167310889763867, -0.06129661994167643]",0.002,7,1
0,166,"[0.060008302330970764, -1.5920521221556605, -0.049191392958164215, -0.42483098924670415, -0.1965721289264124, 0.34755751490592957]","[0.05382290879747992, -1.5971321756007997, -0.07599871453615518, -0.10314898975834291, -0.027403548375761814, -0.061829634028125795]",0.002,7,1
0,167,"[0.0602150522172451, -1.5921045742430628, -0.050123561173677444, -0.4253220123103638, -0.19691163698305303, 0.3514266610145569]","[0.05428689939056164, -1.597359208780161, -0.07665387586836339, -0.10403820518729412, -0.027639785861759757, -0.06236264811457515]",0.002,7,1
0,168,"[0.06051991134881973, -1.592140337029928, -0.05104437842965126, -0.4257602256587525, -0.19725543657411748, 0.3552404046058655]","[0.054750889983643365, -1.5975862419595221, -0.07730903720057164, -0.10492742061624537, -0.027876023347757704, -0.06289566220102451]",0.002,7,1
0,169,"[0.060783471912145615, -1.5921927891173304, -0.05200091004371643, -0.4260956805995484, -0.19755441347231084, 0.3591234087944031]","[0.055214880576725085, -1.5978132751388834, -0.07796419853277986, -0.10581663604519657, -0.028112260833755648, -0.06342867628747385]",0.002,7,1
0,170,"[0.061018384993076324, -1.592231889764303, -0.05286784842610359, -0.4263835710338135, -0.19781572023500615, 0.3630364239215851]","[0.05567887116980681, -1.5980403083182446, -0.07861935986498811, -0.10670585147414782, -0.0283484983197536, -0.06396169037392323]",0.002,7,1
0,171,"[0.061018384993076324, -1.592231889764303, -0.05286784842610359, -0.4263835710338135, -0.19781572023500615, 0.3630364239215851]","[0.056142861762888546, -1.5982673414976059, -0.07927452119719634, -0.10759506690309906, -0.02858473580575155, -0.06449470446037259]",0.002,7,1
0,172,"[0.061545226722955704, -1.5924140415587367, -0.05479152500629425, -0.4268489641002198, -0.1983864943133753, 0.3710647523403168]","[0.05660685235597025, -1.5984943746769669, -0.07992968252940456, -0.10848428233205028, -0.02882097329174949, -0.06502771854682193]",0.002,7,1
0,173,"[0.06186241656541824, -1.5924459896483363, -0.05575082078576088, -0.42700882375750737, -0.19854671159853154, 0.37514519691467285]","[0.057070842949051986, -1.598721407856328, -0.08058484386161281, -0.10937349776100153, -0.02905721077774744, -0.06556073263327131]",0.002,7,1
0,174,"[0.06186241656541824, -1.5924459896483363, -0.05575082078576088, -0.42700882375750737, -0.19854671159853154, 0.37514519691467285]","[0.05753483354213369, -1.5989484410356893, -0.08124000519382103, -0.11026271318995273, -0.02929344826374538, -0.06609374671972065]",0.002,7,1
0,175,"[0.062375880777835846, -1.592576643029684, -0.05762165039777756, -0.4272211355021973, -0.1990879217730921, 0.3830561637878418]","[0.05799882413521543, -1.5991754742150506, -0.08189516652602927, -0.11115192861890398, -0.02952968574974333, -0.06662676080617003]",0.002,7,1
0,176,"[0.06267216056585312, -1.5926782093443812, -0.058568473905324936, -0.42721231401477056, -0.19922334352602178, 0.3869859278202057]","[0.05846281472829716, -1.5994025073944118, -0.08255032785823752, -0.11204114404785523, -0.02976592323574128, -0.0671597748926194]",0.002,7,1
0,177,"[0.06294318288564682, -1.5927454433836878, -0.05962735787034035, -0.42723675191912847, -0.1994259993182581, 0.3909050226211548]","[0.05892680532137887, -1.599629540573773, -0.08320548919044574, -0.11293035947680644, -0.03000216072173922, -0.06769278897906875]",0.002,7,1
0,178,"[0.06319349259138107, -1.5928250751891078, -0.06055247783660889, -0.42704935491595464, -0.19964772859682256, 0.39496734738349915]","[0.0593907959144606, -1.5998565737531345, -0.08386065052265398, -0.11381957490575768, -0.03023839820773717, -0.0682258030655181]",0.002,7,1
0,179,"[0.06351471692323685, -1.592905183831686, -0.061585355550050735, -0.4269551795772095, -0.199806038533346, 0.3989655673503876]","[0.05985478650754231, -1.6000836069324955, -0.0845158118548622, -0.1147087903347089, -0.03047463569373511, -0.06875881715196745]",0.002,7,1
0,180,"[0.06351471692323685, -1.592905183831686, -0.061585355550050735, -0.4269551795772095, -0.199806038533346, 0.3989655673503876]","[0.06031877710062404, -1.6003106401118568, -0.08517097318707044, -0.11559800576366014, -0.03071087317973306, -0.06929183123841683]",0.002,7,1
0,181,"[0.06401544064283371, -1.5931340656676234, -0.06352061033248901, -0.4265363973430176, -0.20015269914735967, 0.40717196464538574]","[0.06078276769370577, -1.600537673291218, -0.08582613451927869, -0.11648722119261139, -0.030947110665731012, -0.06982484532486619]",0.002,7,1
0,182,"[0.06437981873750687, -1.593177934686178, -0.06448804587125778, -0.4262616199306031, -0.20033723512758428, 0.4112107455730438]","[0.06124675828678749, -1.6007647064705792, -0.08648129585148691, -0.11737643662156261, -0.031183348151728955, -0.07035785941131555]",0.002,7,1
0,183,"[0.0646553486585617, -1.5933228931822718, -0.06545969843864441, -0.4260174793056031, -0.20047122636903936, 0.4151208996772766]","[0.061710748879869215, -1.6009917396499405, -0.08713645718369514, -0.11826565205051384, -0.031419585637726906, -0.0708908734977649]",0.002,7,1
0,184,"[0.06505604833364487, -1.5933743915953578, -0.06642143428325653, -0.42566199720416265, -0.20054465929140264, 0.4189571738243103]","[0.062174739472950935, -1.6012187728293017, -0.08779161851590336, -0.11915486747946505, -0.03165582312372485, -0.07142388758421425]",0.002,7,1
0,185,"[0.06534998118877411, -1.593534608880514, -0.06742428988218307, -0.4253191512874146, -0.20072681108583623, 0.4229455292224884]","[0.06263873006603266, -1.601445806008663, -0.08844677984811161, -0.1200440829084163, -0.0318920606097228, -0.07195690167066363]",0.002,7,1
0,186,"[0.06566889584064484, -1.593626161614889, -0.06846499443054199, -0.42491717756304936, -0.20080501237978154, 0.42693305015563965]","[0.06310272065911439, -1.6016728391880242, -0.08910194118031986, -0.12093329833736755, -0.03212829809572075, -0.072489915757113]",0.002,7,1
0,187,"[0.06600963324308395, -1.5937086544432582, -0.06934703886508942, -0.4244026702693482, -0.20094043413271123, 0.4309578239917755]","[0.06356671125219611, -1.6018998723673854, -0.08975710251252808, -0.12182251376631875, -0.03236453558171869, -0.07302292984356235]",0.002,7,1
0,188,"[0.06634045392274857, -1.5938617191710414, -0.0703558623790741, -0.4239252370646973, -0.20103007951845342, 0.43505653738975525]","[0.06403070184527784, -1.6021269055467466, -0.09041226384473632, -0.12271172919527, -0.03260077306771664, -0.0735559439300117]",0.002,7,1
0,189,"[0.06670434027910233, -1.5939742527403773, -0.07133897393941879, -0.42348404348406987, -0.20117408434023076, 0.4391253888607025]","[0.06449469243835955, -1.6023539387261079, -0.09106742517694454, -0.1236009446242212, -0.03283701055371458, -0.07408895801646105]",0.002,7,1
0,190,"[0.06701434403657913, -1.5941101513304652, -0.07236873358488083, -0.4228528302958985, -0.2013486067401331, 0.443061888217926]","[0.06495868303144128, -1.602580971905469, -0.09172258650915278, -0.12449016005317246, -0.03307324803971253, -0.07462197210291042]",0.002,7,1
0,191,"[0.06744343042373657, -1.5942183933653773, -0.07332294434309006, -0.4222784799388428, -0.2013781706439417, 0.44705837965011597]","[0.06542267362452302, -1.6028080050848303, -0.09237774784136103, -0.1253793754821237, -0.03330948552571048, -0.07515498618935978]",0.002,7,1
0,192,"[0.06771356612443924, -1.5943371258177699, -0.07431957870721817, -0.42169053972277837, -0.20142823854555303, 0.45093780755996704]","[0.06588666421760472, -1.6030350382641916, -0.09303290917356924, -0.12626859091107492, -0.033545723011708425, -0.07568800027580913]",0.002,7,1
0,193,"[0.06806077808141708, -1.5944606266417445, -0.07532766461372375, -0.42110498369250493, -0.20158464113344365, 0.4548531770706177]","[0.06635065481068646, -1.6032620714435528, -0.09368807050577749, -0.12715780634002616, -0.03378196049770637, -0.0762210143622585]",0.002,7,1
0,194,"[0.0684734508395195, -1.5946456394591273, -0.0762542337179184, -0.4203259509852906, -0.20173436800111944, 0.4588766396045685]","[0.06681464540376816, -1.603489104622914, -0.09434323183798571, -0.12804702176897736, -0.03401819798370431, -0.07675402844870785]",0.002,7,1
0,195,"[0.06875094026327133, -1.594748159448141, -0.07725948840379715, -0.41958971441302495, -0.20177251497377569, 0.4628446400165558]","[0.0672786359968499, -1.6037161378022753, -0.09499839317019396, -0.12893623719792863, -0.03425443546970226, -0.07728704253515722]",0.002,7,1
0,196,"[0.06914734095335007, -1.5948921642699183, -0.07821720093488693, -0.4188736242106934, -0.20190889040102178, 0.46684831380844116]","[0.06774262658993163, -1.6039431709816365, -0.09565355450240219, -0.12982545262687986, -0.03449067295570021, -0.0778200566216066]",0.002,7,1
0,197,"[0.06955980509519577, -1.5950690708556117, -0.07919636368751526, -0.4180525106242676, -0.20195562044252569, 0.47077998518943787]","[0.06820661718301334, -1.6041702041609978, -0.09630871583461041, -0.13071466805583107, -0.03472691044169816, -0.07835307070805594]",0.002,7,1
0,198,"[0.06989730149507523, -1.5952631435790003, -0.08015289902687073, -0.4172673982432862, -0.20208532014955694, 0.4746212363243103]","[0.06867060777609507, -1.604397237340359, -0.09696387716681866, -0.1316038834847823, -0.0349631479276961, -0.0788860847945053]",0.002,7,1
0,199,"[0.07032624632120132, -1.5953942737975062, -0.08110658079385757, -0.4164385360530396, -0.20216018358339483, 0.47857195138931274]","[0.06913459836917678, -1.6046242705197202, -0.09761903849902687, -0.13249309891373354, -0.035199385413694044, -0.07941909888095466]",0.002,7,1
0,200,"[0.07069306820631027, -1.5955544910826625, -0.0820610523223877, -0.41560669363055425, -0.20222551027406865, 0.4822843670845032]","[0.06959858896225851, -1.6048513036990815, -0.09827419983123512, -0.13338231434268477, -0.035435622899691994, -0.07995211296740402]",0.002,7,1
0,201,"[0.0710882917046547, -1.595677991906637, -0.08302053064107895, -0.41465897977862554, -0.2023394743548792, 0.4861166477203369]","[0.07006257955534023, -1.6050783368784427, -0.09892936116344335, -0.134271529771636, -0.035671860385689945, -0.0804851270538534]",0.002,7,1
0,202,"[0.07143867760896683, -1.5957967243590296, -0.08407982438802719, -0.4137800496867676, -0.20250064531435186, 0.4899873733520508]","[0.07052657014842195, -1.605305370057804, -0.09958452249565158, -0.1351607452005872, -0.03590809787168789, -0.08101814114030273]",0.002,7,1
0,203,"[0.07175985723733902, -1.5960422954955042, -0.08509263396263123, -0.4128592771342774, -0.2025545279132288, 0.4939020574092865]","[0.07099056074150369, -1.6055324032371652, -0.10023968382785982, -0.13604996062953847, -0.03614433535768584, -0.0815511552267521]",0.002,7,1
0,204,"[0.07227414846420288, -1.596177717248434, -0.08604039251804352, -0.41190679491076665, -0.20270234743227178, 0.4979110658168793]","[0.07145455133458539, -1.6057594364165264, -0.10089484516006804, -0.13693917605848968, -0.036380572843683776, -0.08208416931320146]",0.002,7,1
0,205,"[0.07260794192552567, -1.5963126621642054, -0.08703668415546417, -0.4109015029719849, -0.20271569887270147, 0.5016939640045166]","[0.07191854192766714, -1.6059864695958876, -0.10155000649227629, -0.13782839148744092, -0.036616810329681726, -0.08261718339965082]",0.002,7,1
0,206,"[0.07304461300373077, -1.5965548954405726, -0.0880390852689743, -0.40993912637744145, -0.20291501680483037, 0.5054589509963989]","[0.07238253252074886, -1.6062135027752489, -0.10220516782448452, -0.13871760691639218, -0.036853047815679676, -0.0831501974861002]",0.002,7,1
0,207,"[0.07344292849302292, -1.5967008076109828, -0.08902107924222946, -0.40886421621356206, -0.2029641310321253, 0.5092192888259888]","[0.07284652311383058, -1.6064405359546101, -0.10286032915669276, -0.13960682234534338, -0.03708928530167762, -0.08368321157254954]",0.002,7,1
0,208,"[0.07388273626565933, -1.5969635448851527, -0.0900002270936966, -0.407831148510315, -0.20309573808778936, 0.5127995610237122]","[0.07331051370691231, -1.6066675691339714, -0.10351549048890099, -0.14049603777429462, -0.03732552278767557, -0.08421622565899892]",0.002,7,1
0,209,"[0.0742485448718071, -1.597118993798727, -0.09102117270231247, -0.40671344221148686, -0.20323640504945928, 0.5165026187896729]","[0.07377450429999402, -1.6068946023133326, -0.10417065182110923, -0.14138525320324583, -0.037561760273673514, -0.08474923974544826]",0.002,7,1
0,210,"[0.0742485448718071, -1.597118993798727, -0.09102117270231247, -0.40671344221148686, -0.20323640504945928, 0.5165026187896729]","[0.07423849489307575, -1.6071216354926938, -0.10482581315331746, -0.1422744686321971, -0.037797997759671464, -0.08528225383189764]",0.002,7,1
0,211,"[0.07512371987104416, -1.597489973107809, -0.09306514263153076, -0.4044667047313233, -0.20346624055971319, 0.5238907933235168]","[0.07470248548615747, -1.607348668672055, -0.10548097448552571, -0.14316368406114832, -0.038034235245669415, -0.08581526791834701]",0.002,7,1
0,212,"[0.07552523165941238, -1.597649713555807, -0.0940021276473999, -0.4034111064723511, -0.20355445543398076, 0.5277154445648193]","[0.0751664760792392, -1.6075757018514163, -0.10613613581773393, -0.14405289949009956, -0.03827047273166736, -0.08634828200479636]",0.002,7,1
0,213,"[0.07552523165941238, -1.597649713555807, -0.0940021276473999, -0.4034111064723511, -0.20355445543398076, 0.5277154445648193]","[0.07563046667232093, -1.6078027350307775, -0.10679129714994218, -0.1449421149190508, -0.03850671021766531, -0.08688129609124572]",0.002,7,1
0,214,"[0.07646909356117249, -1.598008771935934, -0.09600335359573364, -0.4009930652431031, -0.2039120833026331, 0.5350002646446228]","[0.07609445726540265, -1.6080297682101388, -0.1074464584821504, -0.14583133034800203, -0.03874294770366325, -0.08741431017769508]",0.002,7,1
0,215,"[0.07689143717288971, -1.598252912560934, -0.09704887121915817, -0.3997822564891358, -0.20400840440859014, 0.53855299949646]","[0.07655844785848437, -1.6082568013895, -0.10810161981435865, -0.14672054577695326, -0.0389791851896612, -0.08794732426414444]",0.002,7,1
0,216,"[0.07729001343250275, -1.5985471210875453, -0.09794771671295166, -0.3986002963832398, -0.20417625108827764, 0.5420556664466858]","[0.07702243845156609, -1.6084838345688612, -0.1087567811465669, -0.1476097612059045, -0.03921542267565915, -0.0884803383505938]",0.002,7,1
0,217,"[0.07781016081571579, -1.5987020931639613, -0.09889358282089233, -0.39732785642657475, -0.204322640095846, 0.54550701379776]","[0.07748642904464781, -1.6087108677482225, -0.1094119424787751, -0.14849897663485573, -0.03945166016165709, -0.08901335243704314]",0.002,7,1
0,218,"[0.07824020087718964, -1.5989052257933558, -0.09993667155504227, -0.3961869043162842, -0.20456964174379522, 0.5489369630813599]","[0.07795041963772954, -1.6089379009275837, -0.11006710381098335, -0.14938819206380696, -0.03968789764765504, -0.08954636652349252]",0.002,7,1
0,219,"[0.07873662561178207, -1.599156995812887, -0.10088198632001877, -0.3949740690043946, -0.20474464098085576, 0.5524628758430481]","[0.07841441023081125, -1.609164934106945, -0.11072226514319157, -0.1502774074927582, -0.039924135133652984, -0.09007938060994186]",0.002,7,1
0,220,"[0.0791459009051323, -1.599459787408346, -0.10190598666667938, -0.3936893504909058, -0.204902474080221, 0.5559053421020508]","[0.07887840082389298, -1.6093919672863062, -0.11137742647539982, -0.15116662292170943, -0.040160372619650934, -0.09061239469639124]",0.002,7,1
0,221,"[0.07966981828212738, -1.5996095142760218, -0.10285799205303192, -0.3924541038325806, -0.20510608354677373, 0.5594895482063293]","[0.07934239141697472, -1.6096190004656674, -0.11203258780760807, -0.1520558383506607, -0.040396610105648885, -0.0911454087828406]",0.002,7,1
0,222,"[0.0801292434334755, -1.599809309045309, -0.10377152264118195, -0.3912812036326905, -0.20527679124941045, 0.5629226565361023]","[0.07980638201005644, -1.6098460336450287, -0.11268774913981627, -0.1529450537796119, -0.04063284759164683, -0.09167842286928995]",0.002,7,1
0,223,"[0.08062195777893066, -1.6001025638976039, -0.10479392856359482, -0.3899710935405274, -0.20553809801210576, 0.5662403702735901]","[0.08027037260313816, -1.6100730668243899, -0.11334291047202452, -0.15383426920856313, -0.04086908507764478, -0.09221143695573931]",0.002,7,1
0,224,"[0.08101003617048264, -1.6003509960570277, -0.10579030960798264, -0.3888232272914429, -0.20573646226991826, 0.5695413947105408]","[0.08073436319621988, -1.6103001000037511, -0.11399807180423274, -0.15472348463751434, -0.041105322563642716, -0.09274445104218867]",0.002,7,1
0,225,"[0.08157557249069214, -1.6005541286864222, -0.10674844682216644, -0.387583927517273, -0.20602637926210576, 0.5728307962417603]","[0.0811983537893016, -1.6105271331831124, -0.11465323313644099, -0.1556127000664656, -0.041341560049640666, -0.09327746512863803]",0.002,7,1
0,226,"[0.08210407197475433, -1.6008311710753382, -0.10771188139915466, -0.38637276113543706, -0.2062285582171839, 0.5760111212730408]","[0.08166234438238335, -1.6107541663624736, -0.11530839446864924, -0.15650191549541684, -0.041577797535638616, -0.0938104792150874]",0.002,7,1
0,227,"[0.08258356153964996, -1.6009885273375453, -0.10872837901115417, -0.38511498392138677, -0.20649606386293584, 0.5792970657348633]","[0.08212633497546505, -1.6109811995418348, -0.11596355580085746, -0.15739113092436804, -0.04181403502163656, -0.09434349330153675]",0.002,7,1
0,228,"[0.08300866931676865, -1.6013122997679652, -0.1096075251698494, -0.38391371191058354, -0.20672446886171514, 0.5824674367904663]","[0.08259032556854677, -1.611208232721196, -0.11661871713306571, -0.15828034635331928, -0.04205027250763451, -0.09487650738798611]",0.002,7,1
0,229,"[0.0835532695055008, -1.6014896831908167, -0.11068485677242279, -0.38271184385333257, -0.20698291460146123, 0.5857029557228088]","[0.08305431616162849, -1.6114352659005573, -0.11727387846527391, -0.15916956178227049, -0.042286509993632454, -0.09540952147443547]",0.002,7,1
0,230,"[0.0835532695055008, -1.6014896831908167, -0.11068485677242279, -0.38271184385333257, -0.20698291460146123, 0.5857029557228088]","[0.08351830675471023, -1.6116622990799185, -0.11792903979748216, -0.16005877721122175, -0.042522747479630404, -0.09594253556088483]",0.002,7,1
0,231,"[0.0835532695055008, -1.6014896831908167, -0.11068485677242279, -0.38271184385333257, -0.20698291460146123, 0.5857029557228088]","[0.08398229734779196, -1.6118893322592798, -0.1185842011296904, -0.16094799264017298, -0.042758984965628355, -0.09647554964733421]",0.002,7,1
0,232,"[0.08455263823270798, -1.602023263970846, -0.11258679628372192, -0.3802599471858521, -0.20765573183168584, 0.5920709371566772]","[0.08444628794087367, -1.612116365438641, -0.11923936246189863, -0.1618372080691242, -0.04299522245162629, -0.09700856373378355]",0.002,7,1
0,233,"[0.08455263823270798, -1.602023263970846, -0.11258679628372192, -0.3802599471858521, -0.20765573183168584, 0.5920709371566772]","[0.0849102785339554, -1.6123433986180022, -0.11989452379410688, -0.16272642349807545, -0.04323145993762424, -0.09754157782023293]",0.002,7,1
0,234,"[0.08455263823270798, -1.602023263970846, -0.11258679628372192, -0.3802599471858521, -0.20765573183168584, 0.5920709371566772]","[0.08537426912703712, -1.6125704317973635, -0.12054968512631509, -0.16361563892702666, -0.043467697423622186, -0.09807459190668227]",0.002,7,1
0,235,"[0.08455263823270798, -1.602023263970846, -0.11258679628372192, -0.3802599471858521, -0.20765573183168584, 0.5920709371566772]","[0.08583825972011885, -1.6127974649767247, -0.12120484645852334, -0.1645048543559779, -0.043703934909620136, -0.09860760599313165]",0.002,7,1
0,236,"[0.09017478674650192, -1.6048079929747523, -0.12331608682870865, -0.36661942422900395, -0.21155912080873662, 0.6237757802009583]","[0.08630225031320057, -1.613024498156086, -0.12186000779073158, -0.16539406978492915, -0.043940172395618086, -0.09914062007958102]",0.002,7,1
0,237,"[0.09224982559680939, -1.6058384380736292, -0.12718252837657928, -0.3619150680354615, -0.21334392229189092, 0.633988618850708]","[0.0867662409062823, -1.6132515313354472, -0.1225151691229398, -0.16628328521388036, -0.04417640988161603, -0.09967363416603035]",0.002,7,1
0,238,"[0.09224982559680939, -1.6058384380736292, -0.12718252837657928, -0.3619150680354615, -0.21334392229189092, 0.633988618850708]","[0.08723023149936401, -1.6134785645148084, -0.12317033045514805, -0.16717250064283162, -0.044412647367613974, -0.10020664825247973]",0.002,7,1
0,239,"[0.09325902909040451, -1.6063372097411097, -0.12900106608867645, -0.3597117227366944, -0.21421415010561162, 0.6387158632278442]","[0.08769422209244573, -1.6137055976941697, -0.12382549178735627, -0.16806171607178283, -0.04464888485361192, -0.10073966233892907]",0.002,7,1
0,240,"[0.09381219744682312, -1.6066400013365687, -0.1299964189529419, -0.35865672052416997, -0.21475488344301397, 0.6410436630249023]","[0.08815821268552747, -1.613932630873531, -0.12448065311956452, -0.16895093150073406, -0.04488512233960987, -0.10127267642537845]",0.002,7,1
0,241,"[0.09433097392320633, -1.6068340740599574, -0.130872905254364, -0.3576052945903321, -0.21525174776186162, 0.6433306336402893]","[0.08862220327860919, -1.6141596640528921, -0.12513581445177274, -0.1698401469296853, -0.04512135982560782, -0.1018056905118278]",0.002,7,1
0,242,"[0.09484631568193436, -1.6070777378477992, -0.13180074095726013, -0.3565024894526978, -0.21571189561952764, 0.6456812024116516]","[0.08908619387169091, -1.6143866972322534, -0.125790975783981, -0.17072936235863653, -0.045357597311605755, -0.10233870459827715]",0.002,7,1
0,243,"[0.09534156322479248, -1.6073743305602015, -0.13271886110305786, -0.3554636997035523, -0.21623546281923467, 0.6479280591011047]","[0.08955018446477264, -1.6146137304116146, -0.1264461371161892, -0.17161857778758777, -0.04559383479760371, -0.10287171868472653]",0.002,7,1
0,244,"[0.09534156322479248, -1.6073743305602015, -0.13271886110305786, -0.3554636997035523, -0.21623546281923467, 0.6479280591011047]","[0.09001417505785433, -1.6148407635909758, -0.12710129844839746, -0.17250779321653897, -0.045830072283601656, -0.10340473277117587]",0.002,7,1
0,245,"[0.09534156322479248, -1.6073743305602015, -0.13271886110305786, -0.3554636997035523, -0.21623546281923467, 0.6479280591011047]","[0.09047816565093608, -1.615067796770337, -0.12775645978060568, -0.1733970086454902, -0.0460663097695996, -0.10393774685762525]",0.002,7,1
0,246,"[0.09534156322479248, -1.6073743305602015, -0.13271886110305786, -0.3554636997035523, -0.21623546281923467, 0.6479280591011047]","[0.0909421562440178, -1.6152948299496983, -0.12841162111281393, -0.17428622407444144, -0.04630254725559754, -0.10447076094407459]",0.002,7,1
0,247,"[0.09743554145097733, -1.6083675823607386, -0.136432945728302, -0.35151369989428716, -0.21837217012514287, 0.6565425395965576]","[0.09140614683709952, -1.6155218631290595, -0.12906678244502212, -0.17517543950339265, -0.04653878474159549, -0.10500377503052395]",0.002,7,1
0,248,"[0.09799854457378387, -1.6086236439146937, -0.13731132447719574, -0.35052402437243657, -0.21892148653139287, 0.658516526222229]","[0.09187013743018124, -1.6157488963084208, -0.1297219437772304, -0.17606465493234388, -0.046775022227593444, -0.10553678911697333]",0.002,7,1
0,249,"[0.09849357604980469, -1.6088773212828578, -0.13822798430919647, -0.3495186132243653, -0.21943504015077764, 0.6604072451591492]","[0.09233412802326296, -1.615975929487782, -0.1303771051094386, -0.17695387036129512, -0.04701125971359138, -0.10606980320342267]",0.002,7,1
0,250,"[0.09902553260326385, -1.6091076336302699, -0.13912591338157654, -0.3485788863948365, -0.22001773515810186, 0.662312924861908]","[0.09279811861634468, -1.6162029626671433, -0.13103226644164684, -0.17784308579024635, -0.04724749719958933, -0.10660281728987203]",0.002,7,1
0,251,"[0.09954526275396347, -1.6093484363951625, -0.140039324760437, -0.3476272386363526, -0.22057754198183233, 0.6641613841056824]","[0.09326210920942642, -1.6164299958465045, -0.1316874277738551, -0.1787323012191976, -0.04748373468558728, -0.1071358313763214]",0.002,7,1
0,252,"[0.10001587867736816, -1.6095229587950648, -0.14084391295909882, -0.34672196329150395, -0.22120744386781865, 0.6659151315689087]","[0.09372609980250812, -1.6166570290258657, -0.1323425891060633, -0.1796215166481488, -0.047719972171585225, -0.10766884546277075]",0.002,7,1
0,253,"[0.10057282447814941, -1.6097880802550257, -0.14176879823207855, -0.34581859529528813, -0.22186834016908819, 0.6675845384597778]","[0.09419009039558986, -1.616884062205227, -0.13299775043827156, -0.18051073207710006, -0.04795620965758317, -0.10820185954922011]",0.002,7,1
0,254,"[0.10106293857097626, -1.6099263630309046, -0.14260300993919373, -0.34490426004443364, -0.22251779237856084, 0.6692661046981812]","[0.09465408098867158, -1.6171110953845882, -0.13365291177047978, -0.18139994750605126, -0.04819244714358112, -0.10873487363566946]",0.002,7,1
0,255,"[0.1015707477927208, -1.6101228199400843, -0.14347852766513824, -0.3440238994411011, -0.22317678133119756, 0.6709079742431641]","[0.09511807158175331, -1.6173381285639494, -0.134308073102688, -0.18228916293500252, -0.04842868462957907, -0.10926788772211883]",0.002,7,1
0,256,"[0.10202173888683319, -1.610321661035055, -0.14428865909576416, -0.3431306642344971, -0.22377330461610967, 0.6725849509239197]","[0.09558206217483503, -1.6175651617433107, -0.13496323443489627, -0.18317837836395376, -0.04866492211557702, -0.10980090180856819]",0.002,7,1
0,257,"[0.10258951038122177, -1.610514303246969, -0.14510728418827057, -0.3423120540431519, -0.2244194189654749, 0.6741750240325928]","[0.09604605276791675, -1.617792194922672, -0.13561839576710447, -0.18406759379290497, -0.048901159601574956, -0.11033391589501754]",0.002,7,1
0,258,"[0.10306446254253387, -1.610685487786764, -0.14597748219966888, -0.34146304548297124, -0.22500163713564092, 0.6756141781806946]","[0.09651004336099848, -1.6180192281020331, -0.13627355709931271, -0.18495680922185623, -0.04913739708757291, -0.11086692998146691]",0.002,7,1
0,259,"[0.10354380309581757, -1.6108657322325648, -0.14681407809257507, -0.3407212060740967, -0.2256863752948206, 0.6771787405014038]","[0.09697403395408019, -1.6182462612813944, -0.13692871843152093, -0.1858460246508074, -0.04937363457357085, -0.11139994406791626]",0.002,7,1
0,260,"[0.10402381420135498, -1.6111928425230921, -0.14775153994560242, -0.33992917955432134, -0.2263110319720667, 0.6785851716995239]","[0.09743802454716192, -1.6184732944607556, -0.13758387976372918, -0.18673524007975867, -0.0496098720595688, -0.11193295815436563]",0.002,7,1
0,261,"[0.10450700670480728, -1.6113459072508753, -0.14853143692016602, -0.3391903203776856, -0.22693092027773076, 0.6800509691238403]","[0.09790201514024366, -1.6187003276401168, -0.13823904109593743, -0.1876244555087099, -0.049846109545566744, -0.112465972240815]",0.002,7,1
0,262,"[0.10497436672449112, -1.6114946804442347, -0.149382546544075, -0.3384189170650025, -0.2276981512652796, 0.6814457774162292]","[0.09836600573332537, -1.618927360819478, -0.13889420242814565, -0.18851367093766114, -0.050082347031564695, -0.11299898632726435]",0.002,7,1
0,263,"[0.10551485419273376, -1.6116606197752894, -0.1501466929912567, -0.3377451461604615, -0.22832852998842412, 0.6828736662864685]","[0.0988299963264071, -1.6191543939988393, -0.13954936376035387, -0.18940288636661237, -0.05031858451756264, -0.11353200041371372]",0.002,7,1
0,264,"[0.10596482455730438, -1.6118279896178187, -0.1510690301656723, -0.33701999605212407, -0.2290118376361292, 0.6840988993644714]","[0.0992939869194888, -1.6193814271782005, -0.14020452509256212, -0.1902921017955636, -0.05055482200356058, -0.11406501450016307]",0.002,7,1
0,265,"[0.10640858113765717, -1.6120735607542933, -0.15186530351638794, -0.3363199991038819, -0.2297142187701624, 0.685335636138916]","[0.09975797751257054, -1.6196084603575618, -0.14085968642477037, -0.19118131722451484, -0.05079105948955853, -0.11459802858661244]",0.002,7,1
0,266,"[0.1068907156586647, -1.6121717892088832, -0.15263395011425018, -0.3357083362391968, -0.230295483266012, 0.6865240931510925]","[0.10022196810565227, -1.619835493536923, -0.1415148477569786, -0.19207053265346608, -0.05102729697555648, -0.1151310426730618]",0.002,7,1
0,267,"[0.10736136138439178, -1.612401624719137, -0.15353940427303314, -0.33510203779254155, -0.23107511201967412, 0.6877086758613586]","[0.10068595869873398, -1.6200625267162843, -0.1421700090891868, -0.1929597480824173, -0.05126353446155442, -0.11566405675951115]",0.002,7,1
0,268,"[0.10790291428565979, -1.6125403843321742, -0.15434230864048004, -0.3345185083201905, -0.2318041960345667, 0.6887689828872681]","[0.10114994929181571, -1.6202895598956455, -0.14282517042139506, -0.19384896351136854, -0.05149977194755238, -0.11619707084596052]",0.002,7,1
0,269,"[0.10833334922790527, -1.6127082310118617, -0.15518197417259216, -0.3340156835368653, -0.23244077364076787, 0.6898149251937866]","[0.10161393988489742, -1.6205165930750067, -0.14348033175360328, -0.19473817894031975, -0.05173600943355031, -0.11673008493240987]",0.002,7,1
0,270,"[0.10877231508493423, -1.6128579578795375, -0.15595081448554993, -0.3334917587092896, -0.23315364519228154, 0.6908162832260132]","[0.10207793047797915, -1.620743626254368, -0.14413549308581153, -0.195627394369271, -0.051972246919548264, -0.11726309901885924]",0.002,7,1
0,271,"[0.1092766672372818, -1.613000055352682, -0.1567540019750595, -0.3329330247691651, -0.23391896883119756, 0.691758930683136]","[0.10254192107106089, -1.6209706594337292, -0.14479065441801978, -0.19651660979822225, -0.05220848440554621, -0.1177961131053086]",0.002,7,1
0,272,"[0.1096985787153244, -1.6131640873351039, -0.1575693041086197, -0.33246667802844243, -0.23467570940126592, 0.6926644444465637]","[0.10300591166414261, -1.6211976926130904, -0.145445815750228, -0.19740582522717348, -0.05244472189154416, -0.11832912719175796]",0.002,7,1
0,273,"[0.11024829000234604, -1.613279481927389, -0.15837682783603668, -0.33198614538226323, -0.23538381258119756, 0.6935113072395325]","[0.10346990225722433, -1.6214247257924514, -0.14610097708243625, -0.19829504065612472, -0.05268095937754211, -0.11886214127820732]",0.002,7,1
0,274,"[0.11065119504928589, -1.613432069818014, -0.15917746722698212, -0.33162184179339604, -0.23610097566713506, 0.6943204998970032]","[0.10393389285030605, -1.621651758971813, -0.14675613841464447, -0.19918425608507592, -0.052917196863540045, -0.11939515536465667]",0.002,7,1
0,275,"[0.11109799146652222, -1.613608022729391, -0.15997591614723206, -0.3312264245799561, -0.23679954210390264, 0.6950907111167908]","[0.10439788344338777, -1.6218787921511741, -0.1474112997468527, -0.20007347151402716, -0.053153434349537995, -0.11992816945110604]",0.002,7,1
0,276,"[0.11153362691402435, -1.613793512383932, -0.16079580783843994, -0.33090730131182866, -0.2375248114215296, 0.6958142518997192]","[0.10486187403646952, -1.6221058253305354, -0.14806646107906093, -0.20096268694297842, -0.05338967183553595, -0.12046118353755542]",0.002,7,1
0,277,"[0.11202949285507202, -1.6139446697630824, -0.16152282059192657, -0.33055158079180913, -0.23833924928774053, 0.6964381337165833]","[0.10532586462955122, -1.6223328585098966, -0.14872162241126916, -0.20185190237192963, -0.05362590932153389, -0.12099419762400476]",0.002,7,1
0,278,"[0.11248047649860382, -1.6140638790526332, -0.16234682500362396, -0.33019061506304936, -0.23901302019228154, 0.6971226334571838]","[0.10578985522263294, -1.6225598916892578, -0.1493767837434774, -0.20274111780088086, -0.05386214680753185, -0.12152721171045412]",0.002,7,1
0,279,"[0.11293591558933258, -1.6142159901061, -0.163119837641716, -0.32994921625170903, -0.23980981508363897, 0.6976868510246277]","[0.10625384581571466, -1.6227869248686189, -0.15003194507568562, -0.2036303332298321, -0.05409838429352978, -0.12206022579690348]",0.002,7,1
0,280,"[0.11337508261203766, -1.614354749719137, -0.163910910487175, -0.3296716970256348, -0.24052745500673467, 0.6981964111328125]","[0.1067178364087964, -1.62301395804798, -0.15068710640789387, -0.20451954865878333, -0.054334621779527734, -0.12259323988335284]",0.002,7,1
0,281,"[0.11375752836465836, -1.6145717106261195, -0.1647636741399765, -0.32953746736560063, -0.24128467241396123, 0.6987009644508362]","[0.10718182700187812, -1.6232409912273413, -0.15134226774010212, -0.2054087640877346, -0.054570859265525684, -0.12312625396980222]",0.002,7,1
0,282,"[0.11425435543060303, -1.614727636376852, -0.1655128449201584, -0.32931240022692876, -0.24201661745180303, 0.699076235294342]","[0.10764581759495984, -1.6234680244067026, -0.15199742907231034, -0.20629797951668577, -0.05480709675152363, -0.12365926805625156]",0.002,7,1
0,283,"[0.11467762291431427, -1.6149236164488734, -0.166334331035614, -0.3291648191264649, -0.24279719987978154, 0.6995266079902649]","[0.10810980818804158, -1.6236950575860638, -0.15265259040451856, -0.20718719494563703, -0.05504333423752157, -0.12419228214270092]",0.002,7,1
0,284,"[0.11511291563510895, -1.6150876484312953, -0.16711314022541046, -0.32902391374621587, -0.24361735979189092, 0.6998960971832275]","[0.10857379878112329, -1.623922090765425, -0.15330775173672678, -0.20807641037458824, -0.05527957172351952, -0.1247252962291503]",0.002,7,1
0,285,"[0.11555232107639313, -1.6152388058104457, -0.16798076033592224, -0.32898374021563725, -0.24438411394228154, 0.7001805901527405]","[0.10903778937420502, -1.6241491239447863, -0.15396291306893506, -0.2089656258035395, -0.05551580920951747, -0.12525831031559964]",0.002,7,1
0,286,"[0.11599249392747879, -1.615410944024557, -0.16879671812057495, -0.3288946908763428, -0.24509746233095342, 0.7004305124282837]","[0.10950177996728674, -1.6243761571241475, -0.15461807440114328, -0.20985484123249074, -0.05575204669551542, -0.12579132440204902]",0.002,7,1
0,287,"[0.11636152118444443, -1.6156360111632289, -0.16959503293037415, -0.3289511960795899, -0.24583894411195928, 0.7007297873497009]","[0.10996577056036846, -1.6246031903035087, -0.1552732357333515, -0.21074405666144194, -0.05598828418151336, -0.1263243384884984]",0.002,7,1
0,288,"[0.11685081571340561, -1.6158396206297816, -0.17042994499206543, -0.3288807433894654, -0.24667054811586553, 0.7008987069129944]","[0.1104297611534502, -1.62483022348287, -0.15592839706555975, -0.21163327209039318, -0.05622452166751131, -0.12685735257494773]",0.002,7,1
0,289,"[0.11730295419692993, -1.615934511224264, -0.1711054891347885, -0.3289172214320679, -0.24740916887392217, 0.7010424733161926]","[0.1108937517465319, -1.6250572566622312, -0.15658355839776797, -0.21252248751934438, -0.056460759153509246, -0.12739036666139708]",0.002,7,1
0,290,"[0.11771358549594879, -1.6161266765990199, -0.1719801425933838, -0.32901044309649663, -0.24822599092592412, 0.7011768817901611]","[0.11135774233961364, -1.6252842898415925, -0.15723871972997622, -0.21341170294829565, -0.056696996639507204, -0.12792338074784645]",0.002,7,1
0,291,"[0.11815720796585083, -1.616336008111471, -0.17281222343444824, -0.3291641038707276, -0.24903899828066045, 0.7012119889259338]","[0.11182173293269537, -1.6255113230209537, -0.15789388106218447, -0.21430091837724688, -0.05693323412550515, -0.12845639483429583]",0.002,7,1
0,292,"[0.11851436644792557, -1.6164504490294398, -0.17354385554790497, -0.3292998832515259, -0.249826733266012, 0.7012104988098145]","[0.11228572352577708, -1.625738356200315, -0.15854904239439266, -0.21519013380619811, -0.05716947161150309, -0.12898940892074517]",0.002,7,1
0,293,"[0.11897976696491241, -1.616659780541891, -0.17437763512134552, -0.32939429700885015, -0.25059539476503545, 0.7012549042701721]","[0.11274971411885881, -1.6259653893796762, -0.1592042037266009, -0.21607934923514932, -0.057405709097501034, -0.12952242300719452]",0.002,7,1
0,294,"[0.11934246867895126, -1.6168562374510707, -0.1751292645931244, -0.329620437031128, -0.2514231840716761, 0.7011455297470093]","[0.11321370471194052, -1.6261924225590374, -0.15985936505880916, -0.21696856466410055, -0.057641946583498985, -0.13005543709364387]",0.002,7,1
0,295,"[0.11978154629468918, -1.6169902286925257, -0.175959512591362, -0.3297845882228394, -0.2522323767291468, 0.7009449005126953]","[0.11367769530502225, -1.6264194557383986, -0.16051452639101738, -0.2178577800930518, -0.057878184069496935, -0.13058845118009324]",0.002,7,1
0,296,"[0.1202140524983406, -1.617190500298971, -0.1767224222421646, -0.330007867222168, -0.25303537050356084, 0.7007906436920166]","[0.11414168589810397, -1.6266464889177599, -0.1611696877232256, -0.21874699552200305, -0.05811442155549488, -0.13112146526654261]",0.002,7,1
0,297,"[0.12056057900190353, -1.6174327335753382, -0.17755328118801117, -0.3303678792766114, -0.2539570967303675, 0.7006159424781799]","[0.11460567649118569, -1.626873522097121, -0.16182484905543382, -0.21963621095095426, -0.05835065904149282, -0.13165447935299196]",0.002,7,1
0,298,"[0.1209440752863884, -1.617542406121725, -0.17844557762145996, -0.3306514781764527, -0.2547090689288538, 0.7003354430198669]","[0.11506966708426741, -1.6271005552764823, -0.1624800103876421, -0.22052542637990546, -0.05858689652749077, -0.1321874934394413]",0.002,7,1
0,299,"[0.12134280800819397, -1.6177636585631312, -0.17919237911701202, -0.33097107828173833, -0.2555611769305628, 0.7000726461410522]","[0.11553365767734912, -1.6273275884558436, -0.16313517171985029, -0.2214146418088567, -0.05882313401348871, -0.13272050752589065]",0.002,7,1
0,300,"[0.12175165861845016, -1.6179419956602992, -0.1800512969493866, -0.3313569587520142, -0.2563069502459925, 0.6997788548469543]","[0.11599764827043085, -1.6275546216352048, -0.16379033305205853, -0.22230385723780793, -0.05905937149948666, -0.13325352161234003]",0.002,7,1
0,301,"[0.12215464562177658, -1.6181336841978968, -0.18085551261901855, -0.331777886753418, -0.25706464449037725, 0.6994361281394958]","[0.11646163886351259, -1.627781654814566, -0.16444549438426675, -0.22319307266675917, -0.05929560898548461, -0.1337865356987894]",0.002,7,1
0,302,"[0.12254253774881363, -1.6183706722655238, -0.18167686462402344, -0.33220286787066655, -0.2578938643084925, 0.6990489959716797]","[0.1169256294565943, -1.6280086879939273, -0.165100655716475, -0.22408228809571037, -0.059531846471482554, -0.13431954978523875]",0.002,7,1
0,303,"[0.1229543462395668, -1.6185909710326136, -0.18243896961212158, -0.3327210706523438, -0.2587040106402796, 0.6985782384872437]","[0.11738962004967603, -1.6282357211732885, -0.16575581704868325, -0.22497150352466166, -0.0597680839574805, -0.13485256387168812]",0.002,7,1
0,304,"[0.12335845082998276, -1.618770261804098, -0.18329989910125732, -0.33316345632586675, -0.25947648683656865, 0.6981202363967896]","[0.11785361064275775, -1.6284627543526498, -0.16641097838089147, -0.22586071895361284, -0.06000432144347844, -0.13538557795813747]",0.002,7,1
0,305,"[0.12368439882993698, -1.6189748249449671, -0.18413196504116058, -0.3336852353862305, -0.2603066603290003, 0.697607696056366]","[0.11831760123583948, -1.628689787532011, -0.1670661397130997, -0.22674993438256408, -0.0602405589294764, -0.13591859204458684]",0.002,7,1
0,306,"[0.12411687523126602, -1.619153162042135, -0.18501383066177368, -0.33431048810992436, -0.2610982100116175, 0.6970711350440979]","[0.1187815918289212, -1.6289168207113722, -0.16772130104530797, -0.22763914981151534, -0.06047679641547435, -0.13645160613103618]",0.002,7,1
0,307,"[0.1244635060429573, -1.6193648777403773, -0.185838520526886, -0.3348542016795655, -0.2618826071368616, 0.6965176463127136]","[0.11924558242200292, -1.6291438538907335, -0.16837646237751616, -0.22852836524046655, -0.060713033901472285, -0.13698462021748553]",0.002,7,1
0,308,"[0.12488389015197754, -1.6195570431151332, -0.18667259812355042, -0.33553214490924077, -0.2626593748675745, 0.6958646178245544]","[0.11970957301508466, -1.6293708870700947, -0.1690316237097244, -0.2294175806694178, -0.060949271387470236, -0.1375176343039349]",0.002,7,1
0,309,"[0.12525001168251038, -1.6197692356505335, -0.18747642636299133, -0.3361630004695435, -0.2634518782245081, 0.6951877474784851]","[0.12017356360816636, -1.629597920249456, -0.16968678504193266, -0.23030679609836902, -0.06118550887346818, -0.13805064839038425]",0.002,7,1
0,310,"[0.12557245790958405, -1.6199704609312953, -0.1883101463317871, -0.33684595048937993, -0.2641556898700159, 0.6944912075996399]","[0.1206375542012481, -1.6298249534288172, -0.17034194637414088, -0.23119601152732025, -0.06142174635946613, -0.13858366247683362]",0.002,7,1
0,311,"[0.12599845230579376, -1.6201487980284632, -0.18917101621627808, -0.33748658121142583, -0.2648962179767054, 0.6936752796173096]","[0.12110154479432982, -1.6300519866081784, -0.17099710770634913, -0.2320852269562715, -0.06165798384546408, -0.139116676563283]",0.002,7,1
0,312,"[0.12637297809123993, -1.620308061639303, -0.18995538353919983, -0.33832045019183354, -0.26574594179262334, 0.6928917169570923]","[0.12156553538741155, -1.6302790197875396, -0.17165226903855735, -0.23297444238522272, -0.061894221331462024, -0.13964969064973234]",0.002,7,1
0,313,"[0.1267564743757248, -1.6205460033812464, -0.1908106505870819, -0.33905919015917974, -0.26644593874086553, 0.6921205520629883]","[0.12202952598049327, -1.6305060529669009, -0.1723074303707656, -0.23386365781417395, -0.062130458817459974, -0.14018270473618172]",0.002,7,1
0,314,"[0.12714479863643646, -1.6207243404784144, -0.19158315658569336, -0.33988602579150395, -0.2672956625567835, 0.6912452578544617]","[0.12249351657357499, -1.6307330861462621, -0.1729625917029738, -0.23475287324312516, -0.06236669630345791, -0.14071571882263106]",0.002,7,1
0,315,"[0.1275288611650467, -1.6209904156126917, -0.19241182506084442, -0.34076865137133794, -0.26798898378481084, 0.6902726292610168]","[0.12295750716665671, -1.6309601193256233, -0.17361775303518207, -0.23564208867207642, -0.06260293378945586, -0.1412487329090804]",0.002,7,1
0,316,"[0.12792465090751648, -1.6211916408934535, -0.19318383932113647, -0.34157200277362065, -0.26875573793520147, 0.6893517971038818]","[0.12342149775973844, -1.6311871525049846, -0.17427291436739029, -0.23653130410102766, -0.06283917127545381, -0.14178174699552978]",0.002,7,1
0,317,"[0.12827879190444946, -1.621307989160055, -0.1940472573041916, -0.3423995536616822, -0.26950341859926397, 0.6883407235145569]","[0.12388548835282016, -1.6314141856843458, -0.1749280756995985, -0.2374205195299789, -0.06307540876145176, -0.14231476108197913]",0.002,7,1
0,318,"[0.12864576280117035, -1.6215259037413539, -0.19482171535491943, -0.34332867086444097, -0.2702277342425745, 0.6872937679290771]","[0.1243494789459019, -1.631641218863707, -0.17558323703180675, -0.2383097349589301, -0.0633116462474497, -0.1428477751684285]",0.002,7,1
0,319,"[0.1290750950574875, -1.6217123470702113, -0.19572626054286957, -0.3442332309535523, -0.27097779909242803, 0.6861851215362549]","[0.12481346953898362, -1.6318682520430683, -0.17623839836401498, -0.2391989503878813, -0.06354788373344765, -0.14338078925487785]",0.002,7,1
0,320,"[0.12942160665988922, -1.6219250164427699, -0.19653941690921783, -0.34523077428851323, -0.2717250029193323, 0.6851560473442078]","[0.12527746013206534, -1.6320952852224295, -0.17689355969622322, -0.24008816581683257, -0.0637841212194456, -0.14391380334132722]",0.002,7,1
0,321,"[0.1298692524433136, -1.622103830377096, -0.1973884552717209, -0.346143440609314, -0.2725566069232386, 0.6839563250541687]","[0.12574145072514709, -1.6323223184017908, -0.17754872102843147, -0.2409773812457838, -0.06402035870544355, -0.1444468174277766]",0.002,7,1
0,322,"[0.13020965456962585, -1.6223122082152308, -0.1981278955936432, -0.34714146078143315, -0.27318030992616826, 0.6828065514564514]","[0.1262054413182288, -1.632549351581152, -0.1782038823606397, -0.24186659667473506, -0.0642565961914415, -0.14497983151422597]",0.002,7,1
0,323,"[0.1305878460407257, -1.6225296459593714, -0.19899460673332214, -0.3481254142573853, -0.2739656607257288, 0.681591272354126]","[0.1266694319113105, -1.6327763847605132, -0.1788590436928479, -0.24275581210368624, -0.06449283367743944, -0.1455128456006753]",0.002,7,1
0,324,"[0.13095925748348236, -1.6226798496642054, -0.1998119056224823, -0.3491702836802979, -0.2746217886554163, 0.6802876591682434]","[0.12713342250439222, -1.6330034179398745, -0.17951420502505616, -0.2436450275326375, -0.06472907116343739, -0.14604585968712466]",0.002,7,1
0,325,"[0.1313556581735611, -1.622875829736227, -0.2006196230649948, -0.35015638292346196, -0.2753499189959925, 0.6790231466293335]","[0.12759741309747397, -1.6332304511192357, -0.18016936635726438, -0.2445342429615887, -0.06496530864943534, -0.14657887377357404]",0.002,7,1
