Arnibjarnst/BoxLift/logs/ur_rtde/trajectory_dur=3.0_delay=0.0_ampl=20.0_sim.csv
arm_idx,step,actual_q,expected_q,loop_time,robot_mode,safety_mode
0,-1,"[0.12299369835792981, -1.4478026284369658, 0.12299369835792981, 0.12299369835792981, 0.12299369835792981, 0.12299369835792981]","[0.0, -1.5707963267948966, 0.0, 0.0, 0.0, 0.0]",0.002,7,1
0,-1,"[0.1226156983579298, -1.4481806284369654, 0.1226156983579298, 0.1226156983579298, 0.1226156983579298, 0.1226156983579298]","[0.0, -1.5707963267948966, 0.0, 0.0, 0.0, 0.0]",0.002,7,1
0,-1,"[0.12173569835792981, -1.4490606284369658, 0.12173569835792981, 0.12173569835792981, 0.12173569835792981, 0.12173569835792981]","[0.0, -1.5707963267948966, 0.0, 0.0, 0.0, 0.0]",0.002,7,1
0,-1,"[0.12060169835792982, -1.4501946284369662, 0.12060169835792982, 0.12060169835792982, 0.12060169835792982, 0.12060169835792982]","[0.0, -1.5707963267948966, 0.0, 0.0, 0.0, 0.0]",0.002,7,1
0,-1,"[0.11932169835792983, -1.4514746284369657, 0.11932169835792983, 0.11932169835792983, 0.11932169835792983, 0.11932169835792983]","[0.0, -1.5707963267948966, 0.0, 0.0, 0.0, 0.0]",0.002,7,1
0,-1,"[0.11799169835792983, -1.452804628436966, 0.11799169835792983, 0.11799169835792983, 0.11799169835792983, 0.11799169835792983]","[0.0, -1.5707963267948966, 0.0, 0.0, 0.0, 0.0]",0.002,7,1
0,-1,"[0.11623169835792985, -1.454564628436966, 0.11623169835792985, 0.11623169835792985, 0.11623169835792985, 0.11623169835792985]","[0.0, -1.5707963267948966, 0.0, 0.0, 0.0, 0.0]",0.002,7,1
0,-1,"[0.11448169835792986, -1.4563146284369655, 0.11448169835792986, 0.11448169835792986, 0.11448169835792986, 0.11448169835792986]","[0.0, -1.5707963267948966, 0.0, 0.0, 0.0, 0.0]",0.002,7,1
0,-1,"[0.11253569835792987, -1.4582606284369657, 0.11253569835792987, 0.11253569835792987, 0.11253569835792987, 0.11253569835792987]","[0.0, -1.5707963267948966, 0.0, 0.0, 0.0, 0.0]",0.002,7,1
0,-1,"[0.11102569835792987, -1.4597706284369654, 0.11102569835792987, 0.11102569835792987, 0.11102569835792987, 0.11102569835792987]","[0.0, -1.5707963267948966, 0.0, 0.0, 0.0, 0.0]",0.002,7,1
0,-1,"[0.1084016983579299, -1.4623946284369662, 0.1084016983579299, 0.1084016983579299, 0.1084016983579299, 0.1084016983579299]","[0.0, -1.5707963267948966, 0.0, 0.0, 0.0, 0.0]",0.002,7,1
0,-1,"[0.1058956983579299, -1.4649006284369657, 0.1058956983579299, 0.1058956983579299, 0.1058956983579299, 0.1058956983579299]","[0.0, -1.5707963267948966, 0.0, 0.0, 0.0, 0.0]",0.002,7,1
0,-1,"[0.10319369835792992, -1.4676026284369659, 0.10319369835792992, 0.10319369835792992, 0.10319369835792992, 0.10319369835792992]","[0.0, -1.5707963267948966, 0.0, 0.0, 0.0, 0.0]",0.002,7,1
0,-1,"[0.09986569835792994, -1.4709306284369656, 0.09986569835792994, 0.09986569835792994, 0.09986569835792994, 0.09986569835792994]","[0.0, -1.5707963267948966, 0.0, 0.0, 0.0, 0.0]",0.002,7,1
0,-1,"[0.09674369835792995, -1.474052628436966, 0.09674369835792995, 0.09674369835792995, 0.09674369835792995, 0.09674369835792995]","[0.0, -1.5707963267948966, 0.0, 0.0, 0.0, 0.0]",0.002,7,1
0,-1,"[0.09342569835792998, -1.477370628436966, 0.09342569835792998, 0.09342569835792998, 0.09342569835792998, 0.09342569835792998]","[0.0, -1.5707963267948966, 0.0, 0.0, 0.0, 0.0]",0.002,7,1
0,-1,"[0.08834569835793, -1.4824506284369656, 0.08834569835793, 0.08834569835793, 0.08834569835793, 0.08834569835793]","[0.0, -1.5707963267948966, 0.0, 0.0, 0.0, 0.0]",0.002,7,1
0,-1,"[0.08399369835793002, -1.4868026284369655, 0.08399369835793002, 0.08399369835793002, 0.08399369835793002, 0.08399369835793002]","[0.0, -1.5707963267948966, 0.0, 0.0, 0.0, 0.0]",0.002,7,1
0,-1,"[0.07997569835793006, -1.4908206284369658, 0.07997569835793006, 0.07997569835793006, 0.07997569835793006, 0.07997569835793006]","[0.0, -1.5707963267948966, 0.0, 0.0, 0.0, 0.0]",0.002,7,1
0,-1,"[0.07698569835793007, -1.4938106284369663, 0.07698569835793007, 0.07698569835793007, 0.07698569835793007, 0.07698569835793007]","[0.0, -1.5707963267948966, 0.0, 0.0, 0.0, 0.0]",0.002,7,1
0,-1,"[0.07326604044029067, -1.4975302863546052, 0.07326604044029067, 0.07326604044029067, 0.07326604044029067, 0.07326604044029067]","[0.0, -1.5707963267948966, 0.0, 0.0, 0.0, 0.0]",0.002,7,1
0,-1,"[0.06811679304870906, -1.5026795337461873, 0.06811679304870906, 0.06811679304870906, 0.06811679304870906, 0.06811679304870906]","[0.0, -1.5707963267948966, 0.0, 0.0, 0.0, 0.0]",0.002,7,1
0,-1,"[0.06284176161039481, -1.5079545651845017, 0.06284176161039481, 0.06284176161039481, 0.06284176161039481, 0.06284176161039481]","[0.0, -1.5707963267948966, 0.0, 0.0, 0.0, 0.0]",0.002,7,1
0,-1,"[0.058203426876034484, -1.5125928999188618, 0.058203426876034484, 0.058203426876034484, 0.058203426876034484, 0.058203426876034484]","[0.0, -1.5707963267948966, 0.0, 0.0, 0.0, 0.0]",0.002,7,1
0,-1,"[0.05296855035009651, -1.5178277764447996, 0.05296855035009651, 0.05296855035009651, 0.05296855035009651, 0.05296855035009651]","[0.0, -1.5707963267948966, 0.0, 0.0, 0.0, 0.0]",0.002,7,1
0,-1,"[0.04852285099111138, -1.522273475803785, 0.04852285099111138, 0.04852285099111138, 0.04852285099111138, 0.04852285099111138]","[0.0, -1.5707963267948966, 0.0, 0.0, 0.0, 0.0]",0.002,7,1
0,-1,"[0.044262545786656074, -1.52653378100824, 0.044262545786656074, 0.044262545786656074, 0.044262545786656074, 0.044262545786656074]","[0.0, -1.5707963267948966, 0.0, 0.0, 0.0, 0.0]",0.002,7,1
0,-1,"[0.03963362555299285, -1.5311627012419038, 0.03963362555299285, 0.03963362555299285, 0.03963362555299285, 0.03963362555299285]","[0.0, -1.5707963267948966, 0.0, 0.0, 0.0, 0.0]",0.002,7,1
0,-1,"[0.035793320348537536, -1.5350030064463587, 0.035793320348537536, 0.035793320348537536, 0.035793320348537536, 0.035793320348537536]","[0.0, -1.5707963267948966, 0.0, 0.0, 0.0, 0.0]",0.002,7,1
0,-1,"[0.031644400114874335, -1.539151926680022, 0.031644400114874335, 0.031644400114874335, 0.031644400114874335, 0.031644400114874335]","[0.0, -1.5707963267948966, 0.0, 0.0, 0.0, 0.0]",0.002,7,1
0,-1,"[0.02681824982279532, -1.5439780769721008, 0.02681824982279532, 0.02681824982279532, 0.02681824982279532, 0.02681824982279532]","[0.0, -1.5707963267948966, 0.0, 0.0, 0.0, 0.0]",0.002,7,1
0,-1,"[0.02281671455992422, -1.5479796122349718, 0.02281671455992422, 0.02281671455992422, 0.02281671455992422, 0.02281671455992422]","[0.0, -1.5707963267948966, 0.0, 0.0, 0.0, 0.0]",0.002,7,1
0,-1,"[0.019531794326260996, -1.5512645324686352, 0.019531794326260996, 0.019531794326260996, 0.019531794326260996, 0.019531794326260996]","[0.0, -1.5707963267948966, 0.0, 0.0, 0.0, 0.0]",0.002,7,1
0,-1,"[0.016867489121805676, -1.5539288376730909, 0.016867489121805676, 0.016867489121805676, 0.016867489121805676, 0.016867489121805676]","[0.0, -1.5707963267948966, 0.0, 0.0, 0.0, 0.0]",0.002,7,1
0,-1,"[0.01473979894655826, -1.5560565278483383, 0.01473979894655826, 0.01473979894655826, 0.01473979894655826, 0.01473979894655826]","[0.0, -1.5707963267948966, 0.0, 0.0, 0.0, 0.0]",0.002,7,1
0,-1,"[0.012439493742102958, -1.5583568330527937, 0.012439493742102958, 0.012439493742102958, 0.012439493742102958, 0.012439493742102958]","[0.0, -1.5707963267948966, 0.0, 0.0, 0.0, 0.0]",0.002,7,1
0,-1,"[0.010050573508439728, -1.560745753286457, 0.010050573508439728, 0.010050573508439728, 0.010050573508439728, 0.010050573508439728]","[0.0, -1.5707963267948966, 0.0, 0.0, 0.0, 0.0]",0.002,7,1
0,-1,"[0.008687498362400209, -1.5621088284324962, 0.008687498362400209, 0.008687498362400209, 0.008687498362400209, 0.008687498362400209]","[0.0, -1.5707963267948966, 0.0, 0.0, 0.0, 0.0]",0.002,7,1
0,-1,"[0.006947193157944856, -1.5638491336369515, 0.006947193157944856, 0.006947193157944856, 0.006947193157944856, 0.006947193157944856]","[0.0, -1.5707963267948966, 0.0, 0.0, 0.0, 0.0]",0.002,7,1
0,-1,"[0.005198272924281641, -1.5655980538706151, 0.005198272924281641, 0.005198272924281641, 0.005198272924281641, 0.005198272924281641]","[0.0, -1.5707963267948966, 0.0, 0.0, 0.0, 0.0]",0.002,7,1
0,-1,"[0.0037053526906184048, -1.5670909741042784, 0.0037053526906184048, 0.0037053526906184048, 0.0037053526906184048, 0.0037053526906184048]","[0.0, -1.5707963267948966, 0.0, 0.0, 0.0, 0.0]",0.002,7,1
0,-1,"[0.002609047486163099, -1.5681872793087335, 0.002609047486163099, 0.002609047486163099, 0.002609047486163099, 0.002609047486163099]","[0.0, -1.5707963267948966, 0.0, 0.0, 0.0, 0.0]",0.002,7,1
0,-1,"[0.001596127252499871, -1.5692001995423972, 0.001596127252499871, 0.001596127252499871, 0.001596127252499871, 0.001596127252499871]","[0.0, -1.5707963267948966, 0.0, 0.0, 0.0, 0.0]",0.002,7,1
0,-1,"[0.0011856671356682419, -1.5696106596592285, 0.0011856671356682419, 0.0011856671356682419, 0.0011856671356682419, 0.0011856671356682419]","[0.0, -1.5707963267948966, 0.0, 0.0, 0.0, 0.0]",0.002,7,1
0,-1,"[0.000621361931212927, -1.5701749648636838, 0.000621361931212927, 0.000621361931212927, 0.000621361931212927, 0.000621361931212927]","[0.0, -1.5707963267948966, 0.0, 0.0, 0.0, 0.0]",0.002,7,1
0,-1,"[0.00025305534312553, -1.570543271451771, 0.00025305534312553, 0.00025305534312553, 0.00025305534312553, 0.00025305534312553]","[0.0, -1.5707963267948966, 0.0, 0.0, 0.0, 0.0]",0.002,7,1
0,-1,"[5.275658232352376e-05, -1.5707435702125725, 5.275658232352376e-05, 5.275658232352376e-05, 5.275658232352376e-05, 5.275658232352376e-05]","[0.0, -1.5707963267948966, 0.0, 0.0, 0.0, 0.0]",0.002,7,1
0,-1,"[3.359618292508859e-06, -1.5707929671766045, 3.359618292508859e-06, 3.359618292508859e-06, 3.359618292508859e-06, 3.359618292508859e-06]","[0.0, -1.5707963267948966, 0.0, 0.0, 0.0, 0.0]",0.002,7,1
0,-1,"[0.0, -1.5707963267948966, 0.0, 0.0, 0.0, 0.0]","[0.0, -1.5707963267948966, 0.0, 0.0, 0.0, 0.0]",0.002,7,1
0,-1,"[0.0, -1.5707963267948966, 0.0, 0.0, 0.0, 0.0]","[0.0, -1.5707963267948966, 0.0, 0.0, 0.0, 0.0]",0.002,7,1
0,-1,"[0.0, -1.5707963267948966, 0.0, 0.0, 0.0, 0.0]","[0.0, -1.5707963267948966, 0.0, 0.0, 0.0, 0.0]",0.002,7,1
0,-1,"[0.0, -1.5707963267948966, 0.0, 0.0, 0.0, 0.0]","[0.0, -1.5707963267948966, 0.0, 0.0, 0.0, 0.0]",0.002,7,1
0,-1,"[0.0, -1.5707963267948966, 0.0, 0.0, 0.0, 0.0]","[0.0, -1.5707963267948966, 0.0, 0.0, 0.0, 0.0]",0.002,7,1
0,-1,"[0.0, -1.5707963267948966, 0.0, 0.0, 0.0, 0.0]","[0.0, -1.5707963267948966, 0.0, 0.0, 0.0, 0.0]",0.002,7,1
0,-1,"[0.0, -1.5707963267948966, 0.0, 0.0, 0.0, 0.0]","[0.0, -1.5707963267948966, 0.0, 0.0, 0.0, 0.0]",0.002,7,1
0,-1,"[0.0, -1.5707963267948966, 0.0, 0.0, 0.0, 0.0]","[0.0, -1.5707963267948966, 0.0, 0.0, 0.0, 0.0]",0.002,7,1
0,-1,"[0.0, -1.5707963267948966, 0.0, 0.0, 0.0, 0.0]","[0.0, -1.5707963267948966, 0.0, 0.0, 0.0, 0.0]",0.002,7,1
0,-1,"[0.0, -1.5707963267948966, 0.0, 0.0, 0.0, 0.0]","[0.0, -1.5707963267948966, 0.0, 0.0, 0.0, 0.0]",0.002,7,1
0,-1,"[0.0, -1.5707963267948966, 0.0, 0.0, 0.0, 0.0]","[0.0, -1.5707963267948966, 0.0, 0.0, 0.0, 0.0]",0.002,7,1
0,-1,"[0.0, -1.5707963267948966, 0.0, 0.0, 0.0, 0.0]","[0.0, -1.5707963267948966, 0.0, 0.0, 0.0, 0.0]",0.002,7,1
0,-1,"[0.0, -1.5707963267948966, 0.0, 0.0, 0.0, 0.0]","[0.0, -1.5707963267948966, 0.0, 0.0, 0.0, 0.0]",0.002,7,1
0,-1,"[0.0, -1.5707963267948966, 0.0, 0.0, 0.0, 0.0]","[0.0, -1.5707963267948966, 0.0, 0.0, 0.0, 0.0]",0.002,7,1
0,-1,"[0.0, -1.5707963267948966, 0.0, 0.0, 0.0, 0.0]","[0.0, -1.5707963267948966, 0.0, 0.0, 0.0, 0.0]",0.002,7,1
0,-1,"[0.0, -1.5707963267948966, 0.0, 0.0, 0.0, 0.0]","[0.0, -1.5707963267948966, 0.0, 0.0, 0.0, 0.0]",0.002,7,1
0,-1,"[0.0, -1.5707963267948966, 0.0, 0.0, 0.0, 0.0]","[0.0, -1.5707963267948966, 0.0, 0.0, 0.0, 0.0]",0.002,7,1
0,-1,"[0.0, -1.5707963267948966, 0.0, 0.0, 0.0, 0.0]","[0.0, -1.5707963267948966, 0.0, 0.0, 0.0, 0.0]",0.002,7,1
0,-1,"[0.0, -1.5707963267948966, 0.0, 0.0, 0.0, 0.0]","[0.0, -1.5707963267948966, 0.0, 0.0, 0.0, 0.0]",0.002,7,1
0,-1,"[0.0, -1.5707963267948966, 0.0, 0.0, 0.0, 0.0]","[0.0, -1.5707963267948966, 0.0, 0.0, 0.0, 0.0]",0.002,7,1
0,-1,"[0.0, -1.5707963267948966, 0.0, 0.0, 0.0, 0.0]","[0.0, -1.5707963267948966, 0.0, 0.0, 0.0, 0.0]",0.002,7,1
0,-1,"[0.0, -1.5707963267948966, 0.0, 0.0, 0.0, 0.0]","[0.0, -1.5707963267948966, 0.0, 0.0, 0.0, 0.0]",0.002,7,1
0,-1,"[0.0, -1.5707963267948966, 0.0, 0.0, 0.0, 0.0]","[0.0, -1.5707963267948966, 0.0, 0.0, 0.0, 0.0]",0.002,7,1
0,-1,"[0.0, -1.5707963267948966, 0.0, 0.0, 0.0, 0.0]","[0.0, -1.5707963267948966, 0.0, 0.0, 0.0, 0.0]",0.002,7,1
0,-1,"[0.0, -1.5707963267948966, 0.0, 0.0, 0.0, 0.0]","[0.0, -1.5707963267948966, 0.0, 0.0, 0.0, 0.0]",0.002,7,1
0,-1,"[0.0, -1.5707963267948966, 0.0, 0.0, 0.0, 0.0]","[0.0, -1.5707963267948966, 0.0, 0.0, 0.0, 0.0]",0.002,7,1
0,-1,"[0.0, -1.5707963267948966, 0.0, 0.0, 0.0, 0.0]","[0.0, -1.5707963267948966, 0.0, 0.0, 0.0, 0.0]",0.002,7,1
0,-1,"[0.0, -1.5707963267948966, 0.0, 0.0, 0.0, 0.0]","[0.0, -1.5707963267948966, 0.0, 0.0, 0.0, 0.0]",0.002,7,1
0,-1,"[0.0, -1.5707963267948966, 0.0, 0.0, 0.0, 0.0]","[0.0, -1.5707963267948966, 0.0, 0.0, 0.0, 0.0]",0.002,7,1
0,-1,"[0.0, -1.5707963267948966, 0.0, 0.0, 0.0, 0.0]","[0.0, -1.5707963267948966, 0.0, 0.0, 0.0, 0.0]",0.002,7,1
0,-1,"[0.0, -1.5707963267948966, 0.0, 0.0, 0.0, 0.0]","[0.0, -1.5707963267948966, 0.0, 0.0, 0.0, 0.0]",0.002,7,1
0,-1,"[0.0, -1.5707963267948966, 0.0, 0.0, 0.0, 0.0]","[0.0, -1.5707963267948966, 0.0, 0.0, 0.0, 0.0]",0.002,7,1
0,-1,"[0.0, -1.5707963267948966, 0.0, 0.0, 0.0, 0.0]","[0.0, -1.5707963267948966, 0.0, 0.0, 0.0, 0.0]",0.002,7,1
0,-1,"[0.0, -1.5707963267948966, 0.0, 0.0, 0.0, 0.0]","[0.0, -1.5707963267948966, 0.0, 0.0, 0.0, 0.0]",0.002,7,1
0,-1,"[0.0, -1.5707963267948966, 0.0, 0.0, 0.0, 0.0]","[0.0, -1.5707963267948966, 0.0, 0.0, 0.0, 0.0]",0.002,7,1
0,1,"[0.0, -1.5707963267948966, 0.0, 0.0, 0.0, 0.0]","[0.0014631347565993219, -1.5693331920382971, 0.0014631347565993219, 0.0014631347565993219, 0.0014631347565993219, 0.0014631347565993219]",0.002,7,1
0,2,"[0.0, -1.5707963267948966, 0.0, 0.0, 0.0, 0.0]","[0.0029262438068636838, -1.5678700829880328, 0.0029262438068636838, 0.0029262438068636838, 0.0029262438068636838, 0.0029262438068636838]",0.002,7,1
0,3,"[0.0, -1.5707963267948966, 0.0, 0.0, 0.0, 0.0]","[0.004389301444909769, -1.5664070253499869, 0.004389301444909769, 0.004389301444909769, 0.004389301444909769, 0.004389301444909769]",0.002,7,1
0,4,"[5.852539026397288e-07, -1.5707957415409943, 5.852539026397288e-07, 5.852539026397288e-07, 5.852539026397288e-07, 5.852539026397288e-07]","[0.00585228196575754, -1.564944044829139, 0.00585228196575754, 0.00585228196575754, 0.00585228196575754, 0.00585228196575754]",0.002,7,1
0,5,"[2.3372597030480366e-06, -1.5707939895351943, 2.3372597030480366e-06, 2.3372597030480366e-06, 2.3372597030480366e-06, 2.3372597030480366e-06]","[0.00731515966578186, -1.5634811671291147, 0.00731515966578186, 0.00731515966578186, 0.00731515966578186, 0.00731515966578186]",0.002,7,1
0,6,"[5.7742061898570705e-05, -1.5707385847329984, 5.7742061898570705e-05, 5.7742061898570705e-05, 5.7742061898570705e-05, 5.7742061898570705e-05]","[0.008777908843164088, -1.5620184179517325, 0.008777908843164088, 0.008777908843164088, 0.008777908843164088, 0.008777908843164088]",0.002,7,1
0,7,"[0.0001429702597487084, -1.5706533565351481, 0.0001429702597487084, 0.0001429702597487084, 0.0001429702597487084, 0.0001429702597487084]","[0.010240503798343641, -1.5605558229965528, 0.010240503798343641, 0.010240503798343641, 0.010240503798343641, 0.010240503798343641]",0.002,7,1
0,8,"[0.00017113320386972995, -1.5706251935910274, 0.00017113320386972995, 0.00017113320386972995, 0.00017113320386972995, 0.00017113320386972995]","[0.011702918834469523, -1.559093407960427, 0.011702918834469523, 0.011702918834469523, 0.011702918834469523, 0.011702918834469523]",0.002,7,1
0,9,"[0.00020256988058174312, -1.570593756914315, 0.00020256988058174312, 0.00020256988058174312, 0.00020256988058174312, 0.00020256988058174312]","[0.013165128257851795, -1.5576311985370448, 0.013165128257851795, 0.013165128257851795, 0.013165128257851795, 0.013165128257851795]",0.002,7,1
0,10,"[0.00023783311080058898, -1.5705584936840964, 0.00023783311080058898, 0.00023783311080058898, 0.00023783311080058898, 0.00023783311080058898]","[0.01462710637841301, -1.5561692204164836, 0.01462710637841301, 0.01462710637841301, 0.01462710637841301, 0.01462710637841301]",0.002,7,1
0,11,"[0.00027747079592758934, -1.5705188559989693, 0.00027747079592758934, 0.00027747079592758934, 0.00027747079592758934, 0.00027747079592758934]","[0.016088827510139556, -1.554707499284757, 0.016088827510139556, 0.016088827510139556, 0.016088827510139556, 0.016088827510139556]",0.002,7,1
0,12,"[0.00027747079592758934, -1.5705188559989693, 0.00027747079592758934, 0.00027747079592758934, 0.00027747079592758934, 0.00027747079592758934]","[0.01755026597153295, -1.5532460608233636, 0.01755026597153295, 0.01755026597153295, 0.01755026597153295, 0.01755026597153295]",0.002,7,1
0,13,"[0.00032202571792859736, -1.5704743010769686, 0.00032202571792859736, 0.00032202571792859736, 0.00032202571792859736, 0.00032202571792859736]","[0.01901139608606105, -1.5517849307088356, 0.01901139608606105, 0.01901139608606105, 0.01901139608606105, 0.01901139608606105]",0.002,7,1
0,14,"[0.0003720353426617931, -1.5704242914522357, 0.0003720353426617931, 0.0003720353426617931, 0.0003720353426617931, 0.0003720353426617931]","[0.02047219218260916, -1.5503241346122874, 0.02047219218260916, 0.02047219218260916, 0.02047219218260916, 0.02047219218260916]",0.002,7,1
0,15,"[0.00042803162651358076, -1.5703682951683842, 0.00042803162651358076, 0.00042803162651358076, 0.00042803162651358076, 0.00042803162651358076]","[0.021932628595931068, -1.5488636981989654, 0.021932628595931068, 0.021932628595931068, 0.021932628595931068, 0.021932628595931068]",0.002,7,1
0,16,"[0.0004905408264002654, -1.5703057859684977, 0.0004905408264002654, 0.0004905408264002654, 0.0004905408264002654, 0.0004905408264002654]","[0.023392679667099976, -1.5474036471277965, 0.023392679667099976, 0.023392679667099976, 0.023392679667099976, 0.023392679667099976]",0.002,7,1
0,17,"[0.0005600833131914943, -1.5702362434817063, 0.0005600833131914943, 0.0005600833131914943, 0.0005600833131914943, 0.0005600833131914943]","[0.024852319743959288, -1.5459440070509374, 0.024852319743959288, 0.024852319743959288, 0.024852319743959288, 0.024852319743959288]",0.002,7,1
0,18,"[0.0006371733886097429, -1.570159153406288, 0.0006371733886097429, 0.0006371733886097429, 0.0006371733886097429, 0.0006371733886097429]","[0.026311523181573298, -1.5444848036133232, 0.026311523181573298, 0.026311523181573298, 0.026311523181573298, 0.026311523181573298]",0.002,7,1
0,19,"[0.0007223191056584105, -1.5700740076892394, 0.0007223191056584105, 0.0007223191056584105, 0.0007223191056584105, 0.0007223191056584105]","[0.02777026434267781, -1.5430260624522187, 0.02777026434267781, 0.02777026434267781, 0.02777026434267781, 0.02777026434267781]",0.002,7,1
0,20,"[0.0008160220926293627, -1.569980304702269, 0.0008160220926293627, 0.0008160220926293627, 0.0008160220926293627, 0.0008160220926293627]","[0.029228517598130496, -1.5415678091967662, 0.029228517598130496, 0.029228517598130496, 0.029228517598130496, 0.029228517598130496]",0.002,7,1
0,21,"[0.0009187773807390212, -1.5698775494141595, 0.0009187773807390212, 0.0009187773807390212, 0.0009187773807390212, 0.0009187773807390212]","[0.030686257327361223, -1.5401100694675354, 0.030686257327361223, 0.030686257327361223, 0.030686257327361223, 0.030686257327361223]",0.002,7,1
0,22,"[0.0010316567319047973, -1.5697646700629937, 0.0010316567319047973, 0.0010316567319047973, 0.0010316567319047973, 0.0010316567319047973]","[0.0321434579188222, -1.5386528688760743, 0.0321434579188222, 0.0321434579188222, 0.0321434579188222, 0.0321434579188222]",0.002,7,1
0,23,"[0.001155137551310069, -1.5696411892435886, 0.001155137551310069, 0.001155137551310069, 0.001155137551310069, 0.001155137551310069]","[0.0336000937704379, -1.5371962330244586, 0.0336000937704379, 0.0336000937704379, 0.0336000937704379, 0.0336000937704379]",0.002,7,1
0,24,"[0.0012896899337093296, -1.5695066368611892, 0.0012896899337093296, 0.0012896899337093296, 0.0012896899337093296, 0.0012896899337093296]","[0.03505613929005496, -1.5357401875048415, 0.03505613929005496, 0.03505613929005496, 0.03505613929005496, 0.03505613929005496]",0.002,7,1
0,25,"[0.0014357765090082398, -1.5693605502858903, 0.0014357765090082398, 0.0014357765090082398, 0.0014357765090082398, 0.0014357765090082398]","[0.03651156889589173, -1.5342847578990049, 0.03651156889589173, 0.03651156889589173, 0.03651156889589173, 0.03651156889589173]",0.002,7,1
0,26,"[0.0015938522917599283, -1.5692024745031388, 0.0015938522917599283, 0.0015938522917599283, 0.0015938522917599283, 0.0015938522917599283]","[0.037966357016987785, -1.5328299697779089, 0.037966357016987785, 0.037966357016987785, 0.037966357016987785, 0.037966357016987785]",0.002,7,1
0,27,"[0.0017643645346144246, -1.5690319622602846, 0.0017643645346144246, 0.0017643645346144246, 0.0017643645346144246, 0.0017643645346144246]","[0.03942047809365319, -1.5313758487012434, 0.03942047809365319, 0.03942047809365319, 0.03942047809365319, 0.03942047809365319]",0.002,7,1
0,28,"[0.0019477525857563049, -1.5688485742091425, 0.0019477525857563049, 0.0019477525857563049, 0.0019477525857563049, 0.0019477525857563049]","[0.04087390657791752, -1.529922420216979, 0.04087390657791752, 0.04087390657791752, 0.04087390657791752, 0.04087390657791752]",0.002,7,1
0,29,"[0.0021444477503638265, -1.568651879044535, 0.0021444477503638265, 0.0021444477503638265, 0.0021444477503638265, 0.0021444477503638265]","[0.04232661693397876, -1.528469709860918, 0.04232661693397876, 0.04232661693397876, 0.04232661693397876, 0.04232661693397876]",0.002,7,1
0,30,"[0.002354873156121019, -1.568441453638778, 0.002354873156121019, 0.002354873156121019, 0.002354873156121019, 0.002354873156121019]","[0.043778583638651954, -1.5270177431562446, 0.043778583638651954, 0.043778583638651954, 0.043778583638651954, 0.043778583638651954]",0.002,7,1
0,31,"[0.0025794436228123866, -1.568216883172087, 0.0025794436228123866, 0.0025794436228123866, 0.0025794436228123866, 0.0025794436228123866]","[0.045229781181817634, -1.525566545613079, 0.045229781181817634, 0.045229781181817634, 0.045229781181817634, 0.045229781181817634]",0.002,7,1
0,32,"[0.0028185655360280725, -1.567977761258871, 0.0028185655360280725, 0.0028185655360280725, 0.0028185655360280725, 0.0028185655360280725]","[0.046680184066869974, -1.5241161427280265, 0.046680184066869974, 0.046680184066869974, 0.046680184066869974, 0.046680184066869974]",0.002,7,1
0,33,"[0.003072636725005514, -1.5677236900698936, 0.003072636725005514, 0.003072636725005514, 0.003072636725005514, 0.003072636725005514]","[0.0481297668111648, -1.5226665599837317, 0.0481297668111648, 0.0481297668111648, 0.0481297668111648, 0.0481297668111648]",0.002,7,1
0,34,"[0.0033420463446318157, -1.5674542804502671, 0.0033420463446318157, 0.0033420463446318157, 0.0033420463446318157, 0.0033420463446318157]","[0.04957850394646727, -1.5212178228484292, 0.04957850394646727, 0.04957850394646727, 0.04957850394646727, 0.04957850394646727]",0.002,7,1
0,35,"[0.003627174761629255, -1.5671691520332693, 0.003627174761629255, 0.003627174761629255, 0.003627174761629255, 0.003627174761629255]","[0.05102637001939934, -1.5197699567754972, 0.05102637001939934, 0.05102637001939934, 0.05102637001939934, 0.05102637001939934]",0.002,7,1
0,36,"[0.003928393444944524, -1.566867933349954, 0.003928393444944524, 0.003928393444944524, 0.003928393444944524, 0.003928393444944524]","[0.05247333959188701, -1.5183229872030095, 0.05247333959188701, 0.05247333959188701, 0.05247333959188701, 0.05247333959188701]",0.002,7,1
0,37,"[0.00424606486036051, -1.5665502619345384, 0.00424606486036051, 0.00424606486036051, 0.00424606486036051, 0.00424606486036051]","[0.05391938724160719, -1.5168769395532893, 0.05391938724160719, 0.05391938724160719, 0.05391938724160719, 0.05391938724160719]",0.002,7,1
0,38,"[0.004580542369347616, -1.5662157844255509, 0.004580542369347616, 0.004580542369347616, 0.004580542369347616, 0.004580542369347616]","[0.05536448756243436, -1.5154318392324622, 0.05536448756243436, 0.05536448756243436, 0.05536448756243436, 0.05536448756243436]",0.002,7,1
0,39,"[0.004932170132169815, -1.5658641566627285, 0.004932170132169815, 0.004932170132169815, 0.004932170132169815, 0.004932170132169815]","[0.05680861516488699, -1.5139877116300096, 0.05680861516488699, 0.05680861516488699, 0.05680861516488699, 0.05680861516488699]",0.002,7,1
0,40,"[0.005301283015258855, -1.5654950437796398, 0.005301283015258855, 0.005301283015258855, 0.005301283015258855, 0.005301283015258855]","[0.05825174467657355, -1.512544582118323, 0.05825174467657355, 0.05825174467657355, 0.05825174467657355, 0.05825174467657355]",0.002,7,1
0,41,"[0.005688206502868232, -1.56510812029203, 0.005688206502868232, 0.005688206502868232, 0.005688206502868232, 0.005688206502868232]","[0.059693850742638374, -1.5111024760522582, 0.059693850742638374, 0.059693850742638374, 0.059693850742638374, 0.059693850742638374]",0.002,7,1
0,42,"[0.005688206502868232, -1.56510812029203, 0.005688206502868232, 0.005688206502868232, 0.005688206502868232, 0.005688206502868232]","[0.06113490802620702, -1.5096614187686896, 0.06113490802620702, 0.06113490802620702, 0.06113490802620702, 0.06113490802620702]",0.002,7,1
0,43,"[0.00609325661301676, -1.5647030701818814, 0.00609325661301676, 0.00609325661301676, 0.00609325661301676, 0.00609325661301676]","[0.06257489120883153, -1.508221435586065, 0.06257489120883153, 0.06257489120883153, 0.06257489120883153, 0.06257489120883153]",0.002,7,1
0,44,"[0.006516739817729819, -1.5642795869771682, 0.006516739817729819, 0.006516739817729819, 0.006516739817729819, 0.006516739817729819]","[0.06401377499093515, -1.5067825518039615, 0.06401377499093515, 0.06401377499093515, 0.06401377499093515, 0.06401377499093515]",0.002,7,1
0,45,"[0.006958952967584564, -1.5638373738273135, 0.006958952967584564, 0.006958952967584564, 0.006958952967584564, 0.006958952967584564]","[0.06545153409225694, -1.5053447927026395, 0.06545153409225694, 0.06545153409225694, 0.06545153409225694, 0.06545153409225694]",0.002,7,1
0,46,"[0.0074201832205636285, -1.5633761435743345, 0.0074201832205636285, 0.0074201832205636285, 0.0074201832205636285, 0.0074201832205636285]","[0.06688814325229583, -1.5039081835426007, 0.06688814325229583, 0.06688814325229583, 0.06688814325229583, 0.06688814325229583]",0.002,7,1
0,47,"[0.007900707975220127, -1.5628956188196783, 0.007900707975220127, 0.007900707975220127, 0.007900707975220127, 0.007900707975220127]","[0.06832357723075454, -1.5024727495641421, 0.06832357723075454, 0.06832357723075454, 0.06832357723075454, 0.06832357723075454]",0.002,7,1
0,48,"[0.008400794808154971, -1.562395531986743, 0.008400794808154971, 0.008400794808154971, 0.008400794808154971, 0.008400794808154971]","[0.0697578108079829, -1.5010385159869137, 0.0697578108079829, 0.0697578108079829, 0.0697578108079829, 0.0697578108079829]",0.002,7,1
0,49,"[0.008920701415805848, -1.5618756253790922, 0.008920701415805848, 0.008920701415805848, 0.008920701415805848, 0.008920701415805848]","[0.07119081878542106, -1.4996055080094755, 0.07119081878542106, 0.07119081878542106, 0.07119081878542106, 0.07119081878542106]",0.002,7,1
0,50,"[0.009460675560545416, -1.5613356512343524, 0.009460675560545416, 0.009460675560545416, 0.009460675560545416, 0.009460675560545416]","[0.07262257598604217, -1.4981737508088544, 0.07262257598604217, 0.07262257598604217, 0.07262257598604217, 0.07262257598604217]",0.002,7,1
0,51,"[0.010020955021084629, -1.560775371773813, 0.010020955021084629, 0.010020955021084629, 0.010020955021084629, 0.010020955021084629]","[0.07405305725479469, -1.496743269540102, 0.07405305725479469, 0.07405305725479469, 0.07405305725479469, 0.07405305725479469]",0.002,7,1
0,52,"[0.010602340750366342, -1.5601939860445313, 0.010602340750366342, 0.010602340750366342, 0.010602340750366342, 0.010602340750366342]","[0.07548223745904442, -1.495314089335852, 0.07548223745904442, 0.07548223745904442, 0.07548223745904442, 0.07548223745904442]",0.002,7,1
0,53,"[0.011205046259366636, -1.559591280535531, 0.011205046259366636, 0.011205046259366636, 0.011205046259366636, 0.011205046259366636]","[0.076910091489016, -1.4938862353058806, 0.076910091489016, 0.076910091489016, 0.076910091489016, 0.076910091489016]",0.002,7,1
0,54,"[0.011829274739711099, -1.5589670520551868, 0.011829274739711099, 0.011829274739711099, 0.011829274739711099, 0.011829274739711099]","[0.0783365942582341, -1.4924597325366624, 0.0783365942582341, 0.0783365942582341, 0.0783365942582341, 0.0783365942582341]",0.002,7,1
0,55,"[0.012475219034261228, -1.5583211077606363, 0.012475219034261228, 0.012475219034261228, 0.012475219034261228, 0.012475219034261228]","[0.07976172070396417, -1.4910346060909323, 0.07976172070396417, 0.07976172070396417, 0.07976172070396417, 0.07976172070396417]",0.002,7,1
0,56,"[0.013143061612025959, -1.5576532651828714, 0.013143061612025959, 0.013143061612025959, 0.013143061612025959, 0.013143061612025959]","[0.08118544578765281, -1.4896108810072437, 0.08118544578765281, 0.08118544578765281, 0.08118544578765281, 0.08118544578765281]",0.002,7,1
0,57,"[0.013832974547382583, -1.5569633522475144, 0.013832974547382583, 0.013832974547382583, 0.013832974547382583, 0.013832974547382583]","[0.08260774449536759, -1.4881885822995289, 0.08260774449536759, 0.08260774449536759, 0.08260774449536759, 0.08260774449536759]",0.002,7,1
0,58,"[0.014545119503589702, -1.5562512072913073, 0.014545119503589702, 0.014545119503589702, 0.014545119503589702, 0.014545119503589702]","[0.08402859183823665, -1.48676773495666, 0.08402859183823665, 0.08402859183823665, 0.08402859183823665, 0.08402859183823665]",0.002,7,1
0,59,"[0.015279647720573202, -1.5555166790743238, 0.015279647720573202, 0.015279647720573202, 0.015279647720573202, 0.015279647720573202]","[0.08544796285288761, -1.4853483639420089, 0.08544796285288761, 0.08544796285288761, 0.08544796285288761, 0.08544796285288761]",0.002,7,1
0,60,"[0.016036700006964718, -1.5547596267879324, 0.016036700006964718, 0.016036700006964718, 0.016036700006964718, 0.016036700006964718]","[0.08686583260188628, -1.4839304941930103, 0.08686583260188628, 0.08686583260188628, 0.08686583260188628, 0.08686583260188628]",0.002,7,1
0,61,"[0.016816406736370394, -1.5539799200585271, 0.016816406736370394, 0.016816406736370394, 0.016816406736370394, 0.016816406736370394]","[0.0882821761741747, -1.4825141506207218, 0.0882821761741747, 0.0882821761741747, 0.0882821761741747, 0.0882821761741747]",0.002,7,1
0,62,"[0.017618887847846244, -1.553177438947051, 0.017618887847846244, 0.017618887847846244, 0.017618887847846244, 0.017618887847846244]","[0.0896969686855089, -1.4810993581093876, 0.0896969686855089, 0.0896969686855089, 0.0896969686855089, 0.0896969686855089]",0.002,7,1
0,63,"[0.018444252850554854, -1.5523520739443422, 0.018444252850554854, 0.018444252850554854, 0.018444252850554854, 0.018444252850554854]","[0.09111018527889599, -1.4796861415160005, 0.09111018527889599, 0.09111018527889599, 0.09111018527889599, 0.09111018527889599]",0.002,7,1
0,64,"[0.01929260083257666, -1.55150372596232, 0.01929260083257666, 0.01929260083257666, 0.01929260083257666, 0.01929260083257666]","[0.09252180112503099, -1.4782745256698655, 0.09252180112503099, 0.09252180112503099, 0.09252180112503099, 0.09252180112503099]",0.002,7,1
0,65,"[0.020164020473847508, -1.5506323063210488, 0.020164020473847508, 0.020164020473847508, 0.020164020473847508, 0.020164020473847508]","[0.093931791422733, -1.4768645353721634, 0.093931791422733, 0.093931791422733, 0.093931791422733, 0.093931791422733]",0.002,7,1
0,66,"[0.02105859006319275, -1.5497377367317036, 0.02105859006319275, 0.02105859006319275, 0.02105859006319275, 0.02105859006319275]","[0.09534013139938097, -1.4754561953955156, 0.09534013139938097, 0.09534013139938097, 0.09534013139938097, 0.09534013139938097]",0.002,7,1
0,67,"[0.02197637751942666, -1.5488199492754697, 0.02197637751942666, 0.02197637751942666, 0.02197637751942666, 0.02197637751942666]","[0.09674679631134891, -1.4740495304835477, 0.09674679631134891, 0.09674679631134891, 0.09674679631134891, 0.09674679631134891]",0.002,7,1
0,68,"[0.022917440416484487, -1.5478788863784123, 0.022917440416484487, 0.022917440416484487, 0.022917440416484487, 0.022917440416484487]","[0.09815176144444063, -1.4726445653504558, 0.09815176144444063, 0.09815176144444063, 0.09815176144444063, 0.09815176144444063]",0.002,7,1
0,69,"[0.023881826012553124, -1.5469145007823437, 0.023881826012553124, 0.023881826012553124, 0.023881826012553124, 0.023881826012553124]","[0.099555002114324, -1.4712413246805727, 0.099555002114324, 0.099555002114324, 0.099555002114324, 0.099555002114324]",0.002,7,1
0,70,"[0.024869571283164867, -1.545926755511732, 0.024869571283164867, 0.024869571283164867, 0.024869571283164867, 0.024869571283164867]","[0.10095649366696455, -1.469839833127932, 0.10095649366696455, 0.10095649366696455, 0.10095649366696455, 0.10095649366696455]",0.002,7,1
0,71,"[0.024869571283164867, -1.545926755511732, 0.024869571283164867, 0.024869571283164867, 0.024869571283164867, 0.024869571283164867]","[0.10235621147905873, -1.4684401153158377, 0.10235621147905873, 0.10235621147905873, 0.10235621147905873, 0.10235621147905873]",0.002,7,1
0,72,"[0.026915237562882163, -1.5438810892320145, 0.026915237562882163, 0.026915237562882163, 0.026915237562882163, 0.026915237562882163]","[0.1037541309584664, -1.4670421958364301, 0.1037541309584664, 0.1037541309584664, 0.1037541309584664, 0.1037541309584664]",0.002,7,1
0,73,"[0.027973181462360518, -1.5428231453325365, 0.027973181462360518, 0.027973181462360518, 0.027973181462360518, 0.027973181462360518]","[0.10515022754464304, -1.4656460992502536, 0.10515022754464304, 0.10515022754464304, 0.10515022754464304, 0.10515022754464304]",0.002,7,1
0,74,"[0.027973181462360518, -1.5428231453325365, 0.027973181462360518, 0.027973181462360518, 0.027973181462360518, 0.027973181462360518]","[0.1065444767090711, -1.4642518500858255, 0.1065444767090711, 0.1065444767090711, 0.1065444767090711, 0.1065444767090711]",0.002,7,1
0,75,"[0.029054530910448684, -1.5417417958844482, 0.029054530910448684, 0.029054530910448684, 0.029054530910448684, 0.029054530910448684]","[0.10793685395569114, -1.4628594728392055, 0.10793685395569114, 0.10793685395569114, 0.10793685395569114, 0.10793685395569114]",0.002,7,1
0,76,"[0.030159272101867526, -1.540637054693029, 0.030159272101867526, 0.030159272101867526, 0.030159272101867526, 0.030159272101867526]","[0.10932733482133203, -1.4614689919735646, 0.10932733482133203, 0.10932733482133203, 0.10932733482133203, 0.10932733482133203]",0.002,7,1
0,77,"[0.03128738122831497, -1.5395089455665811, 0.03128738122831497, 0.03128738122831497, 0.03128738122831497, 0.03128738122831497]","[0.11071589487614085, -1.4600804319187557, 0.11071589487614085, 0.11071589487614085, 0.11071589487614085, 0.11071589487614085]",0.002,7,1
0,78,"[0.03243882453819603, -1.5383575022566998, 0.03243882453819603, 0.03243882453819603, 0.03243882453819603, 0.03243882453819603]","[0.11210250972401214, -1.4586938170708845, 0.11210250972401214, 0.11210250972401214, 0.11210250972401214, 0.11210250972401214]",0.002,7,1
0,79,"[0.0336135583999848, -1.5371827683949109, 0.0336135583999848, 0.0336135583999848, 0.0336135583999848, 0.0336135583999848]","[0.11348715500301641, -1.4573091717918802, 0.11348715500301641, 0.11348715500301641, 0.11348715500301641, 0.11348715500301641]",0.002,7,1
0,80,"[0.034811529369171375, -1.5359847974257246, 0.034811529369171375, 0.034811529369171375, 0.034811529369171375, 0.034811529369171375]","[0.11486980638582824, -1.4559265204090683, 0.11486980638582824, 0.11486980638582824, 0.11486980638582824, 0.11486980638582824]",0.002,7,1
0,81,"[0.03603267425874562, -1.5347636525361503, 0.03603267425874562, 0.03603267425874562, 0.03603267425874562, 0.03603267425874562]","[0.11625043958015371, -1.4545458872147428, 0.11625043958015371, 0.11625043958015371, 0.11625043958015371, 0.11625043958015371]",0.002,7,1
0,82,"[0.03727692021316853, -1.5335194065817275, 0.03727692021316853, 0.03727692021316853, 0.03727692021316853, 0.03727692021316853]","[0.11762903032915717, -1.4531672964657394, 0.11762903032915717, 0.11762903032915717, 0.11762903032915717, 0.11762903032915717]",0.002,7,1
0,83,"[0.03854418478578084, -1.5322521420091153, 0.03854418478578084, 0.03854418478578084, 0.03854418478578084, 0.03854418478578084]","[0.11900555441188736, -1.4517907723830092, 0.11900555441188736, 0.11900555441188736, 0.11900555441188736, 0.11900555441188736]",0.002,7,1
0,84,"[0.03983437601959749, -1.530961950775299, 0.03983437601959749, 0.03983437601959749, 0.03983437601959749, 0.03983437601959749]","[0.12037998764370307, -1.4504163391511935, 0.12037998764370307, 0.12037998764370307, 0.12037998764370307, 0.12037998764370307]",0.002,7,1
0,85,"[0.04114739253143546, -1.5296489342634612, 0.04114739253143546, 0.04114739253143546, 0.04114739253143546, 0.04114739253143546]","[0.121752305876698, -1.4490440209181985, 0.121752305876698, 0.121752305876698, 0.121752305876698, 0.121752305876698]",0.002,7,1
0,86,"[0.0424831235993215, -1.5283132031955748, 0.0424831235993215, 0.0424831235993215, 0.0424831235993215, 0.0424831235993215]","[0.12312248500012497, -1.4476738417947717, 0.12312248500012497, 0.12312248500012497, 0.12312248500012497, 0.12312248500012497]",0.002,7,1
0,87,"[0.04384144925312525, -1.5269548775417707, 0.04384144925312525, 0.04384144925312525, 0.04384144925312525, 0.04384144925312525]","[0.12449050094081959, -1.4463058258540769, 0.12449050094081959, 0.12449050094081959, 0.12449050094081959, 0.12449050094081959]",0.002,7,1
0,88,"[0.045222789295655604, -1.5255735374992403, 0.045222789295655604, 0.045222789295655604, 0.045222789295655604, 0.045222789295655604]","[0.12585632966362326, -1.4449399971312733, 0.12585632966362326, 0.12585632966362326, 0.12585632966362326, 0.12585632966362326]",0.002,7,1
0,89,"[0.04662700117621256, -1.5241693256186837, 0.04662700117621256, 0.04662700117621256, 0.04662700117621256, 0.04662700117621256]","[0.12721994717180526, -1.4435763796230914, 0.12721994717180526, 0.12721994717180526, 0.12721994717180526, 0.12721994717180526]",0.002,7,1
0,90,"[0.04805393318539202, -1.5227423936095041, 0.04805393318539202, 0.04805393318539202, 0.04805393318539202, 0.04805393318539202]","[0.12858132950748466, -1.4422149972874119, 0.12858132950748466, 0.12858132950748466, 0.12858132950748466, 0.12858132950748466]",0.002,7,1
0,91,"[0.0495034245611077, -1.5212929022337889, 0.0495034245611077, 0.0495034245611077, 0.0495034245611077, 0.0495034245611077]","[0.12994045275205088, -1.4408558740428457, 0.12994045275205088, 0.12994045275205088, 0.12994045275205088, 0.12994045275205088]",0.002,7,1
0,92,"[0.05097530559761336, -1.5198210211972834, 0.05097530559761336, 0.05097530559761336, 0.05097530559761336, 0.05097530559761336]","[0.1312972930265843, -1.4394990337683122, 0.1312972930265843, 0.1312972930265843, 0.1312972930265843, 0.1312972930265843]",0.002,7,1
0,93,"[0.05246939775746393, -1.5183269290374328, 0.05246939775746393, 0.05246939775746393, 0.05246939775746393, 0.05246939775746393]","[0.13265182649227547, -1.438144500302621, 0.13265182649227547, 0.13265182649227547, 0.13265182649227547, 0.13265182649227547]",0.002,7,1
0,94,"[0.05398551378635324, -1.5168108130085436, 0.05398551378635324, 0.05398551378635324, 0.05398551378635324, 0.05398551378635324]","[0.13400402935084416, -1.4367922974440523, 0.13400402935084416, 0.13400402935084416, 0.13400402935084416, 0.13400402935084416]",0.002,7,1
0,95,"[0.0555234578307653, -1.5152728689641313, 0.0555234578307653, 0.0555234578307653, 0.0555234578307653, 0.0555234578307653]","[0.13535387784495734, -1.435442448949939, 0.13535387784495734, 0.13535387784495734, 0.13535387784495734, 0.13535387784495734]",0.002,7,1
0,96,"[0.057083025558375494, -1.5137133012365211, 0.057083025558375494, 0.057083025558375494, 0.057083025558375494, 0.057083025558375494]","[0.13670134825864674, -1.4340949785362498, 0.13670134825864674, 0.13670134825864674, 0.13670134825864674, 0.13670134825864674]",0.002,7,1
0,97,"[0.058664004281137015, -1.51213232251376, 0.058664004281137015, 0.058664004281137015, 0.058664004281137015, 0.058664004281137015]","[0.13804641691772537, -1.4327499098771712, 0.13804641691772537, 0.13804641691772537, 0.13804641691772537, 0.13804641691772537]",0.002,7,1
0,98,"[0.060266173080987494, -1.5105301537139093, 0.060266173080987494, 0.060266173080987494, 0.060266173080987494, 0.060266173080987494]","[0.1393890601902035, -1.431407266604693, 0.1393890601902035, 0.1393890601902035, 0.1393890601902035, 0.1393890601902035]",0.002,7,1
0,99,"[0.06188930293810994, -1.5089070238567865, 0.06188930293810994, 0.06188930293810994, 0.06188930293810994, 0.06188930293810994]","[0.14072925448670395, -1.4300670723081925, 0.14072925448670395, 0.14072925448670395, 0.14072925448670395, 0.14072925448670395]",0.002,7,1
0,100,"[0.06353315686168148, -1.507263169933215, 0.06353315686168148, 0.06353315686168148, 0.06353315686168148, 0.06353315686168148]","[0.14206697626087644, -1.4287293505340202, 0.14206697626087644, 0.14206697626087644, 0.14206697626087644, 0.14206697626087644]",0.002,7,1
0,101,"[0.06519749002304301, -1.5055988367718536, 0.06519749002304301, 0.06519749002304301, 0.06519749002304301, 0.06519749002304301]","[0.14340220200981127, -1.4273941247850852, 0.14340220200981127, 0.14340220200981127, 0.14340220200981127, 0.14340220200981127]",0.002,7,1
0,102,"[0.06688204989122183, -1.503914276903675, 0.06688204989122183, 0.06688204989122183, 0.06688204989122183, 0.06688204989122183]","[0.14473490827445232, -1.4260614185204443, 0.14473490827445232, 0.14473490827445232, 0.14473490827445232, 0.14473490827445232]",0.002,7,1
0,103,"[0.06858657637073945, -1.5022097504241572, 0.06858657637073945, 0.06858657637073945, 0.06858657637073945, 0.06858657637073945]","[0.14606507164000926, -1.4247312551548874, 0.14606507164000926, 0.14606507164000926, 0.14606507164000926, 0.14606507164000926]",0.002,7,1
0,104,"[0.07031080194163558, -1.5004855248532607, 0.07031080194163558, 0.07031080194163558, 0.07031080194163558, 0.07031080194163558]","[0.14739266873636872, -1.4234036580585279, 0.14739266873636872, 0.14739266873636872, 0.14739266873636872, 0.14739266873636872]",0.002,7,1
0,105,"[0.07031080194163558, -1.5004855248532607, 0.07031080194163558, 0.07031080194163558, 0.07031080194163558, 0.07031080194163558]","[0.14871767623850518, -1.4220786505563914, 0.14871767623850518, 0.14871767623850518, 0.14871767623850518, 0.14871767623850518]",0.002,7,1
0,106,"[0.07381724401041868, -1.4969790827844776, 0.07381724401041868, 0.07381724401041868, 0.07381724401041868, 0.07381724401041868]","[0.15004007086689047, -1.420756255928006, 0.15004007086689047, 0.15004007086689047, 0.15004007086689047, 0.15004007086689047]",0.002,7,1
0,107,"[0.07381724401041868, -1.4969790827844776, 0.07381724401041868, 0.07381724401041868, 0.07381724401041868, 0.07381724401041868]","[0.15135982938790307, -1.4194364974069935, 0.15135982938790307, 0.15135982938790307, 0.15135982938790307, 0.15135982938790307]",0.002,7,1
0,108,"[0.0755988896358356, -1.4951974371590602, 0.0755988896358356, 0.0755988896358356, 0.0755988896358356, 0.0755988896358356]","[0.15267692861423607, -1.4181193981806606, 0.15267692861423607, 0.15267692861423607, 0.15267692861423607, 0.15267692861423607]",0.002,7,1
0,109,"[0.07739909290214107, -1.4933972338927548, 0.07739909290214107, 0.07739909290214107, 0.07739909290214107, 0.07739909290214107]","[0.15399134540530465, -1.416804981389592, 0.15399134540530465, 0.15399134540530465, 0.15399134540530465, 0.15399134540530465]",0.002,7,1
0,110,"[0.07921755134003462, -1.4915787754548608, 0.07921755134003462, 0.07921755134003462, 0.07921755134003462, 0.07921755134003462]","[0.15530305666765273, -1.4154932701272438, 0.15530305666765273, 0.15530305666765273, 0.15530305666765273, 0.15530305666765273]",0.002,7,1
0,111,"[0.08105395593851995, -1.4897423708563755, 0.08105395593851995, 0.08105395593851995, 0.08105395593851995, 0.08105395593851995]","[0.15661203935535856, -1.414184287439538, 0.15661203935535856, 0.15661203935535856, 0.15661203935535856, 0.15661203935535856]",0.002,7,1
0,112,"[0.08290799129848467, -1.487888335496411, 0.08290799129848467, 0.08290799129848467, 0.08290799129848467, 0.08290799129848467]","[0.15791827047043971, -1.4128780563244567, 0.15791827047043971, 0.15791827047043971, 0.15791827047043971, 0.15791827047043971]",0.002,7,1
0,113,"[0.08477933578793231, -1.486016991006963, 0.08477933578793231, 0.08477933578793231, 0.08477933578793231, 0.08477933578793231]","[0.1592217270632571, -1.4115745997316393, 0.1592217270632571, 0.1592217270632571, 0.1592217270632571, 0.1592217270632571]",0.002,7,1
0,114,"[0.08666766169879517, -1.4841286650961, 0.08666766169879517, 0.08666766169879517, 0.08666766169879517, 0.08666766169879517]","[0.16052238623291826, -1.4102739405619782, 0.16052238623291826, 0.16052238623291826, 0.16052238623291826, 0.16052238623291826]",0.002,7,1
0,115,"[0.08857263540525546, -1.48222369138964, 0.08857263540525546, 0.08857263540525546, 0.08857263540525546, 0.08857263540525546]","[0.16182022512767957, -1.4089761016672169, 0.16182022512767957, 0.16182022512767957, 0.16182022512767957, 0.16182022512767957]",0.002,7,1
0,116,"[0.0904944389061402, -1.4803018878887553, 0.0904944389061402, 0.0904944389061402, 0.0904944389061402, 0.0904944389061402]","[0.16311522094534786, -1.4076811058495486, 0.16311522094534786, 0.16311522094534786, 0.16311522094534786, 0.16311522094534786]",0.002,7,1
0,117,"[0.09243220250128248, -1.4783641242936127, 0.09243220250128248, 0.09243220250128248, 0.09243220250128248, 0.09243220250128248]","[0.16440735093368103, -1.4063889758612156, 0.16440735093368103, 0.16440735093368103, 0.16440735093368103, 0.16440735093368103]",0.002,7,1
0,118,"[0.09438609472390447, -1.4764102320709904, 0.09438609472390447, 0.09438609472390447, 0.09438609472390447, 0.09438609472390447]","[0.16569659239078768, -1.405099734404109, 0.16569659239078768, 0.16569659239078768, 0.16569659239078768, 0.16569659239078768]",0.002,7,1
0,119,"[0.0963557552436793, -1.4744405715512157, 0.0963557552436793, 0.0963557552436793, 0.0963557552436793, 0.0963557552436793]","[0.1669829226655261, -1.4038134041293704, 0.1669829226655261, 0.1669829226655261, 0.1669829226655261, 0.1669829226655261]",0.002,7,1
0,120,"[0.09834081843861148, -1.4724555083562834, 0.09834081843861148, 0.09834081843861148, 0.09834081843861148, 0.09834081843861148]","[0.16826631915790213, -1.4025300076369944, 0.16826631915790213, 0.16826631915790213, 0.16826631915790213, 0.16826631915790213]",0.002,7,1
0,121,"[0.10034091356395494, -1.4704554132309395, 0.10034091356395494, 0.10034091356395494, 0.10034091356395494, 0.10034091356395494]","[0.16954675931946636, -1.4012495674754302, 0.16954675931946636, 0.16954675931946636, 0.16954675931946636, 0.16954675931946636]",0.002,7,1
0,122,"[0.10235566492218696, -1.468440661872707, 0.10235566492218696, 0.10235566492218696, 0.10235566492218696, 0.10235566492218696]","[0.1708242206537101, -1.3999721061411865, 0.1708242206537101, 0.1708242206537101, 0.1708242206537101, 0.1708242206537101]",0.002,7,1
0,123,"[0.10438469203396389, -1.46641163476093, 0.10438469203396389, 0.10438469203396389, 0.10438469203396389, 0.10438469203396389]","[0.17209868071646084, -1.3986976460784357, 0.17209868071646084, 0.17209868071646084, 0.17209868071646084, 0.17209868071646084]",0.002,7,1
0,124,"[0.10642760980998435, -1.4643687169849091, 0.10642760980998435, 0.10642760980998435, 0.10642760980998435, 0.10642760980998435]","[0.17337011711627637, -1.39742620967862, 0.17337011711627637, 0.17337011711627637, 0.17337011711627637, 0.17337011711627637]",0.002,7,1
0,125,"[0.10848402872368618, -1.4623122980712076, 0.10848402872368618, 0.10848402872368618, 0.10848402872368618, 0.10848402872368618]","[0.17463850751483836, -1.396157819280058, 0.17463850751483836, 0.17463850751483836, 0.17463850751483836, 0.17463850751483836]",0.002,7,1
0,126,"[0.1105535549847029, -1.460242771810191, 0.1105535549847029, 0.1105535549847029, 0.1105535549847029, 0.1105535549847029]","[0.1759038296273448, -1.3948924971675518, 0.1759038296273448, 0.1759038296273448, 0.1759038296273448, 0.1759038296273448]",0.002,7,1
0,127,"[0.11263579071300615, -1.4581605360818877, 0.11263579071300615, 0.11263579071300615, 0.11263579071300615, 0.11263579071300615]","[0.17716606122290135, -1.3936302655719952, 0.17716606122290135, 0.17716606122290135, 0.17716606122290135, 0.17716606122290135]",0.002,7,1
0,128,"[0.11473033411366032, -1.4560659926812338, 0.11473033411366032, 0.11473033411366032, 0.11473033411366032, 0.11473033411366032]","[0.1784251801249122, -1.3923711466699844, 0.1784251801249122, 0.1784251801249122, 0.1784251801249122, 0.1784251801249122]",0.002,7,1
0,129,"[0.11683677965211604, -1.4539595471427784, 0.11683677965211604, 0.11683677965211604, 0.11683677965211604, 0.11683677965211604]","[0.17968116421146949, -1.391115162583427, 0.17968116421146949, 0.17968116421146949, 0.17968116421146949, 0.17968116421146949]",0.002,7,1
0,130,"[0.11895471822996934, -1.4518416085649255, 0.11895471822996934, 0.11895471822996934, 0.11895471822996934, 0.11895471822996934]","[0.18093399141574204, -1.3898623353791546, 0.18093399141574204, 0.18093399141574204, 0.18093399141574204, 0.18093399141574204]",0.002,7,1
0,131,"[0.1210837373611135, -1.4497125894337817, 0.1210837373611135, 0.1210837373611135, 0.1210837373611135, 0.1210837373611135]","[0.18218363972636314, -1.3886126870685334, 0.18218363972636314, 0.18218363972636314, 0.18218363972636314, 0.18218363972636314]",0.002,7,1
0,132,"[0.12322342134821093, -1.447572905446684, 0.12322342134821093, 0.12322342134821093, 0.12322342134821093, 0.12322342134821093]","[0.1834300871878171, -1.3873662396070794, 0.1834300871878171, 0.1834300871878171, 0.1834300871878171, 0.1834300871878171]",0.002,7,1
0,133,"[0.12537335145941278, -1.4454229753354824, 0.12537335145941278, 0.12537335145941278, 0.12537335145941278, 0.12537335145941278]","[0.18467331190082506, -1.3861230148940715, 0.18467331190082506, 0.18467331190082506, 0.18467331190082506, 0.18467331190082506]",0.002,7,1
0,134,"[0.1275331061052542, -1.4432632206896407, 0.1275331061052542, 0.1275331061052542, 0.1275331061052542, 0.1275331061052542]","[0.18591329202272994, -1.3848830347721666, 0.18591329202272994, 0.18591329202272994, 0.18591329202272994, 0.18591329202272994]",0.002,7,1
0,135,"[0.1297022610156536, -1.4410940657792413, 0.1297022610156536, 0.1297022610156536, 0.1297022610156536, 0.1297022610156536]","[0.18715000576787988, -1.3836463210270167, 0.18715000576787988, 0.18715000576787988, 0.18715000576787988, 0.18715000576787988]",0.002,7,1
0,136,"[0.1318803894169447, -1.43891593737795, 0.1318803894169447, 0.1318803894169447, 0.1318803894169447, 0.1318803894169447]","[0.18838343140801123, -1.3824128953868853, 0.18838343140801123, 0.18838343140801123, 0.18838343140801123, 0.18838343140801123]",0.002,7,1
0,137,"[0.13406706220887032, -1.4367292645860248, 0.13406706220887032, 0.13406706220887032, 0.13406706220887032, 0.13406706220887032]","[0.18961354727263016, -1.3811827795222664, 0.18961354727263016, 0.18961354727263016, 0.18961354727263016, 0.18961354727263016]",0.002,7,1
0,138,"[0.13626184814146802, -1.4345344786534273, 0.13626184814146802, 0.13626184814146802, 0.13626184814146802, 0.13626184814146802]","[0.1908403317493935, -1.3799559950455031, 0.1908403317493935, 0.1908403317493935, 0.1908403317493935, 0.1908403317493935]",0.002,7,1
0,139,"[0.13626184814146802, -1.4345344786534273, 0.13626184814146802, 0.13626184814146802, 0.13626184814146802, 0.13626184814146802]","[0.1920637632844885, -1.378732563510408, 0.1920637632844885, 0.1920637632844885, 0.1920637632844885, 0.1920637632844885]",0.002,7,1
0,140,"[0.13846431399177675, -1.4323320128031183, 0.13846431399177675, 0.13846431399177675, 0.13846431399177675, 0.13846431399177675]","[0.19328382038301126, -1.3775125064118854, 0.19328382038301126, 0.19328382038301126, 0.19328382038301126, 0.19328382038301126]",0.002,7,1
0,141,"[0.14067402474029597, -1.430122302054599, 0.14067402474029597, 0.14067402474029597, 0.14067402474029597, 0.14067402474029597]","[0.19450048160934472, -1.3762958451855518, 0.19450048160934472, 0.19450048160934472, 0.19450048160934472, 0.19450048160934472]",0.002,7,1
0,142,"[0.1428905437471277, -1.427905783047767, 0.1428905437471277, 0.1428905437471277, 0.1428905437471277, 0.1428905437471277]","[0.19571372558753505, -1.3750826012073616, 0.19571372558753505, 0.19571372558753505, 0.19571372558753505, 0.19571372558753505]",0.002,7,1
0,143,"[0.1451134329277334, -1.4256828938671617, 0.1451134329277334, 0.1451134329277334, 0.1451134329277334, 0.1451134329277334]","[0.1969235310016672, -1.3738727957932293, 0.1969235310016672, 0.1969235310016672, 0.1969235310016672, 0.1969235310016672]",0.002,7,1
0,144,"[0.14734225292823758, -1.4234540738666572, 0.14734225292823758, 0.14734225292823758, 0.14734225292823758, 0.14734225292823758]","[0.19812987659623962, -1.372666450198657, 0.19812987659623962, 0.19812987659623962, 0.19812987659623962, 0.19812987659623962]",0.002,7,1
0,145,"[0.14957656330021116, -1.4212197634946833, 0.14957656330021116, 0.14957656330021116, 0.14957656330021116, 0.14957656330021116]","[0.1993327411765374, -1.3714635856183592, 0.1993327411765374, 0.1993327411765374, 0.1993327411765374, 0.1993327411765374]",0.002,7,1
0,146,"[0.15181592267486782, -1.4189804041200267, 0.15181592267486782, 0.15181592267486782, 0.15181592267486782, 0.15181592267486782]","[0.2005321036090049, -1.3702642231858917, 0.2005321036090049, 0.2005321036090049, 0.2005321036090049, 0.2005321036090049]",0.002,7,1
0,147,"[0.15405988893660727, -1.4167364378582876, 0.15405988893660727, 0.15405988893660727, 0.15405988893660727, 0.15405988893660727]","[0.20172794282161693, -1.3690683839732796, 0.20172794282161693, 0.20172794282161693, 0.20172794282161693, 0.20172794282161693]",0.002,7,1
0,148,"[0.15630801939584013, -1.414488307399055, 0.15630801939584013, 0.15630801939584013, 0.15630801939584013, 0.15630801939584013]","[0.2029202378042491, -1.3678760889906474, 0.2029202378042491, 0.2029202378042491, 0.2029202378042491, 0.2029202378042491]",0.002,7,1
0,149,"[0.1585598709610299, -1.412236455833865, 0.1585598709610299, 0.1585598709610299, 0.1585598709610299, 0.1585598709610299]","[0.20410896760904662, -1.36668735918585, 0.20410896760904662, 0.20410896760904662, 0.20410896760904662, 0.20410896760904662]",0.002,7,1
0,150,"[0.16081500030988768, -1.4099813264850072, 0.16081500030988768, 0.16081500030988768, 0.16081500030988768, 0.16081500030988768]","[0.20529411135079287, -1.3655022154441037, 0.20529411135079287, 0.20529411135079287, 0.20529411135079287, 0.20529411135079287]",0.002,7,1
0,151,"[0.16307344097765009, -1.407722885817245, 0.16307344097765009, 0.16307344097765009, 0.16307344097765009, 0.16307344097765009]","[0.20647564820727587, -1.3643206785876207, 0.20647564820727587, 0.20647564820727587, 0.20647564820727587, 0.20647564820727587]",0.002,7,1
0,152,"[0.16533474521205846, -1.4054615815828368, 0.16533474521205846, 0.16533474521205846, 0.16533474521205846, 0.16533474521205846]","[0.2076535574196543, -1.3631427693752423, 0.2076535574196543, 0.2076535574196543, 0.2076535574196543, 0.2076535574196543]",0.002,7,1
0,153,"[0.16759846536751588, -1.4031978614273797, 0.16759846536751588, 0.16759846536751588, 0.16759846536751588, 0.16759846536751588]","[0.20882781829282224, -1.3619685085020743, 0.20882781829282224, 0.20882781829282224, 0.20882781829282224, 0.20882781829282224]",0.002,7,1
0,154,"[0.16986415407517647, -1.4009321727197195, 0.16986415407517647, 0.16986415407517647, 0.16986415407517647, 0.16986415407517647]","[0.20999841019577276, -1.3607979165991237, 0.20999841019577276, 0.20999841019577276, 0.20999841019577276, 0.20999841019577276]",0.002,7,1
0,155,"[0.1721313644119289, -1.3986649623829672, 0.1721313644119289, 0.1721313644119289, 0.1721313644119289, 0.1721313644119289]","[0.21116531256196036, -1.3596310142329362, 0.21116531256196036, 0.21116531256196036, 0.21116531256196036, 0.21116531256196036]",0.002,7,1
0,156,"[0.17439965006821315, -1.3963966767266829, 0.17439965006821315, 0.17439965006821315, 0.17439965006821315, 0.17439965006821315]","[0.2123285048896623, -1.3584678219052342, 0.2123285048896623, 0.2123285048896623, 0.2123285048896623, 0.2123285048896623]",0.002,7,1
0,157,"[0.17666856551461071, -1.3941277612802851, 0.17666856551461071, 0.17666856551461071, 0.17666856551461071, 0.17666856551461071]","[0.2134879667423388, -1.3573083600525577, 0.2134879667423388, 0.2134879667423388, 0.2134879667423388, 0.2134879667423388]",0.002,7,1
0,158,"[0.17893766616714885, -1.3918586606277472, 0.17893766616714885, 0.17893766616714885, 0.17893766616714885, 0.17893766616714885]","[0.2146436777489922, -1.3561526490459044, 0.2146436777489922, 0.2146436777489922, 0.2146436777489922, 0.2146436777489922]",0.002,7,1
0,159,"[0.18120650855126075, -1.3895898182436355, 0.18120650855126075, 0.18120650855126075, 0.18120650855126075, 0.18120650855126075]","[0.2157956176045248, -1.3550007091903717, 0.2157956176045248, 0.2157956176045248, 0.2157956176045248, 0.2157956176045248]",0.002,7,1
0,160,"[0.1834746504643444, -1.3873216763305516, 0.1834746504643444, 0.1834746504643444, 0.1834746504643444, 0.1834746504643444]","[0.21694376607009538, -1.353852560724801, 0.21694376607009538, 0.21694376607009538, 0.21694376607009538, 0.21694376607009538]",0.002,7,1
0,161,"[0.18574165113686344, -1.3850546756580329, 0.18574165113686344, 0.18574165113686344, 0.18574165113686344, 0.18574165113686344]","[0.21808810297347536, -1.3527082238214212, 0.21808810297347536, 0.21808810297347536, 0.21808810297347536, 0.21808810297347536]",0.002,7,1
0,162,"[0.18800707139193443, -1.3827892554029617, 0.18800707139193443, 0.18800707139193443, 0.18800707139193443, 0.18800707139193443]","[0.21922860820940257, -1.351567718585494, 0.21922860820940257, 0.21922860820940257, 0.21922860820940257, 0.21922860820940257]",0.002,7,1
0,163,"[0.19027047380334625, -1.3805258529915498, 0.19027047380334625, 0.19027047380334625, 0.19027047380334625, 0.19027047380334625]","[0.22036526173993484, -1.3504310650549618, 0.22036526173993484, 0.22036526173993484, 0.22036526173993484, 0.22036526173993484]",0.002,7,1
0,164,"[0.19253142285195765, -1.3782649039429389, 0.19253142285195765, 0.19253142285195765, 0.19253142285195765, 0.19253142285195765]","[0.221498043594802, -1.3492982832000946, 0.221498043594802, 0.221498043594802, 0.221498043594802, 0.221498043594802]",0.002,7,1
0,165,"[0.19478948508042035, -1.3760068417144762, 0.19478948508042035, 0.19478948508042035, 0.19478948508042035, 0.19478948508042035]","[0.22262693387175675, -1.3481693929231398, 0.22262693387175675, 0.22262693387175675, 0.22262693387175675, 0.22262693387175675]",0.002,7,1
0,166,"[0.1970442292461761, -1.3737520975487207, 0.1970442292461761, 0.1970442292461761, 0.1970442292461761, 0.1970442292461761]","[0.22375191273692427, -1.3470444140579723, 0.22375191273692427, 0.22375191273692427, 0.22375191273692427, 0.22375191273692427]",0.002,7,1
0,167,"[0.19929522647267675, -1.3715011003222202, 0.19929522647267675, 0.19929522647267675, 0.19929522647267675, 0.19929522647267675]","[0.22487296042515073, -1.3459233663697459, 0.22487296042515073, 0.22487296042515073, 0.22487296042515073, 0.22487296042515073]",0.002,7,1
0,168,"[0.20154205039877804, -1.369254276396119, 0.20154205039877804, 0.20154205039877804, 0.20154205039877804, 0.20154205039877804]","[0.22599005724035057, -1.344806269554546, 0.22599005724035057, 0.22599005724035057, 0.22599005724035057, 0.22599005724035057]",0.002,7,1
0,169,"[0.20154205039877804, -1.369254276396119, 0.20154205039877804, 0.20154205039877804, 0.20154205039877804, 0.20154205039877804]","[0.22710318355585246, -1.3436931432390442, 0.22710318355585246, 0.22710318355585246, 0.22710318355585246, 0.22710318355585246]",0.002,7,1
0,170,"[0.20378427732625798, -1.3670120494686389, 0.20378427732625798, 0.20378427732625798, 0.20378427732625798, 0.20378427732625798]","[0.22821231981474427, -1.3425840069801522, 0.22821231981474427, 0.22821231981474427, 0.22821231981474427, 0.22821231981474427]",0.002,7,1
0,171,"[0.2060214863654126, -1.364774840429484, 0.2060214863654126, 0.2060214863654126, 0.2060214863654126, 0.2060214863654126]","[0.22931744653021657, -1.34147888026468, 0.22931744653021657, 0.22931744653021657, 0.22931744653021657, 0.22931744653021657]",0.002,7,1
0,172,"[0.20825325957868224, -1.3625430672162144, 0.20825325957868224, 0.20825325957868224, 0.20825325957868224, 0.20825325957868224]","[0.23041854428590497, -1.3403777825089915, 0.23041854428590497, 0.23041854428590497, 0.23041854428590497, 0.23041854428590497]",0.002,7,1
0,173,"[0.21047918212226313, -1.3603171446726332, 0.21047918212226313, 0.21047918212226313, 0.21047918212226313, 0.21047918212226313]","[0.2315155937362314, -1.3392807330586651, 0.2315155937362314, 0.2315155937362314, 0.2315155937362314, 0.2315155937362314]",0.002,7,1
0,174,"[0.21269884238565953, -1.358097484409237, 0.21269884238565953, 0.21269884238565953, 0.21269884238565953, 0.21269884238565953]","[0.2326085756067438, -1.3381877511881528, 0.2326085756067438, 0.2326085756067438, 0.2326085756067438, 0.2326085756067438]",0.002,7,1
0,175,"[0.2149118321291334, -1.355884494665763, 0.2149118321291334, 0.2149118321291334, 0.2149118321291334, 0.2149118321291334]","[0.23369747069445496, -1.3370988561004415, 0.23369747069445496, 0.23369747069445496, 0.23369747069445496, 0.23369747069445496]",0.002,7,1
0,176,"[0.21711774661900912, -1.3536785801758873, 0.21711774661900912, 0.21711774661900912, 0.21711774661900912, 0.21711774661900912]","[0.2347822598681798, -1.3360140669267166, 0.2347822598681798, 0.2347822598681798, 0.2347822598681798, 0.2347822598681798]",0.002,7,1
0,177,"[0.21931618476079248, -1.351480142034104, 0.21931618476079248, 0.21931618476079248, 0.21931618476079248, 0.21931618476079248]","[0.23586292406887144, -1.3349334027260251, 0.23586292406887144, 0.23586292406887144, 0.23586292406887144, 0.23586292406887144]",0.002,7,1
0,178,"[0.22150674923006353, -1.349289577564833, 0.22150674923006353, 0.22150674923006353, 0.22150674923006353, 0.22150674923006353]","[0.2369394443099562, -1.3338568824849404, 0.2369394443099562, 0.2369394443099562, 0.2369394443099562, 0.2369394443099562]",0.002,7,1
0,179,"[0.2236890466011047, -1.347107280193792, 0.2236890466011047, 0.2236890466011047, 0.2236890466011047, 0.2236890466011047]","[0.23801180167766697, -1.3327845251172297, 0.23801180167766697, 0.23801180167766697, 0.23801180167766697, 0.23801180167766697]",0.002,7,1
0,180,"[0.22586268747322644, -1.3449336393216704, 0.22586268747322644, 0.22586268747322644, 0.22586268747322644, 0.22586268747322644]","[0.23907997733137584, -1.3317163494635207, 0.23907997733137584, 0.23907997733137584, 0.23907997733137584, 0.23907997733137584]",0.002,7,1
0,181,"[0.22802728659475371, -1.3427690402001433, 0.22802728659475371, 0.22802728659475371, 0.22802728659475371, 0.22802728659475371]","[0.24014395250392476, -1.3306523742909717, 0.24014395250392476, 0.24014395250392476, 0.24014395250392476, 0.24014395250392476]",0.002,7,1
0,182,"[0.23018289192758498, -1.3406134348673122, 0.23018289192758498, 0.23018289192758498, 0.23018289192758498, 0.23018289192758498]","[0.24120370850195544, -1.3295926182929412, 0.24120370850195544, 0.24120370850195544, 0.24120370850195544, 0.24120370850195544]",0.002,7,1
0,183,"[0.23232912246258078, -1.338467204332316, 0.23232912246258078, 0.23232912246258078, 0.23232912246258078, 0.23232912246258078]","[0.24225922670623787, -1.3285371000886588, 0.24225922670623787, 0.24225922670623787, 0.24225922670623787, 0.24225922670623787]",0.002,7,1
0,184,"[0.23446560154638316, -1.336330725248514, 0.23446560154638316, 0.23446560154638316, 0.23446560154638316, 0.23446560154638316]","[0.24331048857199725, -1.3274858382228993, 0.24331048857199725, 0.24331048857199725, 0.24331048857199725, 0.24331048857199725]",0.002,7,1
0,185,"[0.23659195699846494, -1.3342043697964323, 0.23659195699846494, 0.23659195699846494, 0.23659195699846494, 0.23659195699846494]","[0.24435747562923996, -1.3264388511656566, 0.24435747562923996, 0.24435747562923996, 0.24435747562923996, 0.24435747562923996]",0.002,7,1
0,186,"[0.23870782122571735, -1.33208850556918, 0.23870782122571735, 0.23870782122571735, 0.23870782122571735, 0.23870782122571735]","[0.24540016948307797, -1.3253961573118187, 0.24540016948307797, 0.24540016948307797, 0.24540016948307797, 0.24540016948307797]",0.002,7,1
0,187,"[0.24081283133454476, -1.3299834954603522, 0.24081283133454476, 0.24081283133454476, 0.24081283133454476, 0.24081283133454476]","[0.2464385518140521, -1.3243577749808444, 0.2464385518140521, 0.2464385518140521, 0.2464385518140521, 0.2464385518140521]",0.002,7,1
0,188,"[0.24290662924043707, -1.3278896975544603, 0.24290662924043707, 0.24290662924043707, 0.24290662924043707, 0.24290662924043707]","[0.24747260437845386, -1.3233237224164427, 0.24747260437845386, 0.24747260437845386, 0.24747260437845386, 0.24747260437845386]",0.002,7,1
0,189,"[0.2449888617749911, -1.3258074650199063, 0.2449888617749911, 0.2449888617749911, 0.2449888617749911, 0.2449888617749911]","[0.24850230900864587, -1.3222940177862508, 0.24850230900864587, 0.24850230900864587, 0.24850230900864587, 0.24850230900864587]",0.002,7,1
0,190,"[0.2470591807903534, -1.323737146004544, 0.2470591807903534, 0.2470591807903534, 0.2470591807903534, 0.2470591807903534]","[0.24952764761338125, -1.3212686791815154, 0.24952764761338125, 0.24952764761338125, 0.24952764761338125, 0.24952764761338125]",0.002,7,1
0,191,"[0.2491172432610588, -1.321679083533839, 0.2491172432610588, 0.2491172432610588, 0.2491172432610588, 0.2491172432610588]","[0.2505486021781214, -1.3202477246167752, 0.2505486021781214, 0.2505486021781214, 0.2505486021781214, 0.2505486021781214]",0.002,7,1
0,192,"[0.251162711383239, -1.319633615411659, 0.251162711383239, 0.251162711383239, 0.251162711383239, 0.251162711383239]","[0.2515651547653524, -1.3192311720295442, 0.2515651547653524, 0.2515651547653524, 0.2515651547653524, 0.2515651547653524]",0.002,7,1
0,193,"[0.25319525267117815, -1.3176010741237203, 0.25319525267117815, 0.25319525267117815, 0.25319525267117815, 0.25319525267117815]","[0.2525772875149003, -1.3182190392799962, 0.2525772875149003, 0.2525772875149003, 0.2525772875149003, 0.2525772875149003]",0.002,7,1
0,194,"[0.25521454005119243, -1.3155817867437056, 0.25521454005119243, 0.25521454005119243, 0.25521454005119243, 0.25521454005119243]","[0.2535849826442447, -1.3172113441506519, 0.2535849826442447, 0.2535849826442447, 0.2535849826442447, 0.2535849826442447]",0.002,7,1
0,195,"[0.2572202519528123, -1.3135760748420857, 0.2572202519528123, 0.2572202519528123, 0.2572202519528123, 0.2572202519528123]","[0.25458822244883156, -1.316208104346065, 0.25458822244883156, 0.25458822244883156, 0.25458822244883156, 0.25458822244883156]",0.002,7,1
0,196,"[0.2592120723972473, -1.3115842543976504, 0.2592120723972473, 0.2592120723972473, 0.2592120723972473, 0.2592120723972473]","[0.25558698930238394, -1.3152093374925127, 0.25558698930238394, 0.25558698930238394, 0.25558698930238394, 0.25558698930238394]",0.002,7,1
0,197,"[0.2611896910831145, -1.3096066357117833, 0.2611896910831145, 0.2611896910831145, 0.2611896910831145, 0.2611896910831145]","[0.2565812656572116, -1.314215061137685, 0.2565812656572116, 0.2565812656572116, 0.2565812656572116, 0.2565812656572116]",0.002,7,1
0,198,"[0.2631528034694128, -1.3076435233254848, 0.2631528034694128, 0.2631528034694128, 0.2631528034694128, 0.2631528034694128]","[0.25757103404451975, -1.313225292750377, 0.25757103404451975, 0.25757103404451975, 0.25757103404451975, 0.25757103404451975]",0.002,7,1
0,199,"[0.26510111085572646, -1.3056952159391715, 0.26510111085572646, 0.26510111085572646, 0.26510111085572646, 0.26510111085572646]","[0.2585562770747155, -1.312240049720181, 0.2585562770747155, 0.2585562770747155, 0.2585562770747155, 0.2585562770747155]",0.002,7,1
0,200,"[0.26703432045964287, -1.3037620063352549, 0.26703432045964287, 0.26703432045964287, 0.26703432045964287, 0.26703432045964287]","[0.25953697743771353, -1.311259349357183, 0.25953697743771353, 0.25953697743771353, 0.25953697743771353, 0.25953697743771353]",0.002,7,1
0,201,"[0.26703432045964287, -1.3037620063352549, 0.26703432045964287, 0.26703432045964287, 0.26703432045964287, 0.26703432045964287]","[0.2605131179032405, -1.310283208891656, 0.2605131179032405, 0.2605131179032405, 0.2605131179032405, 0.2605131179032405]",0.002,7,1
0,202,"[0.2689521454913697, -1.3018441813035277, 0.2689521454913697, 0.2689521454913697, 0.2689521454913697, 0.2689521454913697]","[0.2614846813211372, -1.3093116454737594, 0.2614846813211372, 0.2614846813211372, 0.2614846813211372, 0.2614846813211372]",0.002,7,1
0,203,"[0.2708543052255395, -1.2999420215693576, 0.2708543052255395, 0.2708543052255395, 0.2708543052255395, 0.2708543052255395]","[0.2624516506216604, -1.308344676173236, 0.2624516506216604, 0.2624516506216604, 0.2624516506216604, 0.2624516506216604]",0.002,7,1
0,204,"[0.27274052507018914, -1.2980558017247077, 0.27274052507018914, 0.27274052507018914, 0.27274052507018914, 0.27274052507018914]","[0.26341400881578264, -1.307382317979114, 0.26341400881578264, 0.26341400881578264, 0.26341400881578264, 0.26341400881578264]",0.002,7,1
0,205,"[0.27461053663290413, -1.296185790161993, 0.27461053663290413, 0.27461053663290413, 0.27461053663290413, 0.27461053663290413]","[0.26437173899549044, -1.306424587799406, 0.26437173899549044, 0.26437173899549044, 0.26437173899549044, 0.26437173899549044]",0.002,7,1
0,206,"[0.27646407778411813, -1.294332249010779, 0.27646407778411813, 0.27646407778411813, 0.27646407778411813, 0.27646407778411813]","[0.26532482433408155, -1.305471502460815, 0.26532482433408155, 0.26532482433408155, 0.26532482433408155, 0.26532482433408155]",0.002,7,1
0,207,"[0.27830089271755987, -1.2924954340773374, 0.27830089271755987, 0.27830089271755987, 0.27830089271755987, 0.27830089271755987]","[0.2662732480864607, -1.3045230787084359, 0.2662732480864607, 0.2662732480864607, 0.2662732480864607, 0.2662732480864607]",0.002,7,1
0,208,"[0.2801207320078402, -1.2906755947870572, 0.2801207320078402, 0.2801207320078402, 0.2801207320078402, 0.2801207320078402]","[0.2672169935894337, -1.3035793332054628, 0.2672169935894337, 0.2672169935894337, 0.2672169935894337, 0.2672169935894337]",0.002,7,1
0,209,"[0.28192335266517393, -1.2888729741297231, 0.28192335266517393, 0.28192335266517393, 0.28192335266517393, 0.28192335266517393]","[0.268156044262, -1.3026402825328964, 0.268156044262, 0.268156044262, 0.268156044262, 0.268156044262]",0.002,7,1
0,210,"[0.28370851818723125, -1.2870878086076658, 0.28370851818723125, 0.28370851818723125, 0.28370851818723125, 0.28370851818723125]","[0.26909038360564447, -1.3017059431892521, 0.26909038360564447, 0.26909038360564447, 0.26909038360564447, 0.26909038360564447]",0.002,7,1
0,211,"[0.2854759986081159, -1.2853203281867813, 0.2854759986081159, 0.2854759986081159, 0.2854759986081159, 0.2854759986081159]","[0.2700199952046267, -1.3007763315902698, 0.2700199952046267, 0.2700199952046267, 0.2700199952046267, 0.2700199952046267]",0.002,7,1
0,212,"[0.2872259461647368, -1.2835703806301604, 0.2872259461647368, 0.2872259461647368, 0.2872259461647368, 0.2872259461647368]","[0.27094486272626994, -1.2998514640686265, 0.27094486272626994, 0.27094486272626994, 0.27094486272626994, 0.27094486272626994]",0.002,7,1
0,213,"[0.28895813981099433, -1.2818381869839026, 0.28895813981099433, 0.28895813981099433, 0.28895813981099433, 0.28895813981099433]","[0.2718649699212478, -1.2989313568736487, 0.2718649699212478, 0.2718649699212478, 0.2718649699212478, 0.2718649699212478]",0.002,7,1
0,214,"[0.29067236503753174, -1.280123961757365, 0.29067236503753174, 0.29067236503753174, 0.29067236503753174, 0.29067236503753174]","[0.2727803006238696, -1.298016026171027, 0.2727803006238696, 0.2727803006238696, 0.2727803006238696, 0.2727803006238696]",0.002,7,1
0,215,"[0.2923684139117855, -1.278427912883111, 0.2923684139117855, 0.2923684139117855, 0.2923684139117855, 0.2923684139117855]","[0.2736908387523646, -1.297105488042532, 0.2736908387523646, 0.2736908387523646, 0.2736908387523646, 0.2736908387523646]",0.002,7,1
0,216,"[0.2940460851151974, -1.2767502416796992, 0.2940460851151974, 0.2940460851151974, 0.2940460851151974, 0.2940460851151974]","[0.27459656830916473, -1.2961997584857319, 0.27459656830916473, 0.27459656830916473, 0.27459656830916473, 0.27459656830916473]",0.002,7,1
0,217,"[0.2957051839775924, -1.2750911428173044, 0.2957051839775924, 0.2957051839775924, 0.2957051839775924, 0.2957051839775924]","[0.2754974733811851, -1.2952988534137115, 0.2754974733811851, 0.2754974733811851, 0.2754974733811851, 0.2754974733811851]",0.002,7,1
0,218,"[0.29734552250872287, -1.273450804286174, 0.29734552250872287, 0.29734552250872287, 0.29734552250872287, 0.29734552250872287]","[0.2763935381401041, -1.2944027886547924, 0.2763935381401041, 0.2763935381401041, 0.2763935381401041, 0.2763935381401041]",0.002,7,1
0,219,"[0.2989669194269868, -1.2718294073679104, 0.2989669194269868, 0.2989669194269868, 0.2989669194269868, 0.2989669194269868]","[0.27728474684264126, -1.2935115799522552, 0.27728474684264126, 0.27728474684264126, 0.27728474684264126, 0.27728474684264126]",0.002,7,1
0,220,"[0.3005692001853228, -1.2702271266095746, 0.3005692001853228, 0.3005692001853228, 0.3005692001853228, 0.3005692001853228]","[0.27817108383083394, -1.2926252429640626, 0.27817108383083394, 0.27817108383083394, 0.27817108383083394, 0.27817108383083394]",0.002,7,1
0,221,"[0.3021521969942907, -1.2686441298006068, 0.3021521969942907, 0.3021521969942907, 0.3021521969942907, 0.3021521969942907]","[0.27905253353231224, -1.2917437932625844, 0.27905253353231224, 0.27905253353231224, 0.27905253353231224, 0.27905253353231224]",0.002,7,1
0,222,"[0.3037157488423441, -1.2670805779525534, 0.3037157488423441, 0.3037157488423441, 0.3037157488423441, 0.3037157488423441]","[0.2799290804605729, -1.2908672463343236, 0.2799290804605729, 0.2799290804605729, 0.2799290804605729, 0.2799290804605729]",0.002,7,1
0,223,"[0.3052597015133046, -1.2655366252815927, 0.3052597015133046, 0.3052597015133046, 0.3052597015133046, 0.3052597015133046]","[0.28080070921525113, -1.2899956175796454, 0.28080070921525113, 0.28080070921525113, 0.28080070921525113, 0.28080070921525113]",0.002,7,1
0,224,"[0.30678390760104696, -1.2640124191938504, 0.30678390760104696, 0.30678390760104696, 0.30678390760104696, 0.30678390760104696]","[0.2816674044823913, -1.2891289223125053, 0.2816674044823913, 0.2816674044823913, 0.2816674044823913, 0.2816674044823913]",0.002,7,1
0,225,"[0.30828822652140664, -1.2625081002734904, 0.30828822652140664, 0.30828822652140664, 0.30828822652140664, 0.30828822652140664]","[0.28252915103471604, -1.2882671757601805, 0.28252915103471604, 0.28252915103471604, 0.28252915103471604, 0.28252915103471604]",0.002,7,1
0,226,"[0.3097725245213217, -1.2610238022735754, 0.3097725245213217, 0.3097725245213217, 0.3097725245213217, 0.3097725245213217]","[0.28338593373189364, -1.287410393063003, 0.28338593373189364, 0.28338593373189364, 0.28338593373189364, 0.28338593373189364]",0.002,7,1
0,227,"[0.3112366746852217, -1.259559652109675, 0.3112366746852217, 0.3112366746852217, 0.3112366746852217, 0.3112366746852217]","[0.2842377375208041, -1.2865585892740925, 0.2842377375208041, 0.2842377375208041, 0.2842377375208041, 0.2842377375208041]",0.002,7,1
0,228,"[0.31268055693867813, -1.2581157698562189, 0.31268055693867813, 0.31268055693867813, 0.31268055693867813, 0.31268055693867813]","[0.28508454743580375, -1.2857117793590929, 0.28508454743580375, 0.28508454743580375, 0.28508454743580375, 0.28508454743580375]",0.002,7,1
0,229,"[0.3141040580493311, -1.2566922687455655, 0.3141040580493311, 0.3141040580493311, 0.3141040580493311, 0.3141040580493311]","[0.2859263485989879, -1.2848699781959088, 0.2859263485989879, 0.2859263485989879, 0.2859263485989879, 0.2859263485989879]",0.002,7,1
0,230,"[0.31550707162510877, -1.2552892551697878, 0.31550707162510877, 0.31550707162510877, 0.31550707162510877, 0.31550707162510877]","[0.2867631262204525, -1.2840332005744441, 0.2867631262204525, 0.2867631262204525, 0.2867631262204525, 0.2867631262204525]",0.002,7,1
0,231,"[0.31550707162510877, -1.2552892551697878, 0.31550707162510877, 0.31550707162510877, 0.31550707162510877, 0.31550707162510877]","[0.2875948655985541, -1.2832014611963425, 0.2875948655985541, 0.2875948655985541, 0.2875948655985541, 0.2875948655985541]",0.002,7,1
0,232,"[0.31825124477569106, -1.2525450820192052, 0.31825124477569106, 0.31825124477569106, 0.31825124477569106, 0.31825124477569106]","[0.28842155212016735, -1.2823747746747292, 0.28842155212016735, 0.28842155212016735, 0.28842155212016735, 0.28842155212016735]",0.002,7,1
0,233,"[0.31825124477569106, -1.2525450820192052, 0.31825124477569106, 0.31825124477569106, 0.31825124477569106, 0.31825124477569106]","[0.289243171260943, -1.2815531555339534, 0.289243171260943, 0.289243171260943, 0.289243171260943, 0.289243171260943]",0.002,7,1
0,234,"[0.3195922257142084, -1.2512041010806882, 0.3195922257142084, 0.3195922257142084, 0.3195922257142084, 0.3195922257142084]","[0.29005970858556207, -1.2807366182093345, 0.29005970858556207, 0.29005970858556207, 0.29005970858556207, 0.29005970858556207]",0.002,7,1
0,235,"[0.3209123618230484, -1.2498839649718478, 0.3209123618230484, 0.3209123618230484, 0.3209123618230484, 0.3209123618230484]","[0.2908711497479898, -1.279925177046907, 0.2908711497479898, 0.2908711497479898, 0.2908711497479898, 0.2908711497479898]",0.002,7,1
0,236,"[0.3222115807913542, -1.2485847460035417, 0.3222115807913542, 0.3222115807913542, 0.3222115807913542, 0.3222115807913542]","[0.2916774804917278, -1.2791188463031689, 0.2916774804917278, 0.2916774804917278, 0.2916774804917278, 0.2916774804917278]",0.002,7,1
0,237,"[0.323489817082038, -1.2473065097128577, 0.323489817082038, 0.323489817082038, 0.323489817082038, 0.323489817082038]","[0.2924786866500645, -1.2783176401448322, 0.2924786866500645, 0.2924786866500645, 0.2924786866500645, 0.2924786866500645]",0.002,7,1
0,238,"[0.3247470119115791, -1.246049314883317, 0.3247470119115791, 0.3247470119115791, 0.3247470119115791, 0.3247470119115791]","[0.29327475414632387, -1.2775215726485727, 0.29327475414632387, 0.29327475414632387, 0.29327475414632387, 0.29327475414632387]",0.002,7,1
0,239,"[0.3259831132272775, -1.2448132135676184, 0.3259831132272775, 0.3259831132272775, 0.3259831132272775, 0.3259831132272775]","[0.2940656689941129, -1.2767306578007838, 0.2940656689941129, 0.2940656689941129, 0.2940656689941129, 0.2940656689941129]",0.002,7,1
0,240,"[0.3271980756819875, -1.2435982511129087, 0.3271980756819875, 0.3271980756819875, 0.3271980756819875, 0.3271980756819875]","[0.2948514172975673, -1.2759449094973292, 0.2948514172975673, 0.2948514172975673, 0.2948514172975673, 0.2948514172975673]",0.002,7,1
0,241,"[0.3283918606063565, -1.2424044661885398, 0.3283918606063565, 0.3283918606063565, 0.3283918606063565, 0.3283918606063565]","[0.2956319852515958, -1.2751643415433007, 0.2956319852515958, 0.2956319852515958, 0.2956319852515958, 0.2956319852515958]",0.002,7,1
0,242,"[0.32956475234453436, -1.241231574450362, 0.32956475234453436, 0.32956475234453436, 0.32956475234453436, 0.32956475234453436]","[0.2964073591421221, -1.2743889676527744, 0.2964073591421221, 0.2964073591421221, 0.2964073591421221, 0.2964073591421221]",0.002,7,1
0,243,"[0.330716407098943, -1.2400799196959529, 0.330716407098943, 0.330716407098943, 0.330716407098943, 0.330716407098943]","[0.29717752534632674, -1.2736188014485699, 0.29717752534632674, 0.29717752534632674, 0.29717752534632674, 0.29717752534632674]",0.002,7,1
0,244,"[0.33184711815608625, -1.23894920863881, 0.33184711815608625, 0.33184711815608625, 0.33184711815608625, 0.33184711815608625]","[0.2979424703328857, -1.2728538564620109, 0.2979424703328857, 0.2979424703328857, 0.2979424703328857, 0.2979424703328857]",0.002,7,1
0,245,"[0.33295686904328103, -1.2378394577516154, 0.33295686904328103, 0.33295686904328103, 0.33295686904328103, 0.33295686904328103]","[0.2987021806622083, -1.2720941461326882, 0.2987021806622083, 0.2987021806622083, 0.2987021806622083, 0.2987021806622083]",0.002,7,1
0,246,"[0.33404564968767386, -1.2367506771072225, 0.33404564968767386, 0.33404564968767386, 0.33404564968767386, 0.33404564968767386]","[0.29945664298667374, -1.2713396838082227, 0.29945664298667374, 0.29945664298667374, 0.29945664298667374, 0.29945664298667374]",0.002,7,1
0,247,"[0.33511345637645845, -1.2356828704184384, 0.33511345637645845, 0.33511345637645845, 0.33511345637645845, 0.33511345637645845]","[0.30020584405086503, -1.2705904827440315, 0.30020584405086503, 0.30020584405086503, 0.30020584405086503, 0.30020584405086503]",0.002,7,1
0,248,"[0.3361602917148246, -1.2346360350800722, 0.3361602917148246, 0.3361602917148246, 0.3361602917148246, 0.3361602917148246]","[0.300949770691802, -1.2698465561030945, 0.300949770691802, 0.300949770691802, 0.300949770691802, 0.300949770691802]",0.002,7,1
0,249,"[0.3371861645816693, -1.2336101622132274, 0.3371861645816693, 0.3371861645816693, 0.3371861645816693, 0.3371861645816693]","[0.30168840983917317, -1.2691079169557233, 0.30168840983917317, 0.30168840983917317, 0.30168840983917317, 0.30168840983917317]",0.002,7,1
0,250,"[0.3381910900831006, -1.2326052367117963, 0.3381910900831006, 0.3381910900831006, 0.3381910900831006, 0.3381910900831006]","[0.30242174851556447, -1.268374578279332, 0.30242174851556447, 0.30242174851556447, 0.30242174851556447, 0.30242174851556447]",0.002,7,1
0,251,"[0.3391750895037668, -1.2316212372911304, 0.3391750895037668, 0.3391750895037668, 0.3391750895037668, 0.3391750895037668]","[0.3031497738366879, -1.2676465529582086, 0.3031497738366879, 0.3031497738366879, 0.3031497738366879, 0.3031497738366879]",0.002,7,1
0,252,"[0.34013819025604314, -1.230658136538854, 0.34013819025604314, 0.34013819025604314, 0.34013819025604314, 0.34013819025604314]","[0.30387247301160764, -1.266923853783289, 0.30387247301160764, 0.30387247301160764, 0.30387247301160764, 0.30387247301160764]",0.002,7,1
0,253,"[0.3410804258271097, -1.2297159009677872, 0.3410804258271097, 0.3410804258271097, 0.3410804258271097, 0.3410804258271097]","[0.3045898333429648, -1.2662064934519317, 0.3045898333429648, 0.3045898333429648, 0.3045898333429648, 0.3045898333429648]",0.002,7,1
0,254,"[0.34200183572395365, -1.2287944910709436, 0.34200183572395365, 0.34200183572395365, 0.34200183572395365, 0.34200183572395365]","[0.3053018422272006, -1.265494484567696, 0.3053018422272006, 0.3053018422272006, 0.3053018422272006, 0.3053018422272006]",0.002,7,1
0,255,"[0.3429024654163316, -1.2278938613785657, 0.3429024654163316, 0.3429024654163316, 0.3429024654163316, 0.3429024654163316]","[0.30600848715477763, -1.2647878396401189, 0.30600848715477763, 0.30600848715477763, 0.30600848715477763, 0.30600848715477763]",0.002,7,1
0,256,"[0.34378236627772596, -1.227013960517171, 0.34378236627772596, 0.34378236627772596, 0.34378236627772596, 0.34378236627772596]","[0.3067097557103999, -1.2640865710844966, 0.3067097557103999, 0.3067097557103999, 0.3067097557103999, 0.3067097557103999]",0.002,7,1
0,257,"[0.3446415955243317, -1.2261547312705652, 0.3446415955243317, 0.3446415955243317, 0.3446415955243317, 0.3446415955243317]","[0.30740563557323064, -1.263390691221666, 0.30740563557323064, 0.30740563557323064, 0.30740563557323064, 0.30740563557323064]",0.002,7,1
0,258,"[0.34548021615211, -1.2253161106427868, 0.34548021615211, 0.34548021615211, 0.34548021615211, 0.34548021615211]","[0.30809611451710917, -1.2627002122777875, 0.30809611451710917, 0.30809611451710917, 0.30809611451710917, 0.30809611451710917]",0.002,7,1
0,259,"[0.34629829687194497, -1.2244980299229518, 0.34629829687194497, 0.34629829687194497, 0.34629829687194497, 0.34629829687194497]","[0.30878118041076513, -1.2620151463841314, 0.30878118041076513, 0.30878118041076513, 0.30878118041076513, 0.30878118041076513]",0.002,7,1
0,260,"[0.34709591204294143, -1.2237004147519555, 0.34709591204294143, 0.34709591204294143, 0.34709591204294143, 0.34709591204294143]","[0.30946082121803226, -1.2613355055768642, 0.30946082121803226, 0.30946082121803226, 0.30946082121803226, 0.30946082121803226]",0.002,7,1
0,261,"[0.3478731416039016, -1.2229231851909956, 0.3478731416039016, 0.3478731416039016, 0.3478731416039016, 0.3478731416039016]","[0.3101350249980595, -1.260661301796837, 0.3101350249980595, 0.3101350249980595, 0.3101350249980595, 0.3101350249980595]",0.002,7,1
0,262,"[0.3478731416039016, -1.2229231851909956, 0.3478731416039016, 0.3478731416039016, 0.3478731416039016, 0.3478731416039016]","[0.3108037799055208, -1.2599925468893758, 0.3108037799055208, 0.3108037799055208, 0.3108037799055208, 0.3108037799055208]",0.002,7,1
0,263,"[0.3493667911258272, -1.2214295356690705, 0.3493667911258272, 0.3493667911258272, 0.3493667911258272, 0.3493667911258272]","[0.31146707419082337, -1.2593292526040731, 0.31146707419082337, 0.31146707419082337, 0.31146707419082337, 0.31146707419082337]",0.002,7,1
0,264,"[0.3493667911258272, -1.2214295356690705, 0.3493667911258272, 0.3493667911258272, 0.3493667911258272, 0.3493667911258272]","[0.312124896200314, -1.2586714305945825, 0.312124896200314, 0.312124896200314, 0.312124896200314, 0.312124896200314]",0.002,7,1
0,265,"[0.3500833982214477, -1.22071292857345, 0.3500833982214477, 0.3500833982214477, 0.3500833982214477, 0.3500833982214477]","[0.3127772343764836, -1.258019092418413, 0.3127772343764836, 0.3127772343764836, 0.3127772343764836, 0.3127772343764836]",0.002,7,1
0,266,"[0.35077999382716807, -1.2200163329677292, 0.35077999382716807, 0.35077999382716807, 0.35077999382716807, 0.35077999382716807]","[0.313424077258171, -1.2573722495367257, 0.313424077258171, 0.313424077258171, 0.313424077258171, 0.313424077258171]",0.002,7,1
0,267,"[0.35145668469139957, -1.2193396421034972, 0.35145668469139957, 0.35145668469139957, 0.35145668469139957, 0.35145668469139957]","[0.3140654134807634, -1.2567309133141331, 0.3140654134807634, 0.3140654134807634, 0.3140654134807634, 0.3140654134807634]",0.002,7,1
0,268,"[0.3521135826950493, -1.2186827440998478, 0.3521135826950493, 0.3521135826950493, 0.3521135826950493, 0.3521135826950493]","[0.31470123177639664, -1.2560950950185, 0.31470123177639664, 0.31470123177639664, 0.31470123177639664, 0.31470123177639664]",0.002,7,1
0,269,"[0.3527508047713496, -1.218045522023547, 0.3527508047713496, 0.3527508047713496, 0.3527508047713496, 0.3527508047713496]","[0.31533152097415285, -1.2554648058207438, 0.31533152097415285, 0.31533152097415285, 0.31533152097415285, 0.31533152097415285]",0.002,7,1
0,270,"[0.35336847282418693, -1.21742785397071, 0.35336847282418693, 0.35336847282418693, 0.35336847282418693, 0.35336847282418693]","[0.31595627000025706, -1.2548400567946394, 0.31595627000025706, 0.31595627000025706, 0.31595627000025706, 0.31595627000025706]",0.002,7,1
0,271,"[0.35396671364496984, -1.216829613149927, 0.35396671364496984, 0.35396671364496984, 0.35396671364496984, 0.35396671364496984]","[0.3165754678782713, -1.2542208589166253, 0.3165754678782713, 0.3165754678782713, 0.3165754678782713, 0.3165754678782713]",0.002,7,1
0,272,"[0.35454565882808065, -1.2162506679668166, 0.35454565882808065, 0.35454565882808065, 0.35454565882808065, 0.35454565882808065]","[0.3171891037292879, -1.2536072230656088, 0.3171891037292879, 0.3171891037292879, 0.3171891037292879, 0.3171891037292879]",0.002,7,1
0,273,"[0.3551054446849512, -1.2156908821099464, 0.3551054446849512, 0.3551054446849512, 0.3551054446849512, 0.3551054446849512]","[0.31779716677212017, -1.2529991600227763, 0.31779716677212017, 0.31779716677212017, 0.31779716677212017, 0.31779716677212017]",0.002,7,1
0,274,"[0.35564621215680664, -1.2151501146380905, 0.35564621215680664, 0.35564621215680664, 0.35564621215680664, 0.35564621215680664]","[0.31839964632349244, -1.2523966804714042, 0.31839964632349244, 0.31839964632349244, 0.31839964632349244, 0.31839964632349244]",0.002,7,1
0,275,"[0.35616835218045995, -1.2146279746144373, 0.35616835218045995, 0.35616835218045995, 0.35616835218045995, 0.35616835218045995]","[0.318996531798227, -1.2517997949966695, 0.318996531798227, 0.318996531798227, 0.318996531798227, 0.318996531798227]",0.002,7,1
0,276,"[0.356672010889808, -1.2141243159050896, 0.356672010889808, 0.356672010889808, 0.356672010889808, 0.356672010889808]","[0.3195878127094307, -1.2512085140854659, 0.3195878127094307, 0.3195878127094307, 0.3195878127094307, 0.3195878127094307]",0.002,7,1
0,277,"[0.3571573387010734, -1.213638988093824, 0.3571573387010734, 0.3571573387010734, 0.3571573387010734, 0.3571573387010734]","[0.320173478668679, -1.2506228481262176, 0.320173478668679, 0.320173478668679, 0.320173478668679, 0.320173478668679]",0.002,7,1
0,278,"[0.3576244902227101, -1.2131718365721875, 0.3576244902227101, 0.3576244902227101, 0.3576244902227101, 0.3576244902227101]","[0.32075351938619817, -1.2500428074086984, 0.32075351938619817, 0.32075351938619817, 0.32075351938619817, 0.32075351938619817]",0.002,7,1
0,279,"[0.3580736241642117, -1.2127227026306864, 0.3580736241642117, 0.3580736241642117, 0.3580736241642117, 0.3580736241642117]","[0.3213279246710467, -1.2494684021238498, 0.3213279246710467, 0.3213279246710467, 0.3213279246710467, 0.3213279246710467]",0.002,7,1
0,280,"[0.358504903243866, -1.212291423551032, 0.358504903243866, 0.358504903243866, 0.358504903243866, 0.358504903243866]","[0.32189668443129366, -1.248899642363603, 0.32189668443129366, 0.32189668443129366, 0.32189668443129366, 0.32189668443129366]",0.002,7,1
0,281,"[0.35891849409549936, -1.2118778326993986, 0.35891849409549936, 0.35891849409549936, 0.35891849409549936, 0.35891849409549936]","[0.32245978867419667, -1.2483365381207, 0.32245978867419667, 0.32245978867419667, 0.32245978867419667, 0.32245978867419667]",0.002,7,1
0,282,"[0.35931456717425314, -1.2114817596206446, 0.35931456717425314, 0.35931456717425314, 0.35931456717425314, 0.35931456717425314]","[0.3230172275063769, -1.2477790992885196, 0.3230172275063769, 0.3230172275063769, 0.3230172275063769, 0.3230172275063769]",0.002,7,1
0,283,"[0.35969329666143723, -1.2111030301334607, 0.35969329666143723, 0.35969329666143723, 0.35969329666143723, 0.35969329666143723]","[0.3235689911339933, -1.2472273356609032, 0.3235689911339933, 0.3235689911339933, 0.3235689911339933, 0.3235689911339933]",0.002,7,1
0,284,"[0.3600548603685033, -1.210741466426395, 0.3600548603685033, 0.3600548603685033, 0.3600548603685033, 0.3600548603685033]","[0.32411506986291433, -1.2466812569319823, 0.32411506986291433, 0.32411506986291433, 0.32411506986291433, 0.32411506986291433]",0.002,7,1
0,285,"[0.3603994396401821, -1.2103968871547162, 0.3603994396401821, 0.3603994396401821, 0.3603994396401821, 0.3603994396401821]","[0.32465545409888874, -1.246140872696008, 0.32465545409888874, 0.32465545409888874, 0.32465545409888874, 0.32465545409888874]",0.002,7,1
0,286,"[0.3607272192568284, -1.2100691075380698, 0.3607272192568284, 0.3607272192568284, 0.3607272192568284, 0.3607272192568284]","[0.3251901343477135, -1.245606192447183, 0.3251901343477135, 0.3251901343477135, 0.3251901343477135, 0.3251901343477135]",0.002,7,1
0,287,"[0.36103838733601723, -1.209757939458881, 0.36103838733601723, 0.36103838733601723, 0.36103838733601723, 0.36103838733601723]","[0.32571910121540126, -1.2450772255794953, 0.32571910121540126, 0.32571910121540126, 0.32571910121540126, 0.32571910121540126]",0.002,7,1
0,288,"[0.3613331352334361, -1.2094631915614622, 0.3613331352334361, 0.3613331352334361, 0.3613331352334361, 0.3613331352334361]","[0.3262423454083449, -1.2445539813865516, 0.3262423454083449, 0.3262423454083449, 0.3262423454083449, 0.3262423454083449]",0.002,7,1
0,289,"[0.36161165744311613, -1.2091846693517825, 0.36161165744311613, 0.36161165744311613, 0.36161165744311613, 0.36161165744311613]","[0.3267598577334812, -1.2440364690614154, 0.3267598577334812, 0.3267598577334812, 0.3267598577334812, 0.3267598577334812]",0.002,7,1
0,290,"[0.361874151497047, -1.2089221752978512, 0.361874151497047, 0.361874151497047, 0.361874151497047, 0.361874151497047]","[0.3272716290984519, -1.2435246976964447, 0.3272716290984519, 0.3272716290984519, 0.3272716290984519, 0.3272716290984519]",0.002,7,1
0,291,"[0.3621208178642188, -1.2086755089306793, 0.3621208178642188, 0.3621208178642188, 0.3621208178642188, 0.3621208178642188]","[0.32777765051176394, -1.2430186762831326, 0.32777765051176394, 0.32777765051176394, 0.32777765051176394, 0.32777765051176394]",0.002,7,1
0,292,"[0.36235185984913526, -1.208444466945763, 0.36235185984913526, 0.36235185984913526, 0.36235185984913526, 0.36235185984913526]","[0.32827791308294707, -1.2425184137119496, 0.32827791308294707, 0.32827791308294707, 0.32827791308294707, 0.32827791308294707]",0.002,7,1
0,293,"[0.36256748348984197, -1.208228843305056, 0.36256748348984197, 0.36256748348984197, 0.36256748348984197, 0.36256748348984197]","[0.3287724080227103, -1.2420239187721862, 0.3287724080227103, 0.3287724080227103, 0.3287724080227103, 0.3287724080227103]",0.002,7,1
0,294,"[0.3627678974555132, -1.208028429339385, 0.3627678974555132, 0.3627678974555132, 0.3627678974555132, 0.3627678974555132]","[0.3292611266430961, -1.2415352001518005, 0.3292611266430961, 0.3292611266430961, 0.3292611266430961, 0.3292611266430961]",0.002,7,1
0,295,"[0.3627678974555132, -1.208028429339385, 0.3627678974555132, 0.3627678974555132, 0.3627678974555132, 0.3627678974555132]","[0.3297440603576332, -1.2410522664372634, 0.3297440603576332, 0.3297440603576332, 0.3297440603576332, 0.3297440603576332]",0.002,7,1
0,296,"[0.36295331294364136, -1.2078430138512566, 0.36295331294364136, 0.36295331294364136, 0.36295331294364136, 0.36295331294364136]","[0.33022120068148747, -1.240575126113409, 0.33022120068148747, 0.33022120068148747, 0.33022120068148747, 0.33022120068148747]",0.002,7,1
0,297,"[0.3631239435768724, -1.2076723832180258, 0.3631239435768724, 0.3631239435768724, 0.3631239435768724, 0.3631239435768724]","[0.33069253923161074, -1.2401037875632859, 0.33069253923161074, 0.33069253923161074, 0.33069253923161074, 0.33069253923161074]",0.002,7,1
0,298,"[0.36328000529953053, -1.2075163214953673, 0.36328000529953053, 0.36328000529953053, 0.36328000529953053, 0.36328000529953053]","[0.3311580677268884, -1.2396382590680082, 0.3311580677268884, 0.3311580677268884, 0.3311580677268884, 0.3311580677268884]",0.002,7,1
0,299,"[0.363421716273876, -1.207374610521022, 0.363421716273876, 0.363421716273876, 0.363421716273876, 0.363421716273876]","[0.3316177779882848, -1.2391785488066118, 0.3316177779882848, 0.3316177779882848, 0.3316177779882848, 0.3316177779882848]",0.002,7,1
0,300,"[0.3635492967761384, -1.2072470300187597, 0.3635492967761384, 0.3635492967761384, 0.3635492967761384, 0.3635492967761384]","[0.33207166193898674, -1.2387246648559098, 0.33207166193898674, 0.33207166193898674, 0.33207166193898674, 0.33207166193898674]",0.002,7,1
0,301,"[0.36366296909236945, -1.2071333577025287, 0.36366296909236945, 0.36366296909236945, 0.36366296909236945, 0.36366296909236945]","[0.33251971160454574, -1.2382766151903508, 0.33251971160454574, 0.33251971160454574, 0.33251971160454574, 0.33251971160454574]",0.002,7,1
0,302,"[0.3637629574141569, -1.2070333693807411, 0.3637629574141569, 0.3637629574141569, 0.3637629574141569, 0.3637629574141569]","[0.3329619191130178, -1.2378344076818788, 0.3329619191130178, 0.3329619191130178, 0.3329619191130178, 0.3329619191130178]",0.002,7,1
0,303,"[0.36384948773424325, -1.206946839060655, 0.36384948773424325, 0.36384948773424325, 0.36384948773424325, 0.36384948773424325]","[0.33339827669510197, -1.2373980500997945, 0.33339827669510197, 0.33339827669510197, 0.33339827669510197, 0.33339827669510197]",0.002,7,1
0,304,"[0.363922787742091, -1.2068735390528076, 0.363922787742091, 0.363922787742091, 0.363922787742091, 0.363922787742091]","[0.33382877668427663, -1.2369675501106199, 0.33382877668427663, 0.33382877668427663, 0.33382877668427663, 0.33382877668427663]",0.002,7,1
0,305,"[0.3639830867194367, -1.206813240075462, 0.3639830867194367, 0.3639830867194367, 0.3639830867194367, 0.3639830867194367]","[0.3342534115169344, -1.2365429152779621, 0.3342534115169344, 0.3342534115169344, 0.3342534115169344, 0.3342534115169344]",0.002,7,1
0,306,"[0.36403078997890853, -1.2067655368159906, 0.36403078997890853, 0.36403078997890853, 0.36403078997890853, 0.36403078997890853]","[0.3346721737325148, -1.2361241530623817, 0.3346721737325148, 0.3346721737325148, 0.3346721737325148, 0.3346721737325148]",0.002,7,1
0,307,"[0.3640661262135057, -1.2067302005813936, 0.3640661262135057, 0.3640661262135057, 0.3640661262135057, 0.3640661262135057]","[0.3350850559736355, -1.235711270821261, 0.3350850559736355, 0.3350850559736355, 0.3350850559736355, 0.3350850559736355]",0.002,7,1
0,308,"[0.36408932534481664, -1.2067070014500825, 0.36408932534481664, 0.36408932534481664, 0.36408932534481664, 0.36408932534481664]","[0.3354920509862217, -1.2353042758086747, 0.3354920509862217, 0.3354920509862217, 0.3354920509862217, 0.3354920509862217]",0.002,7,1
0,309,"[0.3641006184206948, -1.2066957083742045, 0.3641006184206948, 0.3641006184206948, 0.3641006184206948, 0.3641006184206948]","[0.33589315161963307, -1.2349031751752635, 0.33589315161963307, 0.33589315161963307, 0.33589315161963307, 0.33589315161963307]",0.002,7,1
0,310,"[0.3641002375131386, -1.2066960892817598, 0.3641002375131386, 0.3641002375131386, 0.3641002375131386, 0.3641002375131386]","[0.33628835082679004, -1.2345079759681066, 0.33628835082679004, 0.33628835082679004, 0.33628835082679004, 0.33628835082679004]",0.002,7,1
0,311,"[0.36408841561641747, -1.20670791117848, 0.36408841561641747, 0.36408841561641747, 0.36408841561641747, 0.36408841561641747]","[0.33667764166429714, -1.2341186851305994, 0.33667764166429714, 0.33667764166429714, 0.33667764166429714, 0.33667764166429714]",0.002,7,1
0,312,"[0.3640653865454775, -1.20673094024942, 0.3640653865454775, 0.3640653865454775, 0.3640653865454775, 0.3640653865454775]","[0.33706101729256516, -1.2337353095023313, 0.33706101729256516, 0.33706101729256516, 0.33706101729256516, 0.33706101729256516]",0.002,7,1
0,313,"[0.3640313848346759, -1.2067649419602215, 0.3640313848346759, 0.3640313848346759, 0.3640313848346759, 0.3640313848346759]","[0.3374384709759313, -1.2333578558189653, 0.3374384709759313, 0.3374384709759313, 0.3374384709759313, 0.3374384709759313]",0.002,7,1
0,314,"[0.3639866456368708, -1.2068096811580276, 0.3639866456368708, 0.3639866456368708, 0.3639866456368708, 0.3639866456368708]","[0.3378099960827776, -1.232986330712119, 0.3378099960827776, 0.3378099960827776, 0.3378099960827776, 0.3378099960827776]",0.002,7,1
0,315,"[0.36393140462291473, -1.2068649221719845, 0.36393140462291473, 0.36393140462291473, 0.36393140462291473, 0.36393140462291473]","[0.3381755860856473, -1.2326207407092493, 0.3381755860856473, 0.3381755860856473, 0.3381755860856473, 0.3381755860856473]",0.002,7,1
0,316,"[0.36386589788158386, -1.2069304289133154, 0.36386589788158386, 0.36386589788158386, 0.36386589788158386, 0.36386589788158386]","[0.3385352345613596, -1.232261092233537, 0.3385352345613596, 0.3385352345613596, 0.3385352345613596, 0.3385352345613596]",0.002,7,1
0,317,"[0.3637903618199818, -1.2070059649749183, 0.3637903618199818, 0.3637903618199818, 0.3637903618199818, 0.3637903618199818]","[0.33888893519112245, -1.2319073916037742, 0.33888893519112245, 0.33888893519112245, 0.33888893519112245, 0.33888893519112245]",0.002,7,1
0,318,"[0.36370503306445556, -1.2070912937304445, 0.36370503306445556, 0.36370503306445556, 0.36370503306445556, 0.36370503306445556]","[0.33923668176064375, -1.2315596450342527, 0.33923668176064375, 0.33923668176064375, 0.33923668176064375, 0.33923668176064375]",0.002,7,1
0,319,"[0.36361014836206085, -1.2071861784328384, 0.36361014836206085, 0.36361014836206085, 0.36361014836206085, 0.36361014836206085]","[0.3395784681602403, -1.2312178586346563, 0.3395784681602403, 0.3395784681602403, 0.3395784681602403, 0.3395784681602403]",0.002,7,1
