Arnibjarnst/BoxLift/logs/ur_rtde/trajectory_dur=7.5_delay=0.0_gain=200_lh=0.03_real.csv
arm_idx,step,actual_q,actual_qd,target_q,expected_q,loop_time,robot_mode,safety_mode
0,-1,"[-0.004932705556051076, -1.5756274662413539, -0.0048378813080489635, -0.004969314937927294, -0.00489217439760381, -0.004892651234762013]","[0.03926856815814972, 0.04089316353201866, 0.040364447981119156, 0.041393015533685684, 0.040578052401542664, 0.038962993770837784]","[0.0, -1.5707963267948966, 0.0, 0.0, 0.0, 0.0]","[0.0, -1.5707963267948966, 0.0, 0.0, 0.0, 0.0]",0.002,7,1
0,-1,"[-0.004212681447164357, -1.574832101861471, -0.004017467610538006, -0.004209594135620165, -0.004132095967428029, -0.004116837178365529]","[0.05510064959526062, 0.05627693980932236, 0.05711971968412399, 0.058273155242204666, 0.05604962632060051, 0.0555436871945858]","[0.0, -1.5707963267948966, 0.0, 0.0, 0.0, 0.0]","[0.0, -1.5707963267948966, 0.0, 0.0, 0.0, 0.0]",0.002,7,1
0,-1,"[-0.0031350294696252945, -1.573841234246725, -0.0030148602090775967, -0.003203586941101122, -0.0030439535724084976, -0.003075424824849904]","[0.07274116575717926, 0.06853438168764114, 0.07169754058122635, 0.07622068375349045, 0.07371077686548233, 0.07182388752698898]","[0.0, -1.5707963267948966, 0.0, 0.0, 0.0, 0.0]","[0.0, -1.5707963267948966, 0.0, 0.0, 0.0, 0.0]",0.002,7,1
0,-1,"[-0.0020626227008264664, -1.5728689632811488, -0.001969587756320834, -0.0019912284663696767, -0.0018914381610315445, -0.00197011629213506]","[0.06433985382318497, 0.03868347778916359, 0.05318610370159149, 0.06325463950634003, 0.06274015456438065, 0.06523444503545761]","[0.0, -1.5707963267948966, 0.0, 0.0, 0.0, 0.0]","[0.0, -1.5707963267948966, 0.0, 0.0, 0.0, 0.0]",0.002,7,1
0,-1,"[-0.000920597706929982, -1.571639200250143, -0.0008389044087380171, -0.0008564752391357899, -0.0007308165179651382, -0.0008066336261194351]","[0.04058330878615379, 0.04125333949923515, 0.04086055979132652, 0.04199934005737305, 0.04127291589975357, 0.041044287383556366]","[0.0, -1.5707963267948966, 0.0, 0.0, 0.0, 0.0]","[0.0, -1.5707963267948966, 0.0, 0.0, 0.0, 0.0]",0.002,7,1
0,-1,"[-0.0004327932940881851, -1.5712295971312464, -0.00030146361677907407, -0.000374154453613329, -0.00029069582094365387, -0.00033456483949834137]","[0.02712097205221653, 0.025842156261205673, 0.027064885944128036, 0.025853902101516724, 0.026359274983406067, 0.026583099737763405]","[0.0, -1.5707963267948966, 0.0, 0.0, 0.0, 0.0]","[0.0, -1.5707963267948966, 0.0, 0.0, 0.0, 0.0]",0.002,7,1
0,-1,"[-0.00015241304506474762, -1.5708862743773402, -7.939338684082031e-05, -7.183969531254775e-05, -0.00011855760683232575, -2.4143849508106996e-05]","[-0.003810817375779152, 0.018987221643328667, 0.003383707022294402, -0.0012619032058864832, -0.0024938308633863926, -0.0016456013545393944]","[0.0, -1.5707963267948966, 0.0, 0.0, 0.0, 0.0]","[0.0, -1.5707963267948966, 0.0, 0.0, 0.0, 0.0]",0.002,7,1
0,-1,"[-7.56422625940445e-05, -1.5709716282286585, -5.380423681344837e-05, -7.923067126469618e-05, -5.3707753316700746e-05, -8.231798280888825e-05]","[-1.7645328753701506e-08, -0.008161231875419617, -0.004435867071151733, 0.000143793600727804, -0.00048801652155816555, 1.9869753487000708e-07]","[0.0, -1.5707963267948966, 0.0, 0.0, 0.0, 0.0]","[0.0, -1.5707963267948966, 0.0, 0.0, 0.0, 0.0]",0.002,7,1
0,-1,"[-0.0001290480243127945, -1.5710064373412074, -0.00012759923993144184, -9.007871661381728e-05, -0.000108067189351857, -5.227724184209137e-05]","[-1.0290195321054141e-19, -0.005436914972960949, -0.0010791802778840065, 0.001314279856160283, -0.00023641990264877677, 1.5395259191281797e-14]","[0.0, -1.5707963267948966, 0.0, 0.0, 0.0, 0.0]","[0.0, -1.5707963267948966, 0.0, 0.0, 0.0, 0.0]",0.002,7,1
0,-1,"[-0.00010949770082646637, -1.5709902248778285, -6.905353075126186e-05, -9.293973956303603e-05, -3.6541615621388246e-05, -8.8993703023732e-05]","[0.00011283945786999539, -0.0006118669989518821, -0.0005240809987299144, 0.00016478056204505265, 0.0006023138994351029, 3.3203116057707126e-25]","[0.0, -1.5707963267948966, 0.0, 0.0, 0.0, 0.0]","[0.0, -1.5707963267948966, 0.0, 0.0, 0.0, 0.0]",0.002,7,1
0,-1,"[-9.328523744756012e-05, -1.5709387264647425, -9.408473852090538e-05, -5.205095324711806e-05, -1.7468129293263246e-05, -3.2726918355763246e-05]","[9.014157694764435e-05, 0.0006919141742400825, 5.145328032085672e-05, 0.0005065108998678625, 0.0007015364826656878, 0.0001958918437594548]","[0.0, -1.5707963267948966, 0.0, 0.0, 0.0, 0.0]","[0.0, -1.5707963267948966, 0.0, 0.0, 0.0, 0.0]",0.002,7,1
0,-1,"[-0.000142399464742482, -1.5709763966002406, -7.811069372110069e-05, 6.242389343213972e-06, -1.732503072560121e-06, -7.454548970997621e-06]","[0.00014606057084165514, 0.0004208696773275733, 3.530476533342153e-05, 0.00043969228863716125, 0.00066603091545403, 0.0003162214416079223]","[0.0, -1.5707963267948966, 0.0, 0.0, 0.0, 0.0]","[0.0, -1.5707963267948966, 0.0, 0.0, 0.0, 0.0]",0.002,7,1
0,-1,"[-0.00013333955873662262, -1.5709835491576136, -7.028818072285503e-05, -1.1758213378953997e-05, -1.732503072560121e-06, -1.9375477926075746e-05]","[0.00020710752869490534, 0.0003411065263208002, 3.0516404876834713e-05, 0.0005427489522844553, 0.0010447207605466247, 0.0003450838557910174]","[0.0, -1.5707963267948966, 0.0, 0.0, 0.0, 0.0]","[0.0, -1.5707963267948966, 0.0, 0.0, 0.0, 0.0]",0.002,7,1
0,-1,"[-0.00010520616640263825, -1.570995946923727, -0.00011849403381347656, -4.465997729496962e-05, -8.408223287403871e-06, -4.593526021778871e-06]","[0.0004632234340533614, 0.00024735211627557874, 2.4004750230233185e-05, 0.0004903693916276097, 0.0005041459226049483, 0.00040134135633707047]","[0.0, -1.5707963267948966, 0.0, 0.0, 0.0, 0.0]","[0.0, -1.5707963267948966, 0.0, 0.0, 0.0, 0.0]",0.002,7,1
0,-1,"[-8.565584291631012e-05, -1.570953985253805, -0.00014405012188944966, -7.228260376024309e-06, -5.036989320927887e-05, -2.9865895406544496e-05]","[0.00035560171818360686, 0.00018814136274158955, 4.2359100916655734e-05, 0.00040085395448841155, 0.0003194818564224988, 0.00034620266524143517]","[0.0, -1.5707963267948966, 0.0, 0.0, 0.0, 0.0]","[0.0, -1.5707963267948966, 0.0, 0.0, 0.0, 0.0]",0.002,7,1
0,-1,"[-9.328523744756012e-05, -1.5709506473936976, -9.870529174804688e-05, -3.107011828618056e-05, 2.741173557296861e-05, -1.2222920553028871e-05]","[0.0006532658007927239, 0.0006161046912893653, 5.5668584536761045e-05, 0.00032359929173253477, 0.000324816326610744, 0.00037898821756243706]","[0.0, -1.5707963267948966, 0.0, 0.0, 0.0, 0.0]","[0.0, -1.5707963267948966, 0.0, 0.0, 0.0, 0.0]",0.002,7,1
0,-1,"[-9.757677187138825e-05, -1.5709763966002406, -0.00012759923993144184, -5.658090625004775e-05, -2.175966371709137e-05, -2.843538393193512e-05]","[0.0005712073179893196, 0.0008666867506690323, 5.143582166056149e-05, 0.00030677454196847975, 0.000358667311957106, 0.0003504820924717933]","[0.0, -1.5707963267948966, 0.0, 0.0, 0.0, 0.0]","[0.0, -1.5707963267948966, 0.0, 0.0, 0.0, 0.0]",0.002,7,1
0,-1,"[-2.462068666631012e-05, -1.5709554157652796, -0.00010781049786601216, -1.6288166381883684e-05, 1.1035770512535237e-05, -6.562868227177887e-05]","[0.0004733499081339687, 0.0011880628298968077, 6.261705129873008e-05, 0.0002695364528335631, 0.00030424812575802207, 0.0004272602964192629]","[0.0, -1.5707963267948966, 0.0, 0.0, 0.0, 0.0]","[0.0, -1.5707963267948966, 0.0, 0.0, 0.0, 0.0]",0.002,7,1
0,-1,"[-7.7549611226857e-05, -1.5709392033019007, -8.950948540586978e-05, -7.228260376024309e-06, -8.804002870732575e-05, -4.593526021778871e-06]","[0.0007524393149651587, 0.0011650754604488611, 9.028750355355442e-05, 0.00024253607261925936, 0.0002862627152353525, 0.0006057739956304431]","[0.0, -1.5707963267948966, 0.0, 0.0, 0.0, 0.0]","[0.0, -1.5707963267948966, 0.0, 0.0, 0.0, 0.0]",0.002,7,1
0,-1,"[-2.8912221090138246e-05, -1.5708800754942835, -8.726119995117188e-05, 1.2083644531202253e-05, 1.554495065647643e-05, -2.2236500875294496e-05]","[0.0010869106044992805, 0.0005915393121540546, 9.17732177185826e-05, 0.00020585169841069728, 0.00028187723364681005, 0.0003503541520331055]","[0.0, -1.5707963267948966, 0.0, 0.0, 0.0, 0.0]","[0.0, -1.5707963267948966, 0.0, 0.0, 0.0, 0.0]",0.002,7,1
0,-1,"[-3.6541615621388246e-05, -1.5709268055357875, -0.00012759923993144184, -6.111085925297743e-05, -2.175966371709137e-05, -8.885060445606996e-06]","[0.0012060391018167138, 0.00041639519622549415, 9.716127533465624e-05, 0.00017570846830494702, 0.00024582797777839005, 0.0002832140598911792]","[0.0, -1.5707963267948966, 0.0, 0.0, 0.0, 0.0]","[0.0, -1.5707963267948966, 0.0, 0.0, 0.0, 0.0]",0.002,7,1
0,-1,"[2.760457937256433e-05, -1.570911546746725, -9.408473852090538e-05, -5.8369045593309465e-05, -2.175966371709137e-05, -5.070363179981996e-06]","[0.0010941262589767575, 0.0003407367621548474, 8.893224003259093e-05, 0.00015326568973250687, 0.00020968771423213184, 0.00021731074957642704]","[0.0, -1.5707963267948966, 0.0, 0.0, 0.0, 0.0]","[0.0, -1.5707963267948966, 0.0, 0.0, 0.0, 0.0]",0.002,7,1
0,-1,"[-2.557436098271637e-05, -1.5709058247008265, -7.811069372110069e-05, 9.222621581983503e-06, -3.892580141240387e-05, 1.9633771444205195e-05]","[-4.8371181037509814e-05, 0.00025421721511520445, 9.370080806547776e-05, 0.00011933392670471221, 0.00018700612417887896, 0.00017504015704616904]","[0.0, -1.5707963267948966, 0.0, 0.0, 0.0, 0.0]","[0.0, -1.5707963267948966, 0.0, 0.0, 0.0, 0.0]",0.002,7,1
0,-1,"[-5.070363179981996e-06, -1.5709268055357875, -9.183645306620747e-05, -9.135609008836809e-06, -6.024037496388246e-06, 3.2885553082451224e-05]","[-1.5671696796185075e-12, 0.0005878243828192353, 0.00014867419668007642, 0.0001078889545169659, 0.00016034649161156267, 0.00018076733977068216]","[0.0, -1.5707963267948966, 0.0, 0.0, 0.0, 0.0]","[0.0, -1.5707963267948966, 0.0, 0.0, 0.0, 0.0]",0.002,7,1
0,-1,"[-5.7522450582325746e-05, -1.5708533726134242, -4.930734576191753e-05, 6.382047619624132e-05, 7.152557373046875e-06, 7.324981561396271e-05]","[-6.812044895056486e-22, 0.0008898742380551994, 0.0001551309396745637, 9.633963054511696e-05, 0.0001360970054520294, 0.0001580898679094389]","[0.0, -1.5707963267948966, 0.0, 0.0, 0.0, 0.0]","[0.0, -1.5707963267948966, 0.0, 0.0, 0.0, 0.0]",0.002,7,1
0,-1,"[-3.320375551396637e-05, -1.570916315118307, -9.183645306620747e-05, 2.4481410644483503e-05, -1.3176594869435121e-05, -4.6078358785450746e-05]","[-3.972565158846674e-33, 0.001554706715978682, 0.00031709467293694615, 8.537297253496945e-05, 0.00013817759463563561, 0.0001374006678815931]","[0.0, -1.5707963267948966, 0.0, 0.0, 0.0, 0.0]","[0.0, -1.5707963267948966, 0.0, 0.0, 0.0, 0.0]",0.002,7,1
0,-1,"[-5.070363179981996e-06, -1.5709296665587367, -2.5420187739655375e-05, -1.1758213378953997e-05, 6.934499833732843e-05, -3.415742983037262e-05]","[-2.382207389352189e-44, 0.0021685806568711996, 0.0003120043547824025, 7.664786971872672e-05, 0.00013962123193778098, 0.00012150083057349548]","[0.0, -1.5707963267948966, 0.0, 0.0, 0.0, 0.0]","[0.0, -1.5707963267948966, 0.0, 0.0, 0.0, 0.0]",0.002,7,1
0,-1,"[-6.276765932256012e-05, -1.5708142719664515, -5.383729876484722e-05, 1.3752574584913191e-05, -2.175966371709137e-05, 8.960580453276634e-05]","[0.0, 0.0017365522217005491, 0.0004373135161586106, 6.954099808353931e-05, 0.00012337107909843326, 0.0001088998033083044]","[0.0, -1.5707963267948966, 0.0, 0.0, 0.0, 0.0]","[0.0, -1.5707963267948966, 0.0, 0.0, 0.0, 0.0]",0.002,7,1
0,-1,"[-4.178682436162262e-05, -1.570829530755514, -7.666826422791928e-05, 5.929052319331163e-05, -1.5083943502247621e-05, -8.885060445606996e-06]","[0.0, -6.459554419135927e-11, 0.0005211781244724989, 6.0232923715375364e-05, 0.00010316754196537659, 9.284976113121957e-05]","[0.0, -1.5707963267948966, 0.0, 0.0, 0.0, 0.0]","[0.0, -1.5707963267948966, 0.0, 0.0, 0.0, 0.0]",0.002,7,1
0,-1,"[-3.7495289937794496e-05, -1.5708462200560511, -4.288674972485751e-06, 1.9951457641553816e-05, -6.024037496388246e-06, -7.788287561538709e-07]","[0.0, -3.767006712370316e-22, 0.0005016091745346785, 5.575515751843341e-05, 9.393765503773466e-05, 8.530633203918114e-05]","[0.0, -1.5707963267948966, 0.0, 0.0, 0.0, 0.0]","[0.0, -1.5707963267948966, 0.0, 0.0, 0.0, 0.0]",0.002,7,1
0,-1,"[-2.8912221090138246e-05, -1.5707975826659144, -5.1021575927734375e-05, -4.2037372924852434e-05, -3.415742983037262e-05, -3.8448964254200746e-05]","[0.0, -5.305021713256249e-39, 0.00044709446956403553, 5.016172872274183e-05, 8.28230768092908e-05, 7.603962876601145e-05]","[0.0, -1.5707963267948966, 0.0, 0.0, 0.0, 0.0]","[0.0, -1.5707963267948966, 0.0, 0.0, 0.0, 0.0]",0.002,7,1
0,-1,"[2.7701864382834174e-05, -1.5708052120604457, -7.209301111288369e-05, -4.367237426805559e-06, 1.5605448425048962e-05, -3.701845277959137e-05]","[0.0, 0.0, 0.000586323207244277, 9.855746330850653e-21, 6.994921568548307e-05, 2.723252396155673e-12]","[0.0, -1.5707963267948966, 0.0, 0.0, 0.0, 0.0]","[0.0, -1.5707963267948966, 0.0, 0.0, 0.0, 0.0]",0.002,7,1
0,-1,"[-3.7495289937794496e-05, -1.570789174442627, -5.555152893066406e-05, -1.1758213378953997e-05, 4.394149800646119e-05, -3.415742983037262e-05]","[0.0, 0.0, 0.0006144472281448543, 4.9859726254760613e-29, 1.377231770467724e-12, 1.3776791652885843e-20]","[0.0, -1.5707963267948966, 0.0, 0.0, 0.0, 0.0]","[0.0, -1.5707963267948966, 0.0, 0.0, 0.0, 0.0]",0.002,7,1
0,-1,"[-6.181398500615387e-05, -1.5708967647948207, -1.4727412235515658e-05, 3.377973522944444e-05, 3.2020565413404256e-05, -7.788287561538709e-07]","[0.0, 0.0, 0.0007394893327727914, 1.0753298168520424e-39, 2.9702897622752615e-23, 2.971255458073477e-31]","[0.0, -1.5707963267948966, 0.0, 0.0, 0.0, 0.0]","[0.0, -1.5707963267948966, 0.0, 0.0, 0.0, 0.0]",0.002,7,1
0,-1,"[-1.699129213506012e-05, -1.5708567104735316, 1.794496645146637e-05, 2.9249782226514753e-05, 2.285242226207629e-05, 3.337860107421875e-06]","[0.0, 0.0, -1.132658554132735e-21, 0.0, 4.963399160638502e-41, 0.0]","[0.0, -1.5707963267948966, 0.0, 0.0, 0.0, 0.0]","[0.0, -1.5707963267948966, 0.0, 0.0, 0.0, 0.0]",0.002,7,1
0,-1,"[-4.5124684469044496e-05, -1.5708142719664515, -1.0251998901367188e-05, -2.081811938481337e-05, 2.7526377380127087e-05, 3.337860107421875e-06]","[0.0, 0.0, -8.861861352194698e-35, 0.0, 0.0, 0.0]","[0.0, -1.5707963267948966, 0.0, 0.0, 0.0, 0.0]","[0.0, -1.5707963267948966, 0.0, 0.0, 0.0, 0.0]",0.002,7,1
0,-1,"[2.596535068732919e-06, -1.5708052120604457, -3.457069396972656e-05, 4.2720431945753035e-05, -9.2808400289357e-05, 1.2238502677064389e-05]","[0.0, 0.0, -0.0, 1.9882922686065285e-07, 7.382573219416599e-09, 0.0]","[0.0, -1.5707963267948966, 0.0, 0.0, 0.0, 0.0]","[0.0, -1.5707963267948966, 0.0, 0.0, 0.0, 0.0]",0.002,7,1
0,-1,"[3.337860107421875e-06, -1.570850511590475, -1.8074511899612844e-05, -9.016399719286028e-06, 2.285241862409748e-05, -2.9865895406544496e-05]","[0.0, 0.0, -0.0, 3.322512527696279e-25, 1.233656120695595e-26, 0.0]","[0.0, -1.5707963267948966, 0.0, 0.0, 0.0, 0.0]","[0.0, -1.5707963267948966, 0.0, 0.0, 0.0, 0.0]",0.002,7,1
0,-1,"[-9.361897603810121e-06, -1.5708385906615199, -2.7179718017578125e-05, -2.820909533696181e-05, 3.202056905138306e-05, 5.696582593373023e-05]","[0.0, 0.0, -0.0, 1.0974699949314966e-34, 4.074930375240896e-36, 0.0]","[0.0, -1.5707963267948966, 0.0, 0.0, 0.0, 0.0]","[0.0, -1.5707963267948966, 0.0, 0.0, 0.0, 0.0]",0.002,7,1
0,-1,"[7.005214229138801e-06, -1.570812841454977, -5.676746695826296e-06, -2.6983073730946217e-06, 2.86102294921875e-06, 1.0895730156335048e-05]","[0.0, 0.0, -0.0, 3.6433760072445244e-44, 1.401298464324817e-45, 0.0]","[0.0, -1.5707963267948966, 0.0, 0.0, 0.0, 0.0]","[0.0, -1.5707963267948966, 0.0, 0.0, 0.0, 0.0]",0.002,7,1
0,1,"[-5.070363179981996e-06, -1.5708261928954066, 2.271333803349762e-05, -3.27390483398915e-05, -4.0356312887013246e-05, -3.0199159795074593e-07]","[0.0, 0.0, -0.0, 0.0, 0.0, 0.0]","[0.0005850211778378632, -1.5702113056170588, 0.0005850211778378632, 0.0005850211778378632, 0.0005850211778378632, 0.0005850211778378632]","[0.0005850211778378632, -1.5702113056170588, 0.0005850211778378632, 0.0005850211778378632, 0.0005850211778378632, 0.0005850211778378632]",0.002,7,1
0,2,"[-1.699129213506012e-05, -1.5708099804320277, -3.1739888072479516e-05, -2.546728167729384e-05, 7.152557373046875e-06, 3.2885553082451224e-05]","[0.0, 6.1225269746501e-05, -0.0, 0.0, 6.614612357225269e-05, 0.0]","[0.0011700407124382083, -1.5696262860824584, 0.0011700407124382083, 0.0011700407124382083, 0.0011700407124382083, 0.0011700407124382083]","[0.0011700407124382083, -1.5696262860824584, 0.0011700407124382083, 0.0011700407124382083, 0.0011700407124382083, 0.0011700407124382083]",0.002,7,1
0,3,"[-3.320375551396637e-05, -1.5708023510374964, 4.655519594365387e-05, -2.081811938481337e-05, 2.2852420443086885e-05, 3.592967914300971e-05]","[0.0029034242033958435, 0.0024308289866894484, 0.0022496168967336416, 0.0, 0.002997115021571517, 1.672218058956787e-05]","[0.0017550569605681327, -1.5690412698343283, 0.0017550569605681327, 0.0017550569605681327, 0.0017550569605681327, 0.0017550569605681327]","[0.0017550569605681327, -1.5690412698343283, 0.0017550569605681327, 0.0017550569605681327, 0.0017550569605681327, 0.0017550569605681327]",0.002,7,1
0,4,"[-1.794496645146637e-05, -1.5708352528014125, -2.86102294921875e-06, 7.574140515131944e-05, 6.793189095333219e-05, 1.0857191227842122e-05]","[0.0026384915690869093, 0.0032942015677690506, 0.0026435116305947304, 0.0029410000424832106, 0.0033674247097223997, 0.002218092791736126]","[0.0023400682790039656, -1.5684562585158925, 0.0023400682790039656, 0.0023400682790039656, 0.0023400682790039656, 0.0023400682790039656]","[0.0023400682790039656, -1.5684562585158925, 0.0023400682790039656, 0.0023400682790039656, 0.0023400682790039656, 0.0023400682790039656]",0.002,7,1
0,5,"[2.6601250283420086e-05, -1.570757658486702, -7.448316409863764e-06, 3.640233959956163e-05, 4.9865244363900274e-05, 4.8176527343457565e-05]","[0.0030402156990021467, 0.00805488508194685, 0.005442023742944002, 0.005651810206472874, 0.004011891782283783, 0.004901936277747154]","[0.0029250730245358814, -1.5678712537703607, 0.0029250730245358814, 0.0029250730245358814, 0.0029250730245358814, 0.0029250730245358814]","[0.0029250730245358814, -1.5678712537703607, 0.0029250730245358814, 0.0029250730245358814, 0.0029250730245358814, 0.0029250730245358814]",0.002,7,1
0,6,"[1.4534813089994714e-05, -1.570778564815857, 2.271333803349762e-05, 6.477415051264757e-05, 5.8943507610820234e-05, 1.0883808499784209e-05]","[0.003806589636951685, 0.007951959036290646, 0.006258236709982157, 0.005589799024164677, 0.005478354170918465, 0.00551912747323513]","[0.0035100695539725195, -1.567286257240924, 0.0035100695539725195, 0.0035100695539725195, 0.0035100695539725195, 0.0035100695539725195]","[0.0035100695539725195, -1.567286257240924, 0.0035100695539725195, 0.0035100695539725195, 0.0035100695539725195, 0.0035100695539725195]",0.002,7,1
0,7,"[2.2223812266020104e-05, -1.5707500886968155, 4.116688863575746e-06, 5.285322155756944e-05, 3.620290954131633e-05, 5.125999450683594e-05]","[0.005700517911463976, 0.0066276295110583305, 0.00611184211447835, 0.004792231135070324, 0.00697178253903985, 0.005120863206684589]","[0.004095056224145594, -1.566701270570751, 0.004095056224145594, 0.004095056224145594, 0.004095056224145594, 0.004095056224145594]","[0.004095056224145594, -1.566701270570751, 0.004095056224145594, 0.004095056224145594, 0.004095056224145594, 0.004095056224145594]",0.002,7,1
0,8,"[1.783788320608437e-05, -1.570759118800499, 7.802644838506012e-05, 3.187238659663194e-05, 2.1200896298978478e-05, 3.058910442632623e-05]","[0.006568809039890766, 0.009063445962965488, 0.008454092778265476, 0.005532748531550169, 0.008400515653192997, 0.005625082179903984]","[0.004680031391914515, -1.5661162954029821, 0.004680031391914515, 0.004680031391914515, 0.004680031391914515, 0.004680031391914515]","[0.004680031391914515, -1.5661162954029821, 0.004680031391914515, 0.004680031391914515, 0.004680031391914515, 0.004680031391914515]",0.002,7,1
0,9,"[3.8504600524902344e-05, -1.5707425636104126, 5.990663637334137e-05, 0.00010959684338374132, 3.620290954131633e-05, 7.947683479869738e-05]","[0.008912859484553337, 0.013932660222053528, 0.012605022639036179, 0.0090321134775877, 0.009530086070299149, 0.00963076762855053]","[0.0052649934141709995, -1.5655313333807255, 0.0052649934141709995, 0.0052649934141709995, 0.0052649934141709995, 0.0052649934141709995]","[0.0052649934141709995, -1.5655313333807255, 0.0052649934141709995, 0.0052649934141709995, 0.0052649934141709995, 0.0052649934141709995]",0.002,7,1
0,10,"[8.656347199575976e-05, -1.5706989926150818, 0.00011712709535771637, 9.767591442866319e-05, 0.00013984441466163844, 9.609865810489282e-05]","[0.009907438419759274, 0.017745038494467735, 0.015467542223632336, 0.013930155895650387, 0.012994400225579739, 0.013062544167041779]","[0.005849940647843686, -1.564946386147053, 0.005849940647843686, 0.005849940647843686, 0.005849940647843686, 0.005849940647843686]","[0.005849940647843686, -1.564946386147053, 0.005849940647843686, 0.005849940647843686, 0.005849940647843686, 0.005849940647843686]",0.002,7,1
0,11,"[0.000110626220703125, -1.570690007214882, 0.00013810793031865387, 0.00010506689038081163, 0.0001595203939359635, 0.0001440207997802645]","[0.013161273673176765, 0.02072516456246376, 0.018899107351899147, 0.01680297590792179, 0.0155379893258214, 0.016899235546588898]","[0.006434871449902759, -1.5643614553449938, 0.006434871449902759, 0.006434871449902759, 0.006434871449902759, 0.006434871449902759]","[0.006434871449902759, -1.5643614553449938, 0.006434871449902759, 0.006434871449902759, 0.006434871449902759, 0.006434871449902759]",0.002,7,1
0,12,"[0.00011815250036306679, -1.5705641520074387, 0.00017434755434209137, 0.0001606184193114757, 0.0002121751313097775, 0.00018853353685699403]","[0.015436291694641113, 0.0254912618547678, 0.02276253141462803, 0.01966926082968712, 0.019139649346470833, 0.019725576043128967]","[0.007019784177364551, -1.563776542617532, 0.007019784177364551, 0.007019784177364551, 0.007019784177364551, 0.007019784177364551]","[0.007019784177364551, -1.563776542617532, 0.007019784177364551, 0.007019784177364551, 0.007019784177364551, 0.007019784177364551]",0.002,7,1
0,13,"[0.00014992177602835, -1.5705731553064943, 0.00022679964174443512, 0.00017110883679194444, 0.0003009209758602083, 0.00027374838828109205]","[0.018388936296105385, 0.028417257592082024, 0.025997288525104523, 0.021868456155061722, 0.021494107320904732, 0.02317698486149311]","[0.007604677187296164, -1.5631916496076004, 0.007604677187296164, 0.007604677187296164, 0.007604677187296164, 0.007604677187296164]","[0.007604677187296164, -1.5631916496076004, 0.007604677187296164, 0.007604677187296164, 0.007604677187296164, 0.007604677187296164]",0.002,7,1
0,14,"[0.00023929655435495079, -1.5705866468673157, 0.0002992788897913101, 0.0002853113361815929, 0.0002872586192097515, 0.0002385735569987446]","[0.01987805776298046, 0.029152890667319298, 0.027353867888450623, 0.023452799767255783, 0.023329170420765877, 0.024511326104402542]","[0.008189548836820083, -1.5626067779580766, 0.008189548836820083, 0.008189548836820083, 0.008189548836820083, 0.008189548836820083]","[0.008189548836820083, -1.5626067779580766, 0.008189548836820083, 0.008189548836820083, 0.008189548836820083, 0.008189548836820083]",0.002,7,1
0,15,"[0.0002503061550669372, -1.5705446910909195, 0.0003679434405725601, 0.000297232265136671, 0.0002991795481648296, 0.00035228783963248134]","[0.023136910051107407, 0.02962884120643139, 0.028949478641152382, 0.023920807987451553, 0.021697917953133583, 0.02377316541969776]","[0.008774397483118796, -1.5620219293117779, 0.008774397483118796, 0.008774397483118796, 0.008774397483118796, 0.008774397483118796]","[0.008774397483118796, -1.5620219293117779, 0.008774397483118796, 0.008774397483118796, 0.008774397483118796, 0.008774397483118796]",0.002,7,1
0,16,"[0.00031900207977741957, -1.5704546731761475, 0.00040704408754521637, 0.00038282453503413194, 0.0003879253927152604, 0.0004001657944172621]","[0.02389824017882347, 0.031409356743097305, 0.03126448765397072, 0.025384092703461647, 0.022928079590201378, 0.0235750675201416]","[0.0093592214834394, -1.561437105311457, 0.0093592214834394, 0.0093592214834394, 0.0093592214834394, 0.0093592214834394]","[0.0093592214834394, -1.561437105311457, 0.0093592214834394, 0.0093592214834394, 0.0093592214834394, 0.0093592214834394]",0.002,7,1
0,17,"[0.00036266969982534647, -1.5703886163285752, 0.00047952333559209137, 0.00041024267163081163, 0.00043324328726157546, 0.00036181998439133167]","[0.028205029666423798, 0.03352326527237892, 0.03359803929924965, 0.027546187862753868, 0.024763593450188637, 0.024470385164022446]","[0.009944019195098217, -1.5608523075997984, 0.009944019195098217, 0.009944019195098217, 0.009944019195098217, 0.009944019195098217]","[0.009944019195098217, -1.5608523075997984, 0.009944019195098217, 0.009944019195098217, 0.009944019195098217, 0.009944019195098217]",0.002,7,1
0,18,"[0.00042699158075265586, -1.570276142363884, 0.0005105177508752945, 0.00045768796887202257, 0.00048562337178736925, 0.0004348579386714846]","[0.03233567252755165, 0.0353417806327343, 0.03562105447053909, 0.028848322108387947, 0.027661066502332687, 0.027154799550771713]","[0.010528788975485414, -1.560267537819411, 0.010528788975485414, 0.010528788975485414, 0.010528788975485414, 0.010528788975485414]","[0.010528788975485414, -1.560267537819411, 0.010528788975485414, 0.010528788975485414, 0.010528788975485414, 0.010528788975485414]",0.002,7,1
0,19,"[0.0004946081317029893, -1.5702536416104813, 0.0005915800677698257, 0.0005206304737548351, 0.0005622645257972181, 0.0005473415949381888]","[0.03388947993516922, 0.03795238584280014, 0.03804703801870346, 0.03099949285387993, 0.030606411397457123, 0.03076072782278061]","[0.01111352918206961, -1.559682797612827, 0.01111352918206961, 0.01111352918206961, 0.01111352918206961, 0.01111352918206961]","[0.01111352918206961, -1.559682797612827, 0.01111352918206961, 0.01111352918206961, 0.01111352918206961, 0.01111352918206961]",0.002,7,1
0,20,"[0.0005960142589174211, -1.570235653231368, 0.0006998221026819351, 0.0006274419971923351, 0.0006298129446804523, 0.0005836209747940302]","[0.0364733561873436, 0.04212087392807007, 0.04087749496102333, 0.032880403101444244, 0.033418916165828705, 0.03336751461029053]","[0.011698238172402493, -1.559098088622494, 0.011698238172402493, 0.011698238172402493, 0.011698238172402493, 0.011698238172402493]","[0.011698238172402493, -1.559098088622494, 0.011698238172402493, 0.011698238172402493, 0.011698238172402493, 0.011698238172402493]",0.002,7,1
0,21,"[0.0006799740949645638, -1.570138232117035, 0.0007465521441858414, 0.0006357866474608898, 0.0006270676385611296, 0.0006596326711587608]","[0.03897852078080177, 0.04421880096197128, 0.04280589520931244, 0.035731930285692215, 0.036378245800733566, 0.03746223822236061]","[0.012282914304123434, -1.5585134124907731, 0.012282914304123434, 0.012282914304123434, 0.012282914304123434, 0.012282914304123434]","[0.012282914304123434, -1.5585134124907731, 0.012282914304123434, 0.012282914304123434, 0.012282914304123434, 0.012282914304123434]",0.002,7,1
0,22,"[0.0007861080812290311, -1.5699686420014878, 0.0008276144610803726, 0.0007788377949218273, 0.0007577791693620384, 0.0007643144344910979]","[0.044021882116794586, 0.04857686534523964, 0.0484929084777832, 0.03952120989561081, 0.0397457554936409, 0.04174529388546944]","[0.012867555934964097, -1.5579287708599325, 0.012867555934964097, 0.012867555934964097, 0.012867555934964097, 0.012867555934964097]","[0.012867555934964097, -1.5579287708599325, 0.012867555934964097, 0.012867555934964097, 0.012867555934964097, 0.012867555934964097]",0.002,7,1
0,23,"[0.0008764976519159973, -1.5698890698007126, 0.0009310881244104507, 0.0008501249500731944, 0.0008222704054787755, 0.0008689086535014212]","[0.04775719717144966, 0.05344740301370621, 0.05132457613945007, 0.04530421644449234, 0.042951371520757675, 0.04319509118795395]","[0.01345216142275306, -1.5573441653721436, 0.01345216142275306, 0.01345216142275306, 0.01345216142275306, 0.01345216142275306]","[0.01345216142275306, -1.5573441653721436, 0.01345216142275306, 0.01345216142275306, 0.01345216142275306, 0.01345216142275306]",0.002,7,1
0,24,"[0.0008699458558112383, -1.5697706651738663, 0.0010479132281702164, 0.0009249883839110851, 0.0009125394280999899, 0.0008668899536132812]","[0.05126203969120979, 0.0546470582485199, 0.05555792525410652, 0.04694641754031181, 0.04736367613077164, 0.04612920805811882]","[0.01403672912542041, -1.5567595976694761, 0.01403672912542041, 0.01403672912542041, 0.01403672912542041, 0.01403672912542041]","[0.01403672912542041, -1.5567595976694761, 0.01403672912542041, 0.01403672912542041, 0.01403672912542041, 0.01403672912542041]",0.002,7,1
0,25,"[0.001081684255041182, -1.5696341854384919, 0.0011399427997034195, 0.0010163026997069835, 0.0010085676331073046, 0.0010163228726014495]","[0.05539692938327789, 0.05983879044651985, 0.0609871931374073, 0.050302308052778244, 0.051520008593797684, 0.05181397497653961]","[0.014621257401002376, -1.5561750693938943, 0.014621257401002376, 0.014621257401002376, 0.014621257401002376, 0.014621257401002376]","[0.014621257401002376, -1.5561750693938943, 0.014621257401002376, 0.014621257401002376, 0.014621257401002376, 0.014621257401002376]",0.002,7,1
0,26,"[0.0011077201925218105, -1.5695517224124451, 0.0012972990619104507, 0.001171870822570753, 0.001122952438890934, 0.0011228052899241447]","[0.059116024523973465, 0.06619051843881607, 0.061359845101833344, 0.05456405505537987, 0.05627327039837837, 0.05572221428155899]","[0.015205744607645925, -1.5555905821872507, 0.015205744607645925, 0.015205744607645925, 0.015205744607645925, 0.015205744607645925]","[0.015205744607645925, -1.5555905821872507, 0.015205744607645925, 0.015205744607645925, 0.015205744607645925, 0.015205744607645925]",0.002,7,1
0,27,"[0.00132934155408293, -1.5694046807805826, 0.0014250914203088882, 0.0012540060230712413, 0.0013094325549900532, 0.0012680928921326995]","[0.06360287964344025, 0.06670327484607697, 0.06582751870155334, 0.061130624264478683, 0.06081349402666092, 0.06018080934882164]","[0.015790189103613395, -1.5550061376912832, 0.015790189103613395, 0.015790189103613395, 0.015790189103613395, 0.015790189103613395]","[0.015790189103613395, -1.5550061376912832, 0.015790189103613395, 0.015790189103613395, 0.015790189103613395, 0.015790189103613395]",0.002,7,1
0,28,"[0.001408989424817264, -1.5692681831172486, 0.0015738646136682632, 0.0014207798191527843, 0.00143702223431319, 0.0013954227324575186]","[0.06738433986902237, 0.07246934622526169, 0.07329652458429337, 0.06419302523136139, 0.06514095515012741, 0.06478378921747208]","[0.016374589247287068, -1.5544217375476095, 0.016374589247287068, 0.016374589247287068, 0.016374589247287068, 0.016374589247287068]","[0.016374589247287068, -1.5544217375476095, 0.016374589247287068, 0.016374589247287068, 0.016374589247287068, 0.016374589247287068]",0.002,7,1
0,29,"[0.0016094530001282692, -1.569143832927086, 0.0016968886004846695, 0.0015148359486083507, 0.001510701491497457, 0.0015483093447983265]","[0.07274863123893738, 0.07833799719810486, 0.07263901084661484, 0.06842117756605148, 0.06922177225351334, 0.06972957402467728]","[0.016958943397173833, -1.5538373833977228, 0.016958943397173833, 0.016958943397173833, 0.016958943397173833, 0.016958943397173833]","[0.016958943397173833, -1.5538373833977228, 0.016958943397173833, 0.016958943397173833, 0.016958943397173833, 0.016958943397173833]",0.002,7,1
0,30,"[0.001773259835317731, -1.5689427119544526, 0.0018408934222620132, 0.0017292934605102062, 0.0016475989250466228, 0.0016269008629024029]","[0.07743395119905472, 0.08238174766302109, 0.08016251027584076, 0.07362641394138336, 0.07479637116193771, 0.0764172226190567]","[0.017543249911909743, -1.5532530768829869, 0.017543249911909743, 0.017543249911909743, 0.017543249911909743, 0.017543249911909743]","[0.017543249911909743, -1.5532530768829869, 0.017543249911909743, 0.017543249911909743, 0.017543249911909743, 0.017543249911909743]",0.002,7,1
0,31,"[0.0019337396370247006, -1.5687701225145538, 0.0020139853106897476, 0.0018188196369628429, 0.001823341241106391, 0.0018777659861370921]","[0.08157270401716232, 0.08739438652992249, 0.08428090810775757, 0.07869082689285278, 0.07863175868988037, 0.07919437438249588]","[0.018127507150264666, -1.5526688196446319, 0.018127507150264666, 0.018127507150264666, 0.018127507150264666, 0.018127507150264666]","[0.018127507150264666, -1.5526688196446319, 0.018127507150264666, 0.018127507150264666, 0.018127507150264666, 0.018127507150264666]",0.002,7,1
0,32,"[0.0020001758821308613, -1.5686323654702683, 0.0022528807269495132, 0.001970215434692335, 0.002064003376290202, 0.002013011835515499]","[0.0866614580154419, 0.09211988747119904, 0.08913136273622513, 0.08490435034036636, 0.08189582079648972, 0.0830310583114624]","[0.018711713471146876, -1.5520846133237496, 0.018711713471146876, 0.018711713471146876, 0.018711713471146876, 0.018711713471146876]","[0.018711713471146876, -1.5520846133237496, 0.018711713471146876, 0.018711713471146876, 0.018711713471146876, 0.018711713471146876]",0.002,7,1
0,33,"[0.002281807828694582, -1.5683818322471161, 0.0024326483355920914, 0.002223654384277296, 0.002227802760899067, 0.002193017862737179]","[0.09122714400291443, 0.09728285670280457, 0.09318716078996658, 0.08859194070100784, 0.09054400026798248, 0.0913204550743103]","[0.019295867233607666, -1.551500459561289, 0.019295867233607666, 0.019295867233607666, 0.019295867233607666, 0.019295867233607666]","[0.019295867233607666, -1.551500459561289, 0.019295867233607666, 0.019295867233607666, 0.019295867233607666, 0.019295867233607666]",0.002,7,1
0,34,"[0.0024332546163350344, -1.5681778651526947, 0.0026038328753870132, 0.00236312925305171, 0.00246987072750926, 0.0023609520867466927]","[0.09564570337533951, 0.10202948749065399, 0.09640996158123016, 0.0939231812953949, 0.09373223781585693, 0.09426797926425934]","[0.019879966796845963, -1.5509163599980507, 0.019879966796845963, 0.019879966796845963, 0.019879966796845963, 0.019879966796845963]","[0.019879966796845963, -1.5509163599980507, 0.019879966796845963, 0.019879966796845963, 0.019879966796845963, 0.019879966796845963]",0.002,7,1
0,35,"[0.0026537638623267412, -1.5680609804442902, 0.0027344862567346695, 0.0025957065769652843, 0.0026363800279796124, 0.002597304293885827]","[0.09996195882558823, 0.1055421456694603, 0.10245134681463242, 0.09946176409721375, 0.09929350018501282, 0.09980356693267822]","[0.020464010520212926, -1.5503323162746836, 0.020464010520212926, 0.020464010520212926, 0.020464010520212926, 0.020464010520212926]","[0.020464010520212926, -1.5503323162746836, 0.020464010520212926, 0.020464010520212926, 0.020464010520212926, 0.020464010520212926]",0.002,7,1
0,36,"[0.0028784002643078566, -1.5677324694446106, 0.0030549208270471695, 0.0028038459965209483, 0.0028406139463186264, 0.0028296075761318207]","[0.10881668329238892, 0.11061293631792068, 0.1113528162240982, 0.10521271079778671, 0.10503952950239182, 0.10556907206773758]","[0.02104799676321656, -1.5497483300316799, 0.02104799676321656, 0.02104799676321656, 0.02104799676321656, 0.02104799676321656]","[0.02104799676321656, -1.5497483300316799, 0.02104799676321656, 0.02104799676321656, 0.02104799676321656, 0.02104799676321656]",0.002,7,1
0,37,"[0.003023405559360981, -1.5675659638694306, 0.0032122770892542007, 0.002948923701904249, 0.0030736331827938557, 0.003004272934049368]","[0.11220671236515045, 0.11528992652893066, 0.11153630912303925, 0.1106744110584259, 0.11039914935827255, 0.11070563644170761]","[0.02163192388552632, -1.5491644029093703, 0.02163192388552632, 0.02163192388552632, 0.02163192388552632, 0.02163192388552632]","[0.02163192388552632, -1.5491644029093703, 0.02163192388552632, 0.02163192388552632, 0.02163192388552632, 0.02163192388552632]",0.002,7,1
0,38,"[0.003343190299347043, -1.5673183810761948, 0.003506485615865529, 0.0032114225574950694, 0.0033235854934901, 0.003266172017902136]","[0.1187596544623375, 0.12081188708543777, 0.11842154711484909, 0.11455902457237244, 0.11515994369983673, 0.1161126121878624]","[0.022215790246977733, -1.5485805365479188, 0.022215790246977733, 0.022215790246977733, 0.022215790246977733, 0.022215790246977733]","[0.022215790246977733, -1.5485805365479188, 0.022215790246977733, 0.022215790246977733, 0.022215790246977733, 0.022215790246977733]",0.002,7,1
0,39,"[0.0035864769015461206, -1.5670905423215409, 0.0037258307086389664, 0.0034888225742797374, 0.003559146774932742, 0.003522316925227642]","[0.12434779852628708, 0.12561029195785522, 0.12396608293056488, 0.1214107871055603, 0.12065853178501129, 0.12220092862844467]","[0.02279959420757699, -1.5479967325873196, 0.02279959420757699, 0.02279959420757699, 0.02279959420757699, 0.02279959420757699]","[0.02279959420757699, -1.5479967325873196, 0.02279959420757699, 0.02279959420757699, 0.02279959420757699, 0.02279959420757699]",0.002,7,1
0,40,"[0.0038626701571047306, -1.5668039631894608, 0.004010979329244435, 0.0037057834812621593, 0.003803972387686372, 0.0037818714044988155]","[0.1299373209476471, 0.13230672478675842, 0.12954087555408478, 0.1274460256099701, 0.12592902779579163, 0.12742170691490173]","[0.02338333412750555, -1.547412992667391, 0.02338333412750555, 0.02338333412750555, 0.02338333412750555, 0.02338333412750555]","[0.02338333412750555, -1.547412992667391, 0.02338333412750555, 0.02338333412750555, 0.02338333412750555, 0.02338333412750555]",0.002,7,1
0,41,"[0.0041308775544166565, -1.5665205878070374, 0.004247013722554982, 0.003974123592040968, 0.004021814558655024, 0.004049849696457386]","[0.1354692429304123, 0.13647402822971344, 0.13426758348941803, 0.13371653854846954, 0.13236983120441437, 0.13307252526283264]","[0.023967008367124766, -1.5468293184277717, 0.023967008367124766, 0.023967008367124766, 0.023967008367124766, 0.023967008367124766]","[0.023967008367124766, -1.5468293184277717, 0.023967008367124766, 0.023967008367124766, 0.023967008367124766, 0.023967008367124766]",0.002,7,1
0,42,"[0.004463722929358482, -1.5662355881980439, 0.004476849232808888, 0.004340453738830519, 0.0042861751280725, 0.004318153951317072]","[0.1411498486995697, 0.14158469438552856, 0.13963386416435242, 0.14012528955936432, 0.13833394646644592, 0.13778182864189148]","[0.024550615286980458, -1.546245711507916, 0.024550615286980458, 0.024550615286980458, 0.024550615286980458, 0.024550615286980458]","[0.024550615286980458, -1.546245711507916, 0.024550615286980458, 0.024550615286980458, 0.024550615286980458, 0.024550615286980458]",0.002,7,1
0,43,"[0.004742854740470648, -1.5660315708122035, 0.004849735890523732, 0.004561706180236769, 0.0046620736829936504, 0.004606124944984913]","[0.14994290471076965, 0.14607146382331848, 0.1457768827676773, 0.14535778760910034, 0.14425048232078552, 0.14681020379066467]","[0.025134153247807548, -1.545662173547089, 0.025134153247807548, 0.025134153247807548, 0.025134153247807548, 0.025134153247807548]","[0.025134153247807548, -1.545662173547089, 0.025134153247807548, 0.025134153247807548, 0.025134153247807548, 0.025134153247807548]",0.002,7,1
0,44,"[0.005080167204141617, -1.5656778023443003, 0.005166355763570607, 0.0049007373997191905, 0.004945832304656506, 0.004913401789963245]","[0.15255817770957947, 0.15348780155181885, 0.14977572858333588, 0.150187686085701, 0.15084566175937653, 0.15101420879364014]","[0.025717620610534668, -1.5450787061843618, 0.025717620610534668, 0.025717620610534668, 0.025717620610534668, 0.025717620610534668]","[0.025717620610534668, -1.5450787061843618, 0.025717620610534668, 0.025717620610534668, 0.025717620610534668, 0.025717620610534668]",0.002,7,1
0,45,"[0.005355007015168667, -1.565314607029297, 0.005441013966695607, 0.005227370853088331, 0.005244039464741945, 0.0052836304530501366]","[0.15931609272956848, 0.16064593195915222, 0.1567976325750351, 0.15642186999320984, 0.15776678919792175, 0.1580115556716919]","[0.026301015736288732, -1.544495311058608, 0.026301015736288732, 0.026301015736288732, 0.026301015736288732, 0.026301015736288732]","[0.026301015736288732, -1.544495311058608, 0.026301015736288732, 0.026301015736288732, 0.026301015736288732, 0.026301015736288732]",0.002,7,1
0,46,"[0.005662583280354738, -1.56508223832164, 0.005819622670308888, 0.005537553424499464, 0.0055528245866298676, 0.005550643429160118]","[0.1641506850719452, 0.1645185649394989, 0.16502928733825684, 0.16364474594593048, 0.16381381452083588, 0.1639762967824936]","[0.026884336986399547, -1.543911989808497, 0.026884336986399547, 0.026884336986399547, 0.026884336986399547, 0.026884336986399547]","[0.026884336986399547, -1.543911989808497, 0.026884336986399547, 0.026884336986399547, 0.026884336986399547, 0.026884336986399547]",0.002,7,1
0,47,"[0.006040249485522509, -1.5647086811116715, 0.006113831196920216, 0.00590769826855464, 0.005971312988549471, 0.0058646127581596375]","[0.1704901158809662, 0.17068220674991608, 0.1697511374950409, 0.17002026736736298, 0.1697164624929428, 0.17176231741905212]","[0.027467582722404453, -1.543328744072492, 0.027467582722404453, 0.027467582722404453, 0.027467582722404453, 0.027467582722404453]","[0.027467582722404453, -1.543328744072492, 0.027467582722404453, 0.027467582722404453, 0.027467582722404453, 0.027467582722404453]",0.002,7,1
0,48,"[0.006429880391806364, -1.5643564027598877, 0.006504360829488576, 0.006305022830627394, 0.006251738406717777, 0.006235939916223288]","[0.17610682547092438, 0.17611856758594513, 0.17600682377815247, 0.17411641776561737, 0.17378821969032288, 0.17517556250095367]","[0.028050751306052873, -1.5427455754888437, 0.028050751306052873, 0.028050751306052873, 0.028050751306052873, 0.028050751306052873]","[0.028050751306052873, -1.5427455754888437, 0.028050751306052873, 0.028050751306052873, 0.028050751306052873, 0.028050751306052873]",0.002,7,1
0,49,"[0.006767962593585253, -1.56405325353656, 0.006869141255513966, 0.006619735355041456, 0.006705983076244593, 0.00664136279374361]","[0.1817805916070938, 0.18088097870349884, 0.18284918367862701, 0.18076840043067932, 0.18243396282196045, 0.1820533126592636]","[0.02863384109931096, -1.5421624856955856, 0.02863384109931096, 0.02863384109931096, 0.02863384109931096, 0.02863384109931096]","[0.02863384109931096, -1.5421624856955856, 0.02863384109931096, 0.02863384109931096, 0.02863384109931096, 0.02863384109931096]",0.002,7,1
0,50,"[0.007144246716052294, -1.5636199589683493, 0.007232491170064748, 0.007015629405639601, 0.007061087526381016, 0.0069600907154381275]","[0.19050557911396027, 0.18666353821754456, 0.18773077428340912, 0.18713833391666412, 0.18643130362033844, 0.1880435049533844]","[0.029216850464366173, -1.5415794763305304, 0.029216850464366173, 0.029216850464366173, 0.029216850464366173, 0.029216850464366173]","[0.029216850464366173, -1.5415794763305304, 0.029216850464366173, 0.029216850464366173, 0.029216850464366173, 0.029216850464366173]",0.002,7,1
0,51,"[0.007598147261887789, -1.5633050285144527, 0.007571999226705373, 0.007423444385192823, 0.007450204808264971, 0.00737315509468317]","[0.1942519247531891, 0.19367852807044983, 0.19478675723075867, 0.19310477375984192, 0.19342590868473053, 0.19576194882392883]","[0.029799777763631855, -1.5409965490312647, 0.029799777763631855, 0.029799777763631855, 0.029799777763631855, 0.029799777763631855]","[0.029799777763631855, -1.5409965490312647, 0.029799777763631855, 0.029799777763631855, 0.029799777763631855, 0.029799777763631855]",0.002,7,1
0,52,"[0.007961616851389408, -1.5628834825805207, 0.007989231740133107, 0.007863565082214308, 0.007832878269255161, 0.007776603568345308]","[0.20030370354652405, 0.19913822412490845, 0.20143581926822662, 0.19965095818042755, 0.19995157420635223, 0.20144972205162048]","[0.030382621359751904, -1.5404137054351446, 0.030382621359751904, 0.030382621359751904, 0.030382621359751904, 0.030382621359751904]","[0.030382621359751904, -1.5404137054351446, 0.030382621359751904, 0.030382621359751904, 0.030382621359751904, 0.030382621359751904]",0.002,7,1
0,53,"[0.008357467129826546, -1.5625011253035446, 0.00843841234316045, 0.008225246066711378, 0.008255145512521267, 0.008200944401323795]","[0.20589396357536316, 0.20646533370018005, 0.2062997967004776, 0.20597541332244873, 0.20448902249336243, 0.20700135827064514]","[0.030965379615605294, -1.5398309471792913, 0.030965379615605294, 0.030965379615605294, 0.030965379615605294, 0.030965379615605294]","[0.030965379615605294, -1.5398309471792913, 0.030965379615605294, 0.030965379615605294, 0.030965379615605294, 0.030965379615605294]",0.002,7,1
0,54,"[0.008793512359261513, -1.5620063005811353, 0.008856121693746388, 0.008636756534240675, 0.00867186114192009, 0.00856836885213852]","[0.21162202954292297, 0.21252654492855072, 0.21205250918865204, 0.21118013560771942, 0.2114703506231308, 0.21246470510959625]","[0.031548050894310724, -1.5392482759005859, 0.031548050894310724, 0.031548050894310724, 0.031548050894310724, 0.031548050894310724]","[0.031548050894310724, -1.5392482759005859, 0.031548050894310724, 0.031548050894310724, 0.031548050894310724, 0.031548050894310724]",0.002,7,1
0,55,"[0.009237931109964848, -1.561638706629612, 0.009314362202779591, 0.009137435550353956, 0.009125478565692902, 0.008984041400253773]","[0.21793539822101593, 0.2206021100282669, 0.2164013534784317, 0.2162848711013794, 0.21953348815441132, 0.2182534635066986]","[0.03213063355923119, -1.5386656932356653, 0.03213063355923119, 0.03213063355923119, 0.03213063355923119, 0.03213063355923119]","[0.03213063355923119, -1.5386656932356653, 0.03213063355923119, 0.03213063355923119, 0.03213063355923119, 0.03213063355923119]",0.002,7,1
0,56,"[0.009656804613769054, -1.5612202755040308, 0.009744946156637013, 0.009620352382324171, 0.009586592204868793, 0.009476699866354465]","[0.22393684089183807, 0.2242877334356308, 0.2216312289237976, 0.2226279377937317, 0.22280330955982208, 0.22668208181858063]","[0.03271312597397859, -1.538083200820918, 0.03271312597397859, 0.03271312597397859, 0.03271312597397859, 0.03271312597397859]","[0.03271312597397859, -1.538083200820918, 0.03271312597397859, 0.03271312597397859, 0.03271312597397859, 0.03271312597397859]",0.002,7,1
0,57,"[0.010121526196599007, -1.5607387957027932, 0.01020366350282842, 0.010078950519226026, 0.010005434975028038, 0.009933467954397202]","[0.22987695038318634, 0.22861546277999878, 0.22815975546836853, 0.22789724171161652, 0.2293182909488678, 0.23250994086265564]","[0.03329552650241833, -1.5375008002924782, 0.03329552650241833, 0.03329552650241833, 0.03329552650241833, 0.03329552650241833]","[0.03329552650241833, -1.5375008002924782, 0.03329552650241833, 0.03329552650241833, 0.03329552650241833, 0.03329552650241833]",0.002,7,1
0,58,"[0.010610370896756649, -1.5602874423241992, 0.01067668596376592, 0.010521693820617628, 0.01039199996739626, 0.01037707831710577]","[0.23632638156414032, 0.2341807782649994, 0.2339594066143036, 0.23471271991729736, 0.23740017414093018, 0.23860947787761688]","[0.03387783350867391, -1.5369184932862225, 0.03387783350867391, 0.03387783350867391, 0.03387783350867391, 0.03387783350867391]","[0.03387783350867391, -1.5369184932862225, 0.03387783350867391, 0.03387783350867391, 0.03387783350867391, 0.03387783350867391]",0.002,7,1
0,59,"[0.011120278388261795, -1.5597354502281924, 0.01108104387392217, 0.011023207301757765, 0.010846920311450958, 0.01083183754235506]","[0.24167588353157043, 0.24099546670913696, 0.23770961165428162, 0.24224668741226196, 0.24084118008613586, 0.24292105436325073]","[0.034460045357131514, -1.536336281437765, 0.034460045357131514, 0.034460045357131514, 0.034460045357131514, 0.034460045357131514]","[0.034460045357131514, -1.536336281437765, 0.034460045357131514, 0.034460045357131514, 0.034460045357131514, 0.034460045357131514]",0.002,7,1
0,60,"[0.011636059731245041, -1.559372412306704, 0.011649910603658498, 0.011539979571960401, 0.011438233777880669, 0.011399009265005589]","[0.24616162478923798, 0.24759402871131897, 0.2446686327457428, 0.24800090491771698, 0.246144101023674, 0.2505832016468048]","[0.0350421604124446, -1.5357541663824519, 0.0350421604124446, 0.0350421604124446, 0.0350421604124446, 0.0350421604124446]","[0.0350421604124446, -1.5357541663824519, 0.0350421604124446, 0.0350421604124446, 0.0350421604124446, 0.0350421604124446]",0.002,7,1
0,61,"[0.012135518714785576, -1.5588385074264188, 0.012167755757467091, 0.012039585704467726, 0.01198936440050602, 0.011898448690772057]","[0.25291094183921814, 0.25155869126319885, 0.24981407821178436, 0.25479674339294434, 0.2537476420402527, 0.25699084997177124]","[0.03562417703953853, -1.535172149755358, 0.03562417703953853, 0.03562417703953853, 0.03562417703953853, 0.03562417703953853]","[0.03562417703953853, -1.535172149755358, 0.03562417703953853, 0.03562417703953853, 0.03562417703953853, 0.03562417703953853]",0.002,7,1
0,62,"[0.012598245404660702, -1.558355451827385, 0.012647930775777638, 0.012573404903076124, 0.012485953979194164, 0.01237262412905693]","[0.2611134648323059, 0.2583737373352051, 0.2560942769050598, 0.2599509656429291, 0.2614193856716156, 0.2635408937931061]","[0.03620609360361513, -1.5345902331912815, 0.03620609360361513, 0.03620609360361513, 0.03620609360361513, 0.03620609360361513]","[0.03620609360361513, -1.5345902331912815, 0.03620609360361513, 0.03620609360361513, 0.03620609360361513, 0.03620609360361513]",0.002,7,1
0,63,"[0.01316775567829609, -1.5578215432218094, 0.013205353413717091, 0.013101859683654737, 0.012877292931079865, 0.01289182435721159]","[0.2648434340953827, 0.2653237581253052, 0.2618997097015381, 0.26403161883354187, 0.2668049931526184, 0.2702101767063141]","[0.03678790847015727, -1.5340084183247393, 0.03678790847015727, 0.03678790847015727, 0.03678790847015727, 0.03678790847015727]","[0.03678790847015727, -1.5340084183247393, 0.03678790847015727, 0.03678790847015727, 0.03678790847015727, 0.03678790847015727]",0.002,7,1
0,64,"[0.013723853044211864, -1.557281228048243, 0.013663117085592091, 0.013628168697021437, 0.01346263661980629, 0.013453042134642601]","[0.2700311541557312, 0.2693121135234833, 0.2670682966709137, 0.26572901010513306, 0.2731391191482544, 0.2761377990245819]","[0.037369620004933476, -1.5334267067899632, 0.037369620004933476, 0.037369620004933476, 0.037369620004933476, 0.037369620004933476]","[0.037369620004933476, -1.5334267067899632, 0.037369620004933476, 0.037369620004933476, 0.037369620004933476, 0.037369620004933476]",0.002,7,1
0,65,"[0.014263836666941643, -1.5566800397685547, 0.014208141957418263, 0.014227195377014112, 0.014032998122274876, 0.01403373759239912]","[0.27617308497428894, 0.27581632137298584, 0.27570196986198425, 0.27310439944267273, 0.27888691425323486, 0.28218457102775574]","[0.03795122657400253, -1.532845100220894, 0.03795122657400253, 0.03795122657400253, 0.03795122657400253, 0.03795122657400253]","[0.03795122657400253, -1.532845100220894, 0.03795122657400253, 0.03795122657400253, 0.03795122657400253, 0.03795122657400253]",0.002,7,1
0,66,"[0.014827781356871128, -1.5560982090285798, 0.014756027852193654, 0.01482181131329341, 0.014616294763982296, 0.01462589018046856]","[0.2826476991176605, 0.2828482687473297, 0.28096261620521545, 0.27918538451194763, 0.2849794030189514, 0.28747639060020447]","[0.038532726543718046, -1.5322636002511785, 0.038532726543718046, 0.038532726543718046, 0.038532726543718046, 0.038532726543718046]","[0.038532726543718046, -1.5322636002511785, 0.038532726543718046, 0.038532726543718046, 0.038532726543718046, 0.038532726543718046]",0.002,7,1
0,67,"[0.015436505898833275, -1.5555804011276742, 0.015391174946920216, 0.01532690107312007, 0.015249939635396004, 0.015156855806708336]","[0.2861112952232361, 0.28952285647392273, 0.28459376096725464, 0.2840469479560852, 0.28898561000823975, 0.2898893356323242]","[0.039114118280733065, -1.5316822085141635, 0.039114118280733065, 0.039114118280733065, 0.039114118280733065, 0.039114118280733065]","[0.039114118280733065, -1.5316822085141635, 0.039114118280733065, 0.039114118280733065, 0.039114118280733065, 0.039114118280733065]",0.002,7,1
0,68,"[0.015975574031472206, -1.5549583745053788, 0.015940014516012013, 0.015924497241638136, 0.015835324302315712, 0.01573263667523861]","[0.2929018437862396, 0.29691609740257263, 0.2921997308731079, 0.2913348972797394, 0.2962048053741455, 0.29783546924591064]","[0.039695400152004616, -1.5311009266428919, 0.039695400152004616, 0.039695400152004616, 0.039695400152004616, 0.039695400152004616]","[0.039695400152004616, -1.5311009266428919, 0.039695400152004616, 0.039695400152004616, 0.039695400152004616, 0.039695400152004616]",0.002,7,1
0,69,"[0.016642503440380096, -1.5543988210013886, 0.0165026823626917, 0.016523881549499464, 0.016360120847821236, 0.01636078953742981]","[0.29910096526145935, 0.29931071400642395, 0.2971953749656677, 0.29530957341194153, 0.3016015291213989, 0.3035458028316498]","[0.04027657052479833, -1.5305197562700983, 0.04027657052479833, 0.04027657052479833, 0.04027657052479833, 0.04027657052479833]","[0.04027657052479833, -1.5305197562700983, 0.04027657052479833, 0.04027657052479833, 0.04027657052479833, 0.04027657052479833]",0.002,7,1
0,70,"[0.017229115590453148, -1.5537793946317215, 0.017103020344869435, 0.017144961948059034, 0.01698322966694832, 0.01694440469145775]","[0.30538859963417053, 0.3065807521343231, 0.3028872609138489, 0.3014572560787201, 0.3069852590560913, 0.3103635609149933]","[0.04085762776669305, -1.5299386990282036, 0.04085762776669305, 0.04085762776669305, 0.04085762776669305, 0.04085762776669305]","[0.04085762776669305, -1.5299386990282036, 0.04085762776669305, 0.04085762776669305, 0.04085762776669305, 0.04085762776669305]",0.002,7,1
0,71,"[0.017832361161708832, -1.5531432212195178, 0.017783943806783498, 0.017779989833496046, 0.01760946214199066, 0.017633941024541855]","[0.31018590927124023, 0.3097207248210907, 0.30648326873779297, 0.3067324757575989, 0.31220465898513794, 0.3145125210285187]","[0.041438570245585345, -1.5293577565493113, 0.041438570245585345, 0.041438570245585345, 0.041438570245585345, 0.041438570245585345]","[0.041438570245585345, -1.5293577565493113, 0.041438570245585345, 0.041438570245585345, 0.041438570245585345, 0.041438570245585345]",0.002,7,1
0,72,"[0.018468718975782394, -1.552560107117035, 0.01836091676820928, 0.018344803447387648, 0.018236737698316574, 0.018273528665304184]","[0.3133273124694824, 0.313121497631073, 0.31410855054855347, 0.3124493658542633, 0.3176591396331787, 0.31948402523994446]","[0.04201939632969416, -1.5287769304652024, 0.04201939632969416, 0.04201939632969416, 0.04201939632969416, 0.04201939632969416]","[0.04201939632969416, -1.5287769304652024, 0.04201939632969416, 0.04201939632969416, 0.04201939632969416, 0.04201939632969416]",0.002,7,1
0,73,"[0.019099373370409012, -1.5518866640380402, 0.01900369325746709, 0.018974347705505323, 0.018889417871832848, 0.018892856314778328]","[0.3205955922603607, 0.3184410631656647, 0.3161287009716034, 0.3176477253437042, 0.32252389192581177, 0.323621928691864]","[0.04260010438756538, -1.528196222407331, 0.04260010438756538, 0.04260010438756538, 0.04260010438756538, 0.04260010438756538]","[0.04260010438756538, -1.528196222407331, 0.04260010438756538, 0.04260010438756538, 0.04260010438756538, 0.04260010438756538]",0.002,7,1
0,74,"[0.019775494933128357, -1.5512549889138718, 0.019599262868062794, 0.019586964244506788, 0.019480988383293152, 0.01955702342092991]","[0.3245726525783539, 0.3235599100589752, 0.32298001646995544, 0.3236302435398102, 0.32840079069137573, 0.32859691977500916]","[0.043180692788076395, -1.52761563400682, 0.043180692788076395, 0.043180692788076395, 0.043180692788076395, 0.043180692788076395]","[0.043180692788076395, -1.52761563400682, 0.043180692788076395, 0.043180692788076395, 0.043180692788076395, 0.043180692788076395]",0.002,7,1
0,75,"[0.02039678767323494, -1.5505706512233992, 0.020218674336568654, 0.020253582591674757, 0.020210228860378265, 0.020221451297402382]","[0.3303132653236389, 0.3286072611808777, 0.3272622227668762, 0.32862067222595215, 0.33207225799560547, 0.3334451913833618]","[0.0437611599004407, -1.527035166894456, 0.0437611599004407, 0.0437611599004407, 0.0437611599004407, 0.0437611599004407]","[0.0437611599004407, -1.527035166894456, 0.0437611599004407, 0.0437611599004407, 0.0437611599004407, 0.0437611599004407]",0.002,7,1
0,76,"[0.02105570025742054, -1.5499521785280486, 0.02095681825746709, 0.020830436343810987, 0.02083001658320427, 0.020912770181894302]","[0.33370789885520935, 0.3344629108905792, 0.33418911695480347, 0.33534836769104004, 0.33771756291389465, 0.3374060392379761]","[0.04434150409421247, -1.526454822700684, 0.04434150409421247, 0.04434150409421247, 0.04434150409421247, 0.04434150409421247]","[0.04434150409421247, -1.526454822700684, 0.04434150409421247, 0.04434150409421247, 0.04434150409421247, 0.04434150409421247]",0.002,7,1
0,77,"[0.02175864577293396, -1.549247184102871, 0.021591965352193654, 0.021480484599731398, 0.021532807499170303, 0.021641090512275696]","[0.3399987816810608, 0.3369998335838318, 0.3425751030445099, 0.3412124812602997, 0.34375521540641785, 0.34192731976509094]","[0.04492172373929114, -1.5258746030556054, 0.04492172373929114, 0.04492172373929114, 0.04492172373929114, 0.04492172373929114]","[0.04492172373929114, -1.5258746030556054, 0.04492172373929114, 0.04492172373929114, 0.04492172373929114, 0.04492172373929114]",0.002,7,1
0,78,"[0.022454604506492615, -1.5485346981189032, 0.022292439137594044, 0.022220297450683546, 0.022224944084882736, 0.02228754572570324]","[0.3432164192199707, 0.34292134642601013, 0.3446807861328125, 0.34712162613868713, 0.3492533564567566, 0.34530097246170044]","[0.04550181720592597, -1.5252945095889705, 0.04550181720592597, 0.04550181720592597, 0.04550181720592597, 0.04550181720592597]","[0.04550181720592597, -1.5252945095889705, 0.04550181720592597, 0.04550181720592597, 0.04550181720592597, 0.04550181720592597]",0.002,7,1
0,79,"[0.023185698315501213, -1.547784949918725, 0.023016277943746388, 0.022908254260681105, 0.022965513169765472, 0.0229832511395216]","[0.34970709681510925, 0.3454773724079132, 0.35014402866363525, 0.353299081325531, 0.3532475531101227, 0.3507296144962311]","[0.04608178286472068, -1.524714543930176, 0.04608178286472068, 0.04608178286472068, 0.04608178286472068, 0.04608178286472068]","[0.04608178286472068, -1.524714543930176, 0.04608178286472068, 0.04608178286472068, 0.04608178286472068, 0.04608178286472068]",0.002,7,1
0,80,"[0.023892676457762718, -1.5470649258098383, 0.023743454610006154, 0.023572488422058058, 0.023699747398495674, 0.0237356536090374]","[0.3520476222038269, 0.3501884639263153, 0.35289427638053894, 0.35875633358955383, 0.3595218062400818, 0.3561236262321472]","[0.046661619086637914, -1.5241347077082585, 0.046661619086637914, 0.046661619086637914, 0.046661619086637914, 0.046661619086637914]","[0.046661619086637914, -1.5241347077082585, 0.046661619086637914, 0.046661619086637914, 0.046661619086637914, 0.046661619086637914]",0.002,7,1
0,81,"[0.02457805909216404, -1.5463865467211981, 0.024408642445699513, 0.024353309268615675, 0.024394555017352104, 0.02448785863816738]","[0.3585069179534912, 0.35405007004737854, 0.35566118359565735, 0.36378195881843567, 0.36310166120529175, 0.3601943254470825]","[0.04724132424300397, -1.5235550025518927, 0.04724132424300397, 0.04724132424300397, 0.04724132424300397, 0.04724132424300397]","[0.04724132424300397, -1.5235550025518927, 0.04724132424300397, 0.04724132424300397, 0.04724132424300397, 0.04724132424300397]",0.002,7,1
0,82,"[0.025294501334428787, -1.545600638990738, 0.02514678636659795, 0.02501313268627925, 0.025172129273414612, 0.025245603173971176]","[0.3630700409412384, 0.35889944434165955, 0.3613743782043457, 0.3678380846977234, 0.36705878376960754, 0.3654032051563263]","[0.04782089670551321, -1.5229754300893834, 0.04782089670551321, 0.04782089670551321, 0.04782089670551321, 0.04782089670551321]","[0.04782089670551321, -1.5229754300893834, 0.04782089670551321, 0.04782089670551321, 0.04782089670551321, 0.04782089670551321]",0.002,7,1
0,83,"[0.02601744793355465, -1.5448614072850724, 0.02585775056947881, 0.02570585786785884, 0.02588309533894062, 0.025951828807592392]","[0.3667469620704651, 0.36166173219680786, 0.36422815918922424, 0.3729698956012726, 0.3726947009563446, 0.3666571378707886]","[0.04840033484623275, -1.5223959919486638, 0.04840033484623275, 0.04840033484623275, 0.04840033484623275, 0.04840033484623275]","[0.04840033484623275, -1.5223959919486638, 0.04840033484623275, 0.04840033484623275, 0.04840033484623275, 0.04840033484623275]",0.002,7,1
0,84,"[0.02671860344707966, -1.544117859830596, 0.026609722767965138, 0.026475711459777784, 0.026608362793922424, 0.02665407583117485]","[0.3713499903678894, 0.367226243019104, 0.37266361713409424, 0.37599095702171326, 0.37507516145706177, 0.3701810836791992]","[0.04897963703760701, -1.5218166897572896, 0.04897963703760701, 0.04897963703760701, 0.04897963703760701, 0.04897963703760701]","[0.04897963703760701, -1.5218166897572896, 0.04897963703760701, 0.04897963703760701, 0.04897963703760701, 0.04897963703760701]",0.002,7,1
0,85,"[0.027474040165543556, -1.5433663588813324, 0.027381722127095998, 0.027208490962646437, 0.027459442615509033, 0.027458801865577698]","[0.3749513030052185, 0.3704475462436676, 0.37581732869148254, 0.38198187947273254, 0.37820881605148315, 0.37662842869758606]","[0.04955880165246223, -1.5212375251424344, 0.04955880165246223, 0.04955880165246223, 0.04955880165246223, 0.04955880165246223]","[0.04955880165246223, -1.5212375251424344, 0.04955880165246223, 0.04955880165246223, 0.04955880165246223, 0.04955880165246223]",0.002,7,1
0,86,"[0.028183823451399803, -1.542605609898903, 0.02812081972231084, 0.027984424228332472, 0.028222888708114624, 0.02818925306200981]","[0.37902072072029114, 0.3748454749584198, 0.3815667927265167, 0.38588079810142517, 0.3795187473297119, 0.3804146647453308]","[0.05013782706401114, -1.5206584997308854, 0.05013782706401114, 0.05013782706401114, 0.05013782706401114, 0.05013782706401114]","[0.05013782706401114, -1.5206584997308854, 0.05013782706401114, 0.05013782706401114, 0.05013782706401114, 0.05013782706401114]",0.002,7,1
0,87,"[0.02894008159637451, -1.541838926529028, 0.02890330949892217, 0.028749747867248487, 0.028994053602218628, 0.02897760644555092]","[0.3818076550960541, 0.37835264205932617, 0.3828072249889374, 0.3895696997642517, 0.38527393341064453, 0.38254767656326294]","[0.050716711645857414, -1.5200796151490392, 0.050716711645857414, 0.050716711645857414, 0.050716711645857414, 0.050716711645857414]","[0.050716711645857414, -1.5200796151490392, 0.050716711645857414, 0.050716711645857414, 0.050716711645857414, 0.050716711645857414]",0.002,7,1
0,88,"[0.029657047241926193, -1.5410292011550446, 0.02970010439027959, 0.029577894801757765, 0.029791122302412987, 0.02977432869374752]","[0.3858011066913605, 0.3803061544895172, 0.38681691884994507, 0.3930166959762573, 0.389474093914032, 0.3846111595630646]","[0.05129545377200032, -1.5195008730228963, 0.05129545377200032, 0.05129545377200032, 0.05129545377200032, 0.05129545377200032]","[0.05129545377200032, -1.5195008730228963, 0.05129545377200032, 0.05129545377200032, 0.05129545377200032, 0.05129545377200032]",0.002,7,1
0,89,"[0.03044506348669529, -1.5401812952807923, 0.030475441609517873, 0.030321283931396437, 0.030595364049077034, 0.030579091981053352]","[0.39239928126335144, 0.3863341808319092, 0.39090633392333984, 0.396464079618454, 0.3926714062690735, 0.3883019685745239]","[0.051874051816839274, -1.5189222749780573, 0.051874051816839274, 0.051874051816839274, 0.051874051816839274, 0.051874051816839274]","[0.051874051816839274, -1.5189222749780573, 0.051874051816839274, 0.051874051816839274, 0.051874051816839274, 0.051874051816839274]",0.002,7,1
0,90,"[0.031309425830841064, -1.5394677829793473, 0.0312884489642542, 0.031100555057189894, 0.031363703310489655, 0.03129937872290611]","[0.3952699303627014, 0.38722875714302063, 0.3929976522922516, 0.3990360200405121, 0.3958192467689514, 0.393003910779953]","[0.05245250415517839, -1.5183438226397181, 0.05245250415517839, 0.05245250415517839, 0.05245250415517839, 0.05245250415517839]","[0.05245250415517839, -1.5183438226397181, 0.05245250415517839, 0.05245250415517839, 0.05245250415517839, 0.05245250415517839]",0.002,7,1
0,91,"[0.032059431076049805, -1.5386714202216645, 0.032046143208638966, 0.031955166453979444, 0.03211897239089012, 0.03210405260324478]","[0.3985890746116638, 0.3929942548274994, 0.3980977237224579, 0.40429434180259705, 0.3977755606174469, 0.39659926295280457]","[0.053030809162231005, -1.5177655176326657, 0.053030809162231005, 0.053030809162231005, 0.053030809162231005, 0.053030809162231005]","[0.053030809162231005, -1.5177655176326657, 0.053030809162231005, 0.053030809162231005, 0.053030809162231005, 0.053030809162231005]",0.002,7,1
0,92,"[0.03283851221203804, -1.5378592510572453, 0.03293973604311162, 0.03283767282452388, 0.032961342483758926, 0.03290784731507301]","[0.4029528796672821, 0.393273264169693, 0.3984829783439636, 0.40928399562835693, 0.4017530083656311, 0.3992110788822174]","[0.05360896521362437, -1.517187361581272, 0.05360896521362437, 0.05360896521362437, 0.05360896521362437, 0.05360896521362437]","[0.05360896521362437, -1.517187361581272, 0.05360896521362437, 0.05360896521362437, 0.05360896521362437, 0.05360896521362437]",0.002,7,1
0,93,"[0.033664919435977936, -1.5370198537460347, 0.033747498189107716, 0.033673329944274855, 0.03378115966916084, 0.033741485327482224]","[0.4043274223804474, 0.399568647146225, 0.4023444950580597, 0.410500168800354, 0.40223467350006104, 0.40185976028442383]","[0.054186970685404054, -1.5166093561094924, 0.054186970685404054, 0.054186970685404054, 0.054186970685404054, 0.054186970685404054]","[0.054186970685404054, -1.5166093561094924, 0.054186970685404054, 0.054186970685404054, 0.054186970685404054, 0.054186970685404054]",0.002,7,1
0,94,"[0.03446303308010101, -1.5362197247198601, 0.034588162099019826, 0.034459038371704054, 0.0346049889922142, 0.03458114340901375]","[0.4068942964076996, 0.4001518487930298, 0.40475812554359436, 0.4108990728855133, 0.4043983221054077, 0.4034683406352997]","[0.054764823954038644, -1.516031502840858, 0.054764823954038644, 0.054764823954038644, 0.054764823954038644, 0.054764823954038644]","[0.054764823954038644, -1.516031502840858, 0.054764823954038644, 0.054764823954038644, 0.054764823954038644, 0.054764823954038644]",0.002,7,1
0,95,"[0.03528151661157608, -1.5354086731425305, 0.03540069261659795, 0.03532664358105464, 0.03542570769786835, 0.035375434905290604]","[0.41089683771133423, 0.40605393052101135, 0.4061623811721802, 0.4133555591106415, 0.40723544359207153, 0.40697744488716125]","[0.0553425233964242, -1.5154538033984724, 0.0553425233964242, 0.0553425233964242, 0.0553425233964242, 0.0553425233964242]","[0.0553425233964242, -1.5154538033984724, 0.0553425233964242, 0.0553425233964242, 0.0553425233964242, 0.0553425233964242]",0.002,7,1
0,96,"[0.03619421273469925, -1.5345756721547623, 0.03615886369814092, 0.036070628757141066, 0.036223918199539185, 0.03620774298906326]","[0.4116847813129425, 0.4078599810600281, 0.40765729546546936, 0.41371268033981323, 0.4105754792690277, 0.40874508023262024]","[0.055920067389888854, -1.5148762594050078, 0.055920067389888854, 0.055920067389888854, 0.055920067389888854, 0.055920067389888854]","[0.055920067389888854, -1.5148762594050078, 0.055920067389888854, 0.055920067389888854, 0.055920067389888854, 0.055920067389888854]",0.002,7,1
0,97,"[0.03700645640492439, -1.5337110509029408, 0.037056748067037404, 0.0369991499134521, 0.037146251648664474, 0.03699888288974762]","[0.41467714309692383, 0.4123561978340149, 0.41231173276901245, 0.4147535562515259, 0.41188308596611023, 0.41178596019744873]","[0.05649745431219742, -1.5142988724826991, 0.05649745431219742, 0.05649745431219742, 0.05649745431219742, 0.05649745431219742]","[0.05649745431219742, -1.5142988724826991, 0.05649745431219742, 0.05649745431219742, 0.05649745431219742, 0.05649745431219742]",0.002,7,1
0,98,"[0.03783253952860832, -1.5328924444368859, 0.037929836903707326, 0.03783516466107173, 0.03786616027355194, 0.037786781787872314]","[0.41656357049942017, 0.41362279653549194, 0.41366714239120483, 0.4155012369155884, 0.4144934117794037, 0.41616174578666687]","[0.05707468254155584, -1.5137216442533408, 0.05707468254155584, 0.05707468254155584, 0.05707468254155584, 0.05707468254155584]","[0.05707468254155584, -1.5137216442533408, 0.05707468254155584, 0.05707468254155584, 0.05707468254155584, 0.05707468254155584]",0.002,7,1
0,99,"[0.03867187723517418, -1.5320936900428315, 0.03879100481142217, 0.03867272912945552, 0.03871144354343414, 0.03863801807165146]","[0.41998782753944397, 0.418731153011322, 0.41811615228652954, 0.41771602630615234, 0.4153241217136383, 0.41683441400527954]","[0.05765175045661585, -1.5131445763382807, 0.05765175045661585, 0.05765175045661585, 0.05765175045661585, 0.05765175045661585]","[0.05765175045661585, -1.5131445763382807, 0.05765175045661585, 0.05765175045661585, 0.05765175045661585, 0.05765175045661585]",0.002,7,1
0,100,"[0.03948501870036125, -1.5312543374351044, 0.03953725496401006, 0.039561553592346144, 0.03955782949924469, 0.0394539013504982]","[0.4213721752166748, 0.4189419150352478, 0.42015540599823, 0.42182087898254395, 0.41782984137535095, 0.4205012321472168]","[0.058228656436479447, -1.5125676703584172, 0.058228656436479447, 0.058228656436479447, 0.058228656436479447, 0.058228656436479447]","[0.058228656436479447, -1.5125676703584172, 0.058228656436479447, 0.058228656436479447, 0.058228656436479447, 0.058228656436479447]",0.002,7,1
0,101,"[0.04031894728541374, -1.530406368230917, 0.04037458101381475, 0.04046301423992915, 0.04033961147069931, 0.04024825245141983]","[0.4221373498439789, 0.42224207520484924, 0.4212208688259125, 0.42387309670448303, 0.4202010929584503, 0.42387375235557556]","[0.0588053988607035, -1.511990927934193, 0.0588053988607035, 0.0588053988607035, 0.0588053988607035, 0.0588053988607035]","[0.0588053988607035, -1.511990927934193, 0.0588053988607035, 0.0588053988607035, 0.0588053988607035, 0.0588053988607035]",0.002,7,1
0,102,"[0.04116141423583031, -1.5295659762671967, 0.0412519613849085, 0.04137031614270015, 0.0412299707531929, 0.041110217571258545]","[0.4232861399650574, 0.42466214299201965, 0.42284679412841797, 0.42415112257003784, 0.42162325978279114, 0.42584383487701416]","[0.0593819761093043, -1.5114143506855922, 0.0593819761093043, 0.0593819761093043, 0.0593819761093043, 0.0593819761093043]","[0.0593819761093043, -1.5114143506855922, 0.0593819761093043, 0.0593819761093043, 0.0593819761093043, 0.0593819761093043]",0.002,7,1
0,103,"[0.04202353581786156, -1.5287222389927884, 0.04204684892763311, 0.042174263591430616, 0.04208667576313019, 0.04196632280945778]","[0.4270160496234894, 0.42264828085899353, 0.4240681827068329, 0.42313241958618164, 0.4241878092288971, 0.4275782108306885]","[0.059958386562762055, -1.5108379402321346, 0.059958386562762055, 0.059958386562762055, 0.059958386562762055, 0.059958386562762055]","[0.059958386562762055, -1.5108379402321346, 0.059958386562762055, 0.059958386562762055, 0.059958386562762055, 0.059958386562762055]",0.002,7,1
0,104,"[0.04288699850440025, -1.527879973208048, 0.04289752641786748, 0.04304627954449458, 0.04286818206310272, 0.042820435017347336]","[0.4259980320930481, 0.4262377917766571, 0.4228995442390442, 0.42267483472824097, 0.42653459310531616, 0.42888587713241577]","[0.06053462860202547, -1.5102616981928711, 0.06053462860202547, 0.06053462860202547, 0.06053462860202547, 0.06053462860202547]","[0.06053462860202547, -1.5102616981928711, 0.06053462860202547, 0.06053462860202547, 0.06053462860202547, 0.06053462860202547]",0.002,7,1
0,105,"[0.04376116022467613, -1.527052403693535, 0.04375297227968389, 0.04390863954510493, 0.04370402917265892, 0.04367002844810486]","[0.42806243896484375, 0.4265027940273285, 0.4284950792789459, 0.4243001639842987, 0.4293801784515381, 0.43126872181892395]","[0.061110700608516366, -1.5096856261863802, 0.061110700608516366, 0.061110700608516366, 0.061110700608516366, 0.061110700608516366]","[0.061110700608516366, -1.5096856261863802, 0.061110700608516366, 0.061110700608516366, 0.061110700608516366, 0.061110700608516366]",0.002,7,1
0,106,"[0.04454558342695236, -1.5262248826077958, 0.04460317293276006, 0.04479031145062251, 0.04461970180273056, 0.04443832486867905]","[0.43087729811668396, 0.4276532828807831, 0.42726588249206543, 0.42480921745300293, 0.4280366003513336, 0.43194684386253357]","[0.061686600964134086, -1.5091097258307624, 0.061686600964134086, 0.061686600964134086, 0.061686600964134086, 0.061686600964134086]","[0.061686600964134086, -1.5091097258307624, 0.061686600964134086, 0.061686600964134086, 0.061686600964134086, 0.061686600964134086]",0.002,7,1
0,107,"[0.04548056423664093, -1.5253466491452237, 0.045475308095113576, 0.045666976565978956, 0.04539809748530388, 0.045355189591646194]","[0.4298628866672516, 0.42990976572036743, 0.4298418164253235, 0.4273611307144165, 0.4330475330352783, 0.43459898233413696]","[0.06226232805126016, -1.5085339987436364, 0.06226232805126016, 0.06226232805126016, 0.06226232805126016, 0.06226232805126016]","[0.06226232805126016, -1.5085339987436364, 0.06226232805126016, 0.06226232805126016, 0.06226232805126016, 0.06226232805126016]",0.002,7,1
0,108,"[0.046326544135808945, -1.5244894337705155, 0.046338860188619435, 0.04653529703106685, 0.04628342390060425, 0.04622764512896538]","[0.43227383494377136, 0.43204522132873535, 0.4295405149459839, 0.42746779322624207, 0.43191641569137573, 0.4358939826488495]","[0.06283788025276278, -1.5079584465421338, 0.06283788025276278, 0.06283788025276278, 0.06283788025276278, 0.06283788025276278]","[0.06283788025276278, -1.5079584465421338, 0.06283788025276278, 0.06283788025276278, 0.06283788025276278, 0.06283788025276278]",0.002,7,1
0,109,"[0.0472017265856266, -1.5236467246762295, 0.04722911516298467, 0.04738716661419673, 0.047152455896139145, 0.04714037477970123]","[0.4334662854671478, 0.43295636773109436, 0.43153253197669983, 0.4289305806159973, 0.4337714910507202, 0.4365934133529663]","[0.06341325595200138, -1.5073830708428952, 0.06341325595200138, 0.06341325595200138, 0.06341325595200138, 0.06341325595200138]","[0.06341325595200138, -1.5073830708428952, 0.06341325595200138, 0.06341325595200138, 0.06341325595200138, 0.06341325595200138]",0.002,7,1
0,110,"[0.04807154834270477, -1.522837759261467, 0.047980610524312794, 0.048196478480956984, 0.04802877455949783, 0.047925855964422226]","[0.4342501163482666, 0.4325709640979767, 0.43112900853157043, 0.4271274507045746, 0.4356526732444763, 0.43797391653060913]","[0.06398845353283117, -1.5068078732620653, 0.06398845353283117, 0.06398845353283117, 0.06398845353283117, 0.06398845353283117]","[0.06398845353283117, -1.5068078732620653, 0.06398845353283117, 0.06398845353283117, 0.06398845353283117, 0.06398845353283117]",0.002,7,1
0,111,"[0.04890487715601921, -1.5219566386989136, 0.04885465303529912, 0.049077077502868605, 0.04893605783581734, 0.04888783022761345]","[0.4351314604282379, 0.4310935139656067, 0.431009978055954, 0.42733678221702576, 0.43623843789100647, 0.4398753046989441]","[0.06456347137960762, -1.5062328554152888, 0.06456347137960762, 0.06456347137960762, 0.06456347137960762, 0.06456347137960762]","[0.06456347137960762, -1.5062328554152888, 0.06456347137960762, 0.06456347137960762, 0.06456347137960762, 0.06456347137960762]",0.002,7,1
0,112,"[0.04978778585791588, -1.5210963797620316, 0.049727741871969044, 0.049899621600768995, 0.04976719617843628, 0.04970056563615799]","[0.43375083804130554, 0.43015092611312866, 0.43215155601501465, 0.4280233085155487, 0.43816858530044556, 0.4385889768600464]","[0.06513830787719112, -1.5056580189177053, 0.06513830787719112, 0.06513830787719112, 0.06513830787719112, 0.06513830787719112]","[0.06513830787719112, -1.5056580189177053, 0.06513830787719112, 0.06513830787719112, 0.06513830787719112, 0.06513830787719112]",0.002,7,1
0,113,"[0.050673823803663254, -1.5202749532512208, 0.05058938661684209, 0.05074576913800044, 0.05061067268252373, 0.05058903619647026]","[0.43781325221061707, 0.4292640686035156, 0.43237581849098206, 0.4299077093601227, 0.4387039840221405, 0.43856602907180786]","[0.06571296141095137, -1.5050833653839453, 0.06571296141095137, 0.06571296141095137, 0.06571296141095137, 0.06571296141095137]","[0.06571296141095137, -1.5050833653839453, 0.06571296141095137, 0.06571296141095137, 0.06571296141095137, 0.06571296141095137]",0.002,7,1
0,114,"[0.05154034122824669, -1.5194151152721425, 0.05139667192567998, 0.05155722677197261, 0.051463812589645386, 0.05144383758306503]","[0.4365747570991516, 0.4293345510959625, 0.43280115723609924, 0.43203815817832947, 0.43895286321640015, 0.4401967525482178]","[0.06628743036677205, -1.5045088964281246, 0.06628743036677205, 0.06628743036677205, 0.06628743036677205, 0.06628743036677205]","[0.06628743036677205, -1.5045088964281246, 0.06628743036677205, 0.06628743036677205, 0.06628743036677205, 0.06628743036677205]",0.002,7,1
0,115,"[0.05243890732526779, -1.5185070012560864, 0.05234128633608037, 0.05238883077587886, 0.05236433446407318, 0.052393291145563126]","[0.4375138580799103, 0.4304112493991852, 0.4333624243736267, 0.43341994285583496, 0.4387052059173584, 0.43901941180229187]","[0.06686171313105525, -1.5039346136638414, 0.06686171313105525, 0.06686171313105525, 0.06686171313105525, 0.06686171313105525]","[0.06686171313105525, -1.5039346136638414, 0.06686171313105525, 0.06686171313105525, 0.06686171313105525, 0.06686171313105525]",0.002,7,1
0,116,"[0.05330074578523636, -1.5175777983716507, 0.05310422578920537, 0.053233786220214796, 0.05318543314933777, 0.05326474457979202]","[0.43670016527175903, 0.42921844124794006, 0.43364691734313965, 0.43801525235176086, 0.4386003613471985, 0.43856000900268555]","[0.0674358080907261, -1.5033605187041705, 0.0674358080907261, 0.0674358080907261, 0.0674358080907261, 0.0674358080907261]","[0.0674358080907261, -1.5033605187041705, 0.0674358080907261, 0.0674358080907261, 0.0674358080907261, 0.0674358080907261]",0.002,7,1
0,117,"[0.05417921766638756, -1.516841833745577, 0.05406171480287725, 0.05405036985363765, 0.05410844087600708, 0.054179489612579346]","[0.43800097703933716, 0.4279666244983673, 0.43192601203918457, 0.43676429986953735, 0.4390263259410858, 0.43732574582099915]","[0.06800971363323713, -1.5027866131616594, 0.06800971363323713, 0.06800971363323713, 0.06800971363323713, 0.06800971363323713]","[0.06800971363323713, -1.5027866131616594, 0.06800971363323713, 0.06800971363323713, 0.06800971363323713, 0.06800971363323713]",0.002,7,1
0,118,"[0.05508173257112503, -1.5159410958043118, 0.054869953786031544, 0.054977937335632276, 0.05496380478143692, 0.05502605065703392]","[0.4355767071247101, 0.424221932888031, 0.43189093470573425, 0.4367932379245758, 0.4396772086620331, 0.4373435080051422]","[0.06858342814657303, -1.5022128986483234, 0.06858342814657303, 0.06858342814657303, 0.06858342814657303, 0.06858342814657303]","[0.06858342814657303, -1.5022128986483234, 0.06858342814657303, 0.06858342814657303, 0.06858342814657303, 0.06858342814657303]",0.002,7,1
0,119,"[0.055930715054273605, -1.5151163351586838, 0.055725876485006154, 0.055781884784362745, 0.05588090047240257, 0.05593482032418251]","[0.4345807731151581, 0.4263584017753601, 0.4309631586074829, 0.43548303842544556, 0.4400674104690552, 0.43646371364593506]","[0.06915695001925502, -1.5016393767756415, 0.06915695001925502, 0.06915695001925502, 0.06915695001925502, 0.06915695001925502]","[0.06915695001925502, -1.5016393767756415, 0.06915695001925502, 0.06915695001925502, 0.06915695001925502, 0.06915695001925502]",0.002,7,1
0,120,"[0.05682883784174919, -1.514190824036934, 0.05660993257631475, 0.05669395505871577, 0.056782376021146774, 0.056804757565259933]","[0.4377896785736084, 0.4237141013145447, 0.42922455072402954, 0.43762311339378357, 0.4371337890625, 0.4351334869861603]","[0.06973027764034544, -1.501066049154551, 0.06973027764034544, 0.06973027764034544, 0.06973027764034544, 0.06973027764034544]","[0.06973027764034544, -1.501066049154551, 0.06973027764034544, 0.06973027764034544, 0.06973027764034544, 0.06973027764034544]",0.002,7,1
0,121,"[0.057701822370290756, -1.513317884211876, 0.05750877061952764, 0.0575452285953979, 0.0576648972928524, 0.05767948552966118]","[0.4370492100715637, 0.4239112436771393, 0.43194350600242615, 0.43871578574180603, 0.4388364255428314, 0.4348149001598358]","[0.0703034093994522, -1.5004929173954444, 0.0703034093994522, 0.0703034093994522, 0.0703034093994522, 0.0703034093994522]","[0.0703034093994522, -1.5004929173954444, 0.0703034093994522, 0.0703034093994522, 0.0703034093994522, 0.0703034093994522]",0.002,7,1
0,122,"[0.058610204607248306, -1.5125461232713242, 0.05832988420595342, 0.05832509576763911, 0.0585327185690403, 0.0586252324283123]","[0.43523603677749634, 0.42365461587905884, 0.4308345913887024, 0.4399797022342682, 0.4352213144302368, 0.43506887555122375]","[0.0708763436867334, -1.499919983108163, 0.0708763436867334, 0.0708763436867334, 0.0708763436867334, 0.0708763436867334]","[0.0708763436867334, -1.499919983108163, 0.0708763436867334, 0.0708763436867334, 0.0708763436867334, 0.0708763436867334]",0.002,7,1
0,123,"[0.059419672936201096, -1.5116169241121789, 0.059172932301656544, 0.059207602138183546, 0.0593896359205246, 0.05947107821702957]","[0.43427854776382446, 0.42486584186553955, 0.4296252429485321, 0.4391501843929291, 0.43586432933807373, 0.43353331089019775]","[0.07144907889290184, -1.4993472479019947, 0.07144907889290184, 0.07144907889290184, 0.07144907889290184, 0.07144907889290184]","[0.07144907889290184, -1.4993472479019947, 0.07144907889290184, 0.07144907889290184, 0.07144907889290184, 0.07144907889290184]",0.002,7,1
0,124,"[0.06023721024394035, -1.5108029332808037, 0.06012899080385381, 0.06010286390270991, 0.06027982756495476, 0.06031295284628868]","[0.43235498666763306, 0.4205910265445709, 0.43044313788414, 0.43794122338294983, 0.4326912760734558, 0.43141964077949524]","[0.07202161340922941, -1.498774713385667, 0.07202161340922941, 0.07202161340922941, 0.07202161340922941, 0.07202161340922941]","[0.07202161340922941, -1.498774713385667, 0.07202161340922941, 0.07202161340922941, 0.07202161340922941, 0.07202161340922941]",0.002,7,1
0,125,"[0.061127644032239914, -1.5098724377206345, 0.060898605977193654, 0.0609784561344604, 0.06116531416773796, 0.061266589909791946]","[0.4323793947696686, 0.41943445801734924, 0.4292454123497009, 0.4358677864074707, 0.4329020082950592, 0.4295317530632019]","[0.0725939456275518, -1.4982023811673448, 0.0725939456275518, 0.0725939456275518, 0.0725939456275518, 0.0725939456275518]","[0.0725939456275518, -1.4982023811673448, 0.0725939456275518, 0.0725939456275518, 0.0725939456275518, 0.0725939456275518]",0.002,7,1
0,126,"[0.06199439987540245, -1.5090771627477189, 0.06174642244447881, 0.06180576860394282, 0.062029991298913956, 0.062073055654764175]","[0.4298834204673767, 0.42119258642196655, 0.42914247512817383, 0.43309441208839417, 0.4312613010406494, 0.4279249906539917]","[0.07316607394027289, -1.4976302528546237, 0.07316607394027289, 0.07316607394027289, 0.07316607394027289, 0.07316607394027289]","[0.07316607394027289, -1.4976302528546237, 0.07316607394027289, 0.07316607394027289, 0.07316607394027289, 0.07316607394027289]",0.002,7,1
0,127,"[0.0628238096833229, -1.5082161736539383, 0.06266671815981084, 0.06267933427777095, 0.06293178349733353, 0.06296069920063019]","[0.428322970867157, 0.420722633600235, 0.427176833152771, 0.43167468905448914, 0.43126070499420166, 0.42580607533454895]","[0.0737379967403693, -1.4970583300545273, 0.0737379967403693, 0.0737379967403693, 0.0737379967403693, 0.0737379967403693]","[0.0737379967403693, -1.4970583300545273, 0.0737379967403693, 0.0737379967403693, 0.0737379967403693, 0.0737379967403693]",0.002,7,1
0,128,"[0.06366527080535889, -1.5073483300260087, 0.06355649629701787, 0.06358437120404048, 0.06380414217710495, 0.06384477764368057]","[0.42962393164634705, 0.4200936257839203, 0.42611026763916016, 0.4314535856246948, 0.4267842173576355, 0.42430469393730164]","[0.0743097124213949, -1.4964866143735016, 0.0743097124213949, 0.0743097124213949, 0.0743097124213949, 0.0743097124213949]","[0.0743097124213949, -1.4964866143735016, 0.0743097124213949, 0.0743097124213949, 0.0743097124213949, 0.0743097124213949]",0.002,7,1
0,129,"[0.06452374905347824, -1.5064988148263474, 0.06442767778505498, 0.06448893129315181, 0.06463798135519028, 0.06460551917552948]","[0.42775678634643555, 0.4186771810054779, 0.4233470857143402, 0.43291980028152466, 0.4244210720062256, 0.42489513754844666]","[0.07488121937748536, -1.4959151074174113, 0.07488121937748536, 0.07488121937748536, 0.07488121937748536, 0.07488121937748536]","[0.07488121937748536, -1.4959151074174113, 0.07488121937748536, 0.07488121937748536, 0.07488121937748536, 0.07488121937748536]",0.002,7,1
0,130,"[0.0653369277715683, -1.505630986099579, 0.06527120271791631, 0.06537286817517085, 0.06546646356582642, 0.0655105784535408]","[0.42608025670051575, 0.4193921983242035, 0.42177945375442505, 0.4301745295524597, 0.42357680201530457, 0.4219958186149597]","[0.07545251600336256, -1.495343810791534, 0.07545251600336256, 0.07545251600336256, 0.07545251600336256, 0.07545251600336256]","[0.07545251600336256, -1.495343810791534, 0.07545251600336256, 0.07545251600336256, 0.07545251600336256, 0.07545251600336256]",0.002,7,1
0,131,"[0.06625688076019287, -1.5047510650805016, 0.06613523164858037, 0.06626646100964351, 0.06635189801454544, 0.06629637628793716]","[0.4227661192417145, 0.4183475375175476, 0.4213768541812897, 0.42725682258605957, 0.4213206470012665, 0.4203110933303833]","[0.07602360069433926, -1.4947727261005572, 0.07602360069433926, 0.07602360069433926, 0.07602360069433926, 0.07602360069433926]","[0.07602360069433926, -1.4947727261005572, 0.07602360069433926, 0.07602360069433926, 0.07602360069433926, 0.07602360069433926]",0.002,7,1
0,132,"[0.06710822135210037, -1.5038955372622986, 0.0670092741595667, 0.06706313669171138, 0.06718467175960541, 0.06714031100273132]","[0.4206705391407013, 0.4179629385471344, 0.4183695614337921, 0.42241141200065613, 0.41694629192352295, 0.4171909987926483]","[0.07659447184632341, -1.4942018549485732, 0.07659447184632341, 0.07659447184632341, 0.07659447184632341, 0.07659447184632341]","[0.07659447184632341, -1.4942018549485732, 0.07659447184632341, 0.07659447184632341, 0.07659447184632341, 0.07659447184632341]",0.002,7,1
0,133,"[0.06796976178884506, -1.5030931618860741, 0.06781131425966436, 0.067874475116394, 0.06801145523786545, 0.06798107177019119]","[0.4189692437648773, 0.4176722466945648, 0.41717758774757385, 0.42084968090057373, 0.41666939854621887, 0.4167289435863495]","[0.07716512785582286, -1.4936311989390738, 0.07716512785582286, 0.07716512785582286, 0.07716512785582286, 0.07716512785582286]","[0.07716512785582286, -1.4936311989390738, 0.07716512785582286, 0.07716512785582286, 0.07716512785582286, 0.07716512785582286]",0.002,7,1
0,134,"[0.06877098232507706, -1.5022332978299637, 0.0686724821673792, 0.0687287288853149, 0.06886907666921616, 0.06881319731473923]","[0.4179172217845917, 0.41723278164863586, 0.4144544005393982, 0.4150002598762512, 0.417360782623291, 0.4158933162689209]","[0.07773556711994968, -1.4930607596749468, 0.07773556711994968, 0.07773556711994968, 0.07773556711994968, 0.07773556711994968]","[0.07773556711994968, -1.4930607596749468, 0.07773556711994968, 0.07773556711994968, 0.07773556711994968, 0.07773556711994968]",0.002,7,1
0,135,"[0.06962871551513672, -1.5013870906880875, 0.06951982179750615, 0.06960074483837886, 0.06967233121395111, 0.0696403980255127]","[0.41633927822113037, 0.4153575599193573, 0.41350990533828735, 0.41178804636001587, 0.41350269317626953, 0.41410118341445923]","[0.07830578803642478, -1.4924905387584717, 0.07830578803642478, 0.07830578803642478, 0.07830578803642478, 0.07830578803642478]","[0.07830578803642478, -1.4924905387584717, 0.07830578803642478, 0.07830578803642478, 0.07830578803642478, 0.07830578803642478]",0.002,7,1
0,136,"[0.07047561556100845, -1.5005971801332016, 0.07030946413149053, 0.07053570329632564, 0.0705045610666275, 0.0705057755112648]","[0.4126778542995453, 0.4179345667362213, 0.4152008891105652, 0.412192165851593, 0.40998709201812744, 0.4130026698112488]","[0.0788757890035824, -1.491920537791314, 0.0788757890035824, 0.0788757890035824, 0.0788757890035824, 0.0788757890035824]","[0.0788757890035824, -1.491920537791314, 0.0788757890035824, 0.0788757890035824, 0.0788757890035824, 0.0788757890035824]",0.002,7,1
0,137,"[0.07127801328897476, -1.4996874791434784, 0.07121116319765264, 0.07133810102429194, 0.07128075510263443, 0.07125210016965866]","[0.4106642007827759, 0.41359883546829224, 0.41303467750549316, 0.4114511013031006, 0.4076785445213318, 0.4099911153316498]","[0.07944556842037453, -1.491350758374522, 0.07944556842037453, 0.07944556842037453, 0.07944556842037453, 0.07944556842037453]","[0.07944556842037453, -1.491350758374522, 0.07944556842037453, 0.07944556842037453, 0.07944556842037453, 0.07944556842037453]",0.002,7,1
0,138,"[0.07203884422779083, -1.4988906619003792, 0.0719993750201624, 0.07216922819103999, 0.07215385884046555, 0.07203149795532227]","[0.40692320466041565, 0.41464853286743164, 0.4114215672016144, 0.41061389446258545, 0.4044657349586487, 0.4100230038166046]","[0.08001512468637552, -1.490781202108521, 0.08001512468637552, 0.08001512468637552, 0.08001512468637552, 0.08001512468637552]","[0.08001512468637552, -1.490781202108521, 0.08001512468637552, 0.08001512468637552, 0.08001512468637552, 0.08001512468637552]",0.002,7,1
0,139,"[0.07292280346155167, -1.4980330181172867, 0.07278949419130498, 0.07301156103100581, 0.07285720854997635, 0.07282353192567825]","[0.40457940101623535, 0.4110819697380066, 0.4073391854763031, 0.4055260419845581, 0.40689876675605774, 0.40773487091064453]","[0.08058445620178649, -1.49021187059311, 0.08058445620178649, 0.08058445620178649, 0.08058445620178649, 0.08058445620178649]","[0.08058445620178649, -1.49021187059311, 0.08058445620178649, 0.08058445620178649, 0.08058445620178649, 0.08058445620178649]",0.002,7,1
0,140,"[0.07370007038116455, -1.4972222459367295, 0.07361919084657842, 0.07382027685131831, 0.07371316105127335, 0.07367144525051117]","[0.4039952754974365, 0.4077228605747223, 0.40249091386795044, 0.40062251687049866, 0.4019075036048889, 0.4052785634994507]","[0.08115356136743981, -1.4896427654274567, 0.08115356136743981, 0.08115356136743981, 0.08115356136743981, 0.08115356136743981]","[0.08115356136743981, -1.4896427654274567, 0.08115356136743981, 0.08115356136743981, 0.08115356136743981, 0.08115356136743981]",0.002,7,1
0,141,"[0.07453504949808121, -1.496411719625332, 0.07442266145815069, 0.07465164243664546, 0.07452749460935593, 0.07442737370729446]","[0.39988356828689575, 0.4081366956233978, 0.40362349152565, 0.3975073993206024, 0.40253493189811707, 0.40418919920921326]","[0.08172243858480373, -1.489073888210093, 0.08172243858480373, 0.08172243858480373, 0.08172243858480373, 0.08172243858480373]","[0.08172243858480373, -1.489073888210093, 0.08172243858480373, 0.08172243858480373, 0.08172243858480373, 0.08172243858480373]",0.002,7,1
0,142,"[0.07525999844074249, -1.4956433486989518, 0.07518941560854131, 0.07542590677227778, 0.07527612894773483, 0.07519388943910599]","[0.39875301718711853, 0.4030042886734009, 0.39909979701042175, 0.39507901668548584, 0.3991719186306, 0.4010487496852875]","[0.08229108625598669, -1.4885052405389099, 0.08229108625598669, 0.08229108625598669, 0.08229108625598669, 0.08229108625598669]","[0.08229108625598669, -1.4885052405389099, 0.08229108625598669, 0.08229108625598669, 0.08229108625598669, 0.08229108625598669]",0.002,7,1
0,143,"[0.07611530274152756, -1.4948117297938843, 0.07602340379823858, 0.07624356328930659, 0.07601375132799149, 0.07599025964736938]","[0.394784539937973, 0.4023348391056061, 0.3950178623199463, 0.3923088610172272, 0.39646270871162415, 0.4006255269050598]","[0.0828595027837419, -1.4879368240111546, 0.0828595027837419, 0.0828595027837419, 0.0828595027837419, 0.0828595027837419]","[0.0828595027837419, -1.4879368240111546, 0.0828595027837419, 0.0828595027837419, 0.0828595027837419, 0.0828595027837419]",0.002,7,1
0,144,"[0.07686114311218262, -1.494119257932045, 0.07681352296938115, 0.07704107343640132, 0.07681798189878464, 0.07677712291479111]","[0.3927392363548279, 0.3982032537460327, 0.39572182297706604, 0.38950830698013306, 0.3949183523654938, 0.3976179361343384]","[0.08342768657147188, -1.4873686402234247, 0.08342768657147188, 0.08342768657147188, 0.08342768657147188, 0.08342768657147188]","[0.08342768657147188, -1.4873686402234247, 0.08342768657147188, 0.08342768657147188, 0.08342768657147188, 0.08342768657147188]",0.002,7,1
0,145,"[0.07765465974807739, -1.493247078066208, 0.07761079469789678, 0.07777945577587886, 0.07762017101049423, 0.07756950706243515]","[0.3907470703125, 0.39572498202323914, 0.39480334520339966, 0.3856778144836426, 0.3916269838809967, 0.3936787247657776]","[0.0839956360232328, -1.4868006907716638, 0.0839956360232328, 0.0839956360232328, 0.0839956360232328, 0.0839956360232328]","[0.0839956360232328, -1.4868006907716638, 0.0839956360232328, 0.0839956360232328, 0.0839956360232328, 0.0839956360232328]",0.002,7,1
0,146,"[0.07845357805490494, -1.4924586576274415, 0.07838708559145147, 0.07864276945080562, 0.07841969281435013, 0.07832815498113632]","[0.3888431191444397, 0.39707323908805847, 0.38993170857429504, 0.38439950346946716, 0.39058825373649597, 0.3925647437572479]","[0.08456334954373909, -1.4862329772511575, 0.08456334954373909, 0.08456334954373909, 0.08456334954373909, 0.08456334954373909]","[0.08456334954373909, -1.4862329772511575, 0.08456334954373909, 0.08456334954373909, 0.08456334954373909, 0.08456334954373909]",0.002,7,1
0,147,"[0.07922333478927612, -1.491720312540867, 0.07911378542055303, 0.07933370649304194, 0.07916149497032166, 0.07907918840646744]","[0.3871801495552063, 0.3915029466152191, 0.38838282227516174, 0.3805377185344696, 0.387816846370697, 0.3908637464046478]","[0.08513082553836789, -1.4856655012565287, 0.08513082553836789, 0.08513082553836789, 0.08513082553836789, 0.08513082553836789]","[0.08513082553836789, -1.4856655012565287, 0.08513082553836789, 0.08513082553836789, 0.08513082553836789, 0.08513082553836789]",0.002,7,1
0,148,"[0.08001072704792023, -1.490899996166565, 0.07989770570863897, 0.08009521543469234, 0.07988188415765762, 0.07991652935743332]","[0.3826543688774109, 0.38917818665504456, 0.38269349932670593, 0.37694209814071655, 0.3839341700077057, 0.38757821917533875]","[0.08569806241316345, -1.4850982643817332, 0.08569806241316345, 0.08569806241316345, 0.08569806241316345, 0.08569806241316345]","[0.08569806241316345, -1.4850982643817332, 0.08569806241316345, 0.08569806241316345, 0.08569806241316345, 0.08569806241316345]",0.002,7,1
0,149,"[0.08078151941299438, -1.4902061086944123, 0.08062106767763311, 0.0808073717304687, 0.08065681904554367, 0.0807080864906311]","[0.377803236246109, 0.38424694538116455, 0.38106805086135864, 0.3750171363353729, 0.3806815445423126, 0.38371893763542175]","[0.08626505857484176, -1.4845312682200549, 0.08626505857484176, 0.08626505857484176, 0.08626505857484176, 0.08626505857484176]","[0.08626505857484176, -1.4845312682200549, 0.08626505857484176, 0.08626505857484176, 0.08626505857484176, 0.08626505857484176]",0.002,7,1
0,150,"[0.08155287057161331, -1.489441694026329, 0.08144742647279912, 0.08159141122784419, 0.08142322301864624, 0.08140534162521362]","[0.37901416420936584, 0.38224077224731445, 0.3774009943008423, 0.37265482544898987, 0.3806248605251312, 0.3804377317428589]","[0.08683181243079487, -1.4839645143641016, 0.08683181243079487, 0.08683181243079487, 0.08683181243079487, 0.08683181243079487]","[0.08683181243079487, -1.4839645143641016, 0.08683181243079487, 0.08683181243079487, 0.08683181243079487, 0.08683181243079487]",0.002,7,1
0,151,"[0.08230798691511154, -1.4886703801206131, 0.08207875887026006, 0.08226995050396724, 0.08217339217662811, 0.08218200504779816]","[0.3750990033149719, 0.37615320086479187, 0.37726378440856934, 0.37001660466194153, 0.37884607911109924, 0.3781815469264984]","[0.08739832238909546, -1.483398004405801, 0.08739832238909546, 0.08739832238909546, 0.08739832238909546, 0.08739832238909546]","[0.08739832238909546, -1.483398004405801, 0.08739832238909546, 0.08739832238909546, 0.08739832238909546, 0.08739832238909546]",0.002,7,1
0,152,"[0.0830347016453743, -1.4879149135998269, 0.08288747469057256, 0.08297829210247798, 0.08293239772319794, 0.08297497034072876]","[0.37324240803718567, 0.3735698163509369, 0.37252846360206604, 0.36839959025382996, 0.3740197420120239, 0.3735840320587158]","[0.08796458685850128, -1.4828317399363953, 0.08796458685850128, 0.08796458685850128, 0.08796458685850128, 0.08796458685850128]","[0.08796458685850128, -1.4828317399363953, 0.08796458685850128, 0.08796458685850128, 0.08796458685850128, 0.08796458685850128]",0.002,7,1
0,153,"[0.08376023918390274, -1.4871265602162858, 0.0835798422442835, 0.08369688569989009, 0.08366244286298752, 0.08376643061637878]","[0.36924484372138977, 0.3713832497596741, 0.3697422444820404, 0.36700373888015747, 0.37113136053085327, 0.37200358510017395]","[0.0885306042484596, -1.4822657225464368, 0.0885306042484596, 0.0885306042484596, 0.0885306042484596, 0.0885306042484596]","[0.0885306042484596, -1.4822657225464368, 0.0885306042484596, 0.0885306042484596, 0.0885306042484596, 0.0885306042484596]",0.002,7,1
0,154,"[0.08454366773366928, -1.4864417624524613, 0.08437520662416631, 0.08439282953228755, 0.08436018973588943, 0.08446058630943298]","[0.36478590965270996, 0.36793380975723267, 0.36744990944862366, 0.36839863657951355, 0.36722278594970703, 0.36697712540626526]","[0.08909637296911176, -1.481699953825785, 0.08909637296911176, 0.08909637296911176, 0.08909637296911176, 0.08909637296911176]","[0.08909637296911176, -1.481699953825785, 0.08909637296911176, 0.08909637296911176, 0.08909637296911176, 0.08909637296911176]",0.002,7,1
0,155,"[0.0852595642209053, -1.485738882129528, 0.08508521715273076, 0.08514146387066646, 0.08518892526626587, 0.08524119853973389]","[0.3637722432613373, 0.36234068870544434, 0.362300306558609, 0.3656059205532074, 0.36328068375587463, 0.36358821392059326]","[0.08966189143129746, -1.4811344353635991, 0.08966189143129746, 0.08966189143129746, 0.08966189143129746, 0.08966189143129746]","[0.08966189143129746, -1.4811344353635991, 0.08966189143129746, 0.08966189143129746, 0.08966189143129746, 0.08966189143129746]",0.002,7,1
0,156,"[0.0859123170375824, -1.4849534642747422, 0.08578902879823858, 0.08581761896099849, 0.08583704382181168, 0.08596822619438171]","[0.3605816960334778, 0.35862594842910767, 0.3592301607131958, 0.3612392544746399, 0.3628555238246918, 0.3608535826206207]","[0.09022715804655945, -1.480569168748337, 0.09022715804655945, 0.09022715804655945, 0.09022715804655945, 0.09022715804655945]","[0.09022715804655945, -1.480569168748337, 0.09022715804655945, 0.09022715804655945, 0.09022715804655945, 0.09022715804655945]",0.002,7,1
0,157,"[0.08666390180587769, -1.4842880603722115, 0.0865557829486292, 0.0865064102360229, 0.08658435940742493, 0.0867190733551979]","[0.35587942600250244, 0.35584545135498047, 0.35395583510398865, 0.3576468229293823, 0.35970890522003174, 0.35694780945777893]","[0.09079217122714786, -1.4800041555677488, 0.09079217122714786, 0.09079217122714786, 0.09079217122714786, 0.09079217122714786]","[0.09079217122714786, -1.4800041555677488, 0.09079217122714786, 0.09079217122714786, 0.09079217122714786, 0.09079217122714786]",0.002,7,1
0,158,"[0.08745858818292618, -1.483571709399559, 0.08725434938539678, 0.08719627439465327, 0.08731047064065933, 0.08738940954208374]","[0.3533463180065155, 0.35082557797431946, 0.3532385528087616, 0.3560824990272522, 0.356142520904541, 0.35446614027023315]","[0.09135692938602465, -1.479439397408872, 0.09135692938602465, 0.09135692938602465, 0.09135692938602465, 0.09135692938602465]","[0.09135692938602465, -1.479439397408872, 0.09135692938602465, 0.09135692938602465, 0.09135692938602465, 0.09135692938602465]",0.002,7,1
