Arnibjarnst/BoxLift/logs/ur_rtde/trajectory_dur=7.5_delay=0.0_gain=200_lh=0.1_real.csv
arm_idx,step,actual_q,actual_qd,target_q,expected_q,loop_time,robot_mode,safety_mode
0,-1,"[-0.02049428621401006, -1.59118713955068, -0.02048155851662159, -0.02047760904345708, -0.020558659230367482, -0.020488564168111623]","[0.03334164246916771, 0.03629077225923538, 0.03427945822477341, 0.03453902155160904, 0.034741323441267014, 0.03597789630293846]","[0.0, -1.5707963267948966, 0.0, 0.0, 0.0, 0.0]","[0.0, -1.5707963267948966, 0.0, 0.0, 0.0, 0.0]",0.002,7,1
0,-1,"[-0.019832436238424123, -1.5905100307860316, -0.019719157367944717, -0.019813017254211474, -0.01990396181215459, -0.019820515309469044]","[0.04951558634638786, 0.05184248834848404, 0.049405116587877274, 0.049197953194379807, 0.05107533559203148, 0.050218332558870316]","[0.0, -1.5707963267948966, 0.0, 0.0, 0.0, 0.0]","[0.0, -1.5707963267948966, 0.0, 0.0, 0.0, 0.0]",0.002,7,1
0,-1,"[-0.019119087849752248, -1.589823385278219, -0.019082102924585342, -0.019133047466613817, -0.019149128590719044, -0.019140068684713185]","[0.061561837792396545, 0.06229877471923828, 0.06040554121136665, 0.06428474187850952, 0.06458784639835358, 0.06382521986961365]","[0.0, -1.5707963267948966, 0.0, 0.0, 0.0, 0.0]","[0.0, -1.5707963267948966, 0.0, 0.0, 0.0, 0.0]",0.002,7,1
0,-1,"[-0.01847535768617803, -1.5891663036742152, -0.018406540155410767, -0.018465713863708544, -0.018553082142965138, -0.01849252382387334]","[0.07299736142158508, 0.07183462381362915, 0.07044467329978943, 0.07211412489414215, 0.0740981325507164, 0.07617735117673874]","[0.0, -1.5707963267948966, 0.0, 0.0, 0.0, 0.0]","[0.0, -1.5707963267948966, 0.0, 0.0, 0.0, 0.0]",0.002,7,1
0,-1,"[-0.01783925691713506, -1.5885211429991664, -0.01782865636050701, -0.017809347515441942, -0.017822090779439748, -0.017850224171773732]","[0.08170249313116074, 0.08160853385925293, 0.0785393938422203, 0.08055223524570465, 0.08321397751569748, 0.0831059068441391]","[0.0, -1.5707963267948966, 0.0, 0.0, 0.0, 0.0]","[0.0, -1.5707963267948966, 0.0, 0.0, 0.0, 0.0]",0.002,7,1
0,-1,"[-0.01695138612856084, -1.587747713128561, -0.01700449176132679, -0.016912893658020067, -0.016960922871724904, -0.01697093645204717]","[0.09072478115558624, 0.08939428627490997, 0.09052587300539017, 0.0888734981417656, 0.0914556235074997, 0.09282423555850983]","[0.0, -1.5707963267948966, 0.0, 0.0, 0.0, 0.0]","[0.0, -1.5707963267948966, 0.0, 0.0, 0.0, 0.0]",0.002,7,1
0,-1,"[-0.015134636555806935, -1.5859281025328578, -0.01516742818057537, -0.015076832180358934, -0.015128914509908498, -0.015148941670553029]","[0.10862860083580017, 0.10875120013952255, 0.10929908603429794, 0.1060088500380516, 0.10850482434034348, 0.1088784784078598]","[0.0, -1.5707963267948966, 0.0, 0.0, 0.0, 0.0]","[0.0, -1.5707963267948966, 0.0, 0.0, 0.0, 0.0]",0.002,7,1
0,-1,"[-0.013977829610006154, -1.5847927532591761, -0.014024795964360237, -0.01395316541705327, -0.013977829610006154, -0.01394826570619756]","[0.11958369612693787, 0.11735080182552338, 0.1183963268995285, 0.11825203895568848, 0.11920426785945892, 0.1204817146062851]","[0.0, -1.5707963267948966, 0.0, 0.0, 0.0, 0.0]","[0.0, -1.5707963267948966, 0.0, 0.0, 0.0, 0.0]",0.002,7,1
0,-1,"[-0.011931721364156544, -1.5826970539488734, -0.012009655125439167, -0.011939243679382372, -0.011974636708394826, -0.01188975969423467]","[0.13338886201381683, 0.13500000536441803, 0.1332833170890808, 0.13565735518932343, 0.1355040967464447, 0.13373689353466034]","[0.0, -1.5707963267948966, 0.0, 0.0, 0.0, 0.0]","[0.0, -1.5707963267948966, 0.0, 0.0, 0.0, 0.0]",0.002,7,1
0,-1,"[-0.010810677205220998, -1.5816189251341761, -0.01084019336849451, -0.010885195141174364, -0.010828320180074513, -0.010772530232564748]","[0.1418484002351761, 0.1433754563331604, 0.14329542219638824, 0.14230503141880035, 0.14425237476825714, 0.14098814129829407]","[0.0, -1.5707963267948966, 0.0, 0.0, 0.0, 0.0]","[0.0, -1.5707963267948966, 0.0, 0.0, 0.0, 0.0]",0.002,7,1
0,-1,"[-0.00940877596010381, -1.580214639703268, -0.009474679827690125, -0.009454087620117235, -0.00936443010439092, -0.00928813615907842]","[0.1420922428369522, 0.09957745671272278, 0.11980442702770233, 0.13456076383590698, 0.1376737505197525, 0.13180188834667206]","[0.0, -1.5707963267948966, 0.0, 0.0, 0.0, 0.0]","[0.0, -1.5707963267948966, 0.0, 0.0, 0.0, 0.0]",0.002,7,1
0,-1,"[-0.007606808339254201, -1.5783659420409144, -0.007700086571276188, -0.007679418926574755, -0.00755483308901006, -0.007493321095601857]","[0.123750239610672, 0.13340307772159576, 0.12581416964530945, 0.12704616785049438, 0.12267459183931351, 0.12068628519773483]","[0.0, -1.5707963267948966, 0.0, 0.0, 0.0, 0.0]","[0.0, -1.5707963267948966, 0.0, 0.0, 0.0, 0.0]",0.002,7,1
0,-1,"[-0.005602661763326466, -1.5763708553709925, -0.005630949512124062, -0.005617575054504442, -0.005553070698873341, -0.005506340657369435]","[0.10430371761322021, 0.10496306419372559, 0.10707109421491623, 0.11104968935251236, 0.10473760217428207, 0.10513553023338318]","[0.0, -1.5707963267948966, 0.0, 0.0, 0.0, 0.0]","[0.0, -1.5707963267948966, 0.0, 0.0, 0.0, 0.0]",0.002,7,1
0,-1,"[-0.0027692953692834976, -1.5735060177245082, -0.0028229288291186094, -0.002804116611816454, -0.002644364033834279, -0.0026744047748010757]","[0.07487029582262039, 0.07133810222148895, 0.07848408818244934, 0.07992803305387497, 0.07195170968770981, 0.07176706194877625]","[0.0, -1.5707963267948966, 0.0, 0.0, 0.0, 0.0]","[0.0, -1.5707963267948966, 0.0, 0.0, 0.0, 0.0]",0.002,7,1
0,-1,"[-0.0016215483294885757, -1.5723439655699671, -0.0015928552020341158, -0.001595930462219286, -0.0014990011798303726, -0.0015090147601526382]","[0.0568704791367054, 0.05768745765089989, 0.059988003224134445, 0.05779058113694191, 0.055397309362888336, 0.055061619728803635]","[0.0, -1.5707963267948966, 0.0, 0.0, 0.0, 0.0]","[0.0, -1.5707963267948966, 0.0, 0.0, 0.0, 0.0]",0.002,7,1
0,-1,"[-0.0006902853595178726, -1.571381231347555, -0.0006473241955973208, -0.000676588421203661, -0.0006144682513635757, -0.0005930105792444351]","[0.03680313378572464, 0.03664520010352135, 0.038915570825338364, 0.037762027233839035, 0.03565128892660141, 0.03570954501628876]","[0.0, -1.5707963267948966, 0.0, 0.0, 0.0, 0.0]","[0.0, -1.5707963267948966, 0.0, 0.0, 0.0, 0.0]",0.002,7,1
0,-1,"[-0.000375095997945607, -1.5710212192931117, -0.0003390312194824219, -0.00035043180499272353, -0.000321690236226857, -0.00030357042421513825]","[0.0273752324283123, 0.028073493391275406, 0.02840941771864891, 0.026102470234036446, 0.02429645135998726, 0.02589079737663269]","[0.0, -1.5707963267948966, 0.0, 0.0, 0.0, 0.0]","[0.0, -1.5707963267948966, 0.0, 0.0, 0.0, 0.0]",0.002,7,1
0,-1,"[-0.00013715425600224762, -1.570783094767041, -7.373065727733774e-06, -6.742895159916884e-05, 8.58306884765625e-06, -9.838734762013246e-06]","[0.011267535388469696, 0.012215937487781048, 0.011939030140638351, 0.01135403010994196, 0.010055912658572197, 0.009385459125041962]","[0.0, -1.5707963267948966, 0.0, 0.0, 0.0, 0.0]","[0.0, -1.5707963267948966, 0.0, 0.0, 0.0, 0.0]",0.002,7,1
0,-1,"[-9.614626039677887e-05, -1.5707591790017723, -2.3860215151216835e-05, -7.183969531254775e-05, -8.613268007451325e-05, -9.757677187138825e-05]","[-0.0018009478226304054, 0.015112297609448433, 0.005810307804495096, -0.0002346214751014486, -0.0006452081142924726, -0.0004900727653875947]","[0.0, -1.5707963267948966, 0.0, 0.0, 0.0, 0.0]","[0.0, -1.5707963267948966, 0.0, 0.0, 0.0, 0.0]",0.002,7,1
0,-1,"[-0.00013572374452763825, -1.5708490810790003, -7.032429857645184e-05, -3.560007128911025e-05, -9.85304461877945e-05, -0.00010663667787724762]","[0.00018407416064292192, -0.0017956058727577329, -0.0019012746633961797, -9.766094444785267e-05, -1.3915272403862249e-14, -7.884537626523525e-05]","[0.0, -1.5707963267948966, 0.0, 0.0, 0.0, 0.0]","[0.0, -1.5707963267948966, 0.0, 0.0, 0.0, 0.0]",0.002,7,1
0,-1,"[-7.325807680302887e-05, -1.5709973774352015, -9.624345693737268e-05, -5.479276690678603e-05, -9.423891176396637e-05, -6.41981707971695e-05]","[0.00016089819837361574, -0.001594964531250298, -0.0007305556791834533, 0.00030528352363035083, 0.00031241821125149727, -1.1991092208063492e-07]","[0.0, -1.5707963267948966, 0.0, 0.0, 0.0, 0.0]","[0.0, -1.5707963267948966, 0.0, 0.0, 0.0, 0.0]",0.002,7,1
0,-1,"[-0.00014287630190068512, -1.5708848438658656, -4.192511914880015e-05, -6.38526729126454e-05, -9.85304461877945e-05, -5.227724184209137e-05]","[0.00011852146417368203, -0.0006719047669321299, -0.0004540557856671512, 0.00022674028878100216, 0.0006642084917984903, -9.290802854703198e-15]","[0.0, -1.5707963267948966, 0.0, 0.0, 0.0, 0.0]","[0.0, -1.5707963267948966, 0.0, 0.0, 0.0, 0.0]",0.002,7,1
0,-1,"[-5.990663637334137e-05, -1.570850511590475, -5.551576759899035e-05, -3.560007128911025e-05, -4.941621889287262e-05, -6.133714784795075e-05]","[9.380971459904686e-05, -2.377594301994357e-11, -0.00028829541406594217, 0.00023550685727968812, 0.0008447468280792236, -7.198594311679472e-22]","[0.0, -1.5707963267948966, 0.0, 0.0, 0.0, 0.0]","[0.0, -1.5707963267948966, 0.0, 0.0, 0.0, 0.0]",0.002,7,1
0,-1,"[-0.0001404921161096695, -1.570812841454977, 7.454548970997621e-06, -5.205095324711806e-05, -6.9920216695607e-05, -0.00010186830629521637]","[7.762837049085647e-05, 0.0008448773296549916, -0.0002261461631860584, 0.00021412358910311013, 0.0007201200933195651, 0.0005150627694092691]","[0.0, -1.5707963267948966, 0.0, 0.0, 0.0, 0.0]","[0.0, -1.5707963267948966, 0.0, 0.0, 0.0, 0.0]",0.002,7,1
0,-1,"[-5.5615101949513246e-05, -1.5708385906615199, -0.00011222361354157329, -3.560007128911025e-05, -6.562868227177887e-05, -8.947054018193512e-05]","[6.962152838241309e-05, 0.000625015061814338, -0.0001977512874873355, 0.0004024055670015514, 0.0006908102077431977, 0.0004464935918804258]","[0.0, -1.5707963267948966, 0.0, 0.0, 0.0, 0.0]","[0.0, -1.5707963267948966, 0.0, 0.0, 0.0, 0.0]",0.002,7,1
0,-1,"[-6.41981707971695e-05, -1.570841451684469, -7.653272041352466e-05, -1.9268398620653215e-05, -5.799928774052887e-05, -6.562868227177887e-05]","[9.574726573191583e-05, 0.00038274325197562575, -0.00017092484631575644, 0.0006652929587289691, 0.0007609907770529389, 0.0004966425476595759]","[0.0, -1.5707963267948966, 0.0, 0.0, 0.0, 0.0]","[0.0, -1.5707963267948966, 0.0, 0.0, 0.0, 0.0]",0.002,7,1
0,-1,"[-6.41981707971695e-05, -1.570874353448385, -6.0018530348315835e-05, -1.4738445617723528e-05, -1.699129213506012e-05, -5.3707753316700746e-05]","[9.671840234659612e-05, 5.525845608644886e-06, -0.00014699612802360207, 0.00048427385627292097, 0.0012762972619384527, 0.00045461542322300375]","[0.0, -1.5707963267948966, 0.0, 0.0, 0.0, 0.0]","[0.0, -1.5707963267948966, 0.0, 0.0, 0.0, 0.0]",0.002,7,1
0,-1,"[-8.1364308492482e-05, -1.5708652935423792, -8.394169708481058e-05, -5.6461696960496965e-05, -2.9865895406544496e-05, -6.133714784795075e-05]","[0.0003780870756600052, 7.781965155243824e-23, -0.00012148512905696407, 0.0003181167703587562, 0.0008356607868336141, 0.0006892932578921318]","[0.0, -1.5707963267948966, 0.0, 0.0, 0.0, 0.0]","[0.0, -1.5707963267948966, 0.0, 0.0, 0.0, 0.0]",0.002,7,1
0,-1,"[-0.00011140504945927887, -1.570841451684469, -4.202150012133643e-05, 4.573459289503035e-06, 1.5240667380567174e-05, -2.080598940068512e-05]","[0.00030162412440404296, 4.538196142731065e-34, -0.00010888709221035242, 0.00031829613726586103, 0.0005344104720279574, 0.0007232207572087646]","[0.0, -1.5707963267948966, 0.0, 0.0, 0.0, 0.0]","[0.0, -1.5707963267948966, 0.0, 0.0, 0.0, 0.0]",0.002,7,1
0,-1,"[-9.042421449834137e-05, -1.5708462200560511, 1.5083943502247621e-05, 1.5932270507335033e-06, -1.732503072560121e-06, -4.178682436162262e-05]","[0.0003046851488761604, 0.00023225492623168975, -9.422953007742763e-05, 0.00027701834915205836, 0.000335782504407689, 0.0003617413167376071]","[0.0, -1.5707963267948966, 0.0, 0.0, 0.0, 0.0]","[0.0, -1.5707963267948966, 0.0, 0.0, 0.0, 0.0]",0.002,7,1
0,-1,"[-5.7522450582325746e-05, -1.5708524189391078, -5.790572686237283e-06, 4.573459289503035e-06, -2.6051198140919496e-05, -2.080598940068512e-05]","[0.0003331084153614938, 0.000501626287586987, -2.573056917754002e-05, 0.00022985192481428385, 0.00026905228151008487, 0.0003330146137159318]","[0.0, -1.5707963267948966, 0.0, 0.0, 0.0, 0.0]","[0.0, -1.5707963267948966, 0.0, 0.0, 0.0, 0.0]",0.002,7,1
0,-1,"[-9.519258608037262e-05, -1.5708533726134242, -2.713462890824303e-05, -2.367914233403212e-05, -2.6051198140919496e-05, -2.557436098271637e-05]","[0.0005281183985061944, 0.0003379822592251003, -2.3390086425933987e-05, 0.0002065896987915039, 0.00026154168881475925, 0.00024306347768288106]","[0.0, -1.5707963267948966, 0.0, 0.0, 0.0, 0.0]","[0.0, -1.5707963267948966, 0.0, 0.0, 0.0, 0.0]",0.002,7,1
0,-1,"[-4.5124684469044496e-05, -1.57086243251943, -4.945087493979372e-05, 1.2083644531202253e-05, 6.67572021484375e-06, -2.557436098271637e-05]","[0.0009193585137836635, 0.00014074015780352056, -1.2155624284915234e-09, 0.00013828327064402401, 0.00017368764383718371, 0.00013488638796843588]","[0.0, -1.5707963267948966, 0.0, 0.0, 0.0, 0.0]","[0.0, -1.5707963267948966, 0.0, 0.0, 0.0, 0.0]",0.002,7,1
0,-1,"[1.6239999240497127e-05, -1.57086243251943, -9.180033521261066e-05, -2.8089886047411028e-05, -6.9920216695607e-05, 4.76837158203125e-06]","[0.0010375827550888062, 0.00011257367441430688, -1.2759561859622748e-24, 0.00013299460988491774, 0.00016075352323241532, 0.00010879831097554415]","[0.0, -1.5707963267948966, 0.0, 0.0, 0.0, 0.0]","[0.0, -1.5707963267948966, 0.0, 0.0, 0.0, 0.0]",0.002,7,1
0,-1,"[-4.7032033101856996e-05, -1.5708548031248988, -5.843312828801572e-05, -1.6168957092332903e-05, -5.3707753316700746e-05, -4.116688863575746e-06]","[0.00023464331752620637, 0.00013703327567782253, -7.4409639015531e-36, 0.00011601960432017222, 0.00021208541875239462, 0.00011401736992411315]","[0.0, -1.5707963267948966, 0.0, 0.0, 0.0, 0.0]","[0.0, -1.5707963267948966, 0.0, 0.0, 0.0, 0.0]",0.002,7,1
0,-1,"[4.291534423828125e-06, -1.5708214245238246, -9.288197907153517e-05, 4.248201336665147e-05, -3.892580141240387e-05, 7.967671990627423e-06]","[5.5548462114529684e-05, 0.000708263018168509, -0.0, 9.72190173342824e-05, 0.0001781937899067998, 9.580868209013715e-05]","[0.0, -1.5707963267948966, 0.0, 0.0, 0.0, 0.0]","[0.0, -1.5707963267948966, 0.0, 0.0, 0.0, 0.0]",0.002,7,1
0,-1,"[-4.083315004521637e-05, -1.570871492425436, -6.29425048828125e-05, -4.248028137254778e-06, -1.0315571920216371e-05, -8.885060445606996e-06]","[2.9798875402775593e-05, 0.00030961085576564074, -0.0, 9.0590059699025e-05, 0.00012212673027534038, 8.953762153396383e-05]","[0.0, -1.5707963267948966, 0.0, 0.0, 0.0, 0.0]","[0.0, -1.5707963267948966, 0.0, 0.0, 0.0, 0.0]",0.002,7,1
0,-1,"[-1.4130269185841371e-05, -1.570841451684469, -5.8415036619408056e-05, 7.434482238721785e-06, -1.3176594869435121e-05, 5.7658267905935645e-05]","[2.4191509510274045e-05, 0.00023035930644255131, -0.0, 8.230473758885637e-05, 0.0001054333770298399, 8.143490413203835e-05]","[0.0, -1.5707963267948966, 0.0, 0.0, 0.0, 0.0]","[0.0, -1.5707963267948966, 0.0, 0.0, 0.0, 0.0]",0.002,7,1
0,-1,"[2.6226043701171875e-06, -1.5708142719664515, -1.4872133760945871e-05, 1.6271557612412835e-07, -1.4607106344044496e-05, 5.004735430702567e-05]","[1.9479453840176575e-05, 0.00014413855387829244, -0.0, 7.364634075202048e-05, 8.967608300736174e-05, 7.29493040125817e-05]","[0.0, -1.5707963267948966, 0.0, 0.0, 0.0, 0.0]","[0.0, -1.5707963267948966, 0.0, 0.0, 0.0, 0.0]",0.002,7,1
0,-1,"[2.6226043701171875e-06, -1.5708052120604457, -6.003093585604802e-05, 3.354131665034288e-05, 2.711975685087964e-05, -2.271333803349762e-05]","[1.4949421711207833e-05, 0.0003163792716804892, -0.0, 1.5006289803441361e-15, 7.275938696693629e-05, 2.2133255461885586e-16]","[0.0, -1.5707963267948966, 0.0, 0.0, 0.0, 0.0]","[0.0, -1.5707963267948966, 0.0, 0.0, 0.0, 0.0]",0.002,7,1
0,-1,"[-3.034273256474762e-05, -1.570843359033102, -2.7170772227691486e-05, 2.4481410644483503e-05, -1.7468129293263246e-05, -8.885060445606996e-06]","[1.319592229265254e-05, 0.0001393145794281736, -0.0, 4.956775943520019e-25, 6.568014214280993e-05, 7.310908954984469e-26]","[0.0, -1.5707963267948966, 0.0, 0.0, 0.0, 0.0]","[0.0, -1.5707963267948966, 0.0, 0.0, 0.0, 0.0]",0.002,7,1
0,-1,"[-2.8912221090138246e-05, -1.5708309612669886, -2.265262810396962e-05, -3.703058276371962e-05, 6.4373016357421875e-06, 2.1638870748574845e-05]","[1.2128920388931874e-05, -9.147523815045133e-05, -0.0, 3.840553984108263e-32, 6.121299520600587e-05, 5.6645555643729505e-33]","[0.0, -1.5707963267948966, 0.0, 0.0, 0.0, 0.0]","[0.0, -1.5707963267948966, 0.0, 0.0, 0.0, 0.0]",0.002,7,1
0,-1,"[2.586471737231477e-06, -1.5708385906615199, -4.8152072849916294e-05, 1.3514156005811628e-05, 2.7068115741712973e-05, 7.94915195001522e-06]","[1.0817047950695269e-05, -6.276591011555865e-05, 9.882297308649868e-05, 8.281673924159669e-43, 5.973319170023139e-13, 1.2191296639625909e-43]","[0.0, -1.5707963267948966, 0.0, 0.0, 0.0, 0.0]","[0.0, -1.5707963267948966, 0.0, 0.0, 0.0, 0.0]",0.002,7,1
0,-1,"[3.265511622885242e-05, -1.5708304844298304, -2.5528193873469718e-05, 3.8071269653272566e-05, 5.6344033509958535e-05, 1.52587890625e-05]","[6.702413306535975e-18, -5.203660219000702e-24, 0.00011061839177273214, 0.0, 1.5287496249280096e-29, 1.0081746788967756e-17]","[0.0, -1.5707963267948966, 0.0, 0.0, 0.0, 0.0]","[0.0, -1.5707963267948966, 0.0, 0.0, 0.0, 0.0]",0.002,7,1
0,-1,"[4.1769475501496345e-05, -1.5708352528014125, -1.2903219612780958e-06, 4.248201336665147e-05, -1.0315571920216371e-05, -2.557436098271637e-05]","[7.035409362120225e-33, -5.462195552910314e-39, 9.50430185184814e-05, 0.0, 5.049664495400802e-39, 3.330135866861669e-27]","[0.0, -1.5707963267948966, 0.0, 0.0, 0.0, 0.0]","[0.0, -1.5707963267948966, 0.0, 0.0, 0.0, 0.0]",0.002,7,1
0,-1,"[1.629427060834132e-05, -1.5708595714964808, -4.8133970267372206e-05, 1.2083644531202253e-05, 2.124913862644462e-06, 3.3286623875028454e-06]","[0.0, 0.0, 8.331245044246316e-05, 0.0, 0.0, 1.099988084775584e-36]","[0.0, -1.5707963267948966, 0.0, 0.0, 0.0, 0.0]","[0.0, -1.5707963267948966, 0.0, 0.0, 0.0, 0.0]",0.002,7,1
0,-1,"[1.9058674297411926e-05, -1.5708567104735316, -5.1021575927734375e-05, -2.069891009526259e-05, -1.0315571920216371e-05, -1.3653432027638246e-05]","[0.0, 0.0, 6.765557191101834e-05, 0.0, 0.0, 0.0]","[0.0, -1.5707963267948966, 0.0, 0.0, 0.0, 0.0]","[0.0, -1.5707963267948966, 0.0, 0.0, 0.0, 0.0]",0.002,7,1
0,-1,"[-1.4130269185841371e-05, -1.5708114109435023, -1.8197286408394575e-05, 3.354131665034288e-05, 1.9556044208002277e-05, -5.547200338185121e-06]","[0.0, 0.0, 6.149232649477199e-05, 0.0, 0.0, 0.0]","[0.0, -1.5707963267948966, 0.0, 0.0, 0.0, 0.0]","[0.0, -1.5707963267948966, 0.0, 0.0, 0.0, 0.0]",0.002,7,1
0,-1,"[3.261896927142516e-05, -1.5708261928954066, -5.826788765261881e-06, 4.689275708003038e-05, -4.3217335836231996e-05, 2.7152484108228236e-05]","[0.0, 0.0, 4.9000390550668627e-11, 0.0, 0.0, 0.0]","[0.0, -1.5707963267948966, 0.0, 0.0, 0.0, 0.0]","[0.0, -1.5707963267948966, 0.0, 0.0, 0.0, 0.0]",0.002,7,1
0,1,"[-9.361897603810121e-06, -1.5708219013609828, -6.003093585604802e-05, 7.526456799311632e-05, 1.5240668290061876e-05, -5.547200338185121e-06]","[0.0, 0.0, 1.2420948044545662e-31, 0.0, 0.0, 0.0]","[0.0005850211778378632, -1.5702113056170588, 0.0005850211778378632, 0.0005850211778378632, 0.0005850211778378632, 0.0005850211778378632]","[0.0005850211778378632, -1.5702113056170588, 0.0005850211778378632, 0.0005850211778378632, 0.0005850211778378632, 0.0005850211778378632]",0.002,7,1
0,2,"[-9.361897603810121e-06, -1.5708219013609828, -6.003093585604802e-05, 7.526456799311632e-05, 1.5240668290061876e-05, -5.547200338185121e-06]","[0.0, 0.0, 1.2420948044545662e-31, 0.0, 0.0, 0.0]","[0.0011700407124382083, -1.5696262860824584, 0.0011700407124382083, 0.0011700407124382083, 0.0011700407124382083, 0.0011700407124382083]","[0.0011700407124382083, -1.5696262860824584, 0.0011700407124382083, 0.0011700407124382083, 0.0011700407124382083, 0.0011700407124382083]",0.002,7,1
0,3,"[7.152676516852807e-06, -1.5708066425719203, -1.9309043636894785e-05, 1.2083644531202253e-05, -2.6051198140919496e-05, 1.9788742065429688e-05]","[0.0, 0.0, 2.2357291272618607e-35, 0.0, 0.0, 0.0]","[0.0017550569605681327, -1.5690412698343283, 0.0017550569605681327, 0.0017550569605681327, 0.0017550569605681327, 0.0017550569605681327]","[0.0017550569605681327, -1.5690412698343283, 0.0017550569605681327, 0.0017550569605681327, 0.0017550569605681327, 0.0017550569605681327]",0.002,7,1
0,4,"[2.3600816348334774e-05, -1.5708052120604457, 2.080598940068512e-05, 3.0237385253428783e-06, 1.838452044466976e-05, 3.933906555175781e-05]","[0.0029989422764629126, 0.0035111226607114077, 0.0034707882441580296, 0.004266919568181038, 0.0058340225368738174, 0.005207349080592394]","[0.0023400682790039656, -1.5684562585158925, 0.0023400682790039656, 0.0023400682790039656, 0.0023400682790039656, 0.0023400682790039656]","[0.0023400682790039656, -1.5684562585158925, 0.0023400682790039656, 0.0023400682790039656, 0.0023400682790039656, 0.0023400682790039656]",0.002,7,1
0,5,"[2.3600816348334774e-05, -1.5708052120604457, 2.080598940068512e-05, 3.0237385253428783e-06, 1.838452044466976e-05, 3.933906555175781e-05]","[0.0029989422764629126, 0.0035111226607114077, 0.0034707882441580296, 0.004266919568181038, 0.0058340225368738174, 0.005207349080592394]","[0.0029250730245358814, -1.5678712537703607, 0.0029250730245358814, 0.0029250730245358814, 0.0029250730245358814, 0.0029250730245358814]","[0.0029250730245358814, -1.5678712537703607, 0.0029250730245358814, 0.0029250730245358814, 0.0029250730245358814, 0.0029250730245358814]",0.002,7,1
0,6,"[6.415319512598217e-05, -1.5708190403380335, -1.9321083527756855e-05, 4.832326855463975e-05, -1.5083943502247621e-05, 4.0860177250579e-05]","[0.004616315010935068, 0.002604772336781025, 0.0031792905647307634, 0.00436418317258358, 0.00598270446062088, 0.005117403343319893]","[0.0035100695539725195, -1.567286257240924, 0.0035100695539725195, 0.0035100695539725195, 0.0035100695539725195, 0.0035100695539725195]","[0.0035100695539725195, -1.567286257240924, 0.0035100695539725195, 0.0035100695539725195, 0.0035100695539725195, 0.0035100695539725195]",0.002,7,1
0,7,"[-6.500874654591371e-06, -1.5708142719664515, 4.178682436162262e-05, 4.832326855463975e-05, 5.325794518284965e-06, 6.494045373983681e-05]","[0.004335965495556593, 0.0027881020214408636, 0.004319590982049704, 0.004035566002130508, 0.0047834147699177265, 0.004707191605120897]","[0.004095056224145594, -1.566701270570751, 0.004095056224145594, 0.004095056224145594, 0.004095056224145594, 0.004095056224145594]","[0.004095056224145594, -1.566701270570751, 0.004095056224145594, 0.004095056224145594, 0.004095056224145594, 0.004095056224145594]",0.002,7,1
0,8,"[4.302263187128119e-05, -1.5707739803950354, 2.080598940068512e-05, 4.832326855463975e-05, 3.887542334268801e-05, 3.0279159545898438e-05]","[0.0041203731670975685, 0.004732630681246519, 0.006228195503354073, 0.004855787381529808, 0.004903592634946108, 0.0058311098255217075]","[0.004680031391914515, -1.5661162954029821, 0.004680031391914515, 0.004680031391914515, 0.004680031391914515, 0.004680031391914515]","[0.004680031391914515, -1.5661162954029821, 0.004680031391914515, 0.004680031391914515, 0.004680031391914515, 0.004680031391914515]",0.002,7,1
0,9,"[4.7561883548041806e-05, -1.5707951802063072, 5.704561342412262e-05, 6.918489422602647e-05, 7.933026790851727e-05, 4.3959615140920505e-05]","[0.006106604356318712, 0.010978206992149353, 0.009711709804832935, 0.0077038295567035675, 0.0075810691341757774, 0.007807608228176832]","[0.0052649934141709995, -1.5655313333807255, 0.0052649934141709995, 0.0052649934141709995, 0.0052649934141709995, 0.0052649934141709995]","[0.0052649934141709995, -1.5655313333807255, 0.0052649934141709995, 0.0052649934141709995, 0.0052649934141709995, 0.0052649934141709995]",0.002,7,1
0,10,"[0.00012126063666073605, -1.570773989562742, 7.454548970997621e-06, 6.600017211866316e-06, 0.000127594597870484, 4.950046422891319e-05]","[0.008480604737997055, 0.014268556609749794, 0.012047197669744492, 0.010516621172428131, 0.012171759270131588, 0.01107124611735344]","[0.005849940647843686, -1.564946386147053, 0.005849940647843686, 0.005849940647843686, 0.005849940647843686, 0.005849940647843686]","[0.005849940647843686, -1.564946386147053, 0.005849940647843686, 0.005849940647843686, 0.005849940647843686, 0.005849940647843686]",0.002,7,1
0,11,"[7.925772661110386e-05, -1.5706837314395052, 0.00010377565492802887, 0.00010041772808833116, 0.00010251998901367188, 0.00019091606372967362]","[0.009632150642573833, 0.01839330978691578, 0.015464432537555695, 0.013398758135735989, 0.014772702939808369, 0.015177087858319283]","[0.006434871449902759, -1.5643614553449938, 0.006434871449902759, 0.006434871449902759, 0.006434871449902759, 0.006434871449902759]","[0.006434871449902759, -1.5643614553449938, 0.006434871449902759, 0.006434871449902759, 0.006434871449902759, 0.006434871449902759]",0.002,7,1
0,12,"[0.00010764336911961436, -1.570637421846488, 0.0001214186297815445, 8.694707836909288e-05, 0.00014723825734108686, 0.0001590251922607422]","[0.012397435493767262, 0.021786736324429512, 0.01881864294409752, 0.01661350391805172, 0.017534520477056503, 0.01819973811507225]","[0.007019784177364551, -1.563776542617532, 0.007019784177364551, 0.007019784177364551, 0.007019784177364551, 0.007019784177364551]","[0.007019784177364551, -1.563776542617532, 0.007019784177364551, 0.007019784177364551, 0.007019784177364551, 0.007019784177364551]",0.002,7,1
0,13,"[8.047151641221717e-05, -1.5706165051418175, 0.0001710096942346695, 0.00021926938977046007, 0.00016341262380592525, 0.00024916286929510534]","[0.015757784247398376, 0.025260306894779205, 0.02253672666847706, 0.020883914083242416, 0.019665149971842766, 0.019626827910542488]","[0.007604677187296164, -1.5631916496076004, 0.007604677187296164, 0.007604677187296164, 0.007604677187296164, 0.007604677187296164]","[0.007604677187296164, -1.5631916496076004, 0.007604677187296164, 0.007604677187296164, 0.007604677187296164, 0.007604677187296164]",0.002,7,1
0,14,"[0.00014650821685791016, -1.570606059893482, 0.00019342104067021637, 0.00024668752636713975, 0.00027291441801935434, 0.00022375777189154178]","[0.01870359480381012, 0.025987865403294563, 0.025190148502588272, 0.023360617458820343, 0.021127047017216682, 0.02313571237027645]","[0.008189548836820083, -1.5626067779580766, 0.008189548836820083, 0.008189548836820083, 0.008189548836820083, 0.008189548836820083]","[0.008189548836820083, -1.5626067779580766, 0.008189548836820083, 0.008189548836820083, 0.008189548836820083, 0.008189548836820083]",0.002,7,1
0,15,"[0.00020360684720799327, -1.5705866378596802, 0.00025016466249638825, 0.0002971130558471202, 0.0002641973551362753, 0.0002881002437788993]","[0.01991959847509861, 0.025653470307588577, 0.025849144905805588, 0.023853106424212456, 0.02182121016085148, 0.02390005625784397]","[0.008774397483118796, -1.5620219293117779, 0.008774397483118796, 0.008774397483118796, 0.008774397483118796, 0.008774397483118796]","[0.008774397483118796, -1.5620219293117779, 0.008774397483118796, 0.008774397483118796, 0.008774397483118796, 0.008774397483118796]",0.002,7,1
0,16,"[0.0002545948955230415, -1.5705175521473684, 0.0003183523761194351, 0.00030963003124995225, 0.0002947116445284337, 0.00036454200744628906]","[0.023182610049843788, 0.02640380710363388, 0.02699492871761322, 0.023881878703832626, 0.0226272102445364, 0.02293207123875618]","[0.0093592214834394, -1.561437105311457, 0.0093592214834394, 0.0093592214834394, 0.0093592214834394, 0.0093592214834394]","[0.0093592214834394, -1.561437105311457, 0.0093592214834394, 0.0093592214834394, 0.0093592214834394, 0.0093592214834394]",0.002,7,1
0,17,"[0.00034934424911625683, -1.570502595310547, 0.00038749376405888825, 0.00039736806835932725, 0.00033092498779296875, 0.00039146238123066723]","[0.025152597576379776, 0.0280178040266037, 0.02926994487643242, 0.024588268250226974, 0.02203594148159027, 0.022725358605384827]","[0.009944019195098217, -1.5608523075997984, 0.009944019195098217, 0.009944019195098217, 0.009944019195098217, 0.009944019195098217]","[0.009944019195098217, -1.5608523075997984, 0.009944019195098217, 0.009944019195098217, 0.009944019195098217, 0.009944019195098217]",0.002,7,1
0,18,"[0.0003477759310044348, -1.5703883761346624, 0.00043946901430302887, 0.00041274606671137803, 0.0004289922653697431, 0.00043663501855917275]","[0.027069956064224243, 0.028888864442706108, 0.030500361695885658, 0.024842368438839912, 0.024083534255623817, 0.02321651019155979]","[0.010528788975485414, -1.560267537819411, 0.010528788975485414, 0.010528788975485414, 0.010528788975485414, 0.010528788975485414]","[0.010528788975485414, -1.560267537819411, 0.010528788975485414, 0.010528788975485414, 0.010528788975485414, 0.010528788975485414]",0.002,7,1
0,19,"[0.00041512001189403236, -1.5703311842847434, 0.00043374696840459137, 0.0004859405704955577, 0.00048479330143891275, 0.0004936170298606157]","[0.03135911375284195, 0.031473007053136826, 0.0324130654335022, 0.026295876130461693, 0.026679247617721558, 0.025643160566687584]","[0.01111352918206961, -1.559682797612827, 0.01111352918206961, 0.01111352918206961, 0.01111352918206961, 0.01111352918206961]","[0.01111352918206961, -1.559682797612827, 0.01111352918206961, 0.01111352918206961, 0.01111352918206961, 0.01111352918206961]",0.002,7,1
0,20,"[0.000512758968397975, -1.5702682774611567, 0.0005224386798303726, 0.0005342203327636241, 0.0005286035593599081, 0.0005142688751220703]","[0.032746754586696625, 0.03397982940077782, 0.034503273665905, 0.0286832544952631, 0.029006710276007652, 0.02885263040661812]","[0.011698238172402493, -1.559098088622494, 0.011698238172402493, 0.011698238172402493, 0.011698238172402493, 0.011698238172402493]","[0.011698238172402493, -1.559098088622494, 0.011698238172402493, 0.011698238172402493, 0.011698238172402493, 0.011698238172402493]",0.002,7,1
0,21,"[0.0005186796188354492, -1.570166198628005, 0.0006187597857874039, 0.0005816656300048351, 0.000560527783818543, 0.0006212615990079939]","[0.03414139524102211, 0.037019822746515274, 0.03743351250886917, 0.03093630075454712, 0.030950628221035004, 0.030697433277964592]","[0.012282914304123434, -1.5585134124907731, 0.012282914304123434, 0.012282914304123434, 0.012282914304123434, 0.012282914304123434]","[0.012282914304123434, -1.5585134124907731, 0.012282914304123434, 0.012282914304123434, 0.012282914304123434, 0.012282914304123434]",0.002,7,1
0,22,"[0.0006237243651412427, -1.570124492082261, 0.0007661024676721695, 0.0006900268742064952, 0.0006159691838547587, 0.0006977939628995955]","[0.036008477210998535, 0.03960249572992325, 0.03995107114315033, 0.03343791142106056, 0.033746033906936646, 0.03360115736722946]","[0.012867555934964097, -1.5579287708599325, 0.012867555934964097, 0.012867555934964097, 0.012867555934964097, 0.012867555934964097]","[0.012867555934964097, -1.5579287708599325, 0.012867555934964097, 0.012867555934964097, 0.012867555934964097, 0.012867555934964097]",0.002,7,1
0,23,"[0.0007378234877251089, -1.570043302814458, 0.0008171240435999039, 0.0007449823566894054, 0.0007384414784610271, 0.0007107257843017578]","[0.04070226848125458, 0.04056667536497116, 0.04244077950716019, 0.03637634962797165, 0.03698630630970001, 0.037715282291173935]","[0.01345216142275306, -1.5573441653721436, 0.01345216142275306, 0.01345216142275306, 0.01345216142275306, 0.01345216142275306]","[0.01345216142275306, -1.5573441653721436, 0.01345216142275306, 0.01345216142275306, 0.01345216142275306, 0.01345216142275306]",0.002,7,1
0,24,"[0.0008025401621125638, -1.5699489521542382, 0.0008466879474084976, 0.0008334356495360851, 0.0007558107608929276, 0.0008083295542746782]","[0.043826084583997726, 0.044548310339450836, 0.045960862189531326, 0.04066828638315201, 0.03948979079723358, 0.03975910693407059]","[0.01403672912542041, -1.5567595976694761, 0.01403672912542041, 0.01403672912542041, 0.01403672912542041, 0.01403672912542041]","[0.01403672912542041, -1.5567595976694761, 0.01403672912542041, 0.01403672912542041, 0.01403672912542041, 0.01403672912542041]",0.002,7,1
0,25,"[0.0009390680934302509, -1.5698843982866784, 0.0010212103473108414, 0.0009173589893798351, 0.0008687791996635497, 0.0008925819420255721]","[0.046652425080537796, 0.049548499286174774, 0.0480373278260231, 0.042533714324235916, 0.04234229400753975, 0.04054976999759674]","[0.014621257401002376, -1.5561750693938943, 0.014621257401002376, 0.014621257401002376, 0.014621257401002376, 0.014621257401002376]","[0.014621257401002376, -1.5561750693938943, 0.014621257401002376, 0.014621257401002376, 0.014621257401002376, 0.014621257401002376]",0.002,7,1
0,26,"[0.0009943199111148715, -1.5698427718928833, 0.0011184851275842789, 0.0009984213062743663, 0.0009525988134555519, 0.0009431838989257812]","[0.04930665343999863, 0.049321241676807404, 0.051498450338840485, 0.04356849193572998, 0.045956216752529144, 0.04514804109930992]","[0.015205744607645925, -1.5555905821872507, 0.015205744607645925, 0.015205744607645925, 0.015205744607645925, 0.015205744607645925]","[0.015205744607645925, -1.5555905821872507, 0.015205744607645925, 0.015205744607645925, 0.015205744607645925, 0.015205744607645925]",0.002,7,1
0,27,"[0.0010857953457161784, -1.5696712595275422, 0.001138035451070607, 0.0011034446903686046, 0.0010323937749490142, 0.0010648679453879595]","[0.05249803885817528, 0.05397602543234825, 0.05602555721998215, 0.047541119158267975, 0.04930282384157181, 0.04910077154636383]","[0.015790189103613395, -1.5550061376912832, 0.015790189103613395, 0.015790189103613395, 0.015790189103613395, 0.015790189103613395]","[0.015790189103613395, -1.5550061376912832, 0.015790189103613395, 0.015790189103613395, 0.015790189103613395, 0.015790189103613395]",0.002,7,1
0,28,"[0.0011846966808661819, -1.5695798076088359, 0.0013044516192834976, 0.001223607654235792, 0.0011698438320308924, 0.0011607122141867876]","[0.055683888494968414, 0.05776387080550194, 0.05549992248415947, 0.051223766058683395, 0.05266464501619339, 0.052009522914886475]","[0.016374589247287068, -1.5544217375476095, 0.016374589247287068, 0.016374589247287068, 0.016374589247287068, 0.016374589247287068]","[0.016374589247287068, -1.5544217375476095, 0.016374589247287068, 0.016374589247287068, 0.016374589247287068, 0.016374589247287068]",0.002,7,1
0,29,"[0.0013095159083604813, -1.569410292464756, 0.0014370123492639664, 0.0012431579777221202, 0.0012323856353759766, 0.0013424777425825596]","[0.05879241228103638, 0.0639072060585022, 0.059572163969278336, 0.05672004073858261, 0.05609703063964844, 0.05637214705348015]","[0.016958943397173833, -1.5538373833977228, 0.016958943397173833, 0.016958943397173833, 0.016958943397173833, 0.016958943397173833]","[0.016958943397173833, -1.5538373833977228, 0.016958943397173833, 0.016958943397173833, 0.016958943397173833, 0.016958943397173833]",0.002,7,1
0,30,"[0.0014054793864488602, -1.5693399121849616, 0.0015710035907190445, 0.0014124351688842296, 0.0014114630175754428, 0.001429171534255147]","[0.0617862306535244, 0.0624588206410408, 0.06541884690523148, 0.05808640643954277, 0.05969323217868805, 0.059734731912612915]","[0.017543249911909743, -1.5532530768829869, 0.017543249911909743, 0.017543249911909743, 0.017543249911909743, 0.017543249911909743]","[0.017543249911909743, -1.5532530768829869, 0.017543249911909743, 0.017543249911909743, 0.017543249911909743, 0.017543249911909743]",0.002,7,1
0,31,"[0.001532787806354463, -1.5691840047114347, 0.0016410986529749039, 0.0015410619923095226, 0.001523181446827948, 0.0015582016203552485]","[0.06597573310136795, 0.06835264712572098, 0.06464386731386185, 0.06176212430000305, 0.06292574107646942, 0.06338080018758774]","[0.018127507150264666, -1.5526688196446319, 0.018127507150264666, 0.018127507150264666, 0.018127507150264666, 0.018127507150264666]","[0.018127507150264666, -1.5526688196446319, 0.018127507150264666, 0.018127507150264666, 0.018127507150264666, 0.018127507150264666]",0.002,7,1
0,32,"[0.0016889228718355298, -1.5690263193431129, 0.001859013234273732, 0.0016942459293822765, 0.0016169548034667969, 0.0016977214254438877]","[0.06884883344173431, 0.072332963347435, 0.06962616741657257, 0.06548718363046646, 0.06723849475383759, 0.06781767308712006]","[0.018711713471146876, -1.5520846133237496, 0.018711713471146876, 0.018711713471146876, 0.018711713471146876, 0.018711713471146876]","[0.018711713471146876, -1.5520846133237496, 0.018711713471146876, 0.018711713471146876, 0.018711713471146876, 0.018711713471146876]",0.002,7,1
0,33,"[0.0018492225790396333, -1.5688884939630334, 0.0019519964801233414, 0.0017601686665038585, 0.0017710266401991248, 0.001834335271269083]","[0.07241315394639969, 0.07490431517362595, 0.07339148968458176, 0.06881137192249298, 0.0715610608458519, 0.07035183906555176]","[0.019295867233607666, -1.551500459561289, 0.019295867233607666, 0.019295867233607666, 0.019295867233607666, 0.019295867233607666]","[0.019295867233607666, -1.551500459561289, 0.019295867233607666, 0.019295867233607666, 0.019295867233607666, 0.019295867233607666]",0.002,7,1
0,34,"[0.0020023600663989782, -1.5687233808315177, 0.0021427313434045914, 0.001957817668579054, 0.001910154358483851, 0.001944802119396627]","[0.0760917216539383, 0.07803259044885635, 0.0763469934463501, 0.07376636564731598, 0.07211587578058243, 0.07200374454259872]","[0.019879966796845963, -1.5509163599980507, 0.019879966796845963, 0.019879966796845963, 0.019879966796845963, 0.019879966796845963]","[0.019879966796845963, -1.5509163599980507, 0.019879966796845963, 0.019879966796845963, 0.019879966796845963, 0.019879966796845963]",0.002,7,1
0,35,"[0.002140302211046219, -1.568633660707139, 0.002286736165181935, 0.0020975309559325694, 0.002149187959730625, 0.0021175765432417393]","[0.07814829051494598, 0.08157823234796524, 0.079829141497612, 0.07585166394710541, 0.07660112529993057, 0.0778973251581192]","[0.020464010520212926, -1.5503323162746836, 0.020464010520212926, 0.020464010520212926, 0.020464010520212926, 0.020464010520212926]","[0.020464010520212926, -1.5503323162746836, 0.020464010520212926, 0.020464010520212926, 0.020464010520212926, 0.020464010520212926]",0.002,7,1
0,36,"[0.0023549403995275497, -1.56837663919244, 0.002480808888570607, 0.0022741991230468273, 0.002301292959600687, 0.0022854232229292393]","[0.08573517948389053, 0.08570359647274017, 0.08282318711280823, 0.07926348596811295, 0.0824328288435936, 0.07994949072599411]","[0.02104799676321656, -1.5497483300316799, 0.02104799676321656, 0.02104799676321656, 0.02104799676321656, 0.02104799676321656]","[0.02104799676321656, -1.5497483300316799, 0.02104799676321656, 0.02104799676321656, 0.02104799676321656, 0.02104799676321656]",0.002,7,1
0,37,"[0.0025094314478337765, -1.56820575663399, 0.002594772969381154, 0.0024658876606444835, 0.002473650500178337, 0.0024157024454325438]","[0.08368902653455734, 0.08911467343568802, 0.0849657654762268, 0.08381012827157974, 0.08392912894487381, 0.08380163460969925]","[0.02163192388552632, -1.5491644029093703, 0.02163192388552632, 0.02163192388552632, 0.02163192388552632, 0.02163192388552632]","[0.02163192388552632, -1.5491644029093703, 0.02163192388552632, 0.02163192388552632, 0.02163192388552632, 0.02163192388552632]",0.002,7,1
0,38,"[0.0026624787133187056, -1.568080117493384, 0.0027769247638147476, 0.002614303226135206, 0.0026300782337784767, 0.0026440175715833902]","[0.09065162390470505, 0.09113350510597229, 0.09012176841497421, 0.08749556541442871, 0.08793643116950989, 0.08721792697906494]","[0.022215790246977733, -1.5485805365479188, 0.022215790246977733, 0.022215790246977733, 0.022215790246977733, 0.022215790246977733]","[0.022215790246977733, -1.5485805365479188, 0.022215790246977733, 0.022215790246977733, 0.022215790246977733, 0.022215790246977733]",0.002,7,1
0,39,"[0.0028709517791867256, -1.5678367494004597, 0.0029853026019495132, 0.0028434234806518077, 0.002831542631611228, 0.002826462499797344]","[0.0947236567735672, 0.09697914868593216, 0.09586038440465927, 0.09206460416316986, 0.09165315330028534, 0.09099359810352325]","[0.02279959420757699, -1.5479967325873196, 0.02279959420757699, 0.02279959420757699, 0.02279959420757699, 0.02279959420757699]","[0.02279959420757699, -1.5479967325873196, 0.02279959420757699, 0.02279959420757699, 0.02279959420757699, 0.02279959420757699]",0.002,7,1
0,40,"[0.00309621705673635, -1.567682473022007, 0.0031264464007776382, 0.003023071880004835, 0.00304328347556293, 0.0030564116314053535]","[0.09743824601173401, 0.09696145355701447, 0.09538261592388153, 0.09570316225290298, 0.09468556195497513, 0.09452266246080399]","[0.02338333412750555, -1.547412992667391, 0.02338333412750555, 0.02338333412750555, 0.02338333412750555, 0.02338333412750555]","[0.02338333412750555, -1.547412992667391, 0.02338333412750555, 0.02338333412750555, 0.02338333412750555, 0.02338333412750555]",0.002,7,1
0,41,"[0.0032580720726400614, -1.5674709957423438, 0.0034030119525354507, 0.003157063121459913, 0.0031774912495166063, 0.003163666697219014]","[0.10227891057729721, 0.10336378216743469, 0.10118845850229263, 0.09772762656211853, 0.09972307085990906, 0.09792772680521011]","[0.023967008367124766, -1.5468293184277717, 0.023967008367124766, 0.023967008367124766, 0.023967008367124766, 0.023967008367124766]","[0.023967008367124766, -1.5468293184277717, 0.023967008367124766, 0.023967008367124766, 0.023967008367124766, 0.023967008367124766]",0.002,7,1
0,42,"[0.003520733444020152, -1.5672670286479224, 0.003598038350240529, 0.0033635336109618663, 0.0033909063786268234, 0.0034143351949751377]","[0.10631754249334335, 0.10477019101381302, 0.10396593809127808, 0.10458851605653763, 0.09990296512842178, 0.10235273838043213]","[0.024550615286980458, -1.546245711507916, 0.024550615286980458, 0.024550615286980458, 0.024550615286980458, 0.024550615286980458]","[0.024550615286980458, -1.546245711507916, 0.024550615286980458, 0.024550615286980458, 0.024550615286980458, 0.024550615286980458]",0.002,7,1
0,43,"[0.0037322076968848705, -1.5670751470937212, 0.003788773213521779, 0.0035886007496337413, 0.003607390448451042, 0.0036604737397283316]","[0.1092546284198761, 0.10806376487016678, 0.10835238546133041, 0.10558594763278961, 0.10673084855079651, 0.10649385303258896]","[0.025134153247807548, -1.545662173547089, 0.025134153247807548, 0.025134153247807548, 0.025134153247807548, 0.025134153247807548]","[0.025134153247807548, -1.545662173547089, 0.025134153247807548, 0.025134153247807548, 0.025134153247807548, 0.025134153247807548]",0.002,7,1
0,44,"[0.003915050532668829, -1.5668380589089175, 0.004034821187154591, 0.003879352206848097, 0.003840973135083914, 0.0038554223719984293]","[0.11271576583385468, 0.11221981048583984, 0.11099902540445328, 0.11330483853816986, 0.10877522081136703, 0.10963835567235947]","[0.025717620610534668, -1.5450787061843618, 0.025717620610534668, 0.025717620610534668, 0.025717620610534668, 0.025717620610534668]","[0.025717620610534668, -1.5450787061843618, 0.025717620610534668, 0.025717620610534668, 0.025717620610534668, 0.025717620610534668]",0.002,7,1
0,45,"[0.004216769244521856, -1.5666234640269359, 0.004282776509420216, 0.004111929530761671, 0.004065145272761583, 0.004062611144036055]","[0.1184278130531311, 0.11512482166290283, 0.11430608481168747, 0.11416056007146835, 0.11389356851577759, 0.11298805475234985]","[0.026301015736288732, -1.544495311058608, 0.026301015736288732, 0.026301015736288732, 0.026301015736288732, 0.026301015736288732]","[0.026301015736288732, -1.544495311058608, 0.026301015736288732, 0.026301015736288732, 0.026301015736288732, 0.026301015736288732]",0.002,7,1
0,46,"[0.004459729418158531, -1.566381973480322, 0.004545990620748341, 0.004317327136657667, 0.004280411638319492, 0.00430658832192421]","[0.11942891031503677, 0.118752121925354, 0.11773444712162018, 0.11801303923130035, 0.11763099581003189, 0.11612022668123245]","[0.026884336986399547, -1.543911989808497, 0.026884336986399547, 0.026884336986399547, 0.026884336986399547, 0.026884336986399547]","[0.026884336986399547, -1.543911989808497, 0.026884336986399547, 0.026884336986399547, 0.026884336986399547, 0.026884336986399547]",0.002,7,1
0,47,"[0.004673995077610016, -1.5661752361669024, 0.004755322133199513, 0.0045699316212157726, 0.004541696514934301, 0.004522595554590225]","[0.12644129991531372, 0.12184767425060272, 0.12192957103252411, 0.12121747434139252, 0.1213068887591362, 0.1223314106464386]","[0.027467582722404453, -1.543328744072492, 0.027467582722404453, 0.027467582722404453, 0.027467582722404453, 0.027467582722404453]","[0.027467582722404453, -1.543328744072492, 0.027467582722404453, 0.027467582722404453, 0.027467582722404453, 0.027467582722404453]",0.002,7,1
0,48,"[0.004989395383745432, -1.5658404797180374, 0.005012814198629201, 0.0047800975986938, 0.004859872628003359, 0.00481212604790926]","[0.12730728089809418, 0.12405505031347275, 0.12512917816638947, 0.12464840710163116, 0.12540145218372345, 0.12547233700752258]","[0.028050751306052873, -1.5427455754888437, 0.028050751306052873, 0.028050751306052873, 0.028050751306052873, 0.028050751306052873]","[0.028050751306052873, -1.5427455754888437, 0.028050751306052873, 0.028050751306052873, 0.028050751306052873, 0.028050751306052873]",0.002,7,1
0,49,"[0.005220324732363224, -1.56562883805994, 0.005272690449849904, 0.005085988635681105, 0.005079512484371662, 0.005012693349272013]","[0.13144607841968536, 0.1288091391324997, 0.1287766396999359, 0.13155581057071686, 0.12997674942016602, 0.13188304007053375]","[0.02863384109931096, -1.5421624856955856, 0.02863384109931096, 0.02863384109931096, 0.02863384109931096, 0.02863384109931096]","[0.02863384109931096, -1.5421624856955856, 0.02863384109931096, 0.02863384109931096, 0.02863384109931096, 0.02863384109931096]",0.002,7,1
0,50,"[0.005446650553494692, -1.5653484578109165, 0.005503479634420216, 0.005398913020751905, 0.005343918688595295, 0.005272092763334513]","[0.13543498516082764, 0.13252697885036469, 0.1310950219631195, 0.13232451677322388, 0.135168194770813, 0.13385659456253052]","[0.029216850464366173, -1.5415794763305304, 0.029216850464366173, 0.029216850464366173, 0.029216850464366173, 0.029216850464366173]","[0.029216850464366173, -1.5415794763305304, 0.029216850464366173, 0.029216850464366173, 0.029216850464366173, 0.029216850464366173]",0.002,7,1
0,51,"[0.005805472377687693, -1.5650376624292512, 0.005829636250631154, 0.005638762111328077, 0.005600417964160442, 0.005573544651269913]","[0.1381448209285736, 0.1357293277978897, 0.1376359462738037, 0.13608799874782562, 0.1364476978778839, 0.13761773705482483]","[0.029799777763631855, -1.5409965490312647, 0.029799777763631855, 0.029799777763631855, 0.029799777763631855, 0.029799777763631855]","[0.029799777763631855, -1.5409965490312647, 0.029799777763631855, 0.029799777763631855, 0.029799777763631855, 0.029799777763631855]",0.002,7,1
0,52,"[0.006069566123187542, -1.5648551408997555, 0.006093804036275685, 0.005875392551086378, 0.0058889915235340595, 0.005910997278988361]","[0.14202353358268738, 0.14062073826789856, 0.13977733254432678, 0.141882061958313, 0.1417200267314911, 0.14352121949195862]","[0.030382621359751904, -1.5404137054351446, 0.030382621359751904, 0.030382621359751904, 0.030382621359751904, 0.030382621359751904]","[0.030382621359751904, -1.5404137054351446, 0.030382621359751904, 0.030382621359751904, 0.030382621359751904, 0.030382621359751904]",0.002,7,1
0,53,"[0.006357530597597361, -1.5645370001769443, 0.006348911915914357, 0.006263895625732374, 0.006174357142299414, 0.006154702045023441]","[0.14514528214931488, 0.1441134512424469, 0.14334741234779358, 0.143269345164299, 0.14335453510284424, 0.1432199329137802]","[0.030965379615605294, -1.5398309471792913, 0.030965379615605294, 0.030965379615605294, 0.030965379615605294, 0.030965379615605294]","[0.030965379615605294, -1.5398309471792913, 0.030965379615605294, 0.030965379615605294, 0.030965379615605294, 0.030965379615605294]",0.002,7,1
0,54,"[0.006702303420752287, -1.564190623616316, 0.006710831318990529, 0.006462855929992628, 0.0064837331883609295, 0.006440787110477686]","[0.1499093472957611, 0.1474606990814209, 0.14741607010364532, 0.1471199244260788, 0.1489446759223938, 0.1480937898159027]","[0.031548050894310724, -1.5392482759005859, 0.031548050894310724, 0.031548050894310724, 0.031548050894310724, 0.031548050894310724]","[0.031548050894310724, -1.5392482759005859, 0.031548050894310724, 0.031548050894310724, 0.031548050894310724, 0.031548050894310724]",0.002,7,1
0,55,"[0.0070191966369748116, -1.5639611177942534, 0.006986920033590138, 0.00678352891888423, 0.006798642687499523, 0.006770602427423]","[0.15066158771514893, 0.14942695200443268, 0.15074767172336578, 0.15111637115478516, 0.1518811583518982, 0.15134462714195251]","[0.03213063355923119, -1.5386656932356653, 0.03213063355923119, 0.03213063355923119, 0.03213063355923119, 0.03213063355923119]","[0.03213063355923119, -1.5386656932356653, 0.03213063355923119, 0.03213063355923119, 0.03213063355923119, 0.03213063355923119]",0.002,7,1
0,56,"[0.0073266043327748775, -1.5636352526820083, 0.007263008748189748, 0.00714222967114253, 0.007099050097167492, 0.007077918387949467]","[0.15410292148590088, 0.15280364453792572, 0.1548648625612259, 0.15404218435287476, 0.15530210733413696, 0.1566561758518219]","[0.03271312597397859, -1.538083200820918, 0.03271312597397859, 0.03271312597397859, 0.03271312597397859, 0.03271312597397859]","[0.03271312597397859, -1.538083200820918, 0.03271312597397859, 0.03271312597397859, 0.03271312597397859, 0.03271312597397859]",0.002,7,1
0,57,"[0.007626654114574194, -1.5633236731267353, 0.007549111043111623, 0.007468386287353468, 0.007379966787993908, 0.007401601877063513]","[0.15888208150863647, 0.16053977608680725, 0.1581801325082779, 0.15706856548786163, 0.15969079732894897, 0.15994369983673096]","[0.03329552650241833, -1.5375008002924782, 0.03329552650241833, 0.03329552650241833, 0.03329552650241833, 0.03329552650241833]","[0.03329552650241833, -1.5375008002924782, 0.03329552650241833, 0.03329552650241833, 0.03329552650241833, 0.03329552650241833]",0.002,7,1
0,58,"[0.007922185584902763, -1.5629921669936557, 0.007945839558736623, 0.00780443727459712, 0.007761404383927584, 0.007701621390879154]","[0.1614273488521576, 0.1609863042831421, 0.16214998066425323, 0.16152361035346985, 0.16267049312591553, 0.16375769674777985]","[0.03387783350867391, -1.5369184932862225, 0.03387783350867391, 0.03387783350867391, 0.03387783350867391, 0.03387783350867391]","[0.03387783350867391, -1.5369184932862225, 0.03387783350867391, 0.03387783350867391, 0.03387783350867391, 0.03387783350867391]",0.002,7,1
0,59,"[0.008258072659373283, -1.5626876608333369, 0.00821096101869756, 0.00815395891156001, 0.008106840774416924, 0.008046279661357403]","[0.16356828808784485, 0.1643800586462021, 0.16455122828483582, 0.16624584794044495, 0.16549402475357056, 0.1671392023563385]","[0.034460045357131514, -1.536336281437765, 0.034460045357131514, 0.034460045357131514, 0.034460045357131514, 0.034460045357131514]","[0.034460045357131514, -1.536336281437765, 0.034460045357131514, 0.034460045357131514, 0.034460045357131514, 0.034460045357131514]",0.002,7,1
0,60,"[0.00858059898018837, -1.5623401787928124, 0.008585278187887013, 0.008472605342529249, 0.00840313546359539, 0.008352016098797321]","[0.16773724555969238, 0.16888073086738586, 0.16949249804019928, 0.1673075407743454, 0.1692214012145996, 0.1707688570022583]","[0.0350421604124446, -1.5357541663824519, 0.0350421604124446, 0.0350421604124446, 0.0350421604124446, 0.0350421604124446]","[0.0350421604124446, -1.5357541663824519, 0.0350421604124446, 0.0350421604124446, 0.0350421604124446, 0.0350421604124446]",0.002,7,1
0,61,"[0.008939038962125778, -1.5619997217184682, 0.008999172841207326, 0.00880686819042964, 0.008721965365111828, 0.00873897410929203]","[0.17174184322357178, 0.17233169078826904, 0.1715921014547348, 0.17082610726356506, 0.17329582571983337, 0.17540493607521057]","[0.03562417703953853, -1.535172149755358, 0.03562417703953853, 0.03562417703953853, 0.03562417703953853, 0.03562417703953853]","[0.03562417703953853, -1.535172149755358, 0.03562417703953853, 0.03562417703953853, 0.03562417703953853, 0.03562417703953853]",0.002,7,1
0,62,"[0.009302271530032158, -1.5616983168623229, 0.009307209645406544, 0.009227796191833448, 0.009119913913309574, 0.00906613003462553]","[0.1746557056903839, 0.1742537021636963, 0.17271162569522858, 0.17509645223617554, 0.1781717836856842, 0.17713205516338348]","[0.03620609360361513, -1.5345902331912815, 0.03620609360361513, 0.03620609360361513, 0.03620609360361513, 0.03620609360361513]","[0.03620609360361513, -1.5345902331912815, 0.03620609360361513, 0.03620609360361513, 0.03620609360361513, 0.03620609360361513]",0.002,7,1
0,63,"[0.009654761292040348, -1.5612753138742228, 0.009709183369771779, 0.009548946017883253, 0.009529219008982182, 0.009416804648935795]","[0.1782294362783432, 0.17543494701385498, 0.17561879754066467, 0.17591410875320435, 0.17876705527305603, 0.18191762268543243]","[0.03678790847015727, -1.5340084183247393, 0.03678790847015727, 0.03678790847015727, 0.03678790847015727, 0.03678790847015727]","[0.03678790847015727, -1.5340084183247393, 0.03678790847015727, 0.03678790847015727, 0.03678790847015727, 0.03678790847015727]",0.002,7,1
0,64,"[0.010016110725700855, -1.5609827742776652, 0.010006729756490529, 0.009881897563598585, 0.009889143519103527, 0.009818206541240215]","[0.1815088838338852, 0.17923539876937866, 0.18055006861686707, 0.17961768805980682, 0.1817605048418045, 0.1835956573486328]","[0.037369620004933476, -1.5334267067899632, 0.037369620004933476, 0.037369620004933476, 0.037369620004933476, 0.037369620004933476]","[0.037369620004933476, -1.5334267067899632, 0.037369620004933476, 0.037369620004933476, 0.037369620004933476, 0.037369620004933476]",0.002,7,1
0,65,"[0.010419867932796478, -1.5605659338510414, 0.010388676320211232, 0.010318680400512648, 0.010193036869168282, 0.010200588032603264]","[0.18463705480098724, 0.18447402119636536, 0.18300235271453857, 0.18325155973434448, 0.18602871894836426, 0.18661068379878998]","[0.03795122657400253, -1.532845100220894, 0.03795122657400253, 0.03795122657400253, 0.03795122657400253, 0.03795122657400253]","[0.03795122657400253, -1.532845100220894, 0.03795122657400253, 0.03795122657400253, 0.03795122657400253, 0.03795122657400253]",0.002,7,1
0,66,"[0.010768004693090916, -1.5602568558282037, 0.010722939168111623, 0.010716839427612257, 0.010548599064350128, 0.010567758232355118]","[0.1864151507616043, 0.18743763864040375, 0.18580956757068634, 0.1868295520544052, 0.18959467113018036, 0.19023548066616058]","[0.038532726543718046, -1.5322636002511785, 0.038532726543718046, 0.038532726543718046, 0.038532726543718046, 0.038532726543718046]","[0.038532726543718046, -1.5322636002511785, 0.038532726543718046, 0.038532726543718046, 0.038532726543718046, 0.038532726543718046]",0.002,7,1
0,67,"[0.011156495660543442, -1.559851837610342, 0.011112038289205373, 0.011084361667297316, 0.011011892929673195, 0.010946501977741718]","[0.18935967981815338, 0.1893322467803955, 0.18660080432891846, 0.19009384512901306, 0.19008775055408478, 0.19212791323661804]","[0.039114118280733065, -1.5316822085141635, 0.039114118280733065, 0.039114118280733065, 0.039114118280733065, 0.039114118280733065]","[0.039114118280733065, -1.5316822085141635, 0.039114118280733065, 0.039114118280733065, 0.039114118280733065, 0.039114118280733065]",0.002,7,1
0,68,"[0.011552554555237293, -1.5594589219293375, 0.01152211824526006, 0.01147417604412837, 0.011330119334161282, 0.011294746771454811]","[0.1925307810306549, 0.1932251751422882, 0.19334277510643005, 0.1928064078092575, 0.1934112161397934, 0.19610834121704102]","[0.039695400152004616, -1.5311009266428919, 0.039695400152004616, 0.039695400152004616, 0.039695400152004616, 0.039695400152004616]","[0.039695400152004616, -1.5311009266428919, 0.039695400152004616, 0.039695400152004616, 0.039695400152004616, 0.039695400152004616]",0.002,7,1
0,69,"[0.011936482042074203, -1.5590749488076945, 0.011915508900777638, 0.011853023166320753, 0.011750204488635063, 0.01167223509401083]","[0.19600556790828705, 0.19465290009975433, 0.19464853405952454, 0.1942828893661499, 0.19859887659549713, 0.1985987275838852]","[0.04027657052479833, -1.5305197562700983, 0.04027657052479833, 0.04027657052479833, 0.04027657052479833, 0.04027657052479833]","[0.04027657052479833, -1.5305197562700983, 0.04027657052479833, 0.04027657052479833, 0.04027657052479833, 0.04027657052479833]",0.002,7,1
0,70,"[0.01232809666544199, -1.5587002786672493, 0.012281719838277638, 0.012265844936035109, 0.012130171991884708, 0.012101005762815475]","[0.19915004074573517, 0.19808810949325562, 0.1956099271774292, 0.1958189457654953, 0.20396192371845245, 0.20156161487102509]","[0.04085762776669305, -1.5299386990282036, 0.04085762776669305, 0.04085762776669305, 0.04085762776669305, 0.04085762776669305]","[0.04085762776669305, -1.5299386990282036, 0.04085762776669305, 0.04085762776669305, 0.04085762776669305, 0.04085762776669305]",0.002,7,1
0,71,"[0.0126985814422369, -1.5582735708779474, 0.012687508259908498, 0.012674375171325636, 0.01259642280638218, 0.0125180184841156]","[0.2008436918258667, 0.2024897187948227, 0.1991904079914093, 0.19922813773155212, 0.20440292358398438, 0.2055196911096573]","[0.041438570245585345, -1.5293577565493113, 0.041438570245585345, 0.041438570245585345, 0.041438570245585345, 0.041438570245585345]","[0.041438570245585345, -1.5293577565493113, 0.041438570245585345, 0.041438570245585345, 0.041438570245585345, 0.041438570245585345]",0.002,7,1
0,72,"[0.013129249215126038, -1.5578834817609568, 0.013070408497945607, 0.013091726894042921, 0.012988312169909477, 0.012893027625977993]","[0.20383842289447784, 0.20613615214824677, 0.20213748514652252, 0.20273754000663757, 0.20669741928577423, 0.20929628610610962]","[0.04201939632969416, -1.5287769304652024, 0.04201939632969416, 0.04201939632969416, 0.04201939632969416, 0.04201939632969416]","[0.04201939632969416, -1.5287769304652024, 0.04201939632969416, 0.04201939632969416, 0.04201939632969416, 0.04201939632969416]",0.002,7,1
0,73,"[0.01356849167495966, -1.5574242708138009, 0.013471428547994435, 0.013461275691650343, 0.013345964252948761, 0.013302293606102467]","[0.20747141540050507, 0.20840011537075043, 0.20327335596084595, 0.20569559931755066, 0.21004338562488556, 0.21223244071006775]","[0.04260010438756538, -1.528196222407331, 0.04260010438756538, 0.04260010438756538, 0.04260010438756538, 0.04260010438756538]","[0.04260010438756538, -1.528196222407331, 0.04260010438756538, 0.04260010438756538, 0.04260010438756538, 0.04260010438756538]",0.002,7,1
0,74,"[0.013988538645207882, -1.5570133563927193, 0.01390105882753545, 0.013936205501220655, 0.013820854015648365, 0.013713665306568146]","[0.2104267030954361, 0.21113704144954681, 0.20687955617904663, 0.20882371068000793, 0.21313300728797913, 0.21459338068962097]","[0.043180692788076395, -1.52761563400682, 0.043180692788076395, 0.043180692788076395, 0.043180692788076395, 0.043180692788076395]","[0.043180692788076395, -1.52761563400682, 0.043180692788076395, 0.043180692788076395, 0.043180692788076395, 0.043180692788076395]",0.002,7,1
0,75,"[0.014441623352468014, -1.5566778800315042, 0.01430064836610967, 0.014327927226684523, 0.014232362620532513, 0.01419932208955288]","[0.2135407030582428, 0.21354898810386658, 0.21155916154384613, 0.21062834560871124, 0.21546469628810883, 0.21876534819602966]","[0.0437611599004407, -1.527035166894456, 0.0437611599004407, 0.0437611599004407, 0.0437611599004407, 0.0437611599004407]","[0.0437611599004407, -1.527035166894456, 0.0437611599004407, 0.0437611599004407, 0.0437611599004407, 0.0437611599004407]",0.002,7,1
0,76,"[0.014847943559288979, -1.5561993832564731, 0.01475555101503545, 0.014798088664672804, 0.014643535949289799, 0.01462206244468689]","[0.21610936522483826, 0.21750378608703613, 0.2138931155204773, 0.21355704963207245, 0.2181188315153122, 0.22047056257724762]","[0.04434150409421247, -1.526454822700684, 0.04434150409421247, 0.04434150409421247, 0.04434150409421247, 0.04434150409421247]","[0.04434150409421247, -1.526454822700684, 0.04434150409421247, 0.04434150409421247, 0.04434150409421247, 0.04434150409421247]",0.002,7,1
0,77,"[0.015340239740908146, -1.5557248967564483, 0.01519185701479131, 0.015207572574279737, 0.015104220248758793, 0.0150611512362957]","[0.2181716412305832, 0.2188335508108139, 0.21674826741218567, 0.2169395238161087, 0.21961219608783722, 0.2210567146539688]","[0.04492172373929114, -1.5258746030556054, 0.04492172373929114, 0.04492172373929114, 0.04492172373929114, 0.04492172373929114]","[0.04492172373929114, -1.5258746030556054, 0.04492172373929114, 0.04492172373929114, 0.04492172373929114, 0.04492172373929114]",0.002,7,1
0,78,"[0.01573609746992588, -1.5553322101807971, 0.015656296406881154, 0.015636368388793898, 0.015544936992228031, 0.01549036055803299]","[0.2207258939743042, 0.22227773070335388, 0.2205679714679718, 0.21844390034675598, 0.22330434620380402, 0.22514668107032776]","[0.04550181720592597, -1.5252945095889705, 0.04550181720592597, 0.04550181720592597, 0.04550181720592597, 0.04550181720592597]","[0.04550181720592597, -1.5252945095889705, 0.04550181720592597, 0.04550181720592597, 0.04550181720592597, 0.04550181720592597]",0.002,7,1
0,79,"[0.01621018722653389, -1.5548416015556832, 0.01607686678041631, 0.01610807954754634, 0.01601327769458294, 0.015938587486743927]","[0.2242010086774826, 0.22614699602127075, 0.22304081916809082, 0.22091446816921234, 0.22636595368385315, 0.22874398529529572]","[0.04608178286472068, -1.524714543930176, 0.04608178286472068, 0.04608178286472068, 0.04608178286472068, 0.04608178286472068]","[0.04608178286472068, -1.524714543930176, 0.04608178286472068, 0.04608178286472068, 0.04608178286472068, 0.04608178286472068]",0.002,7,1
0,80,"[0.016664760187268257, -1.5544022408178826, 0.01652843156923467, 0.01651720582928462, 0.016469698399305344, 0.016422724351286888]","[0.22821848094463348, 0.22658482193946838, 0.2240726500749588, 0.22318004071712494, 0.22872388362884521, 0.23099002242088318]","[0.046661619086637914, -1.5241347077082585, 0.046661619086637914, 0.046661619086637914, 0.046661619086637914, 0.046661619086637914]","[0.046661619086637914, -1.5241347077082585, 0.046661619086637914, 0.046661619086637914, 0.046661619086637914, 0.046661619086637914]",0.002,7,1
0,81,"[0.017141712829470634, -1.5539060433259984, 0.016999069844381154, 0.01694600164379878, 0.01691378466784954, 0.016949113458395004]","[0.22951650619506836, 0.22966066002845764, 0.2273542582988739, 0.22592692077159882, 0.23155345022678375, 0.23432539403438568]","[0.04724132424300397, -1.5235550025518927, 0.04724132424300397, 0.04724132424300397, 0.04724132424300397, 0.04724132424300397]","[0.04724132424300397, -1.5235550025518927, 0.04724132424300397, 0.04724132424300397, 0.04724132424300397, 0.04724132424300397]",0.002,7,1
0,82,"[0.017571115866303444, -1.5534707953086873, 0.017384831105367482, 0.017448230380676222, 0.017353380098938942, 0.01736575923860073]","[0.2303975224494934, 0.23202252388000488, 0.22810672223567963, 0.22823728621006012, 0.23370471596717834, 0.23645465075969696]","[0.04782089670551321, -1.5229754300893834, 0.04782089670551321, 0.04782089670551321, 0.04782089670551321, 0.04782089670551321]","[0.04782089670551321, -1.5229754300893834, 0.04782089670551321, 0.04782089670551321, 0.04782089670551321, 0.04782089670551321]",0.002,7,1
0,83,"[0.018029822036623955, -1.553014724781253, 0.017850224171773732, 0.01791934549298091, 0.017830267548561096, 0.017828917130827904]","[0.232577383518219, 0.23267464339733124, 0.2328469455242157, 0.2323012799024582, 0.23560264706611633, 0.23755986988544464]","[0.04840033484623275, -1.5223959919486638, 0.04840033484623275, 0.04840033484623275, 0.04840033484623275, 0.04840033484623275]","[0.04840033484623275, -1.5223959919486638, 0.04840033484623275, 0.04840033484623275, 0.04840033484623275, 0.04840033484623275]",0.002,7,1
0,84,"[0.018543148413300514, -1.5525304165533562, 0.018288437520162404, 0.018339915866516066, 0.018266264349222183, 0.018292494118213654]","[0.23425425589084625, 0.23528000712394714, 0.2375662624835968, 0.23528826236724854, 0.23908016085624695, 0.2404641956090927]","[0.04897963703760701, -1.5218166897572896, 0.04897963703760701, 0.04897963703760701, 0.04897963703760701, 0.04897963703760701]","[0.04897963703760701, -1.5218166897572896, 0.04897963703760701, 0.04897963703760701, 0.04897963703760701, 0.04897963703760701]",0.002,7,1
0,85,"[0.01898633874952793, -1.5520205491087218, 0.018798653279439748, 0.018753333682678175, 0.01875961571931839, 0.018810052424669266]","[0.2375217229127884, 0.2407711148262024, 0.2378097027540207, 0.23783272504806519, 0.24108493328094482, 0.24210533499717712]","[0.04955880165246223, -1.5212375251424344, 0.04955880165246223, 0.04955880165246223, 0.04955880165246223, 0.04955880165246223]","[0.04955880165246223, -1.5212375251424344, 0.04955880165246223, 0.04955880165246223, 0.04955880165246223, 0.04955880165246223]",0.002,7,1
0,86,"[0.019510217010974884, -1.5515782174519082, 0.019313637410299123, 0.019247813815734816, 0.01927570439875126, 0.019301481544971466]","[0.24163919687271118, 0.24170812964439392, 0.2411024272441864, 0.2408015877008438, 0.24370478093624115, 0.24392755329608917]","[0.05013782706401114, -1.5206584997308854, 0.05013782706401114, 0.05013782706401114, 0.05013782706401114, 0.05013782706401114]","[0.05013782706401114, -1.5206584997308854, 0.05013782706401114, 0.05013782706401114, 0.05013782706401114, 0.05013782706401114]",0.002,7,1
0,87,"[0.019930696114897728, -1.5511311919293185, 0.01978475252260381, 0.01970152437176509, 0.019714606925845146, 0.019793512299656868]","[0.2416837215423584, 0.2435014247894287, 0.24494974315166473, 0.2430058717727661, 0.24486443400382996, 0.2467125952243805]","[0.050716711645857414, -1.5200796151490392, 0.050716711645857414, 0.050716711645857414, 0.050716711645857414, 0.050716711645857414]","[0.050716711645857414, -1.5200796151490392, 0.050716711645857414, 0.050716711645857414, 0.050716711645857414, 0.050716711645857414]",0.002,7,1
0,88,"[0.02043537050485611, -1.5505659033409138, 0.020250622426168263, 0.020274563426635694, 0.020215407013893127, 0.020261459052562714]","[0.24308203160762787, 0.24592596292495728, 0.24504394829273224, 0.2457524836063385, 0.2466856837272644, 0.24786466360092163]","[0.05129545377200032, -1.5195008730228963, 0.05129545377200032, 0.05129545377200032, 0.05129545377200032, 0.05129545377200032]","[0.05129545377200032, -1.5195008730228963, 0.05129545377200032, 0.05129545377200032, 0.05129545377200032, 0.05129545377200032]",0.002,7,1
0,89,"[0.02089323103427887, -1.5500526794097205, 0.02073222795595342, 0.020727558726928663, 0.02076573297381401, 0.020819496363401413]","[0.24528969824314117, 0.24842093884944916, 0.24816878139972687, 0.24829544126987457, 0.24951356649398804, 0.24861446022987366]","[0.051874051816839274, -1.5189222749780573, 0.051874051816839274, 0.051874051816839274, 0.051874051816839274, 0.051874051816839274]","[0.051874051816839274, -1.5189222749780573, 0.051874051816839274, 0.051874051816839274, 0.051874051816839274, 0.051874051816839274]",0.002,7,1
0,90,"[0.021417297422885895, -1.549595595603325, 0.021197144185201466, 0.021136327380798292, 0.021273095160722733, 0.021325692534446716]","[0.2464168518781662, 0.24924826622009277, 0.2494611144065857, 0.25223568081855774, 0.2520348131656647, 0.2507561445236206]","[0.05245250415517839, -1.5183438226397181, 0.05245250415517839, 0.05245250415517839, 0.05245250415517839, 0.05245250415517839]","[0.05245250415517839, -1.5183438226397181, 0.05245250415517839, 0.05245250415517839, 0.05245250415517839, 0.05245250415517839]",0.002,7,1
0,91,"[0.021929532289505005, -1.5490610984018822, 0.021768871937887013, 0.021660132999084425, 0.021777313202619553, 0.021734781563282013]","[0.2494710087776184, 0.2496366947889328, 0.2525627911090851, 0.25553107261657715, 0.2534617781639099, 0.25205355882644653]","[0.053030809162231005, -1.5177655176326657, 0.053030809162231005, 0.053030809162231005, 0.053030809162231005, 0.053030809162231005]","[0.053030809162231005, -1.5177655176326657, 0.053030809162231005, 0.053030809162231005, 0.053030809162231005, 0.053030809162231005]",0.002,7,1
0,92,"[0.022402063012123108, -1.5485736236772318, 0.02225667635072881, 0.02217833578076167, 0.022277481853961945, 0.022309498861432076]","[0.24983520805835724, 0.2515164017677307, 0.25015997886657715, 0.2559409439563751, 0.25643953680992126, 0.2531013786792755]","[0.05360896521362437, -1.517187361581272, 0.05360896521362437, 0.05360896521362437, 0.05360896521362437, 0.05360896521362437]","[0.05360896521362437, -1.517187361581272, 0.05360896521362437, 0.05360896521362437, 0.05360896521362437, 0.05360896521362437]",0.002,7,1
0,93,"[0.022926129400730133, -1.5480504122427483, 0.022734944020406544, 0.022728486652038526, 0.02276523970067501, 0.022778339684009552]","[0.25426429510116577, 0.25299617648124695, 0.25427305698394775, 0.2570649981498718, 0.25761672854423523, 0.2544423043727875]","[0.054186970685404054, -1.5166093561094924, 0.054186970685404054, 0.054186970685404054, 0.054186970685404054, 0.054186970685404054]","[0.054186970685404054, -1.5166093561094924, 0.054186970685404054, 0.054186970685404054, 0.054186970685404054, 0.054186970685404054]",0.002,7,1
0,94,"[0.023457597941160202, -1.5474776432714243, 0.02327901521791631, 0.023178859347961378, 0.023297568783164024, 0.023353174328804016]","[0.25406670570373535, 0.2537251114845276, 0.25746673345565796, 0.26029515266418457, 0.25958549976348877, 0.25764715671539307]","[0.054764823954038644, -1.516031502840858, 0.054764823954038644, 0.054764823954038644, 0.054764823954038644, 0.054764823954038644]","[0.054764823954038644, -1.516031502840858, 0.054764823954038644, 0.054764823954038644, 0.054764823954038644, 0.054764823954038644]",0.002,7,1
0,95,"[0.023986198008060455, -1.5469311040690918, 0.023783032094137013, 0.02370731412853999, 0.023802097886800766, 0.023875869810581207]","[0.2562035024166107, 0.257978230714798, 0.25689783692359924, 0.2625024616718292, 0.26142463088035583, 0.2590424120426178]","[0.0553425233964242, -1.5154538033984724, 0.0553425233964242, 0.0553425233964242, 0.0553425233964242, 0.0553425233964242]","[0.0553425233964242, -1.5154538033984724, 0.0553425233964242, 0.0553425233964242, 0.0553425233964242, 0.0553425233964242]",0.002,7,1
0,96,"[0.02447100728750229, -1.5464603540352364, 0.02429658571352178, 0.024246855373046827, 0.02435431070625782, 0.024384455755352974]","[0.2581122815608978, 0.2580927014350891, 0.25862377882003784, 0.26374635100364685, 0.26171156764030457, 0.2600436210632324]","[0.055920067389888854, -1.5148762594050078, 0.055920067389888854, 0.055920067389888854, 0.055920067389888854, 0.055920067389888854]","[0.055920067389888854, -1.5148762594050078, 0.055920067389888854, 0.055920067389888854, 0.055920067389888854, 0.055920067389888854]",0.002,7,1
0,97,"[0.024984614923596382, -1.5459295150688668, 0.024813000355855763, 0.0247155862995605, 0.024799583479762077, 0.024910278618335724]","[0.26181623339653015, 0.26080021262168884, 0.26246175169944763, 0.2665749788284302, 0.26276981830596924, 0.261790007352829]","[0.05649745431219742, -1.5142988724826991, 0.05649745431219742, 0.05649745431219742, 0.05649745431219742, 0.05649745431219742]","[0.05649745431219742, -1.5142988724826991, 0.05649745431219742, 0.05649745431219742, 0.05649745431219742, 0.05649745431219742]",0.002,7,1
0,98,"[0.025498976930975914, -1.545363850226142, 0.025299851094381154, 0.02527134000744624, 0.02537398785352707, 0.025425978004932404]","[0.260922372341156, 0.26204684376716614, 0.2623383402824402, 0.26749274134635925, 0.26551321148872375, 0.2620515823364258]","[0.05707468254155584, -1.5137216442533408, 0.05707468254155584, 0.05707468254155584, 0.05707468254155584, 0.05707468254155584]","[0.05707468254155584, -1.5137216442533408, 0.05707468254155584, 0.05707468254155584, 0.05707468254155584, 0.05707468254155584]",0.002,7,1
0,99,"[0.025997202843427658, -1.5448329367539664, 0.02588063875307256, 0.02580194055523677, 0.025971699506044388, 0.025988098233938217]","[0.2631247043609619, 0.26277145743370056, 0.26323798298835754, 0.270110547542572, 0.26790857315063477, 0.2638288736343384]","[0.05765175045661585, -1.5131445763382807, 0.05765175045661585, 0.05765175045661585, 0.05765175045661585, 0.05765175045661585]","[0.05765175045661585, -1.5131445763382807, 0.05765175045661585, 0.05765175045661585, 0.05765175045661585, 0.05765175045661585]",0.002,7,1
0,100,"[0.026533260941505432, -1.544295973410346, 0.026413742695943654, 0.02630261957135005, 0.02649568021297455, 0.02655652165412903]","[0.2650095820426941, 0.2635790705680847, 0.2668832242488861, 0.2704627215862274, 0.26927828788757324, 0.26550349593162537]","[0.058228656436479447, -1.5125676703584172, 0.058228656436479447, 0.058228656436479447, 0.058228656436479447, 0.058228656436479447]","[0.058228656436479447, -1.5125676703584172, 0.058228656436479447, 0.058228656436479447, 0.058228656436479447, 0.058228656436479447]",0.002,7,1
0,101,"[0.027040407061576843, -1.543794085537531, 0.02697450319399053, 0.026831551189086866, 0.027031240984797478, 0.027051366865634918]","[0.26670825481414795, 0.2651112675666809, 0.26817330718040466, 0.27344727516174316, 0.26948297023773193, 0.2680005729198456]","[0.0588053988607035, -1.511990927934193, 0.0588053988607035, 0.0588053988607035, 0.0588053988607035, 0.0588053988607035]","[0.0588053988607035, -1.511990927934193, 0.0588053988607035, 0.0588053988607035, 0.0588053988607035, 0.0588053988607035]",0.002,7,1
0,102,"[0.0275720227509737, -1.5432253342917939, 0.02749330202211553, 0.02736441671337886, 0.02758808061480522, 0.027580037713050842]","[0.26646533608436584, 0.2688750922679901, 0.27017003297805786, 0.27466467022895813, 0.26905152201652527, 0.27033913135528564]","[0.0593819761093043, -1.5114143506855922, 0.0593819761093043, 0.0593819761093043, 0.0593819761093043, 0.0593819761093043]","[0.0593819761093043, -1.5114143506855922, 0.0593819761093043, 0.0593819761093043, 0.0593819761093043, 0.0593819761093043]",0.002,7,1
0,103,"[0.02810937725007534, -1.5426330764642735, 0.028040711079732716, 0.02792303144421382, 0.028176601976156235, 0.028141088783740997]","[0.2691363990306854, 0.27065473794937134, 0.27170369029045105, 0.27628451585769653, 0.2720922827720642, 0.2714862525463104]","[0.059958386562762055, -1.5108379402321346, 0.059958386562762055, 0.059958386562762055, 0.059958386562762055, 0.059958386562762055]","[0.059958386562762055, -1.5108379402321346, 0.059958386562762055, 0.059958386562762055, 0.059958386562762055, 0.059958386562762055]",0.002,7,1
0,104,"[0.028633274137973785, -1.5420687117478629, 0.028622929249898732, 0.0285230117985229, 0.028683677315711975, 0.028671808540821075]","[0.2718784511089325, 0.27035292983055115, 0.27383965253829956, 0.2782103419303894, 0.2732354402542114, 0.2725352942943573]","[0.06053462860202547, -1.5102616981928711, 0.06053462860202547, 0.06053462860202547, 0.06053462860202547, 0.06053462860202547]","[0.06053462860202547, -1.5102616981928711, 0.06053462860202547, 0.06053462860202547, 0.06053462860202547, 0.06053462860202547]",0.002,7,1
0,105,"[0.02917320281267166, -1.5415291611901303, 0.029116455708638966, 0.029057427043579054, 0.02928261272609234, 0.02921300195157528]","[0.2735205292701721, 0.27260637283325195, 0.27574416995048523, 0.27944186329841614, 0.275216668844223, 0.2745606005191803]","[0.061110700608516366, -1.5096856261863802, 0.061110700608516366, 0.061110700608516366, 0.061110700608516366, 0.061110700608516366]","[0.061110700608516366, -1.5096856261863802, 0.061110700608516366, 0.061110700608516366, 0.061110700608516366, 0.061110700608516366]",0.002,7,1
0,106,"[0.029698701575398445, -1.5410224602422495, 0.02971965471376592, 0.02960626661267085, 0.02979634702205658, 0.029768146574497223]","[0.27672475576400757, 0.271175742149353, 0.27786797285079956, 0.28055116534233093, 0.27661120891571045, 0.2744414806365967]","[0.061686600964134086, -1.5091097258307624, 0.061686600964134086, 0.061686600964134086, 0.061686600964134086, 0.061686600964134086]","[0.061686600964134086, -1.5091097258307624, 0.061686600964134086, 0.061686600964134086, 0.061686600964134086, 0.061686600964134086]",0.002,7,1
0,107,"[0.030279461294412613, -1.540347808306553, 0.030248943959371388, 0.030144019717834425, 0.030312281101942062, 0.030362216755747795]","[0.2789682149887085, 0.2731723487377167, 0.2775109112262726, 0.28260108828544617, 0.27476736903190613, 0.27569347620010376]","[0.06226232805126016, -1.5085339987436364, 0.06226232805126016, 0.06226232805126016, 0.06226232805126016, 0.06226232805126016]","[0.06226232805126016, -1.5085339987436364, 0.06226232805126016, 0.06226232805126016, 0.06226232805126016, 0.06226232805126016]",0.002,7,1
0,108,"[0.030788393691182137, -1.5398908008686085, 0.03085023561586553, 0.030749960536621046, 0.03086780570447445, 0.03090468794107437]","[0.27801835536956787, 0.27431440353393555, 0.27999407052993774, 0.2835497260093689, 0.2780580520629883, 0.27711814641952515]","[0.06283788025276278, -1.5079584465421338, 0.06283788025276278, 0.06283788025276278, 0.06283788025276278, 0.06283788025276278]","[0.06283788025276278, -1.5079584465421338, 0.06283788025276278, 0.06283788025276278, 0.06283788025276278, 0.06283788025276278]",0.002,7,1
0,109,"[0.0314260870218277, -1.5392971572330971, 0.03139335313905889, 0.03130273401226802, 0.03149734064936638, 0.0314892902970314]","[0.2802343964576721, 0.2735670208930969, 0.2804373800754547, 0.284803569316864, 0.2788958251476288, 0.2797122299671173]","[0.06341325595200138, -1.5073830708428952, 0.06341325595200138, 0.06341325595200138, 0.06341325595200138, 0.06341325595200138]","[0.06341325595200138, -1.5073830708428952, 0.06341325595200138, 0.06341325595200138, 0.06341325595200138, 0.06341325595200138]",0.002,7,1
0,110,"[0.03191865608096123, -1.5387655732086678, 0.031954590474263966, 0.031823917026184034, 0.03201654180884361, 0.03204582259058952]","[0.2825022339820862, 0.2749079167842865, 0.28218525648117065, 0.2861751914024353, 0.2785392105579376, 0.27844664454460144]","[0.06398845353283117, -1.5068078732620653, 0.06398845353283117, 0.06398845353283117, 0.06398845353283117, 0.06398845353283117]","[0.06398845353283117, -1.5068078732620653, 0.06398845353283117, 0.06398845353283117, 0.06398845353283117, 0.06398845353283117]",0.002,7,1
0,111,"[0.032461922615766525, -1.538177629267313, 0.03251392046083623, 0.03251890718426509, 0.0326557382941246, 0.03257959336042404]","[0.28361329436302185, 0.27745717763900757, 0.28128281235694885, 0.2875749468803406, 0.28213828802108765, 0.2785985469818115]","[0.06456347137960762, -1.5062328554152888, 0.06456347137960762, 0.06456347137960762, 0.06456347137960762, 0.06456347137960762]","[0.06456347137960762, -1.5062328554152888, 0.06456347137960762, 0.06456347137960762, 0.06456347137960762, 0.06456347137960762]",0.002,7,1
0,112,"[0.033022161573171616, -1.5376550827971478, 0.03309756914247686, 0.033096714610717726, 0.03316217288374901, 0.03317300230264664]","[0.283891886472702, 0.27754145860671997, 0.2812628746032715, 0.28896617889404297, 0.28005701303482056, 0.2800754904747009]","[0.06513830787719112, -1.5056580189177053, 0.06513830787719112, 0.06513830787719112, 0.06513830787719112, 0.06513830787719112]","[0.06513830787719112, -1.5056580189177053, 0.06513830787719112, 0.06513830787719112, 0.06513830787719112, 0.06513830787719112]",0.002,7,1
0,113,"[0.03355197608470917, -1.5370829117349167, 0.033715073262349904, 0.03370611249890132, 0.033754862844944, 0.03369004279375076]","[0.2846764028072357, 0.28008416295051575, 0.2826370596885681, 0.2872062027454376, 0.2814309000968933, 0.2810879051685333]","[0.06571296141095137, -1.5050833653839453, 0.06571296141095137, 0.06571296141095137, 0.06571296141095137, 0.06571296141095137]","[0.06571296141095137, -1.5050833653839453, 0.06571296141095137, 0.06571296141095137, 0.06571296141095137, 0.06571296141095137]",0.002,7,1
0,114,"[0.03416719287633896, -1.536523712133505, 0.034237209950582326, 0.034230037326477, 0.03434807434678078, 0.034303583204746246]","[0.2842867970466614, 0.28111809492111206, 0.28273242712020874, 0.28626522421836853, 0.28282430768013, 0.28080224990844727]","[0.06628743036677205, -1.5045088964281246, 0.06628743036677205, 0.06628743036677205, 0.06628743036677205, 0.06628743036677205]","[0.06628743036677205, -1.5045088964281246, 0.06628743036677205, 0.06628743036677205, 0.06628743036677205, 0.06628743036677205]",0.002,7,1
0,115,"[0.03475112095475197, -1.5359680143049737, 0.03479367891420537, 0.034832878703735304, 0.03482930362224579, 0.03486443683505058]","[0.2861652076244354, 0.2843939960002899, 0.28350701928138733, 0.2862643301486969, 0.2837637960910797, 0.2818385660648346]","[0.06686171313105525, -1.5039346136638414, 0.06686171313105525, 0.06686171313105525, 0.06686171313105525, 0.06686171313105525]","[0.06686171313105525, -1.5039346136638414, 0.06686171313105525, 0.06686171313105525, 0.06686171313105525, 0.06686171313105525]",0.002,7,1
0,116,"[0.03534974530339241, -1.5353963200799008, 0.03533965746034795, 0.035422011012695265, 0.03545887768268585, 0.035416435450315475]","[0.2878073751926422, 0.2834935188293457, 0.28406083583831787, 0.28671684861183167, 0.2843640148639679, 0.2826794981956482]","[0.0674358080907261, -1.5033605187041705, 0.0674358080907261, 0.0674358080907261, 0.0674358080907261, 0.0674358080907261]","[0.0674358080907261, -1.5033605187041705, 0.0674358080907261, 0.0674358080907261, 0.0674358080907261, 0.0674358080907261]",0.002,7,1
0,117,"[0.035936612635850906, -1.5347946298173447, 0.035985771809713185, 0.03601960718121333, 0.036010969430208206, 0.03593737632036209]","[0.28931283950805664, 0.2852407395839691, 0.2854122817516327, 0.287217915058136, 0.2860236167907715, 0.28340208530426025]","[0.06800971363323713, -1.5027866131616594, 0.06800971363323713, 0.06800971363323713, 0.06800971363323713, 0.06800971363323713]","[0.06800971363323713, -1.5027866131616594, 0.06800971363323713, 0.06800971363323713, 0.06800971363323713, 0.06800971363323713]",0.002,7,1
0,118,"[0.03653094172477722, -1.534272988592722, 0.036509339009420216, 0.03660051404919429, 0.03664932772517204, 0.036541856825351715]","[0.28968384861946106, 0.2870268225669861, 0.28756576776504517, 0.2890481650829315, 0.2858802378177643, 0.28524550795555115]","[0.06858342814657303, -1.5022128986483234, 0.06858342814657303, 0.06858342814657303, 0.06858342814657303, 0.06858342814657303]","[0.06858342814657303, -1.5022128986483234, 0.06858342814657303, 0.06858342814657303, 0.06858342814657303, 0.06858342814657303]",0.002,7,1
0,119,"[0.037089407444000244, -1.5336725537529965, 0.037137810383931935, 0.037141724223754835, 0.037208765745162964, 0.03709346801042557]","[0.28769436478614807, 0.2862503230571747, 0.2872546315193176, 0.28999319672584534, 0.28677356243133545, 0.2868403494358063]","[0.06915695001925502, -1.5016393767756415, 0.06915695001925502, 0.06915695001925502, 0.06915695001925502, 0.06915695001925502]","[0.06915695001925502, -1.5016393767756415, 0.06915695001925502, 0.06915695001925502, 0.06915695001925502, 0.06915695001925502]",0.002,7,1
0,120,"[0.0376310721039772, -1.5330756020597, 0.03766757646669561, 0.03780893861737056, 0.037703339010477066, 0.037636108696460724]","[0.28996244072914124, 0.2872847616672516, 0.28765150904655457, 0.28953030705451965, 0.28743621706962585, 0.2875884473323822]","[0.06973027764034544, -1.501066049154551, 0.06973027764034544, 0.06973027764034544, 0.06973027764034544, 0.06973027764034544]","[0.06973027764034544, -1.501066049154551, 0.06973027764034544, 0.06973027764034544, 0.06973027764034544, 0.06973027764034544]",0.002,7,1
0,121,"[0.03824802115559578, -1.532476571654417, 0.038276497517721, 0.03841404497113032, 0.03828839957714081, 0.038249410688877106]","[0.29018816351890564, 0.2890526354312897, 0.29027828574180603, 0.2902088165283203, 0.28809472918510437, 0.2882601320743561]","[0.0703034093994522, -1.5004929173954444, 0.0703034093994522, 0.0703034093994522, 0.0703034093994522, 0.0703034093994522]","[0.0703034093994522, -1.5004929173954444, 0.0703034093994522, 0.0703034093994522, 0.0703034093994522, 0.0703034093994522]",0.002,7,1
0,122,"[0.03887065127491951, -1.5319670562497159, 0.03889447847475225, 0.03896741449322505, 0.03890928998589516, 0.0388130322098732]","[0.2908841371536255, 0.2911674678325653, 0.2908059060573578, 0.29010725021362305, 0.28845056891441345, 0.2900121510028839]","[0.0708763436867334, -1.499919983108163, 0.0708763436867334, 0.0708763436867334, 0.0708763436867334, 0.0708763436867334]","[0.0708763436867334, -1.499919983108163, 0.0708763436867334, 0.0708763436867334, 0.0708763436867334, 0.0708763436867334]",0.002,7,1
0,123,"[0.039424359798431396, -1.5313791197589417, 0.03946906725038701, 0.039570971126220655, 0.03948254510760307, 0.03945527598261833]","[0.292883038520813, 0.2899276316165924, 0.2922827899456024, 0.28945669531822205, 0.291318416595459, 0.2924734950065613]","[0.07144907889290184, -1.4993472479019947, 0.07144907889290184, 0.07144907889290184, 0.07144907889290184, 0.07144907889290184]","[0.07144907889290184, -1.4993472479019947, 0.07144907889290184, 0.07144907889290184, 0.07144907889290184, 0.07144907889290184]",0.002,7,1
0,124,"[0.040039584040641785, -1.5308363375118752, 0.040027920399801076, 0.04016248762097163, 0.04006616771221161, 0.039964593946933746]","[0.292936772108078, 0.2914804518222809, 0.29002153873443604, 0.2896352708339691, 0.2912648022174835, 0.2937946021556854]","[0.07202161340922941, -1.498774713385667, 0.07202161340922941, 0.07202161340922941, 0.07202161340922941, 0.07202161340922941]","[0.07202161340922941, -1.498774713385667, 0.07202161340922941, 0.07202161340922941, 0.07202161340922941, 0.07202161340922941]",0.002,7,1
0,125,"[0.040602538734674454, -1.530223087673523, 0.040644470845357716, 0.040738268489501905, 0.04059476777911186, 0.040552206337451935]","[0.29442983865737915, 0.29387712478637695, 0.29391101002693176, 0.28973931074142456, 0.29189035296440125, 0.29366275668144226]","[0.0725939456275518, -1.4982023811673448, 0.0725939456275518, 0.0725939456275518, 0.0725939456275518, 0.0725939456275518]","[0.0725939456275518, -1.4982023811673448, 0.0725939456275518, 0.0725939456275518, 0.0725939456275518, 0.0725939456275518]",0.002,7,1
0,126,"[0.041214924305677414, -1.5296641227654, 0.04126149812807256, 0.041368170375488234, 0.041190627962350845, 0.04113269969820976]","[0.29197293519973755, 0.2932760715484619, 0.2933390736579895, 0.2914210855960846, 0.290875643491745, 0.2953227460384369]","[0.07316607394027289, -1.4976302528546237, 0.07316607394027289, 0.07316607394027289, 0.07316607394027289, 0.07316607394027289]","[0.07316607394027289, -1.4976302528546237, 0.07316607394027289, 0.07316607394027289, 0.07316607394027289, 0.07316607394027289]",0.002,7,1
0,127,"[0.04173390939831734, -1.529088382875063, 0.04179221788515264, 0.04193846761669917, 0.04176679626107216, 0.041708435863256454]","[0.2934814691543579, 0.2926490902900696, 0.29336780309677124, 0.29072508215904236, 0.29210901260375977, 0.2951715588569641]","[0.0737379967403693, -1.4970583300545273, 0.0737379967403693, 0.0737379967403693, 0.0737379967403693, 0.0737379967403693]","[0.0737379967403693, -1.4970583300545273, 0.0737379967403693, 0.0737379967403693, 0.0737379967403693, 0.0737379967403693]",0.002,7,1
0,128,"[0.04235994070768356, -1.5284663897803803, 0.042404953633443654, 0.042560024852416944, 0.04239208996295929, 0.04225093871355057]","[0.29340267181396484, 0.2921008765697479, 0.29220855236053467, 0.2909005880355835, 0.29366886615753174, 0.2964059114456177]","[0.0743097124213949, -1.4964866143735016, 0.0743097124213949, 0.0743097124213949, 0.0743097124213949, 0.0743097124213949]","[0.0743097124213949, -1.4964866143735016, 0.0743097124213949, 0.0743097124213949, 0.0743097124213949, 0.0743097124213949]",0.002,7,1
0,129,"[0.04299633577466011, -1.5279825304499646, 0.042931381856099904, 0.043121739024780226, 0.042918119579553604, 0.04287926107645035]","[0.29579442739486694, 0.29427987337112427, 0.2916867434978485, 0.29170921444892883, 0.29428035020828247, 0.29703038930892944]","[0.07488121937748536, -1.4959151074174113, 0.07488121937748536, 0.07488121937748536, 0.07488121937748536, 0.07488121937748536]","[0.07488121937748536, -1.4959151074174113, 0.07488121937748536, 0.07488121937748536, 0.07488121937748536, 0.07488121937748536]",0.002,7,1
0,130,"[0.04356943815946579, -1.527381495838501, 0.04362088838686162, 0.043710513705871534, 0.04352725297212601, 0.04345689341425896]","[0.2956312298774719, 0.2922557294368744, 0.2950036823749542, 0.29105308651924133, 0.29623571038246155, 0.2990873456001282]","[0.07545251600336256, -1.495343810791534, 0.07545251600336256, 0.07545251600336256, 0.07545251600336256, 0.07545251600336256]","[0.07545251600336256, -1.495343810791534, 0.07545251600336256, 0.07545251600336256, 0.07545251600336256, 0.07545251600336256]",0.002,7,1
0,131,"[0.04413050413131714, -1.5267718781581898, 0.04421598116029912, 0.04434434949841304, 0.044037774205207825, 0.044047385454177856]","[0.29701337218284607, 0.29111775755882263, 0.2922521233558655, 0.2905330955982208, 0.29527559876441956, 0.297203928232193]","[0.07602360069433926, -1.4947727261005572, 0.07602360069433926, 0.07602360069433926, 0.07602360069433926, 0.07602360069433926]","[0.07602360069433926, -1.4947727261005572, 0.07602360069433926, 0.07602360069433926, 0.07602360069433926, 0.07602360069433926]",0.002,7,1
0,132,"[0.044762078672647476, -1.5262250427952786, 0.04470187822450811, 0.04498664915051265, 0.04473328962922096, 0.044623054563999176]","[0.29848963022232056, 0.2939033806324005, 0.2923090159893036, 0.2904243767261505, 0.2969091832637787, 0.2982485592365265]","[0.07659447184632341, -1.4942018549485732, 0.07659447184632341, 0.07659447184632341, 0.07659447184632341, 0.07659447184632341]","[0.07659447184632341, -1.4942018549485732, 0.07659447184632341, 0.07659447184632341, 0.07659447184632341, 0.07659447184632341]",0.002,7,1
0,133,"[0.04534882679581642, -1.5256346103600045, 0.0453112761126917, 0.04549412309613032, 0.04526039585471153, 0.04523183032870293]","[0.2945896089076996, 0.29489874839782715, 0.29416999220848083, 0.2911151051521301, 0.2970733344554901, 0.29914194345474243]","[0.07716512785582286, -1.4936311989390738, 0.07716512785582286, 0.07716512785582286, 0.07716512785582286, 0.07716512785582286]","[0.07716512785582286, -1.4936311989390738, 0.07716512785582286, 0.07716512785582286, 0.07716512785582286, 0.07716512785582286]",0.002,7,1
0,134,"[0.04593587666749954, -1.525028971289732, 0.04582578340639287, 0.04611341535534663, 0.04583984240889549, 0.04577320069074631]","[0.29634809494018555, 0.29502564668655396, 0.2946568429470062, 0.291681170463562, 0.2966093420982361, 0.29985934495925903]","[0.07773556711994968, -1.4930607596749468, 0.07773556711994968, 0.07773556711994968, 0.07773556711994968, 0.07773556711994968]","[0.07773556711994968, -1.4930607596749468, 0.07773556711994968, 0.07773556711994968, 0.07773556711994968, 0.07773556711994968]",0.002,7,1
0,135,"[0.0465267039835453, -1.524450459783413, 0.046418015156881154, 0.04667465269055171, 0.0464414544403553, 0.04635266587138176]","[0.29728931188583374, 0.2954555153846741, 0.2948845624923706, 0.2908706068992615, 0.2979244887828827, 0.3000449240207672]","[0.07830578803642478, -1.4924905387584717, 0.07830578803642478, 0.07830578803642478, 0.07830578803642478, 0.07830578803642478]","[0.07830578803642478, -1.4924905387584717, 0.07830578803642478, 0.07830578803642478, 0.07830578803642478, 0.07830578803642478]",0.002,7,1
0,136,"[0.04713743180036545, -1.5238342148116608, 0.04700166383852178, 0.04726485788311763, 0.047082480043172836, 0.04700709506869316]","[0.2972840368747711, 0.298598051071167, 0.2944076955318451, 0.2911309599876404, 0.29840153455734253, 0.30059850215911865]","[0.0788757890035824, -1.491920537791314, 0.0788757890035824, 0.0788757890035824, 0.0788757890035824, 0.0788757890035824]","[0.0788757890035824, -1.491920537791314, 0.0788757890035824, 0.0788757890035824, 0.0788757890035824, 0.0788757890035824]",0.002,7,1
0,137,"[0.04773334413766861, -1.5232473400286217, 0.04757291475404912, 0.04786674558605952, 0.04761790111660957, 0.04757831618189812]","[0.2971267104148865, 0.2950202226638794, 0.29765456914901733, 0.2914286255836487, 0.2993055284023285, 0.302141010761261]","[0.07944556842037453, -1.491350758374522, 0.07944556842037453, 0.07944556842037453, 0.07944556842037453, 0.07944556842037453]","[0.07944556842037453, -1.491350758374522, 0.07944556842037453, 0.07944556842037453, 0.07944556842037453, 0.07944556842037453]",0.002,7,1
0,138,"[0.04826965183019638, -1.5226433810642739, 0.04817325273622686, 0.0483746963688354, 0.048262543976306915, 0.04817773029208183]","[0.2986339330673218, 0.29711833596229553, 0.2952360212802887, 0.2919219136238098, 0.2986065745353699, 0.30075690150260925]","[0.08001512468637552, -1.490781202108521, 0.08001512468637552, 0.08001512468637552, 0.08001512468637552, 0.08001512468637552]","[0.08001512468637552, -1.490781202108521, 0.08001512468637552, 0.08001512468637552, 0.08001512468637552, 0.08001512468637552]",0.002,7,1
0,139,"[0.048891808837652206, -1.522063211803772, 0.04877025285829717, 0.04900495588269038, 0.04889262095093727, 0.04883011430501938]","[0.2978372275829315, 0.29397615790367126, 0.29485705494880676, 0.2918444275856018, 0.29957276582717896, 0.30191439390182495]","[0.08058445620178649, -1.49021187059311, 0.08058445620178649, 0.08058445620178649, 0.08058445620178649, 0.08058445620178649]","[0.08058445620178649, -1.49021187059311, 0.08058445620178649, 0.08058445620178649, 0.08058445620178649, 0.08058445620178649]",0.002,7,1
0,140,"[0.04948608949780464, -1.5214444299093266, 0.0493701140033167, 0.04958753168072505, 0.04940224438905716, 0.049392178654670715]","[0.2992064654827118, 0.29593342542648315, 0.2968011498451233, 0.2950131297111511, 0.29910972714424133, 0.3011162281036377]","[0.08115356136743981, -1.4896427654274567, 0.08115356136743981, 0.08115356136743981, 0.08115356136743981, 0.08115356136743981]","[0.08115356136743981, -1.4896427654274567, 0.08115356136743981, 0.08115356136743981, 0.08115356136743981, 0.08115356136743981]",0.002,7,1
0,141,"[0.05008692294359207, -1.5208849546364327, 0.05002147356142217, 0.050149722690246534, 0.05006486549973488, 0.050017111003398895]","[0.30129072070121765, 0.29672664403915405, 0.2987101972103119, 0.2947557270526886, 0.2998657822608948, 0.30158039927482605]","[0.08172243858480373, -1.489073888210093, 0.08172243858480373, 0.08172243858480373, 0.08172243858480373, 0.08172243858480373]","[0.08172243858480373, -1.489073888210093, 0.08172243858480373, 0.08172243858480373, 0.08172243858480373, 0.08172243858480373]",0.002,7,1
0,142,"[0.050713784992694855, -1.5203561683050175, 0.05057651201357061, 0.05073790132489009, 0.050636887550354004, 0.05062878876924515]","[0.2986147105693817, 0.29571378231048584, 0.2961947023868561, 0.29579561948776245, 0.300351083278656, 0.30151504278182983]","[0.08229108625598669, -1.4885052405389099, 0.08229108625598669, 0.08229108625598669, 0.08229108625598669, 0.08229108625598669]","[0.08229108625598669, -1.4885052405389099, 0.08229108625598669, 0.08229108625598669, 0.08229108625598669, 0.08229108625598669]",0.002,7,1
0,143,"[0.05133185163140297, -1.5197171729854126, 0.05114347139467412, 0.05127100526776118, 0.05115823075175285, 0.05131993815302849]","[0.2987085282802582, 0.29783186316490173, 0.297936350107193, 0.29564225673675537, 0.3001456558704376, 0.30233585834503174]","[0.0828595027837419, -1.4879368240111546, 0.0828595027837419, 0.0828595027837419, 0.0828595027837419, 0.0828595027837419]","[0.0828595027837419, -1.4879368240111546, 0.0828595027837419, 0.0828595027837419, 0.0828595027837419, 0.0828595027837419]",0.002,7,1
0,144,"[0.05188288167119026, -1.5191448752633114, 0.051748100911275685, 0.05182759344067378, 0.0518534816801548, 0.05183859169483185]","[0.2996894121170044, 0.2960623800754547, 0.30013298988342285, 0.29643747210502625, 0.3012418746948242, 0.3013070821762085]","[0.08342768657147188, -1.4873686402234247, 0.08342768657147188, 0.08342768657147188, 0.08342768657147188, 0.08342768657147188]","[0.08342768657147188, -1.4873686402234247, 0.08342768657147188, 0.08342768657147188, 0.08342768657147188, 0.08342768657147188]",0.002,7,1
0,145,"[0.05252723768353462, -1.5184954156032582, 0.05233174959291631, 0.052455230350158644, 0.05243757739663124, 0.052409593015909195]","[0.29675549268722534, 0.29764488339424133, 0.2982144057750702, 0.2986629605293274, 0.30126291513442993, 0.3010938763618469]","[0.0839956360232328, -1.4868006907716638, 0.0839956360232328, 0.0839956360232328, 0.0839956360232328, 0.0839956360232328]","[0.0839956360232328, -1.4868006907716638, 0.0839956360232328, 0.0839956360232328, 0.0839956360232328, 0.0839956360232328]",0.002,7,1
0,146,"[0.05313869193196297, -1.5178812940469761, 0.052891079579488576, 0.053036733264587355, 0.05298003926873207, 0.05306347459554672]","[0.2990773320198059, 0.2960602343082428, 0.29709210991859436, 0.30045342445373535, 0.30129218101501465, 0.30069398880004883]","[0.08456334954373909, -1.4862329772511575, 0.08456334954373909, 0.08456334954373909, 0.08456334954373909, 0.08456334954373909]","[0.08456334954373909, -1.4862329772511575, 0.08456334954373909, 0.08456334954373909, 0.08456334954373909, 0.08456334954373909]",0.002,7,1
0,147,"[0.05370008200407028, -1.5173625138453026, 0.053528610860006154, 0.053585930461547804, 0.053633809089660645, 0.05369455739855766]","[0.2999403178691864, 0.29731079936027527, 0.29818570613861084, 0.30258268117904663, 0.30138668417930603, 0.2997870147228241]","[0.08513082553836789, -1.4856655012565287, 0.08513082553836789, 0.08513082553836789, 0.08513082553836789, 0.08513082553836789]","[0.08513082553836789, -1.4856655012565287, 0.08513082553836789, 0.08513082553836789, 0.08513082553836789, 0.08513082553836789]",0.002,7,1
0,148,"[0.054334837943315506, -1.5167419400862237, 0.05405646959413701, 0.05420772611584468, 0.054167456924915314, 0.054328661412000656]","[0.30006200075149536, 0.29661205410957336, 0.29837384819984436, 0.30099475383758545, 0.30219215154647827, 0.2994081974029541]","[0.08569806241316345, -1.4850982643817332, 0.08569806241316345, 0.08569806241316345, 0.08569806241316345, 0.08569806241316345]","[0.08569806241316345, -1.4850982643817332, 0.08569806241316345, 0.08569806241316345, 0.08569806241316345, 0.08569806241316345]",0.002,7,1
0,149,"[0.05494986101984978, -1.5160763201168557, 0.054769341145650685, 0.054793282146118116, 0.054817624390125275, 0.05491489917039871]","[0.3000061810016632, 0.29592493176460266, 0.2985992431640625, 0.30135461688041687, 0.3020058274269104, 0.29981517791748047]","[0.08626505857484176, -1.4845312682200549, 0.08626505857484176, 0.08626505857484176, 0.08626505857484176, 0.08626505857484176]","[0.08626505857484176, -1.4845312682200549, 0.08626505857484176, 0.08626505857484176, 0.08626505857484176, 0.08626505857484176]",0.002,7,1
0,150,"[0.05555593594908714, -1.5154561822167416, 0.05534392992128545, 0.05539934217419429, 0.0554426871240139, 0.0554843433201313]","[0.3010321259498596, 0.2964259088039398, 0.29977497458457947, 0.30283626914024353, 0.3008995056152344, 0.29922837018966675]","[0.08683181243079487, -1.4839645143641016, 0.08683181243079487, 0.08683181243079487, 0.08683181243079487, 0.08683181243079487]","[0.08683181243079487, -1.4839645143641016, 0.08683181243079487, 0.08683181243079487, 0.08683181243079487, 0.08683181243079487]",0.002,7,1
0,151,"[0.05617127940058708, -1.5149352189949532, 0.055924240742818654, 0.05591563760723872, 0.05599336698651314, 0.056104641407728195]","[0.3007443845272064, 0.29702746868133545, 0.2988455891609192, 0.3036828637123108, 0.3015233874320984, 0.2992630898952484]","[0.08739832238909546, -1.483398004405801, 0.08739832238909546, 0.08739832238909546, 0.08739832238909546, 0.08739832238909546]","[0.08739832238909546, -1.483398004405801, 0.08739832238909546, 0.08739832238909546, 0.08739832238909546, 0.08739832238909546]",0.002,7,1
