Arnibjarnst/BoxLift/logs/ur_rtde/trajectory_dur=7.5_delay=0.0_gain=200_lh=0.05_real.csv
arm_idx,step,actual_q,actual_qd,target_q,expected_q,loop_time,robot_mode,safety_mode
0,-1,"[-0.009484116231099904, -1.5802227459349574, -0.009456080384552479, -0.009609298115112352, -0.009528462086812794, -0.00950652757753545]","[0.03350399434566498, 0.03437323123216629, 0.03379064053297043, 0.03541643172502518, 0.035064179450273514, 0.03259884938597679]","[0.0, -1.5707963267948966, 0.0, 0.0, 0.0, 0.0]","[0.0, -1.5707963267948966, 0.0, 0.0, 0.0, 0.0]",0.002,7,1
0,-1,"[-0.00890523592104131, -1.5795585117735804, -0.00876639224588871, -0.008928851490356493, -0.008905712758199513, -0.008858982716695607]","[0.04900572448968887, 0.05070322006940842, 0.05049221217632294, 0.05011993274092674, 0.049673862755298615, 0.04928026720881462]","[0.0, -1.5707963267948966, 0.0, 0.0, 0.0, 0.0]","[0.0, -1.5707963267948966, 0.0, 0.0, 0.0, 0.0]",0.002,7,1
0,-1,"[-0.008485142384664357, -1.5791312656798304, -0.0083085335791111, -0.008556441669799852, -0.0084765593158167, -0.008447949086324513]","[0.05729623883962631, 0.05760549008846283, 0.058023951947689056, 0.058997415006160736, 0.05899377539753914, 0.05675097182393074]","[0.0, -1.5707963267948966, 0.0, 0.0, 0.0, 0.0]","[0.0, -1.5707963267948966, 0.0, 0.0, 0.0, 0.0]",0.002,7,1
0,-1,"[-0.007532421742574513, -1.578226228753561, -0.00743456045165658, -0.0075934690288086415, -0.007464234028951466, -0.007487122212545216]","[0.07152117043733597, 0.06894388049840927, 0.06979116052389145, 0.07487839460372925, 0.07161801308393478, 0.07104538381099701]","[0.0, -1.5707963267948966, 0.0, 0.0, 0.0, 0.0]","[0.0, -1.5707963267948966, 0.0, 0.0, 0.0, 0.0]",0.002,7,1
0,-1,"[-0.006531063710347951, -1.5773474178709925, -0.006476647220551968, -0.0066512388041992665, -0.006488625203267873, -0.006506268178121388]","[0.08526939898729324, 0.0816974937915802, 0.0861094668507576, 0.08793522417545319, 0.08447884023189545, 0.08516603708267212]","[0.0, -1.5707963267948966, 0.0, 0.0, 0.0, 0.0]","[0.0, -1.5707963267948966, 0.0, 0.0, 0.0, 0.0]",0.002,7,1
0,-1,"[-0.00359517732729131, -1.5745235882201136, -0.0036293636076152325, -0.003626899128295946, -0.0034244696246545914, -0.0034468809710901382]","[0.08428991585969925, 0.07797907292842865, 0.08193288743495941, 0.08346422761678696, 0.08192591369152069, 0.08378555625677109]","[0.0, -1.5707963267948966, 0.0, 0.0, 0.0, 0.0]","[0.0, -1.5707963267948966, 0.0, 0.0, 0.0, 0.0]",0.002,7,1
0,-1,"[-0.0024107138263147476, -1.573080678979391, -0.0023995968513190746, -0.0023946327022095204, -0.002259079610006154, -0.0022690931903284195]","[0.06865337491035461, 0.07069037854671478, 0.0725250169634819, 0.0684477761387825, 0.0686693787574768, 0.06701811403036118]","[0.0, -1.5707963267948966, 0.0, 0.0, 0.0, 0.0]","[0.0, -1.5707963267948966, 0.0, 0.0, 0.0, 0.0]",0.002,7,1
0,-1,"[-0.0013850370990198257, -1.5719977817931117, -0.0012749411398544908, -0.001340941791870165, -0.0012233893023889664, -0.0011928717242639664]","[0.049606043845415115, 0.05120758339762688, 0.051291078329086304, 0.05095278099179268, 0.04961523786187172, 0.04939621686935425]","[0.0, -1.5707963267948966, 0.0, 0.0, 0.0, 0.0]","[0.0, -1.5707963267948966, 0.0, 0.0, 0.0, 0.0]",0.002,7,1
0,-1,"[-0.0003412405597131851, -1.571036001245016, -0.00024767793365754187, -0.00024540842089848525, -0.0002821127520959976, -0.00025636354555302887]","[0.02389463596045971, 0.021947119385004044, 0.023298421874642372, 0.023471789434552193, 0.022096944972872734, 0.022628583014011383]","[0.0, -1.5707963267948966, 0.0, 0.0, 0.0, 0.0]","[0.0, -1.5707963267948966, 0.0, 0.0, 0.0, 0.0]",0.002,7,1
0,-1,"[-6.0383473531544496e-05, -1.5708652935423792, -7.196657679742202e-05, -3.107011828618056e-05, -4.7985707418263246e-05, -7.802644838506012e-05]","[0.010761605575680733, 0.008002925664186478, 0.009193694218993187, 0.010015846230089664, 0.008878830820322037, 0.00781633798032999]","[0.0, -1.5707963267948966, 0.0, 0.0, 0.0, 0.0]","[0.0, -1.5707963267948966, 0.0, 0.0, 0.0, 0.0]",0.002,7,1
0,-1,"[-7.707277406865387e-05, -1.570869585076803, -7.485443347832188e-05, -7.6608066894579e-05, -8.885060445606996e-06, -0.00011092821230107575]","[-0.008823717944324017, -0.005410798825323582, -0.006138300988823175, -0.005703565664589405, -0.006946436129510403, -0.00568122323602438]","[0.0, -1.5707963267948966, 0.0, 0.0, 0.0, 0.0]","[0.0, -1.5707963267948966, 0.0, 0.0, 0.0, 0.0]",0.002,7,1
0,-1,"[-4.4171010152638246e-05, -1.5709716282286585, -8.281469490611926e-05, -7.183969531254775e-05, -6.133714784795075e-05, -4.3217335836231996e-05]","[0.0003900958108715713, -0.0037760131526738405, -0.0035602462012320757, 2.0070414393558167e-05, 0.00012413047079462558, 0.00011192169768037274]","[0.0, -1.5707963267948966, 0.0, 0.0, 0.0, 0.0]","[0.0, -1.5707963267948966, 0.0, 0.0, 0.0, 0.0]",0.002,7,1
0,-1,"[-7.278123964482575e-05, -1.5709463558592738, -0.00012751495523843914, -6.730974230961806e-05, -6.562868227177887e-05, -6.562868227177887e-05]","[0.00029221002478152514, -0.0027201559860259295, -0.0007136681815609336, 1.0153522852140648e-13, 0.0002482896961737424, 5.980094283586368e-05]","[0.0, -1.5707963267948966, 0.0, 0.0, 0.0, 0.0]","[0.0, -1.5707963267948966, 0.0, 0.0, 0.0, 0.0]",0.002,7,1
0,-1,"[-8.470216859990387e-05, -1.5710107288756312, -8.286228694487363e-05, -6.850183520512587e-05, -4.464784731084137e-05, -7.325807680302887e-05]","[0.00019629343296401203, -0.0005412715836428106, -0.0003552998823579401, 0.00036868356983177364, 0.0004126819840166718, 0.00010692486102925614]","[0.0, -1.5707963267948966, 0.0, 0.0, 0.0, 0.0]","[0.0, -1.5707963267948966, 0.0, 0.0, 0.0, 0.0]",0.002,7,1
0,-1,"[-0.00013763109316045075, -1.5710064373412074, -0.00016077113104984164, -2.820909533696181e-05, -9.85304461877945e-05, -1.9375477926075746e-05]","[0.00013712879444938153, -0.0002844836562871933, -0.00021227684919722378, 0.0006848674966022372, 0.0007036785827949643, 0.00019253675418440253]","[0.0, -1.5707963267948966, 0.0, 0.0, 0.0, 0.0]","[0.0, -1.5707963267948966, 0.0, 0.0, 0.0, 0.0]",0.002,7,1
0,-1,"[-6.80128680627945e-05, -1.5709582767882289, -0.00010312208905816078, -3.560007128911025e-05, -8.613268007451325e-05, -3.2726918355763246e-05]","[0.00012547869118861854, -1.3766197903830601e-10, -0.0001490091672167182, 0.0004348098300397396, 0.0007657602545805275, 0.0003884740872308612]","[0.0, -1.5707963267948966, 0.0, 0.0, 0.0, 0.0]","[0.0, -1.5707963267948966, 0.0, 0.0, 0.0, 0.0]",0.002,7,1
0,-1,"[-0.00011331239809209137, -1.5709644756712855, -0.000103131023934111, -6.850183520512587e-05, -8.885060445606996e-06, -6.562868227177887e-05]","[0.00012608467659447342, 0.0007873130380176008, -9.677520574769005e-05, 0.0006332651828415692, 0.0008064759895205498, 0.0005238049780018628]","[0.0, -1.5707963267948966, 0.0, 0.0, 0.0, 0.0]","[0.0, -1.5707963267948966, 0.0, 0.0, 0.0, 0.0]",0.002,7,1
0,-1,"[-9.757677187138825e-05, -1.5708729229369105, -0.00011564758460735902, -3.560007128911025e-05, -5.3707753316700746e-05, -5.3707753316700746e-05]","[0.0001175309662357904, 0.000734649074729532, -6.250064325286075e-05, 0.0007545031839981675, 0.0006016700062900782, 0.0004878008330706507]","[0.0, -1.5707963267948966, 0.0, 0.0, 0.0, 0.0]","[0.0, -1.5707963267948966, 0.0, 0.0, 0.0, 0.0]",0.002,7,1
0,-1,"[-6.0383473531544496e-05, -1.5709644756712855, -7.383331103483215e-05, 1.6271557612412835e-07, -4.9893056051075746e-05, 0.0]","[0.0001658934634178877, 0.0005100424168631434, 3.1264298741007224e-05, 0.0005571743822656572, 0.0005160995060577989, 0.0005638044094666839]","[0.0, -1.5707963267948966, 0.0, 0.0, 0.0, 0.0]","[0.0, -1.5707963267948966, 0.0, 0.0, 0.0, 0.0]",0.002,7,1
0,-1,"[-5.323091615849762e-05, -1.5709253750243128, -9.416422108188272e-05, -1.1758213378953997e-05, 3.1648512958781794e-05, -4.464784731084137e-05]","[0.0005814036703668535, 0.00019122764933854342, 1.7336569726467133e-05, 0.0003491105744615197, 0.0007015170413069427, 0.0006158930482342839]","[0.0, -1.5707963267948966, 0.0, 0.0, 0.0, 0.0]","[0.0, -1.5707963267948966, 0.0, 0.0, 0.0, 0.0]",0.002,7,1
0,-1,"[-6.6105519429982e-05, -1.5709582767882289, -0.00013494491577148438, 3.926336254878038e-05, -2.175966371709137e-05, -6.705919374638825e-05]","[0.0005541921127587557, 0.00015109492233023047, 5.802674058941193e-05, 0.0003097348380833864, 0.0007316378760151565, 0.0005187372444197536]","[0.0, -1.5707963267948966, 0.0, 0.0, 0.0, 0.0]","[0.0, -1.5707963267948966, 0.0, 0.0, 0.0, 0.0]",0.002,7,1
0,-1,"[-3.6541615621388246e-05, -1.5708891354002894, -0.00012459387653507292, -3.560007128911025e-05, 1.52785396494437e-05, -8.885060445606996e-06]","[0.0004807395744137466, 0.00010190760076511651, 4.400271063786931e-05, 0.0002567028859630227, 0.00048695688019506633, 0.00035468622809275985]","[0.0, -1.5707963267948966, 0.0, 0.0, 0.0, 0.0]","[0.0, -1.5707963267948966, 0.0, 0.0, 0.0, 0.0]",0.002,7,1
0,-1,"[-5.7522450582325746e-05, -1.5708819828429164, -4.0505114156985655e-05, -3.7269001342821184e-05, -5.895296205693512e-05, -2.557436098271637e-05]","[0.00037639171932823956, 0.0012095784768462181, 0.00010206514707533643, 0.0002114616654580459, 0.0003667394630610943, 0.000335338874720037]","[0.0, -1.5707963267948966, 0.0, 0.0, 0.0, 0.0]","[0.0, -1.5707963267948966, 0.0, 0.0, 0.0, 0.0]",0.002,7,1
0,-1,"[-9.328523744756012e-05, -1.5708581409850062, -9.177008178085089e-05, 4.73695942382335e-05, 4.02615696657449e-05, 1.2408732800395228e-05]","[0.0003504592750687152, 0.001884814235381782, 0.0002477458619978279, 0.00013728906924370676, 0.0002728103136178106, 0.00032040459336712956]","[0.0, -1.5707963267948966, 0.0, 0.0, 0.0, 0.0]","[0.0, -1.5707963267948966, 0.0, 0.0, 0.0, 0.0]",0.002,7,1
0,-1,"[-4.083315004521637e-05, -1.5709225140013636, -0.00010761893645394593, -4.918993029789931e-05, 3.593655492295511e-05, 7.840711987228133e-06]","[0.0011484591523185372, 0.0007543826359324157, 0.00022346949845086783, 0.00011578035628190264, 0.00024743712856434286, 0.00022717083629686385]","[0.0, -1.5707963267948966, 0.0, 0.0, 0.0, 0.0]","[0.0, -1.5707963267948966, 0.0, 0.0, 0.0, 0.0]",0.002,7,1
0,-1,"[-6.276765932256012e-05, -1.5709010563292445, -6.295135244727135e-05, 1.661359753413194e-05, -2.557436098271637e-05, 4.505968536250293e-05]","[0.000810359138995409, 0.00011572748189792037, 0.00016282411525025964, 0.00011281242041150108, 0.0001905259268824011, 0.0001873929431894794]","[0.0, -1.5707963267948966, 0.0, 0.0, 0.0, 0.0]","[0.0, -1.5707963267948966, 0.0, 0.0, 0.0, 0.0]",0.002,7,1
0,-1,"[-5.8476124898731996e-05, -1.5708848438658656, -0.00011112097126897424, 3.0203456542921003e-05, -1.7468129293263246e-05, 1.2433051779225934e-05]","[0.000283232016954571, 0.00011089263716712594, 0.00013787935313303024, 0.00010024641960626468, 0.0003254346956964582, 0.00015512183017563075]","[0.0, -1.5707963267948966, 0.0, 0.0, 0.0, 0.0]","[0.0, -1.5707963267948966, 0.0, 0.0, 0.0, 0.0]",0.002,7,1
0,-1,"[-3.320375551396637e-05, -1.5708939037718714, -9.86963786999695e-05, -1.6288166381883684e-05, -6.658235658818512e-05, 3.610550629673526e-05]","[0.00016258176765404642, 0.00013154608313925564, 0.00014264641504269093, 9.173160651698709e-05, 0.00023903579858597368, 0.000135637674247846]","[0.0, -1.5707963267948966, 0.0, 0.0, 0.0, 0.0]","[0.0, -1.5707963267948966, 0.0, 0.0, 0.0, 0.0]",0.002,7,1
0,-1,"[-7.931386129200746e-06, -1.570850511590475, -4.202163472655229e-05, 5.917131390376085e-05, -1.7468129293263246e-05, -4.116688863575746e-06]","[0.00010972095333272591, 0.0015774533385410905, 0.0009137730812653899, 8.07569595053792e-05, 0.0002012872282648459, 0.00013112823944538832]","[0.0, -1.5707963267948966, 0.0, 0.0, 0.0, 0.0]","[0.0, -1.5707963267948966, 0.0, 0.0, 0.0, 0.0]",0.002,7,1
0,-1,"[-3.6541615621388246e-05, -1.5708185635008753, -7.634362555108964e-05, 1.6271557612412835e-07, 6.4373016357421875e-06, -4.593526021778871e-06]","[8.821168739814311e-05, 0.0018855079542845488, 0.0006048976210877299, 8.645792695460841e-05, 0.00016449234681203961, 0.00011707365047186613]","[0.0, -1.5707963267948966, 0.0, 0.0, 0.0, 0.0]","[0.0, -1.5707963267948966, 0.0, 0.0, 0.0, 0.0]",0.002,7,1
0,-1,"[-3.320375551396637e-05, -1.5708009205260218, -0.00011665153579087928, -1.6288166381883684e-05, -7.230440248662262e-05, 4.291534423828125e-06]","[9.089019295061007e-05, 0.0011482987320050597, 0.0005189533694647253, 7.695379463257268e-05, 0.0001290973596042022, 0.00010029851546278223]","[0.0, -1.5707963267948966, 0.0, 0.0, 0.0, 0.0]","[0.0, -1.5707963267948966, 0.0, 0.0, 0.0, 0.0]",0.002,7,1
0,-1,"[3.337860107421875e-06, -1.5708428821959437, -8.386337867705151e-05, 1.3752574584913191e-05, 2.384185791015625e-06, 1.2399821571307257e-05]","[6.975644646445289e-05, 1.7616098628422917e-23, 0.0003284359409008175, 9.781439658240743e-09, 0.00010031751298811287, 9.624087397241965e-05]","[0.0, -1.5707963267948966, 0.0, 0.0, 0.0, 0.0]","[0.0, -1.5707963267948966, 0.0, 0.0, 0.0, 0.0]",0.002,7,1
0,-1,"[2.458748349454254e-05, -1.5708428821959437, -3.465703412075527e-05, -9.016399719286028e-06, -1.5083943502247621e-05, -8.885060445606996e-06]","[1.5740366507088766e-05, 2.480844788256013e-40, 0.000749552040360868, 2.1095733211016769e-19, 8.594727842137218e-05, 8.590640209149569e-05]","[0.0, -1.5707963267948966, 0.0, 0.0, 0.0, 0.0]","[0.0, -1.5707963267948966, 0.0, 0.0, 0.0, 0.0]",0.002,7,1
0,-1,"[-3.7495289937794496e-05, -1.5707975826659144, -4.6530942199751735e-05, -5.8369045593309465e-05, 1.0974883480230346e-05, -2.9865895406544496e-05]","[1.4022776667843573e-05, 0.0, 0.0007367691723629832, 1.0672223008381044e-27, 7.733132224529982e-05, 5.831203452544287e-05]","[0.0, -1.5707963267948966, 0.0, 0.0, 0.0, 0.0]","[0.0, -1.5707963267948966, 0.0, 0.0, 0.0, 0.0]",0.002,7,1
0,-1,"[-4.655519594365387e-05, -1.5708099804320277, -5.8950772654498e-06, -9.135609008836809e-06, 3.598499097279273e-05, 3.337860107421875e-06]","[1.2823959878005553e-05, 0.0, 0.0008067613816820085, 8.268931210969137e-35, 7.121255475794896e-05, 5.379560752771795e-05]","[0.0, -1.5707963267948966, 0.0, 0.0, 0.0, 0.0]","[0.0, -1.5707963267948966, 0.0, 0.0, 0.0, 0.0]",0.002,7,1
0,-1,"[-1.3653432027638246e-05, -1.5708099804320277, -2.2679747416987084e-05, 3.830968823237413e-05, 3.462438326096162e-05, -6.276765932256012e-05]","[2.3627939299331047e-05, 0.0, 0.0005866920691914856, 6.406736578893064e-42, 7.555577758466825e-05, 5.0195230869576335e-05]","[0.0, -1.5707963267948966, 0.0, 0.0, 0.0, 0.0]","[0.0, -1.5707963267948966, 0.0, 0.0, 0.0, 0.0]",0.002,7,1
0,-1,"[-1.2699757711231996e-05, -1.5708595714964808, -3.9109647332224995e-05, -4.465997729496962e-05, 5.982684888294898e-05, -1.794496645146637e-05]","[2.190291343140416e-05, 0.0, 8.891730089999328e-07, 0.0, 2.3546905140392482e-05, 2.985801536570243e-11]","[0.0, -1.5707963267948966, 0.0, 0.0, 0.0, 0.0]","[0.0, -1.5707963267948966, 0.0, 0.0, 0.0, 0.0]",0.002,7,1
0,-1,"[-4.178682436162262e-05, -1.5708385906615199, -5.5447311751777306e-05, -2.546728167729384e-05, 2.7258873160462826e-05, -1.1746083394825746e-05]","[2.0412624508026056e-05, 0.0, 5.18537316210046e-18, 0.0, 3.271453897468746e-05, 2.3134254431686525e-18]","[0.0, -1.5707963267948966, 0.0, 0.0, 0.0, 0.0]","[0.0, -1.5707963267948966, 0.0, 0.0, 0.0, 0.0]",0.002,7,1
0,-1,"[-1.2699757711231996e-05, -1.5708567104735316, -3.611719512264244e-05, -2.081811938481337e-05, -3.8448964254200746e-05, -3.892580141240387e-05]","[5.552299939259875e-12, 1.0847174053196795e-05, 3.02394533725304e-29, 0.0, 3.0497487387037836e-05, 1.7924625678328929e-25]","[0.0, -1.5707963267948966, 0.0, 0.0, 0.0, 0.0]","[0.0, -1.5707963267948966, 0.0, 0.0, 0.0, 0.0]",0.002,7,1
0,-1,"[-1.699129213506012e-05, -1.5708190403380335, -2.7206628146814182e-05, 1.661359753413194e-05, -1.3176594869435121e-05, -1.794496645146637e-05]","[3.2379243927790595e-23, 5.732081990572624e-05, 1.763464052429566e-40, 0.0, 5.420326965044353e-10, 1.3888158657066175e-32]","[0.0, -1.5707963267948966, 0.0, 0.0, 0.0, 0.0]","[0.0, -1.5707963267948966, 0.0, 0.0, 0.0, 0.0]",0.002,7,1
0,-1,"[-4.083315004521637e-05, -1.5708219013609828, -5.254700590739958e-05, 4.2720431945753035e-05, 4.354286284069531e-05, 4.060816718265414e-05]","[1.8882547764715306e-34, 6.719382508890703e-05, -0.0, 0.0, 4.199715414812174e-17, 1.0760668998442773e-39]","[0.0, -1.5707963267948966, 0.0, 0.0, 0.0, 0.0]","[0.0, -1.5707963267948966, 0.0, 0.0, 0.0, 0.0]",0.002,7,1
0,-1,"[-7.788287561538709e-07, -1.5708519421019496, -5.998587585054338e-05, 3.819047894282335e-05, 1.0983976608258672e-05, -3.415742983037262e-05]","[1.401298464324817e-45, 6.166888488223776e-05, -0.0, 0.0, 3.2539760950354514e-24, 0.0]","[0.0, -1.5707963267948966, 0.0, 0.0, 0.0, 0.0]","[0.0, -1.5707963267948966, 0.0, 0.0, 0.0, 0.0]",0.002,7,1
0,-1,"[-3.320375551396637e-05, -1.5708610020079554, 1.3176594869435121e-05, -2.081811938481337e-05, -6.024037496388246e-06, 7.843082130420953e-06]","[0.0, 4.501700823311694e-05, -0.0, 0.0, 1.6461700765416056e-32, 0.0]","[0.0, -1.5707963267948966, 0.0, 0.0, 0.0, 0.0]","[0.0, -1.5707963267948966, 0.0, 0.0, 0.0, 0.0]",0.002,7,1
0,-1,"[-2.8912221090138246e-05, -1.5708185635008753, 1.255665914356996e-06, -4.656732592778212e-05, -1.732503072560121e-06, 4.056313628097996e-05]","[0.0, 4.187504600849934e-05, -0.0, 0.0, 1.2754674674223058e-39, 0.0]","[0.0, -1.5707963267948966, 0.0, 0.0, 0.0, 0.0]","[0.0, -1.5707963267948966, 0.0, 0.0, 0.0, 0.0]",0.002,7,1
0,-1,"[-5.070363179981996e-06, -1.5708219013609828, -5.545616295421496e-05, 3.830968823237413e-05, -6.024037496388246e-06, 2.877616680052597e-05]","[7.022867066552863e-05, 1.8116831768111297e-07, -0.0, 0.0, 0.0, 0.0]","[0.0, -1.5707963267948966, 0.0, 0.0, 0.0, 0.0]","[0.0, -1.5707963267948966, 0.0, 0.0, 0.0, 0.0]",0.002,7,1
0,-1,"[-7.788287561538709e-07, -1.5708428821959437, -1.03740967460908e-05, -1.1758213378953997e-05, -6.024037496388246e-06, -8.885060445606996e-06]","[6.554876745212823e-05, 1.0565159203954718e-18, -0.0, 0.0, 0.0, 0.0]","[0.0, -1.5707963267948966, 0.0, 0.0, 0.0, 0.0]","[0.0, -1.5707963267948966, 0.0, 0.0, 0.0, 0.0]",0.002,7,1
0,-1,"[1.1335771887388546e-05, -1.5708395443358363, -3.910955638275482e-05, 3.187238659663194e-05, -2.652803529912262e-05, 7.878839824115857e-06]","[2.3485972633352503e-06, 1.487875947848875e-35, -0.0, 0.0, 0.0, 0.0]","[0.0, -1.5707963267948966, 0.0, 0.0, 0.0, 0.0]","[0.0, -1.5707963267948966, 0.0, 0.0, 0.0, 0.0]",0.002,7,1
0,-1,"[2.0109651813982055e-05, -1.5708233318724574, -5.868435437150765e-06, 4.692668579053816e-06, 1.3995171684655361e-05, -2.843538393193512e-05]","[4.437428380491634e-25, 0.0, -0.0, 1.7622025482747167e-16, 0.0, 0.0]","[0.0, -1.5707963267948966, 0.0, 0.0, 0.0, 0.0]","[0.0, -1.5707963267948966, 0.0, 0.0, 0.0, 0.0]",0.002,7,1
0,1,"[-5.7522450582325746e-05, -1.5708023510374964, 2.9865895406544496e-05, 2.4481410644483503e-05, 3.162193388561718e-05, 1.2408732800395228e-05]","[-1.5274814586518914e-06, 5.533888179343194e-05, -0.0, 5.3518657196201635e-39, 0.0, 0.0]","[0.0005850211778378632, -1.5702113056170588, 0.0005850211778378632, 0.0005850211778378632, 0.0005850211778378632, 0.0005850211778378632]","[0.0005850211778378632, -1.5702113056170588, 0.0005850211778378632, 0.0005850211778378632, 0.0005850211778378632, 0.0005850211778378632]",0.002,7,1
0,2,"[1.1344432095938828e-05, -1.5708009205260218, -2.7188629246666096e-05, 3.819047894282335e-05, -4.750887026006012e-05, 4.060816718265414e-05]","[-1.6033718815216617e-21, 5.038233211962506e-05, -0.0, 0.0, 0.0, 0.0]","[0.0011700407124382083, -1.5696262860824584, 0.0011700407124382083, 0.0011700407124382083, 0.0011700407124382083, 0.0011700407124382083]","[0.0011700407124382083, -1.5696262860824584, 0.0011700407124382083, 0.0011700407124382083, 0.0011700407124382083, 0.0011700407124382083]",0.002,7,1
0,3,"[-1.3653432027638246e-05, -1.570778564815857, -2.723357465583831e-05, -4.367237426805559e-06, 5.0926206313306466e-05, 1.0809260857058689e-05]","[0.0025715448427945375, 0.0012573105050250888, 0.0014214409748092294, 0.0020549409091472626, 0.002242246875539422, 0.003669213503599167]","[0.0017550569605681327, -1.5690412698343283, 0.0017550569605681327, 0.0017550569605681327, 0.0017550569605681327, 0.0017550569605681327]","[0.0017550569605681327, -1.5690412698343283, 0.0017550569605681327, 0.0017550569605681327, 0.0017550569605681327, 0.0017550569605681327]",0.002,7,1
0,4,"[-1.3653432027638246e-05, -1.570778564815857, -2.723357465583831e-05, -4.367237426805559e-06, 5.0926206313306466e-05, 1.0809260857058689e-05]","[0.0025715448427945375, 0.0012573105050250888, 0.0014214409748092294, 0.0020549409091472626, 0.002242246875539422, 0.003669213503599167]","[0.0023400682790039656, -1.5684562585158925, 0.0023400682790039656, 0.0023400682790039656, 0.0023400682790039656, 0.0023400682790039656]","[0.0023400682790039656, -1.5684562585158925, 0.0023400682790039656, 0.0023400682790039656, 0.0023400682790039656, 0.0023400682790039656]",0.002,7,1
0,5,"[-1.732503072560121e-06, -1.5707934659770508, 2.9865895406544496e-05, 1.9951457641553816e-05, 5.435943603515625e-05, 2.7179718017578125e-05]","[0.00236441008746624, 0.0008940817206166685, 0.0014776276657357812, 0.003562366822734475, 0.00222607608884573, 0.00350283388979733]","[0.0029250730245358814, -1.5678712537703607, 0.0029250730245358814, 0.0029250730245358814, 0.0029250730245358814, 0.0029250730245358814]","[0.0029250730245358814, -1.5678712537703607, 0.0029250730245358814, 0.0029250730245358814, 0.0029250730245358814, 0.0029250730245358814]",0.002,7,1
0,6,"[-4.3217335836231996e-05, -1.5708352528014125, 1.255665914356996e-06, -3.011644396977431e-05, 8.697772864252329e-05, 5.5718421208439395e-05]","[0.002325223060324788, 0.0023028762079775333, 0.00293912086635828, 0.003648613579571247, 0.0029601536225527525, 0.0028885076753795147]","[0.0035100695539725195, -1.567286257240924, 0.0035100695539725195, 0.0035100695539725195, 0.0035100695539725195, 0.0035100695539725195]","[0.0035100695539725195, -1.567286257240924, 0.0035100695539725195, 0.0035100695539725195, 0.0035100695539725195, 0.0035100695539725195]",0.002,7,1
0,7,"[2.2229443857213482e-05, -1.570778564815857, 8.885060445606996e-06, 3.640233959956163e-05, -6.500874654591371e-06, 1.9690232875291258e-05]","[0.002607818692922592, 0.004050771240144968, 0.003496607067063451, 0.002937844255939126, 0.004253655206412077, 0.0027583823539316654]","[0.004095056224145594, -1.566701270570751, 0.004095056224145594, 0.004095056224145594, 0.004095056224145594, 0.004095056224145594]","[0.004095056224145594, -1.566701270570751, 0.004095056224145594, 0.004095056224145594, 0.004095056224145594, 0.004095056224145594]",0.002,7,1
0,8,"[1.8894672393798828e-05, -1.5707785829711902, 2.5097523824513246e-05, 3.187238659663194e-05, 9.649527783039957e-06, -6.977711812794496e-06]","[0.004425259307026863, 0.0055940402671694756, 0.0045525431632995605, 0.0025445190258324146, 0.0050997985526919365, 0.0038150716572999954]","[0.004680031391914515, -1.5661162954029821, 0.004680031391914515, 0.004680031391914515, 0.004680031391914515, 0.004680031391914515]","[0.004680031391914515, -1.5661162954029821, 0.004680031391914515, 0.004680031391914515, 0.004680031391914515, 0.004680031391914515]",0.002,7,1
0,9,"[8.428224100498483e-05, -1.5707546037486573, 8.885060445606996e-06, 5.285322155756944e-05, 0.00010831308463821188, 6.763045530533418e-05]","[0.005963146220892668, 0.00983109138906002, 0.007527442183345556, 0.004453592002391815, 0.006188779138028622, 0.007135776802897453]","[0.0052649934141709995, -1.5655313333807255, 0.0052649934141709995, 0.0052649934141709995, 0.0052649934141709995, 0.0052649934141709995]","[0.0052649934141709995, -1.5655313333807255, 0.0052649934141709995, 0.0052649934141709995, 0.0052649934141709995, 0.0052649934141709995]",0.002,7,1
0,10,"[2.972601942019537e-05, -1.5707094291468202, 1.1746083394825746e-05, 3.461420025629991e-05, 7.064342207740992e-05, 7.05542552168481e-05]","[0.007386130280792713, 0.01351071149110794, 0.011026634834706783, 0.00864201970398426, 0.008563179522752762, 0.009087804704904556]","[0.005849940647843686, -1.564946386147053, 0.005849940647843686, 0.005849940647843686, 0.005849940647843686, 0.005849940647843686]","[0.005849940647843686, -1.564946386147053, 0.005849940647843686, 0.005849940647843686, 0.005849940647843686, 0.005849940647843686]",0.002,7,1
0,11,"[9.08970832824707e-05, -1.5707020410375954, 0.000123325978414357, 0.00011698781933588975, 0.00010831308463821188, 0.0001081701775547117]","[0.00838513020426035, 0.01744762249290943, 0.01467797439545393, 0.012652886100113392, 0.012166311033070087, 0.011537101119756699]","[0.006434871449902759, -1.5643614553449938, 0.006434871449902759, 0.006434871449902759, 0.006434871449902759, 0.006434871449902759]","[0.006434871449902759, -1.5643614553449938, 0.006434871449902759, 0.006434871449902759, 0.006434871449902759, 0.006434871449902759]",0.002,7,1
0,12,"[0.00012827050522901118, -1.5706691008275193, 3.034273256474762e-05, 0.00012962400402827257, 6.057453356334008e-05, 0.00011557935795281082]","[0.012688946910202503, 0.02118563838303089, 0.017952341586351395, 0.015348279848694801, 0.015656907111406326, 0.015273576602339745]","[0.007019784177364551, -1.563776542617532, 0.007019784177364551, 0.007019784177364551, 0.007019784177364551, 0.007019784177364551]","[0.007019784177364551, -1.563776542617532, 0.007019784177364551, 0.007019784177364551, 0.007019784177364551, 0.007019784177364551]",0.002,7,1
0,13,"[0.0001477277255617082, -1.5706420550598814, 0.0001710096942346695, 0.0001396375843505382, 0.00016362819587811828, 0.0001679182460065931]","[0.01395699568092823, 0.024639666080474854, 0.021548224613070488, 0.018712032586336136, 0.01825820468366146, 0.019096415489912033]","[0.007604677187296164, -1.5631916496076004, 0.007604677187296164, 0.007604677187296164, 0.007604677187296164, 0.007604677187296164]","[0.007604677187296164, -1.5631916496076004, 0.007604677187296164, 0.007604677187296164, 0.007604677187296164, 0.007604677187296164]",0.002,7,1
0,14,"[0.00017937779193744063, -1.5706151260131556, 0.0002396742450159195, 0.00018493711437983507, 0.00021184160141274333, 0.00021586418733932078]","[0.016945643350481987, 0.02706330083310604, 0.024972550570964813, 0.022092312574386597, 0.02152024209499359, 0.021715188398957253]","[0.008189548836820083, -1.5626067779580766, 0.008189548836820083, 0.008189548836820083, 0.008189548836820083, 0.008189548836820083]","[0.008189548836820083, -1.5626067779580766, 0.008189548836820083, 0.008189548836820083, 0.008189548836820083, 0.008189548836820083]",0.002,7,1
0,15,"[0.0002065896987915039, -1.5705700975998589, 0.0002458731280725601, 0.00022117673840327257, 0.0002959945995826274, 0.00031352846417576075]","[0.01934579573571682, 0.02701715938746929, 0.026618607342243195, 0.02362941950559616, 0.023068303242325783, 0.024430422112345695]","[0.008774397483118796, -1.5620219293117779, 0.008774397483118796, 0.008774397483118796, 0.008774397483118796, 0.008774397483118796]","[0.008774397483118796, -1.5620219293117779, 0.008774397483118796, 0.008774397483118796, 0.008774397483118796, 0.008774397483118796]",0.002,7,1
0,16,"[0.00027091504307463765, -1.5705295182454684, 0.000333134328023732, 0.0002598005482177257, 0.0002871275064535439, 0.0003001151198986918]","[0.022640300914645195, 0.027603043243288994, 0.027741897851228714, 0.02407624013721943, 0.024038933217525482, 0.02444096840918064]","[0.0093592214834394, -1.561437105311457, 0.0093592214834394, 0.0093592214834394, 0.0093592214834394, 0.0093592214834394]","[0.0093592214834394, -1.561437105311457, 0.0093592214834394, 0.0093592214834394, 0.0093592214834394, 0.0093592214834394]",0.002,7,1
0,17,"[0.00034858955768868327, -1.5704860160515928, 0.0003541151629846695, 0.0003079611011962413, 0.00035157206002622843, 0.00038549507735297084]","[0.02515324577689171, 0.029079867526888847, 0.030225997790694237, 0.02486862614750862, 0.02231619320809841, 0.02408090978860855]","[0.009944019195098217, -1.5608523075997984, 0.009944019195098217, 0.009944019195098217, 0.009944019195098217, 0.009944019195098217]","[0.009944019195098217, -1.5608523075997984, 0.009944019195098217, 0.009944019195098217, 0.009944019195098217, 0.009944019195098217]",0.002,7,1
0,18,"[0.00035185753949917853, -1.5704471182583184, 0.00042611757387334137, 0.0003766256519774913, 0.0003919883747585118, 0.0004036750178784132]","[0.02663292922079563, 0.030788740143179893, 0.03190482407808304, 0.02614138461649418, 0.0235438235104084, 0.02461211010813713]","[0.010528788975485414, -1.560267537819411, 0.010528788975485414, 0.010528788975485414, 0.010528788975485414, 0.010528788975485414]","[0.010528788975485414, -1.560267537819411, 0.010528788975485414, 0.010528788975485414, 0.010528788975485414, 0.010528788975485414]",0.002,7,1
0,19,"[0.0004640930856112391, -1.5703615972928056, 0.000459019337789357, 0.0004696088978271007, 0.0004972358583472669, 0.00046497577568516135]","[0.031605832278728485, 0.03350294381380081, 0.0336940698325634, 0.02772062085568905, 0.02580459788441658, 0.02627446874976158]","[0.01111352918206961, -1.559682797612827, 0.01111352918206961, 0.01111352918206961, 0.01111352918206961, 0.01111352918206961]","[0.01111352918206961, -1.559682797612827, 0.01111352918206961, 0.01111352918206961, 0.01111352918206961, 0.01111352918206961]",0.002,7,1
0,20,"[0.0005121344001963735, -1.5703256200689175, 0.0005224386798303726, 0.00043503820385737413, 0.0004301152366679162, 0.0005292412242852151]","[0.033358264714479446, 0.03611964359879494, 0.03597788140177727, 0.029822589829564095, 0.028552239760756493, 0.029100541025400162]","[0.011698238172402493, -1.559098088622494, 0.011698238172402493, 0.011698238172402493, 0.011698238172402493, 0.011698238172402493]","[0.011698238172402493, -1.559098088622494, 0.011698238172402493, 0.011698238172402493, 0.011698238172402493, 0.011698238172402493]",0.002,7,1
0,21,"[0.0005720531917177141, -1.5702296565617253, 0.0006273428546350601, 0.0005864340015868663, 0.0005474090576171875, 0.0005608650390058756]","[0.03509599715471268, 0.0385226346552372, 0.03899381682276726, 0.03199964761734009, 0.03140910714864731, 0.031870197504758835]","[0.012282914304123434, -1.5585134124907731, 0.012282914304123434, 0.012282914304123434, 0.012282914304123434, 0.012282914304123434]","[0.012282914304123434, -1.5585134124907731, 0.012282914304123434, 0.012282914304123434, 0.012282914304123434, 0.012282914304123434]",0.002,7,1
0,22,"[0.0006321782129816711, -1.5701786855100472, 0.0007026831256311539, 0.0006448465534667491, 0.0006323942798189819, 0.0005985229508951306]","[0.03702486306428909, 0.04166679084300995, 0.041611526161432266, 0.03404292091727257, 0.034779373556375504, 0.03431468829512596]","[0.012867555934964097, -1.5579287708599325, 0.012867555934964097, 0.012867555934964097, 0.012867555934964097, 0.012867555934964097]","[0.012867555934964097, -1.5579287708599325, 0.012867555934964097, 0.012867555934964097, 0.012867555934964097, 0.012867555934964097]",0.002,7,1
0,23,"[0.0007237216341309249, -1.5700646022781548, 0.0007942358600061539, 0.0007213789173583507, 0.0006686763954348862, 0.0007617349619977176]","[0.0418434664607048, 0.04392753913998604, 0.04452371224761009, 0.03713099658489227, 0.037955865263938904, 0.038739122450351715]","[0.01345216142275306, -1.5573441653721436, 0.01345216142275306, 0.01345216142275306, 0.01345216142275306, 0.01345216142275306]","[0.01345216142275306, -1.5573441653721436, 0.01345216142275306, 0.01345216142275306, 0.01345216142275306, 0.01345216142275306]",0.002,7,1
0,24,"[0.0007794773555360734, -1.5700091222864394, 0.0008962790118616226, 0.0008280712315062999, 0.0008335666498169303, 0.0007991075399331748]","[0.04564670845866203, 0.04912126809358597, 0.04879888519644737, 0.04215913638472557, 0.0408884733915329, 0.04172953963279724]","[0.01403672912542041, -1.5567595976694761, 0.01403672912542041, 0.01403672912542041, 0.01403672912542041, 0.01403672912542041]","[0.01403672912542041, -1.5567595976694761, 0.01403672912542041, 0.01403672912542041, 0.01403672912542041, 0.01403672912542041]",0.002,7,1
0,25,"[0.0009006127365864813, -1.569896543489751, 0.0009711424456995132, 0.0009175974079589366, 0.0008895234786905348, 0.0009132022969424725]","[0.04875298589468002, 0.0524955652654171, 0.05095755681395531, 0.04589013010263443, 0.04433611035346985, 0.04237118363380432]","[0.014621257401002376, -1.5561750693938943, 0.014621257401002376, 0.014621257401002376, 0.014621257401002376, 0.014621257401002376]","[0.014621257401002376, -1.5561750693938943, 0.014621257401002376, 0.014621257401002376, 0.014621257401002376, 0.014621257401002376]",0.002,7,1
0,26,"[0.0009834009688347578, -1.5697930702338745, 0.001138035451070607, 0.000977917308471632, 0.001015066634863615, 0.000992577988654375]","[0.05217787250876427, 0.053932081907987595, 0.05630415305495262, 0.04679113253951073, 0.04836977645754814, 0.04712209105491638]","[0.015205744607645925, -1.5555905821872507, 0.015205744607645925, 0.015205744607645925, 0.015205744607645925, 0.015205744607645925]","[0.015205744607645925, -1.5555905821872507, 0.015205744607645925, 0.015205744607645925, 0.015205744607645925, 0.015205744607645925]",0.002,7,1
0,27,"[0.0011165785836055875, -1.5696266836351533, 0.0012205282794397476, 0.0010480123707274913, 0.0011111493222415447, 0.0010765102924779058]","[0.056216102093458176, 0.059353284537792206, 0.05990791320800781, 0.05133593827486038, 0.05270833894610405, 0.05154518410563469]","[0.015790189103613395, -1.5550061376912832, 0.015790189103613395, 0.015790189103613395, 0.015790189103613395, 0.015790189103613395]","[0.015790189103613395, -1.5550061376912832, 0.015790189103613395, 0.015790189103613395, 0.015790189103613395, 0.015790189103613395]",0.002,7,1
0,28,"[0.001220237580128014, -1.5695036091240873, 0.0013526121722620132, 0.0011867719837646007, 0.0011780100176110864, 0.0012295302003622055]","[0.05981077998876572, 0.06602692604064941, 0.06128028780221939, 0.055812012404203415, 0.05708157271146774, 0.0556483119726181]","[0.016374589247287068, -1.5544217375476095, 0.016374589247287068, 0.016374589247287068, 0.016374589247287068, 0.016374589247287068]","[0.016374589247287068, -1.5544217375476095, 0.016374589247287068, 0.016374589247287068, 0.016374589247287068, 0.016374589247287068]",0.002,7,1
0,29,"[0.0012955344282090664, -1.5694000877304752, 0.0014727751361292007, 0.0012895303913573741, 0.0013262906577438116, 0.001283549703657627]","[0.0632944330573082, 0.06546352058649063, 0.06612449884414673, 0.06130332872271538, 0.06126262620091438, 0.06106933206319809]","[0.016958943397173833, -1.5538373833977228, 0.016958943397173833, 0.016958943397173833, 0.016958943397173833, 0.016958943397173833]","[0.016958943397173833, -1.5538373833977228, 0.016958943397173833, 0.016958943397173833, 0.016958943397173833, 0.016958943397173833]",0.002,7,1
0,30,"[0.001506169093772769, -1.569259029613324, 0.0015648047076624039, 0.0014217334934691905, 0.001430495292879641, 0.0014363019727170467]","[0.06785028427839279, 0.0713181272149086, 0.07178147882223129, 0.06304828077554703, 0.06541184335947037, 0.06556215137243271]","[0.017543249911909743, -1.5532530768829869, 0.017543249911909743, 0.017543249911909743, 0.017543249911909743, 0.017543249911909743]","[0.017543249911909743, -1.5532530768829869, 0.017543249911909743, 0.017543249911909743, 0.017543249911909743, 0.017543249911909743]",0.002,7,1
0,31,"[0.0016203968552872539, -1.569173631757014, 0.0017622152911584976, 0.0015112596699218273, 0.0016282792203128338, 0.0015683770179748535]","[0.0724085345864296, 0.07607266306877136, 0.07269313931465149, 0.06844374537467957, 0.06876633316278458, 0.06939823925495148]","[0.018127507150264666, -1.5526688196446319, 0.018127507150264666, 0.018127507150264666, 0.018127507150264666, 0.018127507150264666]","[0.018127507150264666, -1.5526688196446319, 0.018127507150264666, 0.018127507150264666, 0.018127507150264666, 0.018127507150264666]",0.002,7,1
0,32,"[0.0017568718176335096, -1.5689636381906276, 0.0019095579730432632, 0.0017750698276977062, 0.001788806403055787, 0.0017001564847305417]","[0.07647980004549026, 0.08023515343666077, 0.0789225772023201, 0.07376880198717117, 0.07562194764614105, 0.07638759166002274]","[0.018711713471146876, -1.5520846133237496, 0.018711713471146876, 0.018711713471146876, 0.018711713471146876, 0.018711713471146876]","[0.018711713471146876, -1.5520846133237496, 0.018711713471146876, 0.018711713471146876, 0.018711713471146876, 0.018711713471146876]",0.002,7,1
0,33,"[0.0019695782102644444, -1.5687745989165087, 0.0020707289325159195, 0.0018891531177978038, 0.0019211634062230587, 0.0018892975058406591]","[0.08083819597959518, 0.08494232594966888, 0.08213632553815842, 0.07712392508983612, 0.07720061391592026, 0.0776815116405487]","[0.019295867233607666, -1.551500459561289, 0.019295867233607666, 0.019295867233607666, 0.019295867233607666, 0.019295867233607666]","[0.019295867233607666, -1.551500459561289, 0.019295867233607666, 0.019295867233607666, 0.019295867233607666, 0.019295867233607666]",0.002,7,1
0,34,"[0.002171662636101246, -1.5686187690920015, 0.0022309462176721695, 0.0020842987247924327, 0.0020777059253305197, 0.0020736500155180693]","[0.08461926132440567, 0.08919132500886917, 0.08704230934381485, 0.08279751241207123, 0.0806291326880455, 0.08240944147109985]","[0.019879966796845963, -1.5509163599980507, 0.019879966796845963, 0.019879966796845963, 0.019879966796845963, 0.019879966796845963]","[0.019879966796845963, -1.5509163599980507, 0.019879966796845963, 0.019879966796845963, 0.019879966796845963, 0.019879966796845963]",0.002,7,1
0,35,"[0.0022773551754653454, -1.5684897729991754, 0.0024111906634729507, 0.0021769243427733898, 0.0022534385789185762, 0.0021965494379401207]","[0.09141028672456741, 0.09362418949604034, 0.09115228801965714, 0.08640293776988983, 0.08876245468854904, 0.08811005204916]","[0.020464010520212926, -1.5503323162746836, 0.020464010520212926, 0.020464010520212926, 0.020464010520212926, 0.020464010520212926]","[0.020464010520212926, -1.5503323162746836, 0.020464010520212926, 0.020464010520212926, 0.020464010520212926, 0.020464010520212926]",0.002,7,1
0,36,"[0.002444204408675432, -1.5682256666808208, 0.002598587666646779, 0.002356691951415968, 0.0023933681659400463, 0.002444147365167737]","[0.09208227694034576, 0.098068967461586, 0.09418162703514099, 0.09183011949062347, 0.09139274060726166, 0.09108095616102219]","[0.02104799676321656, -1.5497483300316799, 0.02104799676321656, 0.02104799676321656, 0.02104799676321656, 0.02104799676321656]","[0.02104799676321656, -1.5497483300316799, 0.02104799676321656, 0.02104799676321656, 0.02104799676321656, 0.02104799676321656]",0.002,7,1
0,37,"[0.0026733512058854103, -1.5679886851324518, 0.00277883211244756, 0.002644820804260206, 0.0026808776892721653, 0.0025982114020735025]","[0.09923819452524185, 0.10119115561246872, 0.09933602064847946, 0.09652920812368393, 0.0973549634218216, 0.09606651961803436]","[0.02163192388552632, -1.5491644029093703, 0.02163192388552632, 0.02163192388552632, 0.02163192388552632, 0.02163192388552632]","[0.02163192388552632, -1.5491644029093703, 0.02163192388552632, 0.02163192388552632, 0.02163192388552632, 0.02163192388552632]",0.002,7,1
0,38,"[0.0029069685842841864, -1.5678056474174191, 0.0030401388751428726, 0.0028185087391356944, 0.0028754405211657286, 0.002851699711754918]","[0.10482488572597504, 0.10727373510599136, 0.10777489840984344, 0.10182175785303116, 0.10192573070526123, 0.10136357694864273]","[0.022215790246977733, -1.5485805365479188, 0.022215790246977733, 0.022215790246977733, 0.022215790246977733, 0.022215790246977733]","[0.022215790246977733, -1.5485805365479188, 0.022215790246977733, 0.022215790246977733, 0.022215790246977733, 0.022215790246977733]",0.002,7,1
0,39,"[0.0031554922461509705, -1.5676151335104187, 0.0032451788531702164, 0.0029890972324828624, 0.003039368661120534, 0.0030317949131131172]","[0.10834416002035141, 0.1084163561463356, 0.10788464546203613, 0.10687178373336792, 0.10669265687465668, 0.10612810403108597]","[0.02279959420757699, -1.5479967325873196, 0.02279959420757699, 0.02279959420757699, 0.02279959420757699, 0.02279959420757699]","[0.02279959420757699, -1.5479967325873196, 0.02279959420757699, 0.02279959420757699, 0.02279959420757699, 0.02279959420757699]",0.002,7,1
0,40,"[0.003375002183020115, -1.5673691386221726, 0.00346547762026006, 0.003252430553100538, 0.003299739444628358, 0.003274469869211316]","[0.11475136131048203, 0.11706133931875229, 0.11492005735635757, 0.10968845337629318, 0.11088833212852478, 0.1111803725361824]","[0.02338333412750555, -1.547412992667391, 0.02338333412750555, 0.02338333412750555, 0.02338333412750555, 0.02338333412750555]","[0.02338333412750555, -1.547412992667391, 0.02338333412750555, 0.02338333412750555, 0.02338333412750555, 0.02338333412750555]",0.002,7,1
0,41,"[0.003614909015595913, -1.5671429580873628, 0.0037801901446741226, 0.003424091930053663, 0.003484346205368638, 0.003473904449492693]","[0.11966957151889801, 0.12027094513177872, 0.11923971027135849, 0.11627334356307983, 0.11579323559999466, 0.11674034595489502]","[0.023967008367124766, -1.5468293184277717, 0.023967008367124766, 0.023967008367124766, 0.023967008367124766, 0.023967008367124766]","[0.023967008367124766, -1.5468293184277717, 0.023967008367124766, 0.023967008367124766, 0.023967008367124766, 0.023967008367124766]",0.002,7,1
0,42,"[0.0039042518474161625, -1.5669011972243716, 0.0039666334735315445, 0.00371961175885005, 0.0037068603560328484, 0.003737788647413254]","[0.12442886829376221, 0.12522409856319427, 0.12408412992954254, 0.12172218412160873, 0.11972534656524658, 0.12185806035995483]","[0.024550615286980458, -1.546245711507916, 0.024550615286980458, 0.024550615286980458, 0.024550615286980458, 0.024550615286980458]","[0.024550615286980458, -1.546245711507916, 0.024550615286980458, 0.024550615286980458, 0.024550615286980458, 0.024550615286980458]",0.002,7,1
0,43,"[0.00418733898550272, -1.5666160753792902, 0.004202667866842091, 0.00398354112591548, 0.004018731415271759, 0.003994016908109188]","[0.1285201758146286, 0.13038986921310425, 0.12899696826934814, 0.12726736068725586, 0.12636134028434753, 0.1264718621969223]","[0.025134153247807548, -1.545662173547089, 0.025134153247807548, 0.025134153247807548, 0.025134153247807548, 0.025134153247807548]","[0.025134153247807548, -1.545662173547089, 0.025134153247807548, 0.025134153247807548, 0.025134153247807548, 0.025134153247807548]",0.002,7,1
0,44,"[0.004456112626940012, -1.566382297580578, 0.004490677510396779, 0.004280372256896925, 0.004293996375054121, 0.004274149425327778]","[0.13399939239025116, 0.1342042237520218, 0.1322762817144394, 0.13315729796886444, 0.13183549046516418, 0.13175544142723083]","[0.025717620610534668, -1.5450787061843618, 0.025717620610534668, 0.025717620610534668, 0.025717620610534668, 0.025717620610534668]","[0.025717620610534668, -1.5450787061843618, 0.025717620610534668, 0.025717620610534668, 0.025717620610534668, 0.025717620610534668]",0.002,7,1
0,45,"[0.004714467097073793, -1.5661168161644419, 0.0047295729266565445, 0.004581494922302198, 0.004621261730790138, 0.004535403102636337]","[0.1421334594488144, 0.1391284167766571, 0.1385781466960907, 0.13734020292758942, 0.13648997247219086, 0.13730129599571228]","[0.026301015736288732, -1.544495311058608, 0.026301015736288732, 0.026301015736288732, 0.026301015736288732, 0.026301015736288732]","[0.026301015736288732, -1.544495311058608, 0.026301015736288732, 0.026301015736288732, 0.026301015736288732, 0.026301015736288732]",0.002,7,1
0,46,"[0.004982950631529093, -1.5658376955292006, 0.0050690809832971695, 0.004848046893737745, 0.0048243035562336445, 0.004806436598300934]","[0.14429128170013428, 0.14519092440605164, 0.14285293221473694, 0.14109130203723907, 0.141648069024086, 0.1426772177219391]","[0.026884336986399547, -1.543911989808497, 0.026884336986399547, 0.026884336986399547, 0.026884336986399547, 0.026884336986399547]","[0.026884336986399547, -1.543911989808497, 0.026884336986399547, 0.026884336986399547, 0.026884336986399547, 0.026884336986399547]",0.002,7,1
0,47,"[0.005294921807944775, -1.5655379298007865, 0.005331818257467091, 0.005106015796325636, 0.0051245433278381824, 0.005073630250990391]","[0.1503096967935562, 0.1468314230442047, 0.14781974256038666, 0.14802926778793335, 0.14820052683353424, 0.1498248279094696]","[0.027467582722404453, -1.543328744072492, 0.027467582722404453, 0.027467582722404453, 0.027467582722404453, 0.027467582722404453]","[0.027467582722404453, -1.543328744072492, 0.027467582722404453, 0.027467582722404453, 0.027467582722404453, 0.027467582722404453]",0.002,7,1
0,48,"[0.005599419120699167, -1.5651765854894002, 0.005672756825582326, 0.005435748691223097, 0.005432687699794769, 0.005451273173093796]","[0.1541171818971634, 0.15332220494747162, 0.1543363481760025, 0.15400920808315277, 0.15428468585014343, 0.15432405471801758]","[0.028050751306052873, -1.5427455754888437, 0.028050751306052873, 0.028050751306052873, 0.028050751306052873, 0.028050751306052873]","[0.028050751306052873, -1.5427455754888437, 0.028050751306052873, 0.028050751306052873, 0.028050751306052873, 0.028050751306052873]",0.002,7,1
0,49,"[0.005923285149037838, -1.5649425147897382, 0.005989376698629201, 0.00572006284680171, 0.0057038129307329655, 0.005718171130865812]","[0.1594540774822235, 0.15988898277282715, 0.15788906812667847, 0.15748926997184753, 0.15701468288898468, 0.1582375466823578]","[0.02863384109931096, -1.5421624856955856, 0.02863384109931096, 0.02863384109931096, 0.02863384109931096, 0.02863384109931096]","[0.02863384109931096, -1.5421624856955856, 0.02863384109931096, 0.02863384109931096, 0.02863384109931096, 0.02863384109931096]",0.002,7,1
0,50,"[0.006251826882362366, -1.5645930285430332, 0.00628835359682256, 0.006095691318176222, 0.006119481287896633, 0.006073633208870888]","[0.16408254206180573, 0.16434025764465332, 0.16331589221954346, 0.16341222822666168, 0.16322271525859833, 0.1632450371980667]","[0.029216850464366173, -1.5415794763305304, 0.029216850464366173, 0.029216850464366173, 0.029216850464366173, 0.029216850464366173]","[0.029216850464366173, -1.5415794763305304, 0.029216850464366173, 0.029216850464366173, 0.029216850464366173, 0.029216850464366173]",0.002,7,1
0,51,"[0.006661006715148687, -1.5642525574988504, 0.006666962300435841, 0.006471438998840284, 0.006402320694178343, 0.006406457629054785]","[0.17000740766525269, 0.16881315410137177, 0.1688488870859146, 0.16747891902923584, 0.17030538618564606, 0.17024420201778412]","[0.029799777763631855, -1.5409965490312647, 0.029799777763631855, 0.029799777763631855, 0.029799777763631855, 0.029799777763631855]","[0.029799777763631855, -1.5409965490312647, 0.029799777763631855, 0.029799777763631855, 0.029799777763631855, 0.029799777763631855]",0.002,7,1
0,52,"[0.0069762542843818665, -1.5638880066438396, 0.00703603426088506, 0.006826205844543409, 0.006767516490072012, 0.006725866813212633]","[0.1728898286819458, 0.17473332583904266, 0.17380136251449585, 0.17331387102603912, 0.1739245504140854, 0.1747138649225235]","[0.030382621359751904, -1.5404137054351446, 0.030382621359751904, 0.030382621359751904, 0.030382621359751904, 0.030382621359751904]","[0.030382621359751904, -1.5404137054351446, 0.030382621359751904, 0.030382621359751904, 0.030382621359751904, 0.030382621359751904]",0.002,7,1
0,53,"[0.007357314229011536, -1.563521859501936, 0.007376495991842091, 0.007171674365661573, 0.007177922874689102, 0.007072320207953453]","[0.1789485216140747, 0.17733171582221985, 0.17971132695674896, 0.17834734916687012, 0.17800650000572205, 0.1814727634191513]","[0.030965379615605294, -1.5398309471792913, 0.030965379615605294, 0.030965379615605294, 0.030965379615605294, 0.030965379615605294]","[0.030965379615605294, -1.5398309471792913, 0.030965379615605294, 0.030965379615605294, 0.030965379615605294, 0.030965379615605294]",0.002,7,1
0,54,"[0.007705094758421183, -1.5631637873924156, 0.007723633443013966, 0.007592602367065382, 0.0075430236756801605, 0.007510797586292028]","[0.18435779213905334, 0.1838539093732834, 0.18787439167499542, 0.18244671821594238, 0.18371902406215668, 0.18658915162086487]","[0.031548050894310724, -1.5392482759005859, 0.031548050894310724, 0.031548050894310724, 0.031548050894310724, 0.031548050894310724]","[0.031548050894310724, -1.5392482759005859, 0.031548050894310724, 0.031548050894310724, 0.031548050894310724, 0.031548050894310724]",0.002,7,1
0,55,"[0.008038773201406002, -1.5628367003849526, 0.008137051259176076, 0.007922692889831495, 0.007924092002213001, 0.007833685725927353]","[0.18935823440551758, 0.18870429694652557, 0.1906978338956833, 0.18783654272556305, 0.1906733512878418, 0.19109423458576202]","[0.03213063355923119, -1.5386656932356653, 0.03213063355923119, 0.03213063355923119, 0.03213063355923119, 0.03213063355923119]","[0.03213063355923119, -1.5386656932356653, 0.03213063355923119, 0.03213063355923119, 0.03213063355923119, 0.03213063355923119]",0.002,7,1
0,56,"[0.008489824831485748, -1.5623658562875171, 0.008530441914693654, 0.008421702975891066, 0.008307448588311672, 0.008221786469221115]","[0.19675220549106598, 0.19543053209781647, 0.1955331414937973, 0.19415231049060822, 0.19351796805858612, 0.19660131633281708]","[0.03271312597397859, -1.538083200820918, 0.03271312597397859, 0.03271312597397859, 0.03271312597397859, 0.03271312597397859]","[0.03271312597397859, -1.538083200820918, 0.03271312597397859, 0.03271312597397859, 0.03271312597397859, 0.03271312597397859]",0.002,7,1
0,57,"[0.00885843113064766, -1.5620118233240028, 0.008946243916646779, 0.008730097407958937, 0.0087145259603858, 0.00867831613868475]","[0.20009845495224, 0.19986732304096222, 0.1999664455652237, 0.19903086125850677, 0.19993136823177338, 0.20137283205986023]","[0.03329552650241833, -1.5375008002924782, 0.03329552650241833, 0.03329552650241833, 0.03329552650241833, 0.03329552650241833]","[0.03329552650241833, -1.5375008002924782, 0.03329552650241833, 0.03329552650241833, 0.03329552650241833, 0.03329552650241833]",0.002,7,1
0,58,"[0.009244481101632118, -1.5616233230433245, 0.009360615407125294, 0.009152932757995558, 0.009123378433287144, 0.009049328975379467]","[0.2038688212633133, 0.20619751513004303, 0.20306769013404846, 0.20340898633003235, 0.20665812492370605, 0.2064930498600006]","[0.03387783350867391, -1.5369184932862225, 0.03387783350867391, 0.03387783350867391, 0.03387783350867391, 0.03387783350867391]","[0.03387783350867391, -1.5369184932862225, 0.03387783350867391, 0.03387783350867391, 0.03387783350867391, 0.03387783350867391]",0.002,7,1
0,59,"[0.009706404991447926, -1.5612079857713361, 0.009735886250631154, 0.009574814433715773, 0.009600400924682617, 0.009510635398328304]","[0.2097102403640747, 0.2090730369091034, 0.20721836388111115, 0.20748572051525116, 0.20939087867736816, 0.2127179056406021]","[0.034460045357131514, -1.536336281437765, 0.034460045357131514, 0.034460045357131514, 0.034460045357131514, 0.034460045357131514]","[0.034460045357131514, -1.536336281437765, 0.034460045357131514, 0.034460045357131514, 0.034460045357131514, 0.034460045357131514]",0.002,7,1
0,60,"[0.010129490867257118, -1.5608195395073672, 0.0102313200580042, 0.01006261884655757, 0.009965763427317142, 0.009890216402709484]","[0.21431688964366913, 0.21346348524093628, 0.21309900283813477, 0.2116309106349945, 0.21418225765228271, 0.21679674088954926]","[0.0350421604124446, -1.5357541663824519, 0.0350421604124446, 0.0350421604124446, 0.0350421604124446, 0.0350421604124446]","[0.0350421604124446, -1.5357541663824519, 0.0350421604124446, 0.0350421604124446, 0.0350421604124446, 0.0350421604124446]",0.002,7,1
0,61,"[0.010529535822570324, -1.5603588719717045, 0.01062041917909795, 0.010480447406433058, 0.010407720692455769, 0.010321658104658127]","[0.21914319694042206, 0.21861223876476288, 0.21762479841709137, 0.21822801232337952, 0.2201097458600998, 0.22054177522659302]","[0.03562417703953853, -1.535172149755358, 0.03562417703953853, 0.03562417703953853, 0.03562417703953853, 0.03562417703953853]","[0.03562417703953853, -1.535172149755358, 0.03562417703953853, 0.03562417703953853, 0.03562417703953853, 0.03562417703953853]",0.002,7,1
0,62,"[0.011027396656572819, -1.5599106189659615, 0.010999981557027638, 0.010939045543334913, 0.010864160023629665, 0.01075041200965643]","[0.2255384624004364, 0.22233043611049652, 0.22152669727802277, 0.22392620146274567, 0.22324034571647644, 0.22507229447364807]","[0.03620609360361513, -1.5345902331912815, 0.03620609360361513, 0.03620609360361513, 0.03620609360361513, 0.03620609360361513]","[0.03620609360361513, -1.5345902331912815, 0.03620609360361513, 0.03620609360361513, 0.03620609360361513, 0.03620609360361513]",0.002,7,1
0,63,"[0.011475619859993458, -1.559475529273488, 0.01147634187807256, 0.011302395457885694, 0.011287493631243706, 0.011237899772822857]","[0.22952573001384735, 0.2284674495458603, 0.22912980616092682, 0.22849343717098236, 0.2274588793516159, 0.23062966763973236]","[0.03678790847015727, -1.5340084183247393, 0.03678790847015727, 0.03678790847015727, 0.03678790847015727, 0.03678790847015727]","[0.03678790847015727, -1.5340084183247393, 0.03678790847015727, 0.03678790847015727, 0.03678790847015727, 0.03678790847015727]",0.002,7,1
0,64,"[0.011958790011703968, -1.559037535717227, 0.01195699373354131, 0.01184658586468501, 0.011744978837668896, 0.01171913929283619]","[0.232681006193161, 0.23228177428245544, 0.2319338172674179, 0.23208436369895935, 0.23472240567207336, 0.23614002764225006]","[0.037369620004933476, -1.5334267067899632, 0.037369620004933476, 0.037369620004933476, 0.037369620004933476, 0.037369620004933476]","[0.037369620004933476, -1.5334267067899632, 0.037369620004933476, 0.037369620004933476, 0.037369620004933476, 0.037369620004933476]",0.002,7,1
0,65,"[0.01240629330277443, -1.558530555372574, 0.012410465870992482, 0.01234535753216548, 0.012208513915538788, 0.012170368805527687]","[0.23809084296226501, 0.23671990633010864, 0.23510627448558807, 0.23695158958435059, 0.24166984856128693, 0.24140621721744537]","[0.03795122657400253, -1.532845100220894, 0.03795122657400253, 0.03795122657400253, 0.03795122657400253, 0.03795122657400253]","[0.03795122657400253, -1.532845100220894, 0.03795122657400253, 0.03795122657400253, 0.03795122657400253, 0.03795122657400253]",0.002,7,1
0,66,"[0.012935283593833447, -1.5580159279382606, 0.012928311024801076, 0.012827439899108839, 0.01272501703351736, 0.012678402476012707]","[0.24230392277240753, 0.24281218647956848, 0.24026058614253998, 0.24205638468265533, 0.24450646340847015, 0.2462480068206787]","[0.038532726543718046, -1.5322636002511785, 0.038532726543718046, 0.038532726543718046, 0.038532726543718046, 0.038532726543718046]","[0.038532726543718046, -1.5322636002511785, 0.038532726543718046, 0.038532726543718046, 0.038532726543718046, 0.038532726543718046]",0.002,7,1
0,67,"[0.0133750569075346, -1.5575735255009313, 0.013358894978658498, 0.013341351146362257, 0.013221850618720055, 0.013129765167832375]","[0.2470407783985138, 0.24690082669258118, 0.243980273604393, 0.24525150656700134, 0.2492479383945465, 0.2509970963001251]","[0.039114118280733065, -1.5316822085141635, 0.039114118280733065, 0.039114118280733065, 0.039114118280733065, 0.039114118280733065]","[0.039114118280733065, -1.5316822085141635, 0.039114118280733065, 0.039114118280733065, 0.039114118280733065, 0.039114118280733065]",0.002,7,1
0,68,"[0.013927031308412552, -1.557081503128149, 0.013892475758687794, 0.013817711467407179, 0.013713858090341091, 0.013638544827699661]","[0.25118130445480347, 0.2513202726840973, 0.24776428937911987, 0.24992772936820984, 0.2540091276168823, 0.25652188062667847]","[0.039695400152004616, -1.5311009266428919, 0.039695400152004616, 0.039695400152004616, 0.039695400152004616, 0.039695400152004616]","[0.039695400152004616, -1.5311009266428919, 0.039695400152004616, 0.039695400152004616, 0.039695400152004616, 0.039695400152004616]",0.002,7,1
0,69,"[0.014411402866244316, -1.5565821903622528, 0.0144732634173792, 0.014345450992248487, 0.014210364781320095, 0.014207938686013222]","[0.25660011172294617, 0.2575393617153168, 0.2550688683986664, 0.2542131841182709, 0.25890210270881653, 0.261834979057312]","[0.04027657052479833, -1.5305197562700983, 0.04027657052479833, 0.04027657052479833, 0.04027657052479833, 0.04027657052479833]","[0.04027657052479833, -1.5305197562700983, 0.04027657052479833, 0.04027657052479833, 0.04027657052479833, 0.04027657052479833]",0.002,7,1
0,70,"[0.01499328762292862, -1.5560778726688405, 0.014932934437887013, 0.014884992236755323, 0.014804769307374954, 0.01463978923857212]","[0.26006755232810974, 0.2611847519874573, 0.2588859498500824, 0.25811147689819336, 0.2618335783481598, 0.2645356059074402]","[0.04085762776669305, -1.5299386990282036, 0.04085762776669305, 0.04085762776669305, 0.04085762776669305, 0.04085762776669305]","[0.04085762776669305, -1.5299386990282036, 0.04085762776669305, 0.04085762776669305, 0.04085762776669305, 0.04085762776669305]",0.002,7,1
0,71,"[0.015467583201825619, -1.555560084325709, 0.015440289174215138, 0.015438242549560499, 0.015220521949231625, 0.015192960388958454]","[0.2643750011920929, 0.2659059166908264, 0.2615395784378052, 0.2595522999763489, 0.2653105854988098, 0.26660263538360596]","[0.041438570245585345, -1.5293577565493113, 0.041438570245585345, 0.041438570245585345, 0.041438570245585345, 0.041438570245585345]","[0.041438570245585345, -1.5293577565493113, 0.041438570245585345, 0.041438570245585345, 0.041438570245585345, 0.041438570245585345]",0.002,7,1
0,72,"[0.015991389751434326, -1.5550029140761872, 0.015955273305074513, 0.015972061748168898, 0.015783336013555527, 0.015762461349368095]","[0.26953595876693726, 0.27258145809173584, 0.2678638994693756, 0.26487869024276733, 0.27168819308280945, 0.27327388525009155]","[0.04201939632969416, -1.5287769304652024, 0.04201939632969416, 0.04201939632969416, 0.04201939632969416, 0.04201939632969416]","[0.04201939632969416, -1.5287769304652024, 0.04201939632969416, 0.04201939632969416, 0.04201939632969416, 0.04201939632969416]",0.002,7,1
0,73,"[0.016589080914855003, -1.5544494439712544, 0.016530815755025685, 0.016462607974670362, 0.016384270042181015, 0.016318606212735176]","[0.27303487062454224, 0.27404385805130005, 0.2713185250759125, 0.2688034772872925, 0.2773573398590088, 0.2779167592525482]","[0.04260010438756538, -1.528196222407331, 0.04260010438756538, 0.04260010438756538, 0.04260010438756538, 0.04260010438756538]","[0.04260010438756538, -1.528196222407331, 0.04260010438756538, 0.04260010438756538, 0.04260010438756538, 0.04260010438756538]",0.002,7,1
0,74,"[0.017148714512586594, -1.5538298182985564, 0.017087761555806935, 0.016982122058532667, 0.016920672729611397, 0.01690628007054329]","[0.2794080078601837, 0.27876994013786316, 0.2767775058746338, 0.2740314304828644, 0.2816329300403595, 0.28370147943496704]","[0.043180692788076395, -1.52761563400682, 0.043180692788076395, 0.043180692788076395, 0.043180692788076395, 0.043180692788076395]","[0.043180692788076395, -1.52761563400682, 0.043180692788076395, 0.043180692788076395, 0.043180692788076395, 0.043180692788076395]",0.002,7,1
0,75,"[0.01774151250720024, -1.553298834045865, 0.017569843922750294, 0.017552300090454054, 0.017506176605820656, 0.017487147822976112]","[0.2823203206062317, 0.28195950388908386, 0.278446763753891, 0.28082141280174255, 0.2857423424720764, 0.28841912746429443]","[0.0437611599004407, -1.527035166894456, 0.0437611599004407, 0.0437611599004407, 0.0437611599004407, 0.0437611599004407]","[0.0437611599004407, -1.527035166894456, 0.0437611599004407, 0.0437611599004407, 0.0437611599004407, 0.0437611599004407]",0.002,7,1
0,76,"[0.018321609124541283, -1.5527108938298007, 0.0181506315814417, 0.018148704166076612, 0.018041852861642838, 0.018025944009423256]","[0.28539809584617615, 0.2866409718990326, 0.2847701609134674, 0.28610721230506897, 0.28897202014923096, 0.2916736900806427]","[0.04434150409421247, -1.526454822700684, 0.04434150409421247, 0.04434150409421247, 0.04434150409421247, 0.04434150409421247]","[0.04434150409421247, -1.526454822700684, 0.04434150409421247, 0.04434150409421247, 0.04434150409421247, 0.04434150409421247]",0.002,7,1
0,77,"[0.018897153437137604, -1.5521464397064229, 0.018736187611715138, 0.018742843265197706, 0.01856016367673874, 0.018629591912031174]","[0.29053449630737305, 0.2915419042110443, 0.2888698875904083, 0.29119426012039185, 0.29467669129371643, 0.2941814363002777]","[0.04492172373929114, -1.5258746030556054, 0.04492172373929114, 0.04492172373929114, 0.04492172373929114, 0.04492172373929114]","[0.04492172373929114, -1.5258746030556054, 0.04492172373929114, 0.04492172373929114, 0.04492172373929114, 0.04492172373929114]",0.002,7,1
0,78,"[0.019438333809375763, -1.5516011671027918, 0.01932412782777959, 0.019321246738098097, 0.019165921956300735, 0.019209055230021477]","[0.2963382601737976, 0.2947157919406891, 0.29326289892196655, 0.2959212362766266, 0.2988159656524658, 0.30023470520973206]","[0.04550181720592597, -1.5252945095889705, 0.04550181720592597, 0.04550181720592597, 0.04550181720592597, 0.04550181720592597]","[0.04550181720592597, -1.5252945095889705, 0.04550181720592597, 0.04550181720592597, 0.04550181720592597, 0.04550181720592597]",0.002,7,1
0,79,"[0.020082520321011543, -1.5509244681200762, 0.019965950642720998, 0.019848986262939405, 0.01981988549232483, 0.019879050552845]","[0.298460990190506, 0.29724401235580444, 0.29775097966194153, 0.3003695011138916, 0.30247005820274353, 0.30475473403930664]","[0.04608178286472068, -1.524714543930176, 0.04608178286472068, 0.04608178286472068, 0.04608178286472068, 0.04608178286472068]","[0.04608178286472068, -1.524714543930176, 0.04608178286472068, 0.04608178286472068, 0.04608178286472068, 0.04608178286472068]",0.002,7,1
0,80,"[0.020632069557905197, -1.5503803745708247, 0.020516220723287404, 0.0204433637806396, 0.020422188565135002, 0.020486250519752502]","[0.3019806444644928, 0.3013332486152649, 0.3003727197647095, 0.30584681034088135, 0.30620235204696655, 0.30775439739227295]","[0.046661619086637914, -1.5241347077082585, 0.046661619086637914, 0.046661619086637914, 0.046661619086637914, 0.046661619086637914]","[0.046661619086637914, -1.5241347077082585, 0.046661619086637914, 0.046661619086637914, 0.046661619086637914, 0.046661619086637914]",0.002,7,1
0,81,"[0.021259920671582222, -1.5497100458345194, 0.021120850239888966, 0.021040840739868116, 0.02105136029422283, 0.021056322380900383]","[0.3067721128463745, 0.30481022596359253, 0.30742883682250977, 0.30860522389411926, 0.31104665994644165, 0.31171876192092896]","[0.04724132424300397, -1.5235550025518927, 0.04724132424300397, 0.04724132424300397, 0.04724132424300397, 0.04724132424300397]","[0.04724132424300397, -1.5235550025518927, 0.04724132424300397, 0.04724132424300397, 0.04724132424300397, 0.04724132424300397]",0.002,7,1
0,82,"[0.02190261147916317, -1.5491190564683457, 0.02171212831606084, 0.02165178834881587, 0.021696368232369423, 0.021732911467552185]","[0.30924052000045776, 0.30648618936538696, 0.31183239817619324, 0.314498633146286, 0.3137911558151245, 0.3122301399707794]","[0.04782089670551321, -1.5229754300893834, 0.04782089670551321, 0.04782089670551321, 0.04782089670551321, 0.04782089670551321]","[0.04782089670551321, -1.5229754300893834, 0.04782089670551321, 0.04782089670551321, 0.04782089670551321, 0.04782089670551321]",0.002,7,1
0,83,"[0.02248462848365307, -1.5484619990787287, 0.02239400545229131, 0.0222896772572021, 0.022318975999951363, 0.02236103266477585]","[0.3108783960342407, 0.31066983938217163, 0.3125078082084656, 0.31662124395370483, 0.31782758235931396, 0.314185231924057]","[0.04840033484623275, -1.5223959919486638, 0.04840033484623275, 0.04840033484623275, 0.04840033484623275, 0.04840033484623275]","[0.04840033484623275, -1.5223959919486638, 0.04840033484623275, 0.04840033484623275, 0.04840033484623275, 0.04840033484623275]",0.002,7,1
0,84,"[0.023132406175136566, -1.547830744912364, 0.0229724089251917, 0.022885127658508253, 0.02293422445654869, 0.023062435910105705]","[0.31670448184013367, 0.31218409538269043, 0.31514880061149597, 0.32044804096221924, 0.3198157548904419, 0.31775298714637756]","[0.04897963703760701, -1.5218166897572896, 0.04897963703760701, 0.04897963703760701, 0.04897963703760701, 0.04897963703760701]","[0.04897963703760701, -1.5218166897572896, 0.04897963703760701, 0.04897963703760701, 0.04897963703760701, 0.04897963703760701]",0.002,7,1
0,85,"[0.023717818781733513, -1.5472156100771208, 0.023690525685445607, 0.023541613216064405, 0.023571640253067017, 0.02370375394821167]","[0.3195950984954834, 0.31399866938591003, 0.3175879418849945, 0.3235931098461151, 0.3241751194000244, 0.32072561979293823]","[0.04955880165246223, -1.5212375251424344, 0.04955880165246223, 0.04955880165246223, 0.04955880165246223, 0.04955880165246223]","[0.04955880165246223, -1.5212375251424344, 0.04955880165246223, 0.04955880165246223, 0.04955880165246223, 0.04955880165246223]",0.002,7,1
0,86,"[0.02448747679591179, -1.5465678752264758, 0.024291340504781544, 0.024207993144653273, 0.02424578368663788, 0.024304602295160294]","[0.3226412832736969, 0.3186904489994049, 0.3207639455795288, 0.325680673122406, 0.32802635431289673, 0.3233702778816223]","[0.05013782706401114, -1.5206584997308854, 0.05013782706401114, 0.05013782706401114, 0.05013782706401114, 0.05013782706401114]","[0.05013782706401114, -1.5206584997308854, 0.05013782706401114, 0.05013782706401114, 0.05013782706401114, 0.05013782706401114]",0.002,7,1
0,87,"[0.025069817900657654, -1.5458823100528498, 0.024922672902242482, 0.02478282033886714, 0.02489853836596012, 0.024947823956608772]","[0.3263232409954071, 0.3226569592952728, 0.3258676528930664, 0.33049139380455017, 0.32751336693763733, 0.32709237933158875]","[0.050716711645857414, -1.5200796151490392, 0.050716711645857414, 0.050716711645857414, 0.050716711645857414, 0.050716711645857414]","[0.050716711645857414, -1.5200796151490392, 0.050716711645857414, 0.050716711645857414, 0.050716711645857414, 0.050716711645857414]",0.002,7,1
0,88,"[0.02569221705198288, -1.5451863662204524, 0.025565926228658498, 0.025425835246704054, 0.025582481175661087, 0.025677787140011787]","[0.32817956805229187, 0.3263082504272461, 0.3260033130645752, 0.3328314423561096, 0.3330516219139099, 0.32908543944358826]","[0.05129545377200032, -1.5195008730228963, 0.05129545377200032, 0.05129545377200032, 0.05129545377200032, 0.05129545377200032]","[0.05129545377200032, -1.5195008730228963, 0.05129545377200032, 0.05129545377200032, 0.05129545377200032, 0.05129545377200032]",0.002,7,1
0,89,"[0.02637569233775139, -1.5445166707834979, 0.026218716298238576, 0.02607373773541255, 0.02626665309071541, 0.02634136565029621]","[0.33100610971450806, 0.33125564455986023, 0.32981041073799133, 0.3368452787399292, 0.335775762796402, 0.3303375542163849]","[0.051874051816839274, -1.5189222749780573, 0.051874051816839274, 0.051874051816839274, 0.051874051816839274, 0.051874051816839274]","[0.051874051816839274, -1.5189222749780573, 0.051874051816839274, 0.051874051816839274, 0.051874051816839274, 0.051874051816839274]",0.002,7,1
0,90,"[0.027046294882893562, -1.5438226138106366, 0.026890103016988576, 0.026780768031738234, 0.02692270651459694, 0.026967260986566544]","[0.3346201777458191, 0.3309788405895233, 0.33496740460395813, 0.3397643268108368, 0.34025585651397705, 0.3348138928413391]","[0.05245250415517839, -1.5183438226397181, 0.05245250415517839, 0.05245250415517839, 0.05245250415517839, 0.05245250415517839]","[0.05245250415517839, -1.5183438226397181, 0.05245250415517839, 0.05245250415517839, 0.05245250415517839, 0.05245250415517839]",0.002,7,1
0,91,"[0.027655968442559242, -1.5431601119092484, 0.02758962312807256, 0.027487679118774366, 0.027681486681103706, 0.027683408930897713]","[0.337892085313797, 0.33474043011665344, 0.3365708291530609, 0.3431873619556427, 0.34022068977355957, 0.3391459882259369]","[0.053030809162231005, -1.5177655176326657, 0.053030809162231005, 0.053030809162231005, 0.053030809162231005, 0.053030809162231005]","[0.053030809162231005, -1.5177655176326657, 0.053030809162231005, 0.053030809162231005, 0.053030809162231005, 0.053030809162231005]",0.002,7,1
0,92,"[0.028342973440885544, -1.5424102687141676, 0.028241936360494435, 0.028123779887817335, 0.028361575677990913, 0.028362739831209183]","[0.33998915553092957, 0.33747944235801697, 0.34217554330825806, 0.3455196022987366, 0.3440646231174469, 0.342675119638443]","[0.05360896521362437, -1.517187361581272, 0.05360896521362437, 0.05360896521362437, 0.05360896521362437, 0.05360896521362437]","[0.05360896521362437, -1.517187361581272, 0.05360896521362437, 0.05360896521362437, 0.05360896521362437, 0.05360896521362437]",0.002,7,1
0,93,"[0.02903212048113346, -1.5417397816530247, 0.02897531190981084, 0.028852863902709913, 0.029119184240698814, 0.029050404205918312]","[0.3429432213306427, 0.3409784138202667, 0.3433397114276886, 0.35055091977119446, 0.3455357253551483, 0.34401434659957886]","[0.054186970685404054, -1.5166093561094924, 0.054186970685404054, 0.054186970685404054, 0.054186970685404054, 0.054186970685404054]","[0.054186970685404054, -1.5166093561094924, 0.054186970685404054, 0.054186970685404054, 0.054186970685404054, 0.054186970685404054]",0.002,7,1
0,94,"[0.02966136299073696, -1.5410300598344584, 0.029650036488668263, 0.029571457500122023, 0.029765930026769638, 0.029729964211583138]","[0.3457893431186676, 0.3413863182067871, 0.34747713804244995, 0.35335981845855713, 0.3489486277103424, 0.3468698561191559]","[0.054764823954038644, -1.516031502840858, 0.054764823954038644, 0.054764823954038644, 0.054764823954038644, 0.054764823954038644]","[0.054764823954038644, -1.516031502840858, 0.054764823954038644, 0.054764823954038644, 0.054764823954038644, 0.054764823954038644]",0.002,7,1
0,95,"[0.030369028449058533, -1.5403556370041152, 0.03034669557680303, 0.0302087503620605, 0.03051958978176117, 0.03044961765408516]","[0.35060209035873413, 0.3455731272697449, 0.3503343164920807, 0.3558829724788666, 0.3491441011428833, 0.34833911061286926]","[0.0553425233964242, -1.5154538033984724, 0.0553425233964242, 0.0553425233964242, 0.0553425233964242, 0.0553425233964242]","[0.0553425233964242, -1.5154538033984724, 0.0553425233964242, 0.0553425233964242, 0.0553425233964242, 0.0553425233964242]",0.002,7,1
0,96,"[0.031059062108397484, -1.5396346778473635, 0.031092468892232716, 0.03094415246929927, 0.031182724982500076, 0.031191207468509674]","[0.3512659966945648, 0.346136212348938, 0.35232648253440857, 0.3570779860019684, 0.3529670238494873, 0.3525923788547516]","[0.055920067389888854, -1.5148762594050078, 0.055920067389888854, 0.055920067389888854, 0.055920067389888854, 0.055920067389888854]","[0.055920067389888854, -1.5148762594050078, 0.055920067389888854, 0.055920067389888854, 0.055920067389888854, 0.055920067389888854]",0.002,7,1
0,97,"[0.03181498870253563, -1.5389302496663113, 0.03182346025575811, 0.031700416202209425, 0.031880754977464676, 0.031877074390649796]","[0.3542062044143677, 0.34894973039627075, 0.3516906797885895, 0.3588545322418213, 0.3526019752025604, 0.35285332798957825]","[0.05649745431219742, -1.5142988724826991, 0.05649745431219742, 0.05649745431219742, 0.05649745431219742, 0.05649745431219742]","[0.05649745431219742, -1.5142988724826991, 0.05649745431219742, 0.05649745431219742, 0.05649745431219742, 0.05649745431219742]",0.002,7,1
0,98,"[0.03245297446846962, -1.538232037132122, 0.03248197237123662, 0.0323987442203979, 0.032614294439554214, 0.032561518251895905]","[0.3582642078399658, 0.35028505325317383, 0.35538074374198914, 0.36165377497673035, 0.35679444670677185, 0.3536241054534912]","[0.05707468254155584, -1.5137216442533408, 0.05707468254155584, 0.05707468254155584, 0.05707468254155584, 0.05707468254155584]","[0.05707468254155584, -1.5137216442533408, 0.05707468254155584, 0.05707468254155584, 0.05707468254155584, 0.05707468254155584]",0.002,7,1
0,99,"[0.03319628909230232, -1.5375409361771126, 0.03320199648012334, 0.03316907464947505, 0.033306244760751724, 0.033330123871564865]","[0.3585377633571625, 0.3525494933128357, 0.3549647331237793, 0.3633663058280945, 0.3562300205230713, 0.3566075563430786]","[0.05765175045661585, -1.5131445763382807, 0.05765175045661585, 0.05765175045661585, 0.05765175045661585, 0.05765175045661585]","[0.05765175045661585, -1.5131445763382807, 0.05765175045661585, 0.05765175045661585, 0.05765175045661585, 0.05765175045661585]",0.002,7,1
0,100,"[0.03386930003762245, -1.5367692981711407, 0.03400880495180303, 0.03392569601025386, 0.034072041511535645, 0.03404940292239189]","[0.36039304733276367, 0.35605451464653015, 0.3575947880744934, 0.36227402091026306, 0.35828596353530884, 0.35629168152809143]","[0.058228656436479447, -1.5125676703584172, 0.058228656436479447, 0.058228656436479447, 0.058228656436479447, 0.058228656436479447]","[0.058228656436479447, -1.5125676703584172, 0.058228656436479447, 0.058228656436479447, 0.058228656436479447, 0.058228656436479447]",0.002,7,1
0,101,"[0.03462526202201843, -1.5361141201904793, 0.034670654927388966, 0.03463677942242427, 0.03474723547697067, 0.034729212522506714]","[0.3606474995613098, 0.35696858167648315, 0.35996291041374207, 0.365354984998703, 0.3602234423160553, 0.3579137921333313]","[0.0588053988607035, -1.511990927934193, 0.0588053988607035, 0.0588053988607035, 0.0588053988607035, 0.0588053988607035]","[0.0588053988607035, -1.511990927934193, 0.0588053988607035, 0.0588053988607035, 0.0588053988607035, 0.0588053988607035]",0.002,7,1
0,102,"[0.03540419414639473, -1.5353588511100789, 0.03539926210512334, 0.035428209895751905, 0.03551280498504639, 0.03538259118795395]","[0.363357812166214, 0.3595508635044098, 0.3601119816303253, 0.3662828505039215, 0.3602645695209503, 0.35992398858070374]","[0.0593819761093043, -1.5114143506855922, 0.0593819761093043, 0.0593819761093043, 0.0593819761093043, 0.0593819761093043]","[0.0593819761093043, -1.5114143506855922, 0.0593819761093043, 0.0593819761093043, 0.0593819761093043, 0.0593819761093043]",0.002,7,1
0,103,"[0.03616843745112419, -1.5346208971789856, 0.03618365923036748, 0.03613071023907466, 0.03619854524731636, 0.036123648285865784]","[0.36363938450813293, 0.3597557544708252, 0.3627539873123169, 0.3664896488189697, 0.36351290345191956, 0.3605400323867798]","[0.059958386562762055, -1.5108379402321346, 0.059958386562762055, 0.059958386562762055, 0.059958386562762055, 0.059958386562762055]","[0.059958386562762055, -1.5108379402321346, 0.059958386562762055, 0.059958386562762055, 0.059958386562762055, 0.059958386562762055]",0.002,7,1
0,104,"[0.036880724132061005, -1.5339017708650609, 0.03686649004091436, 0.036885066623352, 0.03700559213757515, 0.03686299920082092]","[0.36667031049728394, 0.3634750545024872, 0.3642917573451996, 0.36580705642700195, 0.36264169216156006, 0.36298680305480957]","[0.06053462860202547, -1.5102616981928711, 0.06053462860202547, 0.06053462860202547, 0.06053462860202547, 0.06053462860202547]","[0.06053462860202547, -1.5102616981928711, 0.06053462860202547, 0.06053462860202547, 0.06053462860202547, 0.06053462860202547]",0.002,7,1
0,105,"[0.03763285279273987, -1.5331373375705262, 0.037647549306051076, 0.037637396449706984, 0.03768870234489441, 0.0375746451318264]","[0.36721938848495483, 0.36520713567733765, 0.3642233908176422, 0.3658272325992584, 0.3649868071079254, 0.3669087588787079]","[0.061110700608516366, -1.5096856261863802, 0.061110700608516366, 0.061110700608516366, 0.061110700608516366, 0.061110700608516366]","[0.061110700608516366, -1.5096856261863802, 0.061110700608516366, 0.061110700608516366, 0.061110700608516366, 0.061110700608516366]",0.002,7,1
0,106,"[0.038339175283908844, -1.5324389536729832, 0.0383837858783167, 0.038406534785888624, 0.03835936635732651, 0.038289692252874374]","[0.3692971169948578, 0.36623579263687134, 0.3678629994392395, 0.36750832200050354, 0.36656275391578674, 0.3664300739765167]","[0.061686600964134086, -1.5091097258307624, 0.061686600964134086, 0.061686600964134086, 0.061686600964134086, 0.061686600964134086]","[0.061686600964134086, -1.5091097258307624, 0.061686600964134086, 0.061686600964134086, 0.061686600964134086, 0.061686600964134086]",0.002,7,1
0,107,"[0.03908738121390343, -1.5317272295108815, 0.039177719746724904, 0.03917948781933589, 0.0390937514603138, 0.039026349782943726]","[0.3685513138771057, 0.3679812252521515, 0.37148764729499817, 0.3694150149822235, 0.36736592650413513, 0.3688805103302002]","[0.06226232805126016, -1.5085339987436364, 0.06226232805126016, 0.06226232805126016, 0.06226232805126016, 0.06226232805126016]","[0.06226232805126016, -1.5085339987436364, 0.06226232805126016, 0.06226232805126016, 0.06226232805126016, 0.06226232805126016]",0.002,7,1
0,108,"[0.03982233256101608, -1.5309291009655972, 0.03990346590151006, 0.03994111597027583, 0.03986135497689247, 0.039783116430044174]","[0.36991432309150696, 0.36983588337898254, 0.36874642968177795, 0.3716660737991333, 0.36836564540863037, 0.37128952145576477]","[0.06283788025276278, -1.5079584465421338, 0.06283788025276278, 0.06283788025276278, 0.06283788025276278, 0.06283788025276278]","[0.06283788025276278, -1.5079584465421338, 0.06283788025276278, 0.06283788025276278, 0.06283788025276278, 0.06283788025276278]",0.002,7,1
0,109,"[0.04060191288590431, -1.5302397285452862, 0.040647331868306935, 0.04068820058789058, 0.04056999832391739, 0.0405317097902298]","[0.37320181727409363, 0.3721832036972046, 0.37199315428733826, 0.3703809380531311, 0.36992305517196655, 0.3723951578140259]","[0.06341325595200138, -1.5073830708428952, 0.06341325595200138, 0.06341325595200138, 0.06341325595200138, 0.06341325595200138]","[0.06341325595200138, -1.5073830708428952, 0.06341325595200138, 0.06341325595200138, 0.06341325595200138, 0.06341325595200138]",0.002,7,1
0,110,"[0.04129960387945175, -1.5295172718218346, 0.04127961794008428, 0.04145745813336177, 0.04133528843522072, 0.041225407272577286]","[0.37083473801612854, 0.3725173771381378, 0.37385857105255127, 0.37136852741241455, 0.3698594570159912, 0.3734951913356781]","[0.06398845353283117, -1.5068078732620653, 0.06398845353283117, 0.06398845353283117, 0.06398845353283117, 0.06398845353283117]","[0.06398845353283117, -1.5068078732620653, 0.06398845353283117, 0.06398845353283117, 0.06398845353283117, 0.06398845353283117]",0.002,7,1
0,111,"[0.04200484976172447, -1.528781396602728, 0.042057339345113576, 0.04218654214825435, 0.04205869883298874, 0.041923973709344864]","[0.3735238313674927, 0.37117499113082886, 0.37173065543174744, 0.36994650959968567, 0.3720344305038452, 0.3741481602191925]","[0.06456347137960762, -1.5062328554152888, 0.06456347137960762, 0.06456347137960762, 0.06456347137960762, 0.06456347137960762]","[0.06456347137960762, -1.5062328554152888, 0.06456347137960762, 0.06456347137960762, 0.06456347137960762, 0.06456347137960762]",0.002,7,1
0,112,"[0.042730849236249924, -1.5280709762922307, 0.042797390614644826, 0.04296354829754634, 0.04284081235527992, 0.042692866176366806]","[0.37308403849601746, 0.37336471676826477, 0.37100324034690857, 0.36976540088653564, 0.37328609824180603, 0.3757341206073761]","[0.06513830787719112, -1.5056580189177053, 0.06513830787719112, 0.06513830787719112, 0.06513830787719112, 0.06513830787719112]","[0.06513830787719112, -1.5056580189177053, 0.06513830787719112, 0.06513830787719112, 0.06513830787719112, 0.06513830787719112]",0.002,7,1
0,113,"[0.04359655827283859, -1.5273142133704205, 0.04359323183168584, 0.04370801031079097, 0.04354025423526764, 0.043465062975883484]","[0.3754321038722992, 0.373776912689209, 0.3739381432533264, 0.37186500430107117, 0.37532803416252136, 0.3787722587585449]","[0.06571296141095137, -1.5050833653839453, 0.06571296141095137, 0.06571296141095137, 0.06571296141095137, 0.06571296141095137]","[0.06571296141095137, -1.5050833653839453, 0.06571296141095137, 0.06571296141095137, 0.06571296141095137, 0.06571296141095137]",0.002,7,1
0,114,"[0.04427729919552803, -1.5265915405801316, 0.04432136217226201, 0.04448513566937251, 0.044296156615018845, 0.04417721927165985]","[0.3767222762107849, 0.3732094466686249, 0.37362906336784363, 0.3714173138141632, 0.375105082988739, 0.37747955322265625]","[0.06628743036677205, -1.5045088964281246, 0.06628743036677205, 0.06628743036677205, 0.06628743036677205, 0.06628743036677205]","[0.06628743036677205, -1.5045088964281246, 0.06628743036677205, 0.06628743036677205, 0.06628743036677205, 0.06628743036677205]",0.002,7,1
0,115,"[0.04510015249252319, -1.525798575287201, 0.045020405446187794, 0.045275970096252394, 0.04501403123140335, 0.044965945184230804]","[0.37667205929756165, 0.37363600730895996, 0.3746040165424347, 0.372266560792923, 0.37532466650009155, 0.3790891170501709]","[0.06686171313105525, -1.5039346136638414, 0.06686171313105525, 0.06686171313105525, 0.06686171313105525, 0.06686171313105525]","[0.06686171313105525, -1.5039346136638414, 0.06686171313105525, 0.06686171313105525, 0.06686171313105525, 0.06686171313105525]",0.002,7,1
0,116,"[0.04578862711787224, -1.5250701171210785, 0.045722309743062794, 0.04600743829693599, 0.045698992908000946, 0.04570464789867401]","[0.37641358375549316, 0.3746910095214844, 0.37545666098594666, 0.37201157212257385, 0.37646493315696716, 0.3801669478416443]","[0.0674358080907261, -1.5033605187041705, 0.0674358080907261, 0.0674358080907261, 0.0674358080907261, 0.0674358080907261]","[0.0674358080907261, -1.5033605187041705, 0.0674358080907261, 0.0674358080907261, 0.0674358080907261, 0.0674358080907261]",0.002,7,1
0,117,"[0.04653152823448181, -1.5243193444660683, 0.04649717012514287, 0.04674355565991206, 0.046492621302604675, 0.046399082988500595]","[0.37726926803588867, 0.3760060667991638, 0.37471291422843933, 0.3716086149215698, 0.3767508268356323, 0.37982624769210815]","[0.06800971363323713, -1.5027866131616594, 0.06800971363323713, 0.06800971363323713, 0.06800971363323713, 0.06800971363323713]","[0.06800971363323713, -1.5027866131616594, 0.06800971363323713, 0.06800971363323713, 0.06800971363323713, 0.06800971363323713]",0.002,7,1
0,118,"[0.04730333387851715, -1.5235668768039723, 0.047223869954244435, 0.047473235721252394, 0.04733244702219963, 0.047175534069538116]","[0.3781447112560272, 0.3753586709499359, 0.37490758299827576, 0.37300732731819153, 0.3785671889781952, 0.37974846363067627]","[0.06858342814657303, -1.5022128986483234, 0.06858342814657303, 0.06858342814657303, 0.06858342814657303, 0.06858342814657303]","[0.06858342814657303, -1.5022128986483234, 0.06858342814657303, 0.06858342814657303, 0.06858342814657303, 0.06858342814657303]",0.002,7,1
0,119,"[0.0480492003262043, -1.5228370142034073, 0.04803926149477178, 0.04820828020062251, 0.04799389839172363, 0.047946181148290634]","[0.37631040811538696, 0.37612345814704895, 0.374134361743927, 0.37099573016166687, 0.37823787331581116, 0.3804595470428467]","[0.06915695001925502, -1.5016393767756415, 0.06915695001925502, 0.06915695001925502, 0.06915695001925502, 0.06915695001925502]","[0.06915695001925502, -1.5016393767756415, 0.06915695001925502, 0.06915695001925502, 0.06915695001925502, 0.06915695001925502]",0.002,7,1
0,120,"[0.04881216585636139, -1.5221053411117573, 0.048737351094381154, 0.04895906030621333, 0.048771388828754425, 0.0487230159342289]","[0.3778984248638153, 0.37310150265693665, 0.374712198972702, 0.36983591318130493, 0.37933480739593506, 0.3809521794319153]","[0.06973027764034544, -1.501066049154551, 0.06973027764034544, 0.06973027764034544, 0.06973027764034544, 0.06973027764034544]","[0.06973027764034544, -1.501066049154551, 0.06973027764034544, 0.06973027764034544, 0.06973027764034544, 0.06973027764034544]",0.002,7,1
0,121,"[0.04953261837363243, -1.5213532906821747, 0.04946881929506475, 0.04963140069927974, 0.04954851046204567, 0.04949350655078888]","[0.37806108593940735, 0.3740520179271698, 0.3757767975330353, 0.37228140234947205, 0.37906521558761597, 0.38052287697792053]","[0.0703034093994522, -1.5004929173954444, 0.0703034093994522, 0.0703034093994522, 0.0703034093994522, 0.0703034093994522]","[0.0703034093994522, -1.5004929173954444, 0.0703034093994522, 0.0703034093994522, 0.0703034093994522, 0.0703034093994522]",0.002,7,1
0,122,"[0.05035797506570816, -1.5206309717944642, 0.05016214052309209, 0.05038384973492427, 0.050326019525527954, 0.05027861148118973]","[0.3786758482456207, 0.37430545687675476, 0.3771202266216278, 0.373195081949234, 0.38004547357559204, 0.38131648302078247]","[0.0708763436867334, -1.499919983108163, 0.0708763436867334, 0.0708763436867334, 0.0708763436867334, 0.0708763436867334]","[0.0708763436867334, -1.499919983108163, 0.0708763436867334, 0.0708763436867334, 0.0708763436867334, 0.0708763436867334]",0.002,7,1
0,123,"[0.05107475817203522, -1.5198427152684708, 0.050989929829732716, 0.051172061557434034, 0.05104909837245941, 0.051018115133047104]","[0.3791346549987793, 0.3741566836833954, 0.3762141764163971, 0.3760629892349243, 0.3796962797641754, 0.38120710849761963]","[0.07144907889290184, -1.4993472479019947, 0.07144907889290184, 0.07144907889290184, 0.07144907889290184, 0.07144907889290184]","[0.07144907889290184, -1.4993472479019947, 0.07144907889290184, 0.07144907889290184, 0.07144907889290184, 0.07144907889290184]",0.002,7,1
0,124,"[0.05186615511775017, -1.5190996651402493, 0.05177003542055303, 0.05181650697674556, 0.05176779255270958, 0.05176427587866783]","[0.3788127601146698, 0.3725776672363281, 0.378185510635376, 0.37577661871910095, 0.3793792426586151, 0.38149455189704895]","[0.07202161340922941, -1.498774713385667, 0.07202161340922941, 0.07202161340922941, 0.07202161340922941, 0.07202161340922941]","[0.07202161340922941, -1.498774713385667, 0.07202161340922941, 0.07202161340922941, 0.07202161340922941, 0.07202161340922941]",0.002,7,1
0,125,"[0.05259224399924278, -1.5183863912573834, 0.052419487630025685, 0.052615566844604444, 0.052500516176223755, 0.05255594849586487]","[0.3766874074935913, 0.3721131682395935, 0.3756561279296875, 0.3772389888763428, 0.37892448902130127, 0.38151979446411133]","[0.0725939456275518, -1.4982023811673448, 0.0725939456275518, 0.0725939456275518, 0.0725939456275518, 0.0725939456275518]","[0.0725939456275518, -1.4982023811673448, 0.0725939456275518, 0.0725939456275518, 0.0725939456275518, 0.0725939456275518]",0.002,7,1
0,126,"[0.053341757506132126, -1.5176430021277447, 0.0532458464251917, 0.05324618398632808, 0.053272541612386703, 0.05336974561214447]","[0.3779004216194153, 0.3720328211784363, 0.3758310079574585, 0.37851762771606445, 0.37911948561668396, 0.37855514883995056]","[0.07316607394027289, -1.4976302528546237, 0.07316607394027289, 0.07316607394027289, 0.07316607394027289, 0.07316607394027289]","[0.07316607394027289, -1.4976302528546237, 0.07316607394027289, 0.07316607394027289, 0.07316607394027289, 0.07316607394027289]",0.002,7,1
0,127,"[0.05408357083797455, -1.5168621142259617, 0.053974453602926076, 0.05399303018536372, 0.054030098021030426, 0.05413317680358887]","[0.3770069181919098, 0.37015673518180847, 0.37411221861839294, 0.3767620027065277, 0.3795636296272278, 0.37763774394989014]","[0.0737379967403693, -1.4970583300545273, 0.0737379967403693, 0.0737379967403693, 0.0737379967403693, 0.0737379967403693]","[0.0737379967403693, -1.4970583300545273, 0.0737379967403693, 0.0737379967403693, 0.0737379967403693, 0.0737379967403693]",0.002,7,1
0,128,"[0.05492039769887924, -1.5161471676877518, 0.05468494096864873, 0.05479101716961665, 0.0547441728413105, 0.05480899661779404]","[0.37593191862106323, 0.3681696951389313, 0.3733702301979065, 0.37548476457595825, 0.37942489981651306, 0.3764083683490753]","[0.0743097124213949, -1.4964866143735016, 0.0743097124213949, 0.0743097124213949, 0.0743097124213949, 0.0743097124213949]","[0.0743097124213949, -1.4964866143735016, 0.0743097124213949, 0.0743097124213949, 0.0743097124213949, 0.0743097124213949]",0.002,7,1
0,129,"[0.05566206946969032, -1.5153868284872551, 0.055486504231588185, 0.05548195421185298, 0.05555402487516403, 0.055634938180446625]","[0.3753284811973572, 0.3674464821815491, 0.37327179312705994, 0.3767443597316742, 0.3784525394439697, 0.3760862946510315]","[0.07488121937748536, -1.4959151074174113, 0.07488121937748536, 0.07488121937748536, 0.07488121937748536, 0.07488121937748536]","[0.07488121937748536, -1.4959151074174113, 0.07488121937748536, 0.07488121937748536, 0.07488121937748536, 0.07488121937748536]",0.002,7,1
0,130,"[0.05639919638633728, -1.5146901246956368, 0.056197468434469044, 0.056222959155700636, 0.056306391954422, 0.05641878768801689]","[0.3778987228870392, 0.3677710294723511, 0.371537983417511, 0.37879735231399536, 0.37742915749549866, 0.37466907501220703]","[0.07545251600336256, -1.495343810791534, 0.07545251600336256, 0.07545251600336256, 0.07545251600336256, 0.07545251600336256]","[0.07545251600336256, -1.495343810791534, 0.07545251600336256, 0.07545251600336256, 0.07545251600336256, 0.07545251600336256]",0.002,7,1
0,131,"[0.05718299001455307, -1.5138566207936783, 0.05687886873354131, 0.05702940999951167, 0.0570351779460907, 0.057127561420202255]","[0.3742172420024872, 0.36827486753463745, 0.37163278460502625, 0.3785032033920288, 0.37795549631118774, 0.37332063913345337]","[0.07602360069433926, -1.4947727261005572, 0.07602360069433926, 0.07602360069433926, 0.07602360069433926, 0.07602360069433926]","[0.07602360069433926, -1.4947727261005572, 0.07602360069433926, 0.07602360069433926, 0.07602360069433926, 0.07602360069433926]",0.002,7,1
0,132,"[0.0578925721347332, -1.5131733578494568, 0.05766040483583623, 0.05773763238873286, 0.057762812823057175, 0.05786670744419098]","[0.375577837228775, 0.3670598268508911, 0.37222540378570557, 0.37740087509155273, 0.37472042441368103, 0.37311214208602905]","[0.07659447184632341, -1.4942018549485732, 0.07659447184632341, 0.07659447184632341, 0.07659447184632341, 0.07659447184632341]","[0.07659447184632341, -1.4942018549485732, 0.07659447184632341, 0.07659447184632341, 0.07659447184632341, 0.07659447184632341]",0.002,7,1
0,133,"[0.0586266964673996, -1.5124646176448842, 0.058387581502096, 0.05846159040417476, 0.05852384865283966, 0.0586838535964489]","[0.3722495138645172, 0.36838725209236145, 0.36962437629699707, 0.3770555555820465, 0.37448614835739136, 0.37240979075431824]","[0.07716512785582286, -1.4936311989390738, 0.07716512785582286, 0.07716512785582286, 0.07716512785582286, 0.07716512785582286]","[0.07716512785582286, -1.4936311989390738, 0.07716512785582286, 0.07716512785582286, 0.07716512785582286, 0.07716512785582286]",0.002,7,1
0,134,"[0.05936114490032196, -1.5116791997900982, 0.059227768574849904, 0.05918685972180171, 0.05935251712799072, 0.05941113457083702]","[0.372408002614975, 0.3691878318786621, 0.36989763379096985, 0.3767413794994354, 0.3751935362815857, 0.37115898728370667]","[0.07773556711994968, -1.4930607596749468, 0.07773556711994968, 0.07773556711994968, 0.07773556711994968, 0.07773556711994968]","[0.07773556711994968, -1.4930607596749468, 0.07773556711994968, 0.07773556711994968, 0.07773556711994968, 0.07773556711994968]",0.002,7,1
0,135,"[0.060123879462480545, -1.5108952683261414, 0.05990964571108037, 0.05993918954815669, 0.06005137786269188, 0.06020665913820267]","[0.3713959753513336, 0.366997092962265, 0.36989477276802063, 0.37474891543388367, 0.37405285239219666, 0.3694640100002289]","[0.07830578803642478, -1.4924905387584717, 0.07830578803642478, 0.07830578803642478, 0.07830578803642478, 0.07830578803642478]","[0.07830578803642478, -1.4924905387584717, 0.07830578803642478, 0.07830578803642478, 0.07830578803642478, 0.07830578803642478]",0.002,7,1
0,136,"[0.06083478033542633, -1.5101684604636212, 0.060615364705221, 0.06065635263409419, 0.06092236936092377, 0.06095053255558014]","[0.37193888425827026, 0.3665889799594879, 0.37059810757637024, 0.373979389667511, 0.3715050220489502, 0.36935579776763916]","[0.0788757890035824, -1.491920537791314, 0.0788757890035824, 0.0788757890035824, 0.0788757890035824, 0.0788757890035824]","[0.0788757890035824, -1.491920537791314, 0.0788757890035824, 0.0788757890035824, 0.0788757890035824, 0.0788757890035824]",0.002,7,1
0,137,"[0.06158477067947388, -1.509441302423813, 0.06143409410585576, 0.061383410091064405, 0.061669863760471344, 0.061719637364149094]","[0.37030309438705444, 0.36643505096435547, 0.3680155277252197, 0.37373223900794983, 0.37055614590644836, 0.36877742409706116]","[0.07944556842037453, -1.491350758374522, 0.07944556842037453, 0.07944556842037453, 0.07944556842037453, 0.07944556842037453]","[0.07944556842037453, -1.491350758374522, 0.07944556842037453, 0.07944556842037453, 0.07944556842037453, 0.07944556842037453]",0.002,7,1
0,138,"[0.06234344467520714, -1.5086816375008603, 0.06216317812074834, 0.062178297633789015, 0.06241653859615326, 0.06241192668676376]","[0.3696206212043762, 0.3656958341598511, 0.36915937066078186, 0.37313517928123474, 0.3684701919555664, 0.3661957085132599]","[0.08001512468637552, -1.490781202108521, 0.08001512468637552, 0.08001512468637552, 0.08001512468637552, 0.08001512468637552]","[0.08001512468637552, -1.490781202108521, 0.08001512468637552, 0.08001512468637552, 0.08001512468637552, 0.08001512468637552]",0.002,7,1
0,139,"[0.06308329850435257, -1.5078513038209458, 0.06292134920229131, 0.06296543657269282, 0.0630824863910675, 0.06322747468948364]","[0.3703399896621704, 0.36446309089660645, 0.3690620958805084, 0.3727215826511383, 0.3666582405567169, 0.36659708619117737]","[0.08058445620178649, -1.49021187059311, 0.08058445620178649, 0.08058445620178649, 0.08058445620178649, 0.08058445620178649]","[0.08058445620178649, -1.49021187059311, 0.08058445620178649, 0.08058445620178649, 0.08058445620178649, 0.08058445620178649]",0.002,7,1
0,140,"[0.06380531936883926, -1.5072184589556237, 0.06364518800844365, 0.06368903696026607, 0.06386386603116989, 0.06392928212881088]","[0.36877793073654175, 0.36399826407432556, 0.36856263875961304, 0.3741551637649536, 0.36430472135543823, 0.3643074035644531]","[0.08115356136743981, -1.4896427654274567, 0.08115356136743981, 0.08115356136743981, 0.08115356136743981, 0.08115356136743981]","[0.08115356136743981, -1.4896427654274567, 0.08115356136743981, 0.08115356136743981, 0.08115356136743981, 0.08115356136743981]",0.002,7,1
0,141,"[0.06447841227054596, -1.5064424362829705, 0.06440955797304326, 0.06446270524945064, 0.06458279490470886, 0.06462308019399643]","[0.36507004499435425, 0.3623168170452118, 0.36421751976013184, 0.37181881070137024, 0.3634713292121887, 0.36476078629493713]","[0.08172243858480373, -1.489073888210093, 0.08172243858480373, 0.08172243858480373, 0.08172243858480373, 0.08172243858480373]","[0.08172243858480373, -1.489073888210093, 0.08172243858480373, 0.08172243858480373, 0.08172243858480373, 0.08172243858480373]",0.002,7,1
0,142,"[0.06521311402320862, -1.5057082411697884, 0.0651329199420374, 0.06524400293316646, 0.06529592722654343, 0.06538476049900055]","[0.3642869293689728, 0.36288779973983765, 0.36276036500930786, 0.3678065240383148, 0.3647266924381256, 0.36194169521331787]","[0.08229108625598669, -1.4885052405389099, 0.08229108625598669, 0.08229108625598669, 0.08229108625598669, 0.08229108625598669]","[0.08229108625598669, -1.4885052405389099, 0.08229108625598669, 0.08229108625598669, 0.08229108625598669, 0.08229108625598669]",0.002,7,1
0,143,"[0.06592193990945816, -1.5049394083074112, 0.0658496061908167, 0.06591467439617915, 0.06605010479688644, 0.0661231204867363]","[0.36323902010917664, 0.363179087638855, 0.36251765489578247, 0.36412709951400757, 0.3614342212677002, 0.3606806695461273]","[0.0828595027837419, -1.4879368240111546, 0.0828595027837419, 0.0828595027837419, 0.0828595027837419, 0.0828595027837419]","[0.0828595027837419, -1.4879368240111546, 0.0828595027837419, 0.0828595027837419, 0.0828595027837419, 0.0828595027837419]",0.002,7,1
0,144,"[0.0666908398270607, -1.5042199355414887, 0.06665069261659795, 0.06666259347882075, 0.06680724769830704, 0.06684006005525589]","[0.36249807476997375, 0.3612198531627655, 0.3613708019256592, 0.36318472027778625, 0.35976463556289673, 0.35653597116470337]","[0.08342768657147188, -1.4873686402234247, 0.08342768657147188, 0.08342768657147188, 0.08342768657147188, 0.08342768657147188]","[0.08342768657147188, -1.4873686402234247, 0.08342768657147188, 0.08342768657147188, 0.08342768657147188, 0.08342768657147188]",0.002,7,1
0,145,"[0.0674775242805481, -1.5035515663078804, 0.06729251543153936, 0.06739656507458491, 0.06749340891838074, 0.06748943030834198]","[0.3606513738632202, 0.36190226674079895, 0.36113178730010986, 0.3627585172653198, 0.35688865184783936, 0.3566000163555145]","[0.0839956360232328, -1.4868006907716638, 0.0839956360232328, 0.0839956360232328, 0.0839956360232328, 0.0839956360232328]","[0.0839956360232328, -1.4868006907716638, 0.0839956360232328, 0.0839956360232328, 0.0839956360232328, 0.0839956360232328]",0.002,7,1
0,146,"[0.06815784424543381, -1.5028115299395104, 0.06803256670107061, 0.06817881643261714, 0.06820612400770187, 0.06816268712282181]","[0.3595804274082184, 0.36192142963409424, 0.3602093756198883, 0.36110207438468933, 0.3573382496833801, 0.357166588306427]","[0.08456334954373909, -1.4862329772511575, 0.08456334954373909, 0.08456334954373909, 0.08456334954373909, 0.08456334954373909]","[0.08456334954373909, -1.4862329772511575, 0.08456334954373909, 0.08456334954373909, 0.08456334954373909, 0.08456334954373909]",0.002,7,1
0,147,"[0.0688849538564682, -1.502025769358017, 0.06877023378481084, 0.0688829857059936, 0.0689266249537468, 0.06888966262340546]","[0.3583296835422516, 0.3607986867427826, 0.35865312814712524, 0.358233243227005, 0.3562754988670349, 0.35527727007865906]","[0.08513082553836789, -1.4856655012565287, 0.08513082553836789, 0.08513082553836789, 0.08513082553836789, 0.08513082553836789]","[0.08513082553836789, -1.4856655012565287, 0.08513082553836789, 0.08513082553836789, 0.08513082553836789, 0.08513082553836789]",0.002,7,1
0,148,"[0.06956274807453156, -1.5013185453465958, 0.06950933138002569, 0.06966344892468257, 0.06965752691030502, 0.06958508491516113]","[0.3556925654411316, 0.3603971600532532, 0.35723039507865906, 0.35661640763282776, 0.3522680401802063, 0.3546018600463867]","[0.08569806241316345, -1.4850982643817332, 0.08569806241316345, 0.08569806241316345, 0.08569806241316345, 0.08569806241316345]","[0.08569806241316345, -1.4850982643817332, 0.08569806241316345, 0.08569806241316345, 0.08569806241316345, 0.08569806241316345]",0.002,7,1
0,149,"[0.07029840350151062, -1.5006245610168953, 0.07021695772279912, 0.07038526117291255, 0.07031042873859406, 0.0702688917517662]","[0.3538053035736084, 0.3612406551837921, 0.35834023356437683, 0.3557770550251007, 0.35133734345436096, 0.3537660241127014]","[0.08626505857484176, -1.4845312682200549, 0.08626505857484176, 0.08626505857484176, 0.08626505857484176, 0.08626505857484176]","[0.08626505857484176, -1.4845312682200549, 0.08626505857484176, 0.08626505857484176, 0.08626505857484176, 0.08626505857484176]",0.002,7,1
0,150,"[0.07098902016878128, -1.4998440381935616, 0.0709908644305628, 0.07104889928784175, 0.07104445993900299, 0.07094366103410721]","[0.3519749641418457, 0.35683226585388184, 0.3551204800605774, 0.35264238715171814, 0.35067984461784363, 0.35225677490234375]","[0.08683181243079487, -1.4839645143641016, 0.08683181243079487, 0.08683181243079487, 0.08683181243079487, 0.08683181243079487]","[0.08683181243079487, -1.4839645143641016, 0.08683181243079487, 0.08683181243079487, 0.08683181243079487, 0.08683181243079487]",0.002,7,1
0,151,"[0.07178893685340881, -1.499195196931698, 0.07168561617006475, 0.07183711111035151, 0.07175629585981369, 0.07165934890508652]","[0.3501114547252655, 0.3566375970840454, 0.35426369309425354, 0.3487130403518677, 0.3505247235298157, 0.35250866413116455]","[0.08739832238909546, -1.483398004405801, 0.08739832238909546, 0.08739832238909546, 0.08739832238909546, 0.08739832238909546]","[0.08739832238909546, -1.483398004405801, 0.08739832238909546, 0.08739832238909546, 0.08739832238909546, 0.08739832238909546]",0.002,7,1
0,152,"[0.07242513447999954, -1.4984876450947304, 0.0724104086505335, 0.07254199563946528, 0.07243776321411133, 0.07239030301570892]","[0.34950152039527893, 0.3556080162525177, 0.3527493178844452, 0.3461391031742096, 0.35093802213668823, 0.3513301908969879]","[0.08796458685850128, -1.4828317399363953, 0.08796458685850128, 0.08796458685850128, 0.08796458685850128, 0.08796458685850128]","[0.08796458685850128, -1.4828317399363953, 0.08796458685850128, 0.08796458685850128, 0.08796458685850128, 0.08796458685850128]",0.002,7,1
