Arnibjarnst/BoxLift/logs/ur_rtde/trajectory_dur=5.0_delay=0.2_gain=100_lh=0.03_real.csv
arm_idx,step,actual_q,actual_qd,target_q,expected_q,loop_time,robot_mode,safety_mode
0,-1,"[0.07778438925743103, -1.4929638367942353, 0.07771665254701787, 0.07789067804302974, 0.0778564065694809, 0.07781025022268295]","[-0.03804699331521988, -0.03656283766031265, -0.040889035910367966, -0.03467702120542526, -0.03670810908079147, -0.03545067459344864]","[0.0, -1.5707963267948966, 0.0, 0.0, 0.0, 0.0]","[0.0, -1.5707963267948966, 0.0, 0.0, 0.0, 0.0]",0.002,7,1
0,-1,"[0.07710041105747223, -1.4937943381122132, 0.07692414919008428, 0.07717709123577876, 0.07722623646259308, 0.07715082913637161]","[-0.051435139030218124, -0.05624382942914963, -0.054596126079559326, -0.05187066271901131, -0.05210554972290993, -0.05068378150463104]","[0.0, -1.5707963267948966, 0.0, 0.0, 0.0, 0.0]","[0.0, -1.5707963267948966, 0.0, 0.0, 0.0, 0.0]",0.002,7,1
0,-1,"[0.07607647776603699, -1.4947518420270463, 0.07597285905946904, 0.07619409143414302, 0.0762578696012497, 0.07618523389101028]","[-0.06827960908412933, -0.06789106875658035, -0.07011916488409042, -0.06971966475248337, -0.06986970454454422, -0.0704398974776268]","[0.0, -1.5707963267948966, 0.0, 0.0, 0.0, 0.0]","[0.0, -1.5707963267948966, 0.0, 0.0, 0.0, 0.0]",0.002,7,1
0,-1,"[0.07528290897607803, -1.4954712700894852, 0.07517940202821904, 0.07544045030560298, 0.07550875842571259, 0.07543723285198212]","[-0.07890855520963669, -0.07747204601764679, -0.07910367846488953, -0.07802499830722809, -0.07871116697788239, -0.07773233205080032]","[0.0, -1.5707963267948966, 0.0, 0.0, 0.0, 0.0]","[0.0, -1.5707963267948966, 0.0, 0.0, 0.0, 0.0]",0.002,7,1
0,-1,"[0.07466629892587662, -1.496118963961937, 0.07446557680238897, 0.07472674428906245, 0.07488490641117096, 0.07489013671875]","[-0.08791650831699371, -0.08541826903820038, -0.08611790835857391, -0.0876060426235199, -0.08869587630033493, -0.08676055818796158]","[0.0, -1.5707963267948966, 0.0, 0.0, 0.0, 0.0]","[0.0, -1.5707963267948966, 0.0, 0.0, 0.0, 0.0]",0.002,7,1
0,-1,"[0.07367376238107681, -1.4970481035164376, 0.07360250154604131, 0.07372371732678218, 0.07390619069337845, 0.07387850433588028]","[-0.09708786010742188, -0.09633748233318329, -0.09753263741731644, -0.09580495208501816, -0.09885647147893906, -0.09938027709722519]","[0.0, -1.5707963267948966, 0.0, 0.0, 0.0, 0.0]","[0.0, -1.5707963267948966, 0.0, 0.0, 0.0, 0.0]",0.002,7,1
0,-1,"[0.07245689630508423, -1.4982470136931916, 0.07234126726259404, 0.07252387582745357, 0.07264877110719681, 0.07264457643032074]","[-0.10784189403057098, -0.10866492986679077, -0.10842584073543549, -0.10930803418159485, -0.11337411403656006, -0.11097221821546555]","[0.0, -1.5707963267948966, 0.0, 0.0, 0.0, 0.0]","[0.0, -1.5707963267948966, 0.0, 0.0, 0.0, 0.0]",0.002,7,1
0,-1,"[0.07112472504377365, -1.499635012154915, 0.070991341267721, 0.07107715188946528, 0.07122928649187088, 0.07127325236797333]","[-0.1193104088306427, -0.11895183473825455, -0.11994770914316177, -0.11747342348098755, -0.12401153147220612, -0.12385261058807373]","[0.0, -1.5707963267948966, 0.0, 0.0, 0.0, 0.0]","[0.0, -1.5707963267948966, 0.0, 0.0, 0.0, 0.0]",0.002,7,1
0,-1,"[0.0696084126830101, -1.5011696454933663, 0.06945687929262334, 0.06955747186627192, 0.0696142390370369, 0.0696968212723732]","[-0.132324680685997, -0.13035264611244202, -0.13103586435317993, -0.12941348552703857, -0.134762242436409, -0.13546551764011383]","[0.0, -1.5707963267948966, 0.0, 0.0, 0.0, 0.0]","[0.0, -1.5707963267948966, 0.0, 0.0, 0.0, 0.0]",0.002,7,1
0,-1,"[0.06791657954454422, -1.5028902304223557, 0.06782895723451787, 0.06785122930493159, 0.06801623851060867, 0.06803330779075623]","[-0.14313293993473053, -0.14296287298202515, -0.1424511969089508, -0.14000734686851501, -0.14422528445720673, -0.14639516174793243]","[0.0, -1.5707963267948966, 0.0, 0.0, 0.0, 0.0]","[0.0, -1.5707963267948966, 0.0, 0.0, 0.0, 0.0]",0.002,7,1
0,-1,"[0.06571180373430252, -1.5049763706377526, 0.06573182741274053, 0.06567756711926265, 0.06586741656064987, 0.0659179762005806]","[-0.1563512086868286, -0.15763534605503082, -0.15621145069599152, -0.1523924618959427, -0.1593223661184311, -0.161457359790802]","[0.0, -1.5707963267948966, 0.0, 0.0, 0.0, 0.0]","[0.0, -1.5707963267948966, 0.0, 0.0, 0.0, 0.0]",0.002,7,1
0,-1,"[0.06376639008522034, -1.5069802042892952, 0.06373244920839483, 0.06376485406842036, 0.06385371088981628, 0.0638614222407341]","[-0.16895343363285065, -0.1691836416721344, -0.1695493757724762, -0.164850115776062, -0.1716567724943161, -0.17227604985237122]","[0.0, -1.5707963267948966, 0.0, 0.0, 0.0, 0.0]","[0.0, -1.5707963267948966, 0.0, 0.0, 0.0, 0.0]",0.002,7,1
0,-1,"[0.06170186027884483, -1.5090978902629395, 0.06162006059755498, 0.0616263586231689, 0.0617496483027935, 0.06173147261142731]","[-0.18002164363861084, -0.18169066309928894, -0.17726801335811615, -0.18119701743125916, -0.1801130771636963, -0.18190516531467438]","[0.0, -1.5707963267948966, 0.0, 0.0, 0.0, 0.0]","[0.0, -1.5707963267948966, 0.0, 0.0, 0.0, 0.0]",0.002,7,1
0,-1,"[0.058301202952861786, -1.5125239354423066, 0.05821592012514287, 0.0582541662403564, 0.05821923166513443, 0.05822497978806496]","[-0.1989288479089737, -0.19779330492019653, -0.19462768733501434, -0.19777552783489227, -0.19746050238609314, -0.20113568007946014]","[0.0, -1.5707963267948966, 0.0, 0.0, 0.0, 0.0]","[0.0, -1.5707963267948966, 0.0, 0.0, 0.0, 0.0]",0.002,7,1
0,-1,"[0.054468583315610886, -1.5163054664484044, 0.05454618135561162, 0.05455581724133296, 0.05439840257167816, 0.05441119521856308]","[-0.21869392693042755, -0.216637521982193, -0.21807700395584106, -0.219772070646286, -0.21545831859111786, -0.21639449894428253]","[0.0, -1.5707963267948966, 0.0, 0.0, 0.0, 0.0]","[0.0, -1.5707963267948966, 0.0, 0.0, 0.0, 0.0]",0.002,7,1
0,-1,"[0.052738480269908905, -1.5181162294796486, 0.05273658434023076, 0.05283920347180171, 0.05260369926691055, 0.05261971801519394]","[-0.22650541365146637, -0.2222570925951004, -0.22461318969726562, -0.22903242707252502, -0.22512435913085938, -0.2234668880701065]","[0.0, -1.5707963267948966, 0.0, 0.0, 0.0, 0.0]","[0.0, -1.5707963267948966, 0.0, 0.0, 0.0, 0.0]",0.002,7,1
0,-1,"[0.050367727875709534, -1.5204418201795598, 0.05041104951967412, 0.05054764329876704, 0.0503750704228878, 0.05031001195311546]","[-0.23561343550682068, -0.23602591454982758, -0.23650947213172913, -0.2421005666255951, -0.23536010086536407, -0.23232796788215637]","[0.0, -1.5707963267948966, 0.0, 0.0, 0.0, 0.0]","[0.0, -1.5707963267948966, 0.0, 0.0, 0.0, 0.0]",0.002,7,1
0,-1,"[0.04595225304365158, -1.524888539021351, 0.0459979216205042, 0.04599122583355708, 0.045917849987745285, 0.04587429389357567]","[-0.25701436400413513, -0.25321075320243835, -0.2561437487602234, -0.26036739349365234, -0.2544732093811035, -0.2521086633205414]","[0.0, -1.5707963267948966, 0.0, 0.0, 0.0, 0.0]","[0.0, -1.5707963267948966, 0.0, 0.0, 0.0, 0.0]",0.002,7,1
0,-1,"[0.037774186581373215, -1.5327188682607193, 0.037941757832662404, 0.03770737230267329, 0.03788764774799347, 0.037923239171504974]","[-0.27758893370628357, -0.24846135079860687, -0.2633918821811676, -0.2718811333179474, -0.27980837225914, -0.27896276116371155]","[0.0, -1.5707963267948966, 0.0, 0.0, 0.0, 0.0]","[0.0, -1.5707963267948966, 0.0, 0.0, 0.0, 0.0]",0.002,7,1
0,-1,"[0.03346641734242439, -1.5369398605874558, 0.03370982805360967, 0.03342501699414058, 0.03358915448188782, 0.03369792550802231]","[-0.2566625475883484, -0.27149680256843567, -0.2643626630306244, -0.2541215419769287, -0.2615060806274414, -0.26233646273612976]","[0.0, -1.5707963267948966, 0.0, 0.0, 0.0, 0.0]","[0.0, -1.5707963267948966, 0.0, 0.0, 0.0, 0.0]",0.002,7,1
0,-1,"[0.025451702997088432, -1.54533730194483, 0.025420967732564748, 0.02539031087841792, 0.025298044085502625, 0.02531132660806179]","[-0.2261800467967987, -0.22667992115020752, -0.22437894344329834, -0.22568240761756897, -0.22381773591041565, -0.2277097851037979]","[0.0, -1.5707963267948966, 0.0, 0.0, 0.0, 0.0]","[0.0, -1.5707963267948966, 0.0, 0.0, 0.0, 0.0]",0.002,7,1
0,-1,"[0.02241825871169567, -1.5484272756478568, 0.02243978181947881, 0.022403045291564894, 0.022278916090726852, 0.022245341911911964]","[-0.21227151155471802, -0.21181002259254456, -0.21123574674129486, -0.21247173845767975, -0.20886020362377167, -0.21050557494163513]","[0.0, -1.5707963267948966, 0.0, 0.0, 0.0, 0.0]","[0.0, -1.5707963267948966, 0.0, 0.0, 0.0, 0.0]",0.002,7,1
0,-1,"[0.01872849278151989, -1.5521404177746554, 0.018762890492574513, 0.01881496488537593, 0.018681803718209267, 0.018648851662874222]","[-0.19337916374206543, -0.19437535107135773, -0.19448122382164001, -0.1997096985578537, -0.19254155457019806, -0.1923537254333496]","[0.0, -1.5707963267948966, 0.0, 0.0, 0.0, 0.0]","[0.0, -1.5707963267948966, 0.0, 0.0, 0.0, 0.0]",0.002,7,1
0,-1,"[0.013410059735178947, -1.5574181436425825, 0.01343089738954717, 0.01334480821575923, 0.01339531410485506, 0.013361435383558273]","[-0.1650383472442627, -0.1641739010810852, -0.16661383211612701, -0.16824346780776978, -0.16284555196762085, -0.16252823173999786]","[0.0, -1.5707963267948966, 0.0, 0.0, 0.0, 0.0]","[0.0, -1.5707963267948966, 0.0, 0.0, 0.0, 0.0]",0.002,7,1
0,-1,"[0.011161215603351593, -1.5595617427355428, 0.01117116609682256, 0.011192246074340773, 0.011225203052163124, 0.011247700080275536]","[-0.1534799188375473, -0.15074147284030914, -0.15265388786792755, -0.15093804895877838, -0.15120650827884674, -0.15189407765865326]","[0.0, -1.5707963267948966, 0.0, 0.0, 0.0, 0.0]","[0.0, -1.5707963267948966, 0.0, 0.0, 0.0, 0.0]",0.002,7,1
0,-1,"[0.008559929206967354, -1.5620542916334053, 0.008651558552877248, 0.008594198817871046, 0.008700460195541382, 0.008706685155630112]","[-0.1333320140838623, -0.12960760295391083, -0.13294120132923126, -0.13051629066467285, -0.13330629467964172, -0.13247112929821014]","[0.0, -1.5707963267948966, 0.0, 0.0, 0.0, 0.0]","[0.0, -1.5707963267948966, 0.0, 0.0, 0.0, 0.0]",0.002,7,1
0,-1,"[0.007073590066283941, -1.5635330740227182, 0.007180039082662404, 0.007077618236206007, 0.00714812520891428, 0.007203074637800455]","[-0.11885660886764526, -0.11997219175100327, -0.1214720830321312, -0.12016632407903671, -0.12102844566106796, -0.12261058390140533]","[0.0, -1.5707963267948966, 0.0, 0.0, 0.0, 0.0]","[0.0, -1.5707963267948966, 0.0, 0.0, 0.0, 0.0]",0.002,7,1
0,-1,"[0.003955169580876827, -1.5666661670296271, 0.003977123891012013, 0.003958030337951612, 0.004058836959302425, 0.004037391860038042]","[-0.08780846744775772, -0.09318313747644424, -0.09106072038412094, -0.08663653582334518, -0.09186840802431107, -0.09309559315443039]","[0.0, -1.5707963267948966, 0.0, 0.0, 0.0, 0.0]","[0.0, -1.5707963267948966, 0.0, 0.0, 0.0, 0.0]",0.002,7,1
0,-1,"[0.002825502771884203, -1.567906725253426, 0.0027850309955042007, 0.0028032499500731944, 0.002876460552215576, 0.0028740386478602886]","[-0.07656122744083405, -0.08238290250301361, -0.07579083740711212, -0.07427762448787689, -0.07498600333929062, -0.07692064344882965]","[0.0, -1.5707963267948966, 0.0, 0.0, 0.0, 0.0]","[0.0, -1.5707963267948966, 0.0, 0.0, 0.0, 0.0]",0.002,7,1
0,-1,"[0.0019343295134603977, -1.5687764541110774, 0.0018990675555627945, 0.0019633012958983898, 0.002107148990035057, 0.002050987910479307]","[-0.06451496481895447, -0.06829549372196198, -0.06510286033153534, -0.06393904983997345, -0.06359559297561646, -0.06406283378601074]","[0.0, -1.5707963267948966, 0.0, 0.0, 0.0, 0.0]","[0.0, -1.5707963267948966, 0.0, 0.0, 0.0, 0.0]",0.002,7,1
0,-1,"[0.000986521365121007, -1.5698413664689106, 0.0008857885943811539, 0.0009926992603759288, 0.0010794401168823242, 0.0010477285832166672]","[-0.04516687989234924, -0.048730600625276566, -0.046974655240774155, -0.0452926941215992, -0.04665468633174896, -0.047338876873254776]","[0.0, -1.5707963267948966, 0.0, 0.0, 0.0, 0.0]","[0.0, -1.5707963267948966, 0.0, 0.0, 0.0, 0.0]",0.002,7,1
0,-1,"[6.559500616276637e-05, -1.570824762383932, 6.977711812794496e-06, 7.335721936030382e-05, 0.00013396964641287923, 0.00012614726438187063]","[-0.015948064625263214, -0.019021594896912575, -0.01705780066549778, -0.016578402370214462, -0.015967490151524544, -0.016688616946339607]","[0.0, -1.5707963267948966, 0.0, 0.0, 0.0, 0.0]","[0.0, -1.5707963267948966, 0.0, 0.0, 0.0, 0.0]",0.002,7,1
0,-1,"[4.758584327646531e-05, -1.5709053478636683, -8.489753963658586e-05, 2.4481410644483503e-05, 0.00011163949966430664, 5.8662892115535215e-05]","[0.006069930270314217, 0.007693358696997166, 0.006276024971157312, 0.008188520558178425, 0.009121611714363098, 0.006582319270819426]","[0.0, -1.5707963267948966, 0.0, 0.0, 0.0, 0.0]","[0.0, -1.5707963267948966, 0.0, 0.0, 0.0, 0.0]",0.002,7,1
0,-1,"[0.00010313725215382874, -1.5709272823729457, -3.457356069702655e-05, 4.832326855463975e-05, 0.00011445888230809942, 0.00010368823859607801]","[0.0009463972528465092, 0.0011140340939164162, 0.002042638137936592, -0.00045342399971559644, 1.3075930560546567e-08, 0.0004938887432217598]","[0.0, -1.5707963267948966, 0.0, 0.0, 0.0, 0.0]","[0.0, -1.5707963267948966, 0.0, 0.0, 0.0, 0.0]",0.002,7,1
0,-1,"[0.0001212968782056123, -1.5707455704290005, -5.7338111218996346e-05, 9.755670513911241e-05, 0.00011163949966430664, 7.509283750550821e-05]","[5.348775045652728e-15, 0.0022020088508725166, 0.0011097817914560437, 7.070781293805339e-07, -0.0005793203599750996, -0.0005483978893607855]","[0.0, -1.5707963267948966, 0.0, 0.0, 0.0, 0.0]","[0.0, -1.5707963267948966, 0.0, 0.0, 0.0, 0.0]",0.002,7,1
0,-1,"[9.56482908804901e-05, -1.5707711559301352, -1.6505480743944645e-05, 8.861600842280382e-05, 3.1828880310058594e-05, 5.125097595737316e-05]","[5.614519498284472e-30, 0.00012345802679192275, 0.0005257242009975016, -0.0005673085688613355, -0.0011595649411901832, -0.0005177167477086186]","[0.0, -1.5707963267948966, 0.0, 0.0, 0.0, 0.0]","[0.0, -1.5707963267948966, 0.0, 0.0, 0.0, 0.0]",0.002,7,1
0,-1,"[7.462501525878906e-05, -1.5707886976054688, -1.0263920557918027e-05, 8.11058231811046e-05, 1.9669546418299433e-06, 8.418899233220145e-05]","[0.0, -0.0010662648128345609, 0.0002775739412754774, -0.0002894380013458431, -0.0008744776132516563, -0.0008639489533379674]","[0.0, -1.5707963267948966, 0.0, 0.0, 0.0, 0.0]","[0.0, -1.5707963267948966, 0.0, 0.0, 0.0, 0.0]",0.002,7,1
0,-1,"[7.744359754724428e-05, -1.5707975826659144, -3.626096076914109e-05, 0.00013486921276850694, 5.4305364756146446e-05, 2.2616666683461517e-05]","[0.0, -0.0005952619249001145, 0.0002359837671974674, -0.0007746446062810719, -0.0008807735284790397, -0.0012038064887747169]","[0.0, -1.5707963267948966, 0.0, 0.0, 0.0, 0.0]","[0.0, -1.5707963267948966, 0.0, 0.0, 0.0, 0.0]",0.002,7,1
0,-1,"[0.00011223959882045165, -1.5707934659770508, -3.910064697265625e-05, 0.00011400758709712022, -2.843538393193512e-05, 1.52587890625e-05]","[0.0, -6.75634655635804e-05, 0.0001869599218480289, -0.0006050810334272683, -0.0009788470342755318, -0.0006455758702941239]","[0.0, -1.5707963267948966, 0.0, 0.0, 0.0, 0.0]","[0.0, -1.5707963267948966, 0.0, 0.0, 0.0, 0.0]",0.002,7,1
0,-1,"[5.7869434385793284e-05, -1.5707289911554945, 8.885060445606996e-06, 6.20323368529796e-05, 1.3887882232666016e-05, -1.794496645146637e-05]","[0.0, -1.660433341323491e-33, 0.00014202031888999045, -0.0008852973114699125, -0.00035218443372286856, -0.00039440629188902676]","[0.0, -1.5707963267948966, 0.0, 0.0, 0.0, 0.0]","[0.0, -1.5707963267948966, 0.0, 0.0, 0.0, 0.0]",0.002,7,1
0,-1,"[0.00014976406237110496, -1.5708190403380335, -3.3065080060623586e-05, 1.2083644531202253e-05, -3.892580141240387e-05, -5.990663637334137e-05]","[-0.0001776626886567101, 4.118702054256573e-05, 0.00011862217797897756, -0.0004121320671401918, -0.00039714467129670084, -0.00022234625066630542]","[0.0, -1.5707963267948966, 0.0, 0.0, 0.0, 0.0]","[0.0, -1.5707963267948966, 0.0, 0.0, 0.0, 0.0]",0.002,7,1
0,-1,"[0.00010470557026565075, -1.5708023510374964, -2.390837653365452e-05, 1.661359753413194e-05, -1.5083943502247621e-05, -8.885060445606996e-06]","[-0.00016634391795378178, 1.9075355934550453e-22, 8.911294571589679e-05, -0.0003135085862595588, -0.00026665470795705914, -0.00020988332107663155]","[0.0, -1.5707963267948966, 0.0, 0.0, 0.0, 0.0]","[0.0, -1.5707963267948966, 0.0, 0.0, 0.0, 0.0]",0.002,7,1
0,-1,"[8.199477451853454e-05, -1.5707980595030726, -1.1826768968603574e-06, 2.4481410644483503e-05, -1.7468129293263246e-05, 2.7179718017578125e-05]","[-0.00011377163900760934, 8.2915216134474e-32, 8.322699432028458e-05, -0.0002606400230433792, -0.00022031133994460106, -0.00018327386351302266]","[0.0, -1.5707963267948966, 0.0, 0.0, 0.0, 0.0]","[0.0, -1.5707963267948966, 0.0, 0.0, 0.0, 0.0]",0.002,7,1
0,-1,"[3.8477166526718065e-05, -1.5707604532293153, -7.454613296431489e-06, -3.2619839050340715e-05, 1.8358230590820312e-05, 4.5366454287432134e-05]","[-0.00033540697768330574, 4.834479701920619e-43, 7.711463695159182e-05, -0.00025240430841222405, -0.00020810366549994797, -0.00015122059267014265]","[0.0, -1.5707963267948966, 0.0, 0.0, 0.0, 0.0]","[0.0, -1.5707963267948966, 0.0, 0.0, 0.0, 0.0]",0.002,7,1
0,-1,"[6.246566772460938e-05, -1.5707094050706765, -7.427106538671069e-06, -2.817516662645403e-06, 4.093988536624238e-05, 1.9755905668716878e-05]","[-0.00045460351975634694, 0.0001663956354605034, 7.938579801702872e-05, -0.00021200766786932945, -0.00012938320287503302, -0.00013932397996541113]","[0.0, -1.5707963267948966, 0.0, 0.0, 0.0, 0.0]","[0.0, -1.5707963267948966, 0.0, 0.0, 0.0, 0.0]",0.002,7,1
0,-1,"[-3.163014547169496e-06, -1.5707695554559287, -7.424235263897572e-06, -3.71497920532704e-05, 4.8405490815639496e-05, 3.1685827707406133e-05]","[-0.0002759084745775908, 6.021961667102005e-07, 6.519695011159532e-33, -0.00014705337525811046, -0.00012653139128815383, -0.00011718939640559256]","[0.0, -1.5707963267948966, 0.0, 0.0, 0.0, 0.0]","[0.0, -1.5707963267948966, 0.0, 0.0, 0.0, 0.0]",0.002,7,1
0,-1,"[4.144239210290834e-05, -1.5708686314024867, -2.8489463147707283e-05, -1.6288166381883684e-05, -1.5083943502247621e-05, -2.5097523824513246e-05]","[-0.00025914038997143507, 6.321154298003982e-22, -0.0, -0.0001264005695702508, -0.00010903070506174117, -0.00010200918768532574]","[0.0, -1.5707963267948966, 0.0, 0.0, 0.0, 0.0]","[0.0, -1.5707963267948966, 0.0, 0.0, 0.0, 0.0]",0.002,7,1
0,-1,"[4.301071021473035e-05, -1.5708190403380335, -1.4800290045968723e-05, -3.71497920532704e-05, 4.394154530018568e-05, 2.8993605155847035e-05]","[-0.000245569710386917, -0.00017878295329865068, -0.0, -0.00010664886212907732, -9.877423872239888e-05, -9.29763846215792e-05]","[0.0, -1.5707963267948966, 0.0, 0.0, 0.0, 0.0]","[0.0, -1.5707963267948966, 0.0, 0.0, 0.0, 0.0]",0.002,7,1
0,-1,"[4.301071021473035e-05, -1.5707875741776043, 1.3653432027638246e-05, 1.6271557612412835e-07, 1.562640318297781e-05, 2.8930024200235493e-05]","[-0.0007875881274230778, -8.778972215850445e-08, -0.0, -4.827683710573183e-07, -9.028131171362475e-05, -8.541320858057588e-05]","[0.0, -1.5707963267948966, 0.0, 0.0, 0.0, 0.0]","[0.0, -1.5707963267948966, 0.0, 0.0, 0.0, 0.0]",0.002,7,1
0,-1,"[1.904964301502332e-05, -1.570753116375574, 1.794496645146637e-05, -2.367914233403212e-05, -1.7468129293263246e-05, 0.0]","[-0.0005933628417551517, -6.868623463304777e-21, -0.0, -2.442300283520449e-15, -8.205069025279954e-05, -7.800981256878003e-05]","[0.0, -1.5707963267948966, 0.0, 0.0, 0.0, 0.0]","[0.0, -1.5707963267948966, 0.0, 0.0, 0.0, 0.0]",0.002,7,1
0,-1,"[5.960202179267071e-05, -1.570738036520499, 3.2726918355763246e-05, 2.5554294250440535e-05, -3.892580141240387e-05, -2.557436098271637e-05]","[0.00023088784655556083, -2.9855976646478598e-30, -0.0, -2.898196912728591e-21, -7.703427399974316e-05, -7.346166239585727e-05]","[0.0, -1.5707963267948966, 0.0, 0.0, 0.0, 0.0]","[0.0, -1.5707963267948966, 0.0, 0.0, 0.0, 0.0]",0.002,7,1
0,-1,"[6.572151323780417e-05, -1.570772493369379, 1.6514454976856996e-05, -1.6288166381883684e-05, -3.415742983037262e-05, 2.4315802875207737e-05]","[8.073602897414608e-18, -2.802596928649634e-45, -0.0, -9.573131013153163e-31, -7.017004099907354e-05, -9.7933536835626e-09]","[0.0, -1.5707963267948966, 0.0, 0.0, 0.0, 0.0]","[0.0, -1.5707963267948966, 0.0, 0.0, 0.0, 0.0]",0.002,7,1
0,-1,"[3.113484490313567e-05, -1.5707875981373327, 3.7495289937794496e-05, 7.434482238721785e-06, 1.556573624839075e-05, 2.2592657842324115e-05]","[0.0, -2.7346331989974715e-05, -0.0, -0.0, -3.837768071994056e-24, -6.976687242073838e-29]","[0.0, -1.5707963267948966, 0.0, 0.0, 0.0, 0.0]","[0.0, -1.5707963267948966, 0.0, 0.0, 0.0, 0.0]",0.002,7,1
0,-1,"[9.350787877338007e-07, -1.5707695314925623, 1.794496645146637e-05, 1.2083644531202253e-05, -1.985231508427887e-05, -7.788287561538709e-07]","[0.0, -1.2803480073356073e-22, -0.0, -0.0, -2.108105763909407e-05, -9.82436340353486e-41]","[0.0, -1.5707963267948966, 0.0, 0.0, 0.0, 0.0]","[0.0, -1.5707963267948966, 0.0, 0.0, 0.0, 0.0]",0.002,7,1
0,-1,"[9.992359991883859e-06, -1.570836683312887, 1.3653432027638246e-05, 1.9951457641553816e-05, -1.7468129293263246e-05, -7.788287561538709e-07]","[0.0, -5.565313351778825e-32, -0.0, -0.0, -1.9914201402571052e-05, -0.0]","[0.0, -1.5707963267948966, 0.0, 0.0, 0.0, 0.0]","[0.0, -1.5707963267948966, 0.0, 0.0, 0.0, 0.0]",0.002,7,1
0,-1,"[2.6556599550531246e-05, -1.5708233318724574, 1.0792409078419496e-05, 1.6271557612412835e-07, 1.8358230590820312e-05, 3.1685827707406133e-05]","[0.0, -3.2510124372335756e-43, -0.0, -0.0, -1.542969853447762e-12, -0.0]","[0.0, -1.5707963267948966, 0.0, 0.0, 0.0, 0.0]","[0.0, -1.5707963267948966, 0.0, 0.0, 0.0, 0.0]",0.002,7,1
0,-1,"[1.7526388546684757e-05, -1.5708190403380335, -7.427106538671069e-06, 4.0932292602491316e-05, -6.024037496388246e-06, -2.9865895406544496e-05]","[0.0, 0.0, -0.0, -0.0, -3.327740308915179e-23, -0.0]","[0.0, -1.5707963267948966, 0.0, 0.0, 0.0, 0.0]","[0.0, -1.5707963267948966, 0.0, 0.0, 0.0, 0.0]",0.002,7,1
0,-1,"[3.8504600524902344e-05, -1.5707975826659144, 1.794496645146637e-05, 1.2083644531202253e-05, 2.7502059310791083e-05, -5.547200338185121e-06]","[0.0, 0.0, -0.0, -0.0, -8.51667167662694e-40, -0.0]","[0.0, -1.5707963267948966, 0.0, 0.0, 0.0, 0.0]","[0.0, -1.5707963267948966, 0.0, 0.0, 0.0, 0.0]",0.002,7,1
0,-1,"[5.057208181824535e-05, -1.5707830741015023, -4.538738721748814e-05, -3.71497920532704e-05, 6.4373016357421875e-06, -3.701845277959137e-05]","[-7.285478932317346e-05, 0.0, -0.0, -0.0, -0.0, -0.0]","[0.0, -1.5707963267948966, 0.0, 0.0, 0.0, 0.0]","[0.0, -1.5707963267948966, 0.0, 0.0, 0.0, 0.0]",0.002,7,1
0,-1,"[2.640676257215091e-06, -1.5708614788451136, -2.7179718017578125e-05, -1.1758213378953997e-05, -6.372133363896637e-05, 3.301091055618599e-06]","[-9.467303607380018e-05, 0.0, -0.0, -0.0, -0.0, -0.0]","[0.0, -1.5707963267948966, 0.0, 0.0, 0.0, 0.0]","[0.0, -1.5707963267948966, 0.0, 0.0, 0.0, 0.0]",0.002,7,1
0,-1,"[4.759823787026107e-05, -1.5708142719664515, 2.271333803349762e-05, 2.9130572936963972e-05, -1.5083943502247621e-05, -4.116688863575746e-06]","[-8.600314322393388e-05, 0.0, -0.0, -0.0, -0.0, -0.0]","[0.0, -1.5707963267948966, 0.0, 0.0, 0.0, 0.0]","[0.0, -1.5707963267948966, 0.0, 0.0, 0.0, 0.0]",0.002,7,1
0,-1,"[2.8124610253144056e-05, -1.5707906138998915, -4.9905422201845795e-05, 1.661359753413194e-05, -3.5587941304981996e-05, -2.9865895406544496e-05]","[-6.0760652559110895e-05, 0.0, -0.0, -0.0, -0.0, -0.0]","[0.0, -1.5707963267948966, 0.0, 0.0, 0.0, 0.0]","[0.0, -1.5707963267948966, 0.0, 0.0, 0.0, 0.0]",0.002,7,1
0,1,"[9.44382009038236e-07, -1.5707695314943813, -7.424235263897572e-06, 9.103412292432722e-06, 2.7502059310791083e-05, -1.3653432027638246e-05]","[-3.6532388225651857e-09, 0.0, -0.0, -0.0, -0.0, -0.0]","[0.08765894793109064, -1.4831373788638058, 0.08765894793109064, 0.08765894793109064, 0.08765894793109064, 0.08765894793109064]","[0.08765894793109064, -1.4831373788638058, 0.08765894793109064, 0.08765894793109064, 0.08765894793109064, 0.08765894793109064]",0.002,7,1
0,2,"[3.8577440136577934e-05, -1.570574324727506, 0.0001443068133752945, 8.575498547358507e-05, 4.66823585156817e-05, 0.00010548976570134982]","[0.03531418368220329, 0.16603189706802368, 0.11557614803314209, 0.058267440646886826, 0.04767467826604843, 0.05052044987678528]","[0.08850819476859928, -1.4822881320262973, 0.08850819476859928, 0.08850819476859928, 0.08850819476859928, 0.08850819476859928]","[0.08850819476859928, -1.4822881320262973, 0.08850819476859928, 0.08850819476859928, 0.08850819476859928, 0.08850819476859928]",0.002,7,1
0,3,"[3.8577440136577934e-05, -1.570574324727506, 0.0001443068133752945, 8.575498547358507e-05, 4.66823585156817e-05, 0.00010548976570134982]","[0.03531418368220329, 0.16603189706802368, 0.11557614803314209, 0.058267440646886826, 0.04767467826604843, 0.05052044987678528]","[0.08935688209272531, -1.4814394447021713, 0.08935688209272531, 0.08935688209272531, 0.08935688209272531, 0.08935688209272531]","[0.08935688209272531, -1.4814394447021713, 0.08935688209272531, 0.08935688209272531, 0.08935688209272531, 0.08935688209272531]",0.002,7,1
0,4,"[0.00011227571667404845, -1.570349380145064, 0.00028115907777959137, 0.00021056711163325303, 0.0003279457159806043, 0.00028667639708146453]","[0.04639323800802231, 0.20104371011257172, 0.14180968701839447, 0.09011440724134445, 0.08250293135643005, 0.07957189530134201]","[0.09020500453840717, -1.4805913222564895, 0.09020500453840717, 0.09020500453840717, 0.09020500453840717, 0.09020500453840717]","[0.09020500453840717, -1.4805913222564895, 0.09020500453840717, 0.09020500453840717, 0.09020500453840717, 0.09020500453840717]",0.002,7,1
0,5,"[0.00029395855381153524, -1.5700192529223678, 0.0005486647235315445, 0.00031868993725581163, 0.0004180793766863644, 0.0004446544626262039]","[0.05510077252984047, 0.1967189460992813, 0.14031505584716797, 0.098939448595047, 0.09490784257650375, 0.09591540694236755]","[0.09105255674415423, -1.4797437700507423, 0.09105255674415423, 0.09105255674415423, 0.09105255674415423, 0.09105255674415423]","[0.09105255674415423, -1.4797437700507423, 0.09105255674415423, 0.09105255674415423, 0.09105255674415423, 0.09105255674415423]",0.002,7,1
0,6,"[0.000495032116305083, -1.569702607961819, 0.0008352438556116226, 0.000511928195617628, 0.0006192989530973136, 0.0006863746093586087]","[0.07825133949518204, 0.19433264434337616, 0.14632998406887054, 0.10225818306207657, 0.10207371413707733, 0.10214473307132721]","[0.09189953335208066, -1.4788967934428159, 0.09189953335208066, 0.09189953335208066, 0.09189953335208066, 0.09189953335208066]","[0.09189953335208066, -1.4788967934428159, 0.09189953335208066, 0.09189953335208066, 0.09189953335208066, 0.09189953335208066]",0.002,7,1
0,7,"[0.0007124025723896921, -1.5692829323564474, 0.0012381712542932632, 0.0007230478474120616, 0.0008148975321091712, 0.0008309740805998445]","[0.10356111824512482, 0.20727086067199707, 0.16754020750522614, 0.11529738456010818, 0.11488153785467148, 0.11866959184408188]","[0.0927459290079393, -1.4780503977869572, 0.0927459290079393, 0.0927459290079393, 0.0927459290079393, 0.0927459290079393]","[0.0927459290079393, -1.4780503977869572, 0.0927459290079393, 0.0927459290079393, 0.0927459290079393, 0.0927459290079393]",0.002,7,1
0,8,"[0.0009977950248867273, -1.5688672791332756, 0.0016477743731897476, 0.0010920005985717296, 0.000999624258838594, 0.0011132643558084965]","[0.12610076367855072, 0.21830585598945618, 0.18075694143772125, 0.13029542565345764, 0.13049957156181335, 0.13210321962833405]","[0.09359173836115567, -1.4772045884337408, 0.09359173836115567, 0.09359173836115567, 0.09359173836115567, 0.09359173836115567]","[0.09359173836115567, -1.4772045884337408, 0.09359173836115567, 0.09359173836115567, 0.09359173836115567, 0.09359173836115567]",0.002,7,1
0,9,"[0.0013597317738458514, -1.5685433189249416, 0.002045456563131154, 0.0014995771595458507, 0.0013438358437269926, 0.0013843075139448047]","[0.15565341711044312, 0.20308534801006317, 0.17711620032787323, 0.15303614735603333, 0.14815537631511688, 0.14886194467544556]","[0.09443695606486147, -1.476359370730035, 0.09443695606486147, 0.09443695606486147, 0.09443695606486147, 0.09443695606486147]","[0.09443695606486147, -1.476359370730035, 0.09443695606486147, 0.09443695606486147, 0.09443695606486147, 0.09443695606486147]",0.002,7,1
0,10,"[0.0017505817813798785, -1.5683306185859074, 0.002350632344381154, 0.0019150215336303233, 0.0015513553516939282, 0.0017128961626440287]","[0.17994508147239685, 0.16743230819702148, 0.15944157540798187, 0.17430764436721802, 0.16383345425128937, 0.16703063249588013]","[0.09528157677592872, -1.4755147500189678, 0.09528157677592872, 0.09528157677592872, 0.09528157677592872, 0.09528157677592872]","[0.09528157677592872, -1.4755147500189678, 0.09528157677592872, 0.09528157677592872, 0.09528157677592872, 0.09528157677592872]",0.002,7,1
0,11,"[0.002124517923220992, -1.568038278758042, 0.0025365988360803726, 0.0022587019154052257, 0.0019122271332889795, 0.0021080169826745987]","[0.19477105140686035, 0.13524530827999115, 0.17602664232254028, 0.19700036942958832, 0.18035505712032318, 0.18409742414951324]","[0.09612559515500335, -1.4746707316398933, 0.09612559515500335, 0.09612559515500335, 0.09612559515500335, 0.09612559515500335]","[0.09612559515500335, -1.4746707316398933, 0.09612559515500335, 0.09612559515500335, 0.09612559515500335, 0.09612559515500335]",0.002,7,1
0,12,"[0.002454059896990657, -1.5677201175461342, 0.0028460661517542007, 0.002525134677551222, 0.00237612915225327, 0.0024821378756314516]","[0.2069900780916214, 0.16931529343128204, 0.19896893203258514, 0.205918550491333, 0.19935904443264008, 0.20140402019023895]","[0.09696900586653895, -1.4738273209283577, 0.09696900586653895, 0.09696900586653895, 0.09696900586653895, 0.09696900586653895]","[0.09696900586653895, -1.4738273209283577, 0.09696900586653895, 0.09696900586653895, 0.09696900586653895, 0.09696900586653895]",0.002,7,1
0,13,"[0.0028024185448884964, -1.5674771422385056, 0.0032218138324182632, 0.0028452116199950694, 0.0028361245058476925, 0.002918404759839177]","[0.21805424988269806, 0.2008410394191742, 0.2034803330898285, 0.20900395512580872, 0.220427468419075, 0.21630893647670746]","[0.09781180357883058, -1.4729845232160659, 0.09781180357883058, 0.09781180357883058, 0.09781180357883058, 0.09781180357883058]","[0.09781180357883058, -1.4729845232160659, 0.09781180357883058, 0.09781180357883058, 0.09781180357883058, 0.09781180357883058]",0.002,7,1
0,14,"[0.003338242182508111, -1.5671079885545005, 0.003648106251851857, 0.0032382446476439952, 0.003321827156469226, 0.003376476000994444]","[0.23476028442382812, 0.21265865862369537, 0.2150556892156601, 0.21954302489757538, 0.2446914166212082, 0.23307067155838013]","[0.09865398296404841, -1.472142343830848, 0.09865398296404841, 0.09865398296404841, 0.09865398296404841, 0.09865398296404841]","[0.09865398296404841, -1.472142343830848, 0.09865398296404841, 0.09865398296404841, 0.09865398296404841, 0.09865398296404841]",0.002,7,1
0,15,"[0.0038588624447584152, -1.5666774672320862, 0.00419027010072881, 0.0038032966801146983, 0.0039051962085068226, 0.0039290618151426315]","[0.25275251269340515, 0.22310060262680054, 0.2326258420944214, 0.23754054307937622, 0.25869253277778625, 0.25113406777381897]","[0.0994955386982715, -1.4713007880966251, 0.0994955386982715, 0.0994955386982715, 0.0994955386982715, 0.0994955386982715]","[0.0994955386982715, -1.4713007880966251, 0.0994955386982715, 0.0994955386982715, 0.0994955386982715, 0.0994955386982715]",0.002,7,1
0,16,"[0.004484046716243029, -1.5661555028385301, 0.004750553761617482, 0.004401846522949171, 0.004388576373457909, 0.00446602888405323]","[0.2728153467178345, 0.2382572889328003, 0.2598044276237488, 0.26405373215675354, 0.2756897509098053, 0.2679373621940613]","[0.10033646546152125, -1.4704598613333753, 0.10033646546152125, 0.10033646546152125, 0.10033646546152125, 0.10033646546152125]","[0.10033646546152125, -1.4704598613333753, 0.10033646546152125, 0.10033646546152125, 0.10033646546152125, 0.10033646546152125]",0.002,7,1
0,17,"[0.005162751767784357, -1.5656561444378276, 0.005336586629049123, 0.005105300540588331, 0.0049629961140453815, 0.005037812981754541]","[0.29370155930519104, 0.2590908408164978, 0.2820940911769867, 0.2944044768810272, 0.2892206907272339, 0.290010005235672]","[0.10117675793779526, -1.4696195688571012, 0.10117675793779526, 0.10117675793779526, 0.10117675793779526, 0.10117675793779526]","[0.10117675793779526, -1.4696195688571012, 0.10117675793779526, 0.10117675793779526, 0.10117675793779526, 0.10117675793779526]",0.002,7,1
0,18,"[0.00579978758469224, -1.5651236719316621, 0.005892101918355763, 0.0057214933582763194, 0.0056364331394433975, 0.0056747570633888245]","[0.3137210011482239, 0.2797045111656189, 0.30060088634490967, 0.3187207579612732, 0.30425986647605896, 0.3073596954345703]","[0.10201641081510086, -1.4687799159797956, 0.10201641081510086, 0.10201641081510086, 0.10201641081510086, 0.10201641081510086]","[0.10201641081510086, -1.4687799159797956, 0.10201641081510086, 0.10201641081510086, 0.10201641081510086, 0.10201641081510086]",0.002,7,1
0,19,"[0.006469176150858402, -1.5645596480793138, 0.006522957478658498, 0.00632731496777339, 0.006207122467458248, 0.006304774433374405]","[0.33161264657974243, 0.29708555340766907, 0.315650999546051, 0.3338175415992737, 0.32128697633743286, 0.32508379220962524]","[0.10285541878548858, -1.467940908009408, 0.10285541878548858, 0.10285541878548858, 0.10285541878548858, 0.10285541878548858]","[0.10285541878548858, -1.467940908009408, 0.10285541878548858, 0.10285541878548858, 0.10285541878548858, 0.10285541878548858]",0.002,7,1
0,20,"[0.007064993493258953, -1.563905719002225, 0.007146183644429982, 0.006979866618774366, 0.00707232765853405, 0.006968672387301922]","[0.3442181944847107, 0.3139994740486145, 0.32883211970329285, 0.34075331687927246, 0.3420341908931732, 0.34067535400390625]","[0.10369377654508585, -1.4671025502498107, 0.10369377654508585, 0.10369377654508585, 0.10369377654508585, 0.10369377654508585]","[0.10369377654508585, -1.4671025502498107, 0.10369377654508585, 0.10369377654508585, 0.10369377654508585, 0.10369377654508585]",0.002,7,1
0,21,"[0.007762215565890074, -1.5633388974568625, 0.00782949129213506, 0.0076157289692382335, 0.0077406312339007854, 0.007685515563935041]","[0.3574664294719696, 0.3289529085159302, 0.3446412682533264, 0.3480713367462158, 0.36065998673439026, 0.35879138112068176]","[0.10453147879413045, -1.466264848000766, 0.10453147879413045, 0.10453147879413045, 0.10453147879413045, 0.10453147879413045]","[0.10453147879413045, -1.466264848000766, 0.10453147879413045, 0.10453147879413045, 0.10453147879413045, 0.10453147879413045]",0.002,7,1
0,22,"[0.008484108373522758, -1.5625677223182102, 0.00852519670595342, 0.008365793819091749, 0.008526934310793877, 0.008417355827987194]","[0.3706047534942627, 0.34719768166542053, 0.3606517016887665, 0.35940787196159363, 0.38005614280700684, 0.373888224363327]","[0.10536852023700408, -1.4654278065578925, 0.10536852023700408, 0.10536852023700408, 0.10536852023700408, 0.10536852023700408]","[0.10536852023700408, -1.4654278065578925, 0.10536852023700408, 0.10536852023700408, 0.10536852023700408, 0.10536852023700408]",0.002,7,1
0,23,"[0.009318140335381031, -1.5618507045185943, 0.009365860615865529, 0.009279294604919386, 0.009247960522770882, 0.009182100184261799]","[0.3874397277832031, 0.3642454743385315, 0.37724757194519043, 0.3800105154514313, 0.39687231183052063, 0.39017313718795776]","[0.1062048955822657, -1.464591431212631, 0.1062048955822657, 0.1062048955822657, 0.1062048955822657, 0.1062048955822657]","[0.1062048955822657, -1.464591431212631, 0.1062048955822657, 0.1062048955822657, 0.1062048955822657, 0.1062048955822657]",0.002,7,1
0,24,"[0.010195931419730186, -1.561091792104282, 0.010187451039449513, 0.010142489070556593, 0.010028942488133907, 0.010013534687459469]","[0.4089106321334839, 0.38203752040863037, 0.3950127959251404, 0.4055294394493103, 0.40915945172309875, 0.4080893397331238]","[0.10704059954268516, -1.4637557272522115, 0.10704059954268516, 0.10704059954268516, 0.10704059954268516, 0.10704059954268516]","[0.10704059954268516, -1.4637557272522115, 0.10704059954268516, 0.10704059954268516, 0.10704059954268516, 0.10704059954268516]",0.002,7,1
0,25,"[0.011014807038009167, -1.560239745569863, 0.01091939607729131, 0.011047168368957472, 0.010899052955210209, 0.010902327485382557]","[0.42922064661979675, 0.4004760980606079, 0.4127238690853119, 0.432123064994812, 0.4223109185695648, 0.4250946044921875]","[0.10787562683527654, -1.46292069995962, 0.10787562683527654, 0.10787562683527654, 0.10787562683527654, 0.10787562683527654]","[0.10787562683527654, -1.46292069995962, 0.10787562683527654, 0.10787562683527654, 0.10787562683527654, 0.10787562683527654]",0.002,7,1
0,26,"[0.011900237761437893, -1.5594255731305857, 0.011863533650533498, 0.01195935785260005, 0.011640114709734917, 0.011709140613675117]","[0.44563615322113037, 0.42079347372055054, 0.43336376547813416, 0.45135921239852905, 0.43649089336395264, 0.44281983375549316]","[0.1087099721813315, -1.462086354613565, 0.1087099721813315, 0.1087099721813315, 0.1087099721813315, 0.1087099721813315]","[0.1087099721813315, -1.462086354613565, 0.1087099721813315, 0.1087099721813315, 0.1087099721813315, 0.1087099721813315]",0.002,7,1
0,27,"[0.01273991446942091, -1.5585520223579188, 0.012672249470845998, 0.012814326877258253, 0.01264183595776558, 0.012646174989640713]","[0.45835837721824646, 0.4392796456813812, 0.44915124773979187, 0.46310490369796753, 0.45672211050987244, 0.4599003195762634]","[0.10954363030645263, -1.461252696488444, 0.10954363030645263, 0.10954363030645263, 0.10954363030645263, 0.10954363030645263]","[0.10954363030645263, -1.461252696488444, 0.10954363030645263, 0.10954363030645263, 0.10954363030645263, 0.10954363030645263]",0.002,7,1
0,28,"[0.013696813955903053, -1.5575727850994845, 0.013691250477926076, 0.013710899943969679, 0.013644056394696236, 0.013536831364035606]","[0.46963757276535034, 0.4592919647693634, 0.46183156967163086, 0.4706815183162689, 0.4765104055404663, 0.47744831442832947]","[0.11037659594058698, -1.4604197308543097, 0.11037659594058698, 0.11037659594058698, 0.11037659594058698, 0.11037659594058698]","[0.11037659594058698, -1.4604197308543097, 0.11037659594058698, 0.11037659594058698, 0.11037659594058698, 0.11037659594058698]",0.002,7,1
0,29,"[0.014726494438946247, -1.5565873443013807, 0.014607254658834279, 0.014741702670715284, 0.014637437649071217, 0.01460075844079256]","[0.4854596257209778, 0.4798488914966583, 0.48323145508766174, 0.4797919988632202, 0.49488770961761475, 0.49391964077949524]","[0.11120886381805924, -1.4595874629768373, 0.11120886381805924, 0.11120886381805924, 0.11120886381805924, 0.11120886381805924]","[0.11120886381805924, -1.4595874629768373, 0.11120886381805924, 0.11120886381805924, 0.11120886381805924, 0.11120886381805924]",0.002,7,1
0,30,"[0.015731006860733032, -1.5556307996487995, 0.015599552785054982, 0.01577238618817134, 0.01560328621417284, 0.015576289035379887]","[0.5060905814170837, 0.4995741546154022, 0.49668020009994507, 0.49373242259025574, 0.508168637752533, 0.5080880522727966]","[0.11204042867760493, -1.4587558981172917, 0.11204042867760493, 0.11204042867760493, 0.11204042867760493, 0.11204042867760493]","[0.11204042867760493, -1.4587558981172917, 0.11204042867760493, 0.11204042867760493, 0.11204042867760493, 0.11204042867760493]",0.002,7,1
0,31,"[0.016794651746749878, -1.5545657847872754, 0.016652886067525685, 0.01675812780346675, 0.01660909317433834, 0.016604170203208923]","[0.5229637622833252, 0.5161789655685425, 0.5149363279342651, 0.5123746991157532, 0.5252820253372192, 0.5248755812644958]","[0.11287128526240384, -1.4579250415324927, 0.11287128526240384, 0.11287128526240384, 0.11287128526240384, 0.11287128526240384]","[0.11287128526240384, -1.4579250415324927, 0.11287128526240384, 0.11287128526240384, 0.11287128526240384, 0.11287128526240384]",0.002,7,1
0,32,"[0.017793837934732437, -1.5535078153810282, 0.017667118703023732, 0.01787511884655757, 0.017665434628725052, 0.017683200538158417]","[0.5370057821273804, 0.532598614692688, 0.5297345519065857, 0.5324071645736694, 0.5379830002784729, 0.5416242480278015]","[0.11370142832011325, -1.4570948984747834, 0.11370142832011325, 0.11370142832011325, 0.11370142832011325, 0.11370142832011325]","[0.11370142832011325, -1.4570948984747834, 0.11370142832011325, 0.11370142832011325, 0.11370142832011325, 0.11370142832011325]",0.002,7,1
0,33,"[0.018917584791779518, -1.552392541696765, 0.018822971974508107, 0.018991156215331984, 0.018774989992380142, 0.018840819597244263]","[0.5478538274765015, 0.5512607097625732, 0.5475879907608032, 0.5511620044708252, 0.5521653890609741, 0.5555328726768494]","[0.11453085260290095, -1.4562654741919956, 0.11453085260290095, 0.11453085260290095, 0.11453085260290095, 0.11453085260290095]","[0.11453085260290095, -1.4562654741919956, 0.11453085260290095, 0.11453085260290095, 0.11453085260290095, 0.11453085260290095]",0.002,7,1
0,34,"[0.020019693300127983, -1.5512225118330498, 0.019888226185933888, 0.020042701358459425, 0.019930949434638023, 0.019907649606466293]","[0.5637761354446411, 0.5671216249465942, 0.5689373016357422, 0.5683744549751282, 0.5677549242973328, 0.5710170865058899]","[0.11535955286747862, -1.4554367739274179, 0.11535955286747862, 0.11535955286747862, 0.11535955286747862, 0.11535955286747862]","[0.11535955286747862, -1.4554367739274179, 0.11535955286747862, 0.11535955286747862, 0.11535955286747862, 0.11535955286747862]",0.002,7,1
0,35,"[0.0211771372705698, -1.5500691917589684, 0.02106935182680303, 0.021121664638183546, 0.021144364029169083, 0.02112990990281105]","[0.580725908279419, 0.5853976607322693, 0.5843777656555176, 0.5825973153114319, 0.5839977264404297, 0.5856902003288269]","[0.11618752387513484, -1.4546088029197617, 0.11618752387513484, 0.11618752387513484, 0.11618752387513484, 0.11618752387513484]","[0.11618752387513484, -1.4546088029197617, 0.11618752387513484, 0.11618752387513484, 0.11618752387513484, 0.11618752387513484]",0.002,7,1
0,36,"[0.022382332012057304, -1.5488062494299193, 0.022297207509176076, 0.022223396892211866, 0.022353043779730797, 0.022366633638739586]","[0.5979351997375488, 0.5997594594955444, 0.599567174911499, 0.5962863564491272, 0.6006034016609192, 0.5994311571121216]","[0.11701476039176834, -1.4537815664031282, 0.11701476039176834, 0.11701476039176834, 0.11701476039176834, 0.11701476039176834]","[0.11701476039176834, -1.4537815664031282, 0.11701476039176834, 0.11701476039176834, 0.11701476039176834, 0.11701476039176834]",0.002,7,1
0,37,"[0.023569095879793167, -1.547529286970832, 0.023479286824361623, 0.02343539773907466, 0.023589812219142914, 0.02356947585940361]","[0.6125549077987671, 0.6135959625244141, 0.610964834690094, 0.6107521057128906, 0.6162344217300415, 0.6139006018638611]","[0.11784125718792089, -1.4529550696069757, 0.11784125718792089, 0.11784125718792089, 0.11784125718792089, 0.11784125718792089]","[0.11784125718792089, -1.4529550696069757, 0.11784125718792089, 0.11784125718792089, 0.11784125718792089, 0.11784125718792089]",0.002,7,1
0,38,"[0.024830034002661705, -1.5462321744165202, 0.024690930043355763, 0.02460603296246333, 0.02478562854230404, 0.02484489418566227]","[0.6265498995780945, 0.6281505227088928, 0.6202467083930969, 0.6267229318618774, 0.6297547221183777, 0.6297292113304138]","[0.11866700903881057, -1.452129317756086, 0.11866700903881057, 0.11866700903881057, 0.11866700903881057, 0.11866700903881057]","[0.11866700903881057, -1.452129317756086, 0.11866700903881057, 0.11866700903881057, 0.11866700903881057, 0.11866700903881057]",0.002,7,1
0,39,"[0.02607204206287861, -1.5449284736863156, 0.025994125996724904, 0.02594105779614253, 0.026174211874604225, 0.026149597018957138]","[0.6395984888076782, 0.6425973176956177, 0.6353336572647095, 0.6431096196174622, 0.6438559889793396, 0.6424998641014099]","[0.11949201072436472, -1.451304316070532, 0.11949201072436472, 0.11949201072436472, 0.11949201072436472, 0.11949201072436472]","[0.11949201072436472, -1.451304316070532, 0.11949201072436472, 0.11949201072436472, 0.11949201072436472, 0.11949201072436472]",0.002,7,1
0,40,"[0.02739378809928894, -1.5435191050967951, 0.027298752461568654, 0.027304335231445265, 0.027433209121227264, 0.02747720293700695]","[0.6546056866645813, 0.657038688659668, 0.6575145125389099, 0.6634032130241394, 0.6579406261444092, 0.6551214456558228]","[0.12031625702925285, -1.4504800697656437, 0.12031625702925285, 0.12031625702925285, 0.12031625702925285, 0.12031625702925285]","[0.12031625702925285, -1.4504800697656437, 0.12031625702925285, 0.12031625702925285, 0.12031625702925285, 0.12031625702925285]",0.002,7,1
0,41,"[0.028666634112596512, -1.5422173396549006, 0.02867299715151006, 0.028677268619201612, 0.028811121359467506, 0.028794679790735245]","[0.6710617542266846, 0.6703547239303589, 0.6732328534126282, 0.6802676320075989, 0.6712310910224915, 0.671710193157196]","[0.1211397427429197, -1.4496565840519768, 0.1211397427429197, 0.1211397427429197, 0.1211397427429197, 0.1211397427429197]","[0.1211397427429197, -1.4496565840519768, 0.1211397427429197, 0.1211397427429197, 0.1211397427429197, 0.1211397427429197]",0.002,7,1
0,42,"[0.030050938948988914, -1.5407781314900895, 0.030057732258931935, 0.02998463689770503, 0.030216695740818977, 0.030237194150686264]","[0.6847293972969055, 0.6866205930709839, 0.686652660369873, 0.695050060749054, 0.6858220100402832, 0.6852265000343323]","[0.12196246265961823, -1.4488338641352783, 0.12196246265961823, 0.12196246265961823, 0.12196246265961823, 0.12196246265961823]","[0.12196246265961823, -1.4488338641352783, 0.12196246265961823, 0.12196246265961823, 0.12196246265961823, 0.12196246265961823]",0.002,7,1
0,43,"[0.03134291619062424, -1.5393634301475068, 0.031449143086568654, 0.031355782146118116, 0.03163408860564232, 0.03165087103843689]","[0.6985405087471008, 0.6973720788955688, 0.6977968811988831, 0.706430196762085, 0.701211154460907, 0.6987377405166626]","[0.12278441157844236, -1.4480119152164541, 0.12278441157844236, 0.12278441157844236, 0.12278441157844236, 0.12278441157844236]","[0.12278441157844236, -1.4480119152164541, 0.12278441157844236, 0.12278441157844236, 0.12278441157844236, 0.12278441157844236]",0.002,7,1
0,44,"[0.03274966776371002, -1.5379282397082825, 0.03288156190981084, 0.03277341901745601, 0.03301997855305672, 0.03310844674706459]","[0.713370680809021, 0.7090219855308533, 0.7086034417152405, 0.7196680903434753, 0.7164631485939026, 0.7119798064231873]","[0.12360558430336005, -1.4471907424915365, 0.12360558430336005, 0.12360558430336005, 0.12360558430336005, 0.12360558430336005]","[0.12360558430336005, -1.4471907424915365, 0.12360558430336005, 0.12360558430336005, 0.12360558430336005, 0.12360558430336005]",0.002,7,1
0,45,"[0.03419911488890648, -1.5365180049887677, 0.034366909657613576, 0.03433053075756831, 0.03456856682896614, 0.034496404230594635]","[0.7249487042427063, 0.7260594367980957, 0.7215759754180908, 0.7293535470962524, 0.7283935546875, 0.7219797968864441]","[0.12442597564324599, -1.4463703511516506, 0.12442597564324599, 0.12442597564324599, 0.12442597564324599, 0.12442597564324599]","[0.12442597564324599, -1.4463703511516506, 0.12442597564324599, 0.12442597564324599, 0.12442597564324599, 0.12442597564324599]",0.002,7,1
0,46,"[0.03572055697441101, -1.5350070346942921, 0.03585797945131475, 0.035910411471984816, 0.03606656193733215, 0.035978056490421295]","[0.7372959852218628, 0.7374947667121887, 0.7353668212890625, 0.7423428297042847, 0.7390201091766357, 0.7343209981918335]","[0.12524558041191447, -1.445550746382982, 0.12524558041191447, 0.12524558041191447, 0.12524558041191447, 0.12524558041191447]","[0.12524558041191447, -1.445550746382982, 0.12524558041191447, 0.12524558041191447, 0.12524558041191447, 0.12524558041191447]",0.002,7,1
0,47,"[0.037255797535181046, -1.5335254085114975, 0.037391010914937794, 0.03746788083996577, 0.03748476505279541, 0.03746804594993591]","[0.7497147917747498, 0.7537528276443481, 0.7488446235656738, 0.75667804479599, 0.7502504587173462, 0.7497586011886597]","[0.1260643934281522, -1.4447319333667443, 0.1260643934281522, 0.1260643934281522, 0.1260643934281522, 0.1260643934281522]","[0.1260643934281522, -1.4447319333667443, 0.1260643934281522, 0.1260643934281522, 0.1260643934281522, 0.1260643934281522]",0.002,7,1
0,48,"[0.03885533660650253, -1.5319443804076691, 0.03895599046816045, 0.039001746768615675, 0.03903564438223839, 0.038952987641096115]","[0.764494776725769, 0.768684446811676, 0.7644539475440979, 0.7692209482192993, 0.762546718120575, 0.7614348530769348]","[0.12688240951575097, -1.4439139172791455, 0.12688240951575097, 0.12688240951575097, 0.12688240951575097, 0.12688240951575097]","[0.12688240951575097, -1.4439139172791455, 0.12688240951575097, 0.12688240951575097, 0.12688240951575097, 0.12688240951575097]",0.002,7,1
0,49,"[0.040390919893980026, -1.5303103376976033, 0.040510002766744435, 0.040594978923461866, 0.040556129068136215, 0.04041662439703941]","[0.77618008852005, 0.7816687822341919, 0.7766410112380981, 0.7805249691009521, 0.7746432423591614, 0.77547287940979]","[0.12769962350354055, -1.443096703291356, 0.12769962350354055, 0.12769962350354055, 0.12769962350354055, 0.12769962350354055]","[0.12769962350354055, -1.443096703291356, 0.12769962350354055, 0.12769962350354055, 0.12769962350354055, 0.12769962350354055]",0.002,7,1
0,50,"[0.04191494360566139, -1.5288482543877144, 0.042000595723287404, 0.04218654214825435, 0.04207628592848778, 0.04205216467380524]","[0.7920845150947571, 0.7941545248031616, 0.7884456515312195, 0.7914644479751587, 0.7886784076690674, 0.7896054983139038]","[0.12851603022542116, -1.4422802965694754, 0.12851603022542116, 0.12851603022542116, 0.12851603022542116, 0.12851603022542116]","[0.12851603022542116, -1.4422802965694754, 0.12851603022542116, 0.12851603022542116, 0.12851603022542116, 0.12851603022542116]",0.002,7,1
0,51,"[0.043450403958559036, -1.5271671687117596, 0.04370433488954717, 0.043928785915039015, 0.04377090930938721, 0.04353007301688194]","[0.8042762875556946, 0.8083462715148926, 0.8001911640167236, 0.8019510507583618, 0.8007801175117493, 0.8027478456497192]","[0.12933162452039626, -1.4414647022745002, 0.12933162452039626, 0.12933162452039626, 0.12933162452039626, 0.12933162452039626]","[0.12933162452039626, -1.4414647022745002, 0.12933162452039626, 0.12933162452039626, 0.12933162452039626, 0.12933162452039626]",0.002,7,1
0,52,"[0.04503855109214783, -1.5255473417094727, 0.045238796864644826, 0.045584245319030714, 0.045275863260030746, 0.04518892616033554]","[0.8130797743797302, 0.8156899213790894, 0.8137842416763306, 0.8141390085220337, 0.8122576475143433, 0.8156898617744446]","[0.13014640123260515, -1.4406499255622913, 0.13014640123260515, 0.13014640123260515, 0.13014640123260515, 0.13014640123260515]","[0.13014640123260515, -1.4406499255622913, 0.13014640123260515, 0.13014640123260515, 0.13014640123260515, 0.13014640123260515]",0.002,7,1
0,53,"[0.046740904450416565, -1.5239082773080845, 0.0468671957599085, 0.04727916299786372, 0.0469302199780941, 0.04680541902780533]","[0.8207871317863464, 0.8312925696372986, 0.8204606175422668, 0.825104296207428, 0.8234233856201172, 0.8279619812965393]","[0.13096035521135554, -1.439835971583541, 0.13096035521135554, 0.13096035521135554, 0.13096035521135554, 0.13096035521135554]","[0.13096035521135554, -1.439835971583541, 0.13096035521135554, 0.13096035521135554, 0.13096035521135554, 0.13096035521135554]",0.002,7,1
0,54,"[0.0484435148537159, -1.5221997436932106, 0.04854137102235967, 0.04880003511395259, 0.04866815358400345, 0.04849700257182121]","[0.835833728313446, 0.8470107913017273, 0.8359934687614441, 0.8345203399658203, 0.834631085395813, 0.8435423374176025]","[0.13177348131115624, -1.4390228454837404, 0.13177348131115624, 0.13177348131115624, 0.13177348131115624, 0.13177348131115624]","[0.13177348131115624, -1.4390228454837404, 0.13177348131115624, 0.13177348131115624, 0.13177348131115624, 0.13177348131115624]",0.002,7,1
0,55,"[0.05012276768684387, -1.520481677060463, 0.050229851399556935, 0.05048803865399165, 0.05029643699526787, 0.050270333886146545]","[0.8499171137809753, 0.8537914752960205, 0.8487863540649414, 0.8416194319725037, 0.8488551378250122, 0.8548780679702759]","[0.1325857743917494, -1.4382105524031472, 0.1325857743917494, 0.1325857743917494, 0.1325857743917494, 0.1325857743917494]","[0.1325857743917494, -1.4382105524031472, 0.1325857743917494, 0.1325857743917494, 0.1325857743917494, 0.1325857743917494]",0.002,7,1
0,56,"[0.051865920424461365, -1.5187458109906693, 0.05196220079530889, 0.05215076982464595, 0.05199168249964714, 0.051970966160297394]","[0.8606137037277222, 0.8622902631759644, 0.8564358949661255, 0.8501745462417603, 0.8618360757827759, 0.8635146617889404]","[0.13339722931814335, -1.4373990974767532, 0.13339722931814335, 0.13339722931814335, 0.13339722931814335, 0.13339722931814335]","[0.13339722931814335, -1.4373990974767532, 0.13339722931814335, 0.13339722931814335, 0.13339722931814335, 0.13339722931814335]",0.002,7,1
0,57,"[0.053549520671367645, -1.516990964566805, 0.053678337727681935, 0.05376987039532466, 0.05366390943527222, 0.05368247255682945]","[0.8682547211647034, 0.8750565052032471, 0.8686447143554688, 0.8651546239852905, 0.8708329796791077, 0.8734350204467773]","[0.13420784096064478, -1.4365884858342517, 0.13420784096064478, 0.13420784096064478, 0.13420784096064478, 0.13420784096064478]","[0.13420784096064478, -1.4365884858342517, 0.13420784096064478, 0.13420784096064478, 0.13420784096064478, 0.13420784096064478]",0.002,7,1
0,58,"[0.055333688855171204, -1.5152479235878964, 0.05537921587099248, 0.055511637324951124, 0.055476635694503784, 0.05555768311023712]","[0.8819746375083923, 0.8807504773139954, 0.879825234413147, 0.8795264959335327, 0.8798262476921082, 0.883022665977478]","[0.13501760419489134, -1.4357787226000052, 0.13501760419489134, 0.13501760419489134, 0.13501760419489134, 0.13501760419489134]","[0.13501760419489134, -1.4357787226000052, 0.13501760419489134, 0.13501760419489134, 0.13501760419489134, 0.13501760419489134]",0.002,7,1
0,59,"[0.05712337791919708, -1.5134959381869812, 0.0571520964251917, 0.057191773051879835, 0.05724530294537544, 0.05735412985086441]","[0.891221284866333, 0.8863575458526611, 0.8863217830657959, 0.8934242129325867, 0.8939973711967468, 0.8928484916687012]","[0.13582651390188397, -1.4349698128930126, 0.13582651390188397, 0.13582651390188397, 0.13582651390188397, 0.13582651390188397]","[0.13582651390188397, -1.4349698128930126, 0.13582651390188397, 0.13582651390188397, 0.13582651390188397, 0.13582651390188397]",0.002,7,1
0,60,"[0.059025831520557404, -1.5116757576218625, 0.05891925493349248, 0.05898229658093257, 0.0591462180018425, 0.05921103432774544]","[0.9029159545898438, 0.8959663510322571, 0.8953570127487183, 0.9022897481918335, 0.9026387333869934, 0.9022638201713562]","[0.13663456496801923, -1.4341617618268774, 0.13663456496801923, 0.13663456496801923, 0.13663456496801923, 0.13663456496801923]","[0.13663456496801923, -1.4341617618268774, 0.13663456496801923, 0.13663456496801923, 0.13663456496801923, 0.13663456496801923]",0.002,7,1
0,61,"[0.06074510142207146, -1.5098892872086545, 0.060782734547750294, 0.06071691095318599, 0.061002638190984726, 0.061088040471076965]","[0.9150564074516296, 0.9012457132339478, 0.9086247682571411, 0.9109617471694946, 0.9129477739334106, 0.9106462001800537]","[0.13744175228512176, -1.4333545745097749, 0.13744175228512176, 0.13744175228512176, 0.13744175228512176, 0.13744175228512176]","[0.13744175228512176, -1.4333545745097749, 0.13744175228512176, 0.13744175228512176, 0.13744175228512176, 0.13744175228512176]",0.002,7,1
0,62,"[0.06259659677743912, -1.508004182284214, 0.06259376207460576, 0.06262974321331782, 0.0629044845700264, 0.06289630383253098]","[0.9268537759780884, 0.9116377234458923, 0.9158836603164673, 0.921872079372406, 0.923397421836853, 0.9172689318656921]","[0.13824807075047635, -1.4325482560444203, 0.13824807075047635, 0.13824807075047635, 0.13824807075047635, 0.13824807075047635]","[0.13824807075047635, -1.4325482560444203, 0.13824807075047635, 0.13824807075047635, 0.13824807075047635, 0.13824807075047635]",0.002,7,1
0,63,"[0.06441009044647217, -1.5062783297947426, 0.06444436708559209, 0.06464509546246333, 0.0648299977183342, 0.0648007020354271]","[0.9331161379814148, 0.9163499474525452, 0.9222180247306824, 0.9359920024871826, 0.9296851754188538, 0.9293514490127563]","[0.1390535152668604, -1.4317428115280362, 0.1390535152668604, 0.1390535152668604, 0.1390535152668604, 0.1390535152668604]","[0.1390535152668604, -1.4317428115280362, 0.1390535152668604, 0.1390535152668604, 0.1390535152668604, 0.1390535152668604]",0.002,7,1
0,64,"[0.06629429012537003, -1.5043273207596322, 0.06633359590639287, 0.06650738298382564, 0.06666091829538345, 0.06666548550128937]","[0.9403693079948425, 0.9209693670272827, 0.9314928650856018, 0.9451833963394165, 0.9383947253227234, 0.9347779154777527]","[0.1398580807425761, -1.4309382460523206, 0.1398580807425761, 0.1398580807425761, 0.1398580807425761, 0.1398580807425761]","[0.1398580807425761, -1.4309382460523206, 0.1398580807425761, 0.1398580807425761, 0.1398580807425761, 0.1398580807425761]",0.002,7,1
0,65,"[0.0682859942317009, -1.5024785858443757, 0.06825191179384404, 0.06845252096142573, 0.06851261854171753, 0.06849902123212814]","[0.9504725933074951, 0.9307241439819336, 0.9372137784957886, 0.9543284773826599, 0.9437877535820007, 0.9443352818489075]","[0.14066176209148248, -1.430134564703414, 0.14066176209148248, 0.14066176209148248, 0.14066176209148248, 0.14066176209148248]","[0.14066176209148248, -1.430134564703414, 0.14066176209148248, 0.14066176209148248, 0.14066176209148248, 0.14066176209148248]",0.002,7,1
0,66,"[0.07017991691827774, -1.5006235179356118, 0.07021695772279912, 0.07041351377453609, 0.07048287987709045, 0.07042999565601349]","[0.95820552110672, 0.9386959075927734, 0.9458993673324585, 0.9575506448745728, 0.9537472128868103, 0.951637864112854]","[0.14146455423302773, -1.4293317725618688, 0.14146455423302773, 0.14146455423302773, 0.14146455423302773, 0.14146455423302773]","[0.14146455423302773, -1.4293317725618688, 0.14146455423302773, 0.14146455423302773, 0.14146455423302773, 0.14146455423302773]",0.002,7,1
0,67,"[0.0721961185336113, -1.4986884605935593, 0.07206613222231084, 0.07237772523846431, 0.07236392050981522, 0.07230670750141144]","[0.9674089550971985, 0.9494601488113403, 0.9623497128486633, 0.9623591899871826, 0.9620301723480225, 0.9616810083389282]","[0.14226645209228123, -1.4285298747026154, 0.14226645209228123, 0.14226645209228123, 0.14226645209228123, 0.14226645209228123]","[0.14226645209228123, -1.4285298747026154, 0.14226645209228123, 0.14226645209228123, 0.14226645209228123, 0.14226645209228123]",0.002,7,1
0,68,"[0.07407794147729874, -1.4967537757805367, 0.07402402559389287, 0.07436601697888179, 0.07427196949720383, 0.0742129236459732]","[0.9796142578125, 0.9598021507263184, 0.9625851511955261, 0.9692848920822144, 0.9693812727928162, 0.9695271253585815]","[0.14306745059996573, -1.427728876194931, 0.14306745059996573, 0.14306745059996573, 0.14306745059996573, 0.14306745059996573]","[0.14306745059996573, -1.427728876194931, 0.14306745059996573, 0.14306745059996573, 0.14306745059996573, 0.14306745059996573]",0.002,7,1
0,69,"[0.07606276124715805, -1.4948478651097794, 0.07601291338075811, 0.07647101461376948, 0.07621165364980698, 0.07612843066453934]","[0.9839081168174744, 0.9645208120346069, 0.971135139465332, 0.98026043176651, 0.9750555157661438, 0.9789232015609741]","[0.14386754469248916, -1.4269287821024075, 0.14386754469248916, 0.14386754469248916, 0.14386754469248916, 0.14386754469248916]","[0.14386754469248916, -1.4269287821024075, 0.14386754469248916, 0.14386754469248916, 0.14386754469248916, 0.14386754469248916]",0.002,7,1
0,70,"[0.07798326760530472, -1.4928907689503212, 0.07794505754579717, 0.07846145212139888, 0.07812239974737167, 0.07807878404855728]","[0.9884726405143738, 0.9736953377723694, 0.9810790419578552, 0.9857513308525085, 0.985213577747345, 0.9894578456878662]","[0.14466672931197697, -1.4261295974829196, 0.14466672931197697, 0.14466672931197697, 0.14466672931197697, 0.14466672931197697]","[0.14466672931197697, -1.4261295974829196, 0.14466672931197697, 0.14466672931197697, 0.14466672931197697, 0.14466672931197697]",0.002,7,1
0,71,"[0.07994641363620758, -1.4909548324397583, 0.07985955873598272, 0.08035795270886226, 0.08007261157035828, 0.08012265712022781]","[0.9936548471450806, 0.9842725992202759, 0.9868625402450562, 0.9889385104179382, 0.9920451641082764, 0.996918797492981]","[0.14546499940630384, -1.4253313273885928, 0.14546499940630384, 0.14546499940630384, 0.14546499940630384, 0.14546499940630384]","[0.14546499940630384, -1.4253313273885928, 0.14546499940630384, 0.14546499940630384, 0.14546499940630384, 0.14546499940630384]",0.002,7,1
0,72,"[0.08206523209810257, -1.4889476013234635, 0.08189756075014287, 0.08226851999249263, 0.08213447779417038, 0.08211277425289154]","[1.0014500617980957, 0.9898034334182739, 0.995251476764679, 0.992811918258667, 1.0009384155273438, 1.002945899963379]","[0.14626234992912576, -1.4245339768657708, 0.14626234992912576, 0.14626234992912576, 0.14626234992912576, 0.14626234992912576]","[0.14626234992912576, -1.4245339768657708, 0.14626234992912576, 0.14626234992912576, 0.14626234992912576, 0.14626234992912576]",0.002,7,1
0,73,"[0.08406859636306763, -1.4868902576020737, 0.08389646211733037, 0.08418790876354976, 0.08407242596149445, 0.08412467688322067]","[1.0087405443191528, 0.9961952567100525, 1.0015798807144165, 0.9967284798622131, 1.0079625844955444, 1.0098884105682373]","[0.14705877583991184, -1.4237375509549848, 0.14705877583991184, 0.14705877583991184, 0.14705877583991184, 0.14705877583991184]","[0.14705877583991184, -1.4237375509549848, 0.14705877583991184, 0.14705877583991184, 0.14705877583991184, 0.14705877583991184]",0.002,7,1
0,74,"[0.0860815942287445, -1.4849098485759278, 0.08589488664735967, 0.08616749822583003, 0.08610061556100845, 0.0861937627196312]","[1.0153762102127075, 1.0029411315917969, 1.010251522064209, 1.0027332305908203, 1.0145643949508667, 1.012945532798767]","[0.1478542721039762, -1.4229420546909204, 0.1478542721039762, 0.1478542721039762, 0.1478542721039762, 0.1478542721039762]","[0.1478542721039762, -1.4229420546909204, 0.1478542721039762, 0.1478542721039762, 0.1478542721039762, 0.1478542721039762]",0.002,7,1
0,75,"[0.08812020719051361, -1.4828767639449616, 0.0879438559161585, 0.08812038480725093, 0.08821158856153488, 0.08830622583627701]","[1.02070951461792, 1.0082969665527344, 1.0094084739685059, 1.012763261795044, 1.0218626260757446, 1.0213801860809326]","[0.14864883369250992, -1.4221474931023868, 0.14864883369250992, 0.14864883369250992, 0.14864883369250992, 0.14864883369250992]","[0.14864883369250992, -1.4221474931023868, 0.14864883369250992, 0.14864883369250992, 0.14864883369250992, 0.14864883369250992]",0.002,7,1
0,76,"[0.09015596657991409, -1.4808136162212868, 0.08995372453798467, 0.09015588342633052, 0.09026815742254257, 0.0903460904955864]","[1.0249929428100586, 1.0082783699035645, 1.0172306299209595, 1.0269615650177002, 1.0252654552459717, 1.0245625972747803]","[0.1494424555826126, -1.421353871212284, 0.1494424555826126, 0.1494424555826126, 0.1494424555826126, 0.1494424555826126]","[0.1494424555826126, -1.421353871212284, 0.1494424555826126, 0.1494424555826126, 0.1494424555826126, 0.1494424555826126]",0.002,7,1
0,77,"[0.0921909511089325, -1.4787104439786454, 0.09202701250185186, 0.0922289329716186, 0.09245308488607407, 0.09247647225856781]","[1.0305527448654175, 1.0164886713027954, 1.0247164964675903, 1.0336273908615112, 1.0299489498138428, 1.0298672914505005]","[0.1502351327573243, -1.4205611940375722, 0.1502351327573243, 0.1502351327573243, 0.1502351327573243, 0.1502351327573243]","[0.1502351327573243, -1.4205611940375722, 0.1502351327573243, 0.1502351327573243, 0.1502351327573243, 0.1502351327573243]",0.002,7,1
0,78,"[0.0941716730594635, -1.4766778734377404, 0.0940788427935999, 0.09419624387707515, 0.09448768198490143, 0.09457317739725113]","[1.0379693508148193, 1.015365719795227, 1.0326117277145386, 1.0401793718338013, 1.0354124307632446, 1.0342111587524414]","[0.15102686020565723, -1.4197694665892393, 0.15102686020565723, 0.15102686020565723, 0.15102686020565723, 0.15102686020565723]","[0.15102686020565723, -1.4197694665892393, 0.15102686020565723, 0.15102686020565723, 0.15102686020565723, 0.15102686020565723]",0.002,7,1
0,79,"[0.09627123177051544, -1.4746137794903298, 0.09608775774110967, 0.09640674173321528, 0.09657753258943558, 0.09663251787424088]","[1.0431702136993408, 1.0239914655685425, 1.0334612131118774, 1.0446267127990723, 1.0404996871948242, 1.0366491079330444]","[0.1518176329226273, -1.4189786938722693, 0.1518176329226273, 0.1518176329226273, 0.1518176329226273, 0.1518176329226273]","[0.1518176329226273, -1.4189786938722693, 0.1518176329226273, 0.1518176329226273, 0.1518176329226273, 0.1518176329226273]",0.002,7,1
0,80,"[0.09842541813850403, -1.4724935081652184, 0.09823018709291631, 0.09855084001507564, 0.09872277081012726, 0.09866751730442047]","[1.0428457260131836, 1.0288268327713013, 1.0362309217453003, 1.047507882118225, 1.0444493293762207, 1.0385264158248901]","[0.15260744590928588, -1.4181888808856107, 0.15260744590928588, 0.15260744590928588, 0.15260744590928588, 0.15260744590928588]","[0.15260744590928588, -1.4181888808856107, 0.15260744590928588, 0.15260744590928588, 0.15260744590928588, 0.15260744590928588]",0.002,7,1
0,81,"[0.10050809383392334, -1.4704882216504593, 0.100318733845846, 0.1006672817417602, 0.10077137500047684, 0.100679911673069]","[1.0499155521392822, 1.0315666198730469, 1.0395288467407227, 1.0522985458374023, 1.0471141338348389, 1.0432775020599365]","[0.1533962941727514, -1.4174000326221452, 0.1533962941727514, 0.1533962941727514, 0.1533962941727514, 0.1533962941727514]","[0.1533962941727514, -1.4174000326221452, 0.1533962941727514, 0.1533962941727514, 0.1533962941727514, 0.1533962941727514]",0.002,7,1
0,82,"[0.10262162983417511, -1.468284824197628, 0.10247165361513311, 0.10283200323071284, 0.10284572094678879, 0.10273516178131104]","[1.052735686302185, 1.0381914377212524, 1.0446863174438477, 1.0529849529266357, 1.0488754510879517, 1.0464272499084473]","[0.1541841727262409, -1.4166121540686556, 0.1541841727262409, 0.1541841727262409, 0.1541841727262409, 0.1541841727262409]","[0.1541841727262409, -1.4166121540686556, 0.1541841727262409, 0.1541841727262409, 0.1541841727262409, 0.1541841727262409]",0.002,7,1
0,83,"[0.10478852689266205, -1.4662533190897484, 0.10458165804018194, 0.10509173452343745, 0.10493341088294983, 0.10481791198253632]","[1.0608831644058228, 1.0450963973999023, 1.0522465705871582, 1.0541249513626099, 1.0529344081878662, 1.051944375038147]","[0.1549710765891015, -1.415825250205795, 0.1549710765891015, 0.1549710765891015, 0.1549710765891015, 0.1549710765891015]","[0.1549710765891015, -1.415825250205795, 0.1549710765891015, 0.1549710765891015, 0.1549710765891015, 0.1549710765891015]",0.002,7,1
0,84,"[0.10685671865940094, -1.4640857887319108, 0.10671645799745733, 0.10717575132336421, 0.10692079365253448, 0.10686225444078445]","[1.064795970916748, 1.0510950088500977, 1.0589542388916016, 1.061645746231079, 1.05625581741333, 1.0583747625350952]","[0.1557570007868419, -1.4150393260080547, 0.1557570007868419, 0.1557570007868419, 0.1557570007868419, 0.1557570007868419]","[0.1557570007868419, -1.4150393260080547, 0.1557570007868419, 0.1557570007868419, 0.1557570007868419, 0.1557570007868419]",0.002,7,1
0,85,"[0.10897760838270187, -1.4620392334512253, 0.10878545442690069, 0.10941903173413081, 0.10911944508552551, 0.1089782565832138]","[1.0620313882827759, 1.0556801557540894, 1.0600003004074097, 1.0609921216964722, 1.0578269958496094, 1.0626188516616821]","[0.1565419403511639, -1.4142543864437327, 0.1565419403511639, 0.1565419403511639, 0.1565419403511639, 0.1565419403511639]","[0.1565419403511639, -1.4142543864437327, 0.1565419403511639, 0.1565419403511639, 0.1565419403511639, 0.1565419403511639]",0.002,7,1
0,86,"[0.11113302409648895, -1.45994836956773, 0.11091691652406865, 0.11155538141217036, 0.11115889996290207, 0.11111649870872498]","[1.064998984336853, 1.0631232261657715, 1.0618985891342163, 1.0629525184631348, 1.0617899894714355, 1.0692996978759766]","[0.15732589031999372, -1.413470436474903, 0.15732589031999372, 0.15732589031999372, 0.15732589031999372, 0.15732589031999372]","[0.15732589031999372, -1.413470436474903, 0.15732589031999372, 0.15732589031999372, 0.15732589031999372, 0.15732589031999372]",0.002,7,1
0,87,"[0.11318382620811462, -1.4578611341169854, 0.1130288282977503, 0.1134921747395019, 0.11334307491779327, 0.11325126886367798]","[1.0667121410369873, 1.0652092695236206, 1.066695213317871, 1.0613644123077393, 1.065496563911438, 1.0694973468780518]","[0.15810884573751346, -1.412687481057383, 0.15810884573751346, 0.15810884573751346, 0.15810884573751346, 0.15810884573751346]","[0.15810884573751346, -1.412687481057383, 0.15810884573751346, 0.15810884573751346, 0.15810884573751346, 0.15810884573751346]",0.002,7,1
0,88,"[0.1154310405254364, -1.4556923148087044, 0.11511069933046514, 0.11553160726513667, 0.1155327707529068, 0.11546549201011658]","[1.0673474073410034, 1.0681120157241821, 1.0650354623794556, 1.0590406656265259, 1.0696593523025513, 1.072721004486084]","[0.1588908016541923, -1.4119055251407042, 0.1588908016541923, 0.1588908016541923, 0.1588908016541923, 0.1588908016541923]","[0.1588908016541923, -1.4119055251407042, 0.1588908016541923, 0.1588908016541923, 0.1588908016541923, 0.1588908016541923]",0.002,7,1
0,89,"[0.11755003780126572, -1.4534980741194268, 0.11732560793031865, 0.11758427202191157, 0.11764217168092728, 0.11763690412044525]","[1.0695616006851196, 1.0709071159362793, 1.069594144821167, 1.062065839767456, 1.0723850727081299, 1.0731024742126465]","[0.159671753126818, -1.4111245736680786, 0.159671753126818, 0.159671753126818, 0.159671753126818, 0.159671753126818]","[0.159671753126818, -1.4111245736680786, 0.159671753126818, 0.159671753126818, 0.159671753126818, 0.159671753126818]",0.002,7,1
0,90,"[0.11970697343349457, -1.4513429564288636, 0.11946183839906865, 0.11962537347760005, 0.1197819635272026, 0.11985090374946594]","[1.0706582069396973, 1.0674824714660645, 1.0674065351486206, 1.064384937286377, 1.0775238275527954, 1.074517011642456]","[0.16045169521852784, -1.4103446315763688, 0.16045169521852784, 0.16045169521852784, 0.16045169521852784, 0.16045169521852784]","[0.16045169521852784, -1.4103446315763688, 0.16045169521852784, 0.16045169521852784, 0.16045169521852784, 0.16045169521852784]",0.002,7,1
0,91,"[0.12179002165794373, -1.4491919961622735, 0.12162381807436162, 0.12177710115399165, 0.12200679630041122, 0.1220790296792984]","[1.075067400932312, 1.0723340511322021, 1.072489857673645, 1.0732437372207642, 1.0756791830062866, 1.0746793746948242]","[0.16123062299884008, -1.4095657037960565, 0.16123062299884008, 0.16123062299884008, 0.16123062299884008, 0.16123062299884008]","[0.16123062299884008, -1.4095657037960565, 0.16123062299884008, 0.16123062299884008, 0.16123062299884008, 0.16123062299884008]",0.002,7,1
0,92,"[0.12383681535720825, -1.4469582450440903, 0.12377387682069951, 0.1239291864582519, 0.12417968362569809, 0.12423546612262726]","[1.0780220031738281, 1.0687315464019775, 1.0739691257476807, 1.0807729959487915, 1.0764435529708862, 1.0732524394989014]","[0.16200853154368505, -1.4087877952512116, 0.16200853154368505, 0.16200853154368505, 0.16200853154368505, 0.16200853154368505]","[0.16200853154368505, -1.4087877952512116, 0.16200853154368505, 0.16200853154368505, 0.16200853154368505, 0.16200853154368505]",0.002,7,1
0,93,"[0.12596264481544495, -1.444816605453827, 0.12595779100526983, 0.1260346609302978, 0.12637870013713837, 0.12629848718643188]","[1.0808260440826416, 1.070129632949829, 1.076195478439331, 1.083739995956421, 1.0774246454238892, 1.073602557182312]","[0.16278541593543633, -1.4080109108594603, 0.16278541593543633, 0.16278541593543633, 0.16278541593543633, 0.16278541593543633]","[0.16278541593543633, -1.4080109108594603, 0.16278541593543633, 0.16278541593543633, 0.16278541593543633, 0.16278541593543633]",0.002,7,1
0,94,"[0.12812913954257965, -1.4426423770240326, 0.1280730406390589, 0.12830035268749995, 0.12854214012622833, 0.12855768203735352]","[1.0793873071670532, 1.0699684619903564, 1.074644923210144, 1.0853451490402222, 1.0751042366027832, 1.0745769739151]","[0.1635612712629417, -1.4072350555319548, 0.1635612712629417, 0.1635612712629417, 0.1635612712629417, 0.1635612712629417]","[0.1635612712629417, -1.4072350555319548, 0.1635612712629417, 0.1635612712629417, 0.1635612712629417, 0.1635612712629417]",0.002,7,1
0,95,"[0.1303536593914032, -1.4405398529819031, 0.13031465211977178, 0.13050238668408198, 0.13065707683563232, 0.13062387704849243]","[1.0774503946304321, 1.0694835186004639, 1.0717507600784302, 1.0822325944900513, 1.075608491897583, 1.0722333192825317]","[0.16433609262155432, -1.4064602341733423, 0.16433609262155432, 0.16433609262155432, 0.16433609262155432, 0.16433609262155432]","[0.16433609262155432, -1.4064602341733423, 0.16433609262155432, 0.16433609262155432, 0.16433609262155432, 0.16433609262155432]",0.002,7,1
0,96,"[0.1325652152299881, -1.4383692753366013, 0.13240605989565069, 0.13265900194134517, 0.13278451561927795, 0.1327517330646515]","[1.0756001472473145, 1.0685075521469116, 1.0716869831085205, 1.0789239406585693, 1.0757900476455688, 1.07506263256073]","[0.1651098751131637, -1.405686451681733, 0.1651098751131637, 0.1651098751131637, 0.1651098751131637, 0.1651098751131637]","[0.1651098751131637, -1.405686451681733, 0.1651098751131637, 0.1651098751131637, 0.1651098751131637, 0.1651098751131637]",0.002,7,1
0,97,"[0.13466443121433258, -1.4362103951028367, 0.13459521928896123, 0.1348976331898193, 0.13498321175575256, 0.13488495349884033]","[1.0789880752563477, 1.07292640209198, 1.0742480754852295, 1.0760635137557983, 1.074711799621582, 1.0750043392181396]","[0.1658826138462266, -1.40491371294867, 0.1658826138462266, 0.1658826138462266, 0.1658826138462266, 0.1658826138462266]","[0.1658826138462266, -1.40491371294867, 0.1658826138462266, 0.1658826138462266, 0.1658826138462266, 0.1658826138462266]",0.002,7,1
0,98,"[0.13685442507266998, -1.4341636014035721, 0.13676625887026006, 0.13711480676617427, 0.13707177340984344, 0.13696898519992828]","[1.0780397653579712, 1.0743212699890137, 1.0726845264434814, 1.0736007690429688, 1.074257254600525, 1.0737413167953491]","[0.166654303935798, -1.4041420228590986, 0.166654303935798, 0.166654303935798, 0.166654303935798, 0.166654303935798]","[0.166654303935798, -1.4041420228590986, 0.166654303935798, 0.166654303935798, 0.166654303935798, 0.166654303935798]",0.002,7,1
0,99,"[0.13890844583511353, -1.4318855863860627, 0.13891727129091436, 0.13936321317639155, 0.1390807181596756, 0.13908524811267853]","[1.0771079063415527, 1.074741005897522, 1.072628378868103, 1.0735422372817993, 1.0732815265655518, 1.0763596296310425]","[0.16742494050356208, -1.4033713862913344, 0.16742494050356208, 0.16742494050356208, 0.16742494050356208, 0.16742494050356208]","[0.16742494050356208, -1.4033713862913344, 0.16742494050356208, 0.16742494050356208, 0.16742494050356208, 0.16742494050356208]",0.002,7,1
0,100,"[0.14121660590171814, -1.4297997963479538, 0.1410144011126917, 0.1416122156330566, 0.1412404328584671, 0.14119014143943787]","[1.0747785568237305, 1.0761760473251343, 1.0742191076278687, 1.0746806859970093, 1.0705561637878418, 1.0775659084320068]","[0.1681945186778629, -1.4026018081170337, 0.1681945186778629, 0.1681945186778629, 0.1681945186778629, 0.1681945186778629]","[0.1681945186778629, -1.4026018081170337, 0.1681945186778629, 0.1681945186778629, 0.1681945186778629, 0.1681945186778629]",0.002,7,1
0,101,"[0.1433214694261551, -1.4276738625815888, 0.14316112199892217, 0.14366404592480464, 0.14327792823314667, 0.14340801537036896]","[1.0703697204589844, 1.0761967897415161, 1.0718024969100952, 1.0742437839508057, 1.0693016052246094, 1.0754845142364502]","[0.16896303359373518, -1.4018332932011615, 0.16896303359373518, 0.16896303359373518, 0.16896303359373518, 0.16896303359373518]","[0.16896303359373518, -1.4018332932011615, 0.16896303359373518, 0.16896303359373518, 0.16896303359373518, 0.16896303359373518]",0.002,7,1
0,102,"[0.14546111226081848, -1.425448701982834, 0.14532500902284795, 0.1456562715717773, 0.1455262303352356, 0.14554356038570404]","[1.070152997970581, 1.0749783515930176, 1.071418046951294, 1.068902850151062, 1.0692403316497803, 1.074975848197937]","[0.16973048039293528, -1.4010658464019612, 0.16973048039293528, 0.16973048039293528, 0.16973048039293528, 0.16973048039293528]","[0.16973048039293528, -1.4010658464019612, 0.16973048039293528, 0.16973048039293528, 0.16973048039293528, 0.16973048039293528]",0.002,7,1
0,103,"[0.1475922167301178, -1.4233019214919587, 0.14737350145448858, 0.14771310865368648, 0.14758311212062836, 0.14768926799297333]","[1.070357322692871, 1.074506402015686, 1.0692219734191895, 1.0607162714004517, 1.0709654092788696, 1.070918083190918]","[0.17049685422397173, -1.4002994725709248, 0.17049685422397173, 0.17049685422397173, 0.17049685422397173, 0.17049685422397173]","[0.17049685422397173, -1.4002994725709248, 0.17049685422397173, 0.17049685422397173, 0.17049685422397173, 0.17049685422397173]",0.002,7,1
0,104,"[0.1497284322977066, -1.4212122124484559, 0.1495145002948206, 0.14974932252850337, 0.14983847737312317, 0.14983920753002167]","[1.0696592330932617, 1.0726783275604248, 1.063688039779663, 1.055513858795166, 1.0711263418197632, 1.0702266693115234]","[0.17126215024213584, -1.3995341765527607, 0.17126215024213584, 0.17126215024213584, 0.17126215024213584, 0.17126215024213584]","[0.17126215024213584, -1.3995341765527607, 0.17126215024213584, 0.17126215024213584, 0.17126215024213584, 0.17126215024213584]",0.002,7,1
0,105,"[0.15189708769321442, -1.4189648491195221, 0.1516340414630335, 0.15179936468090816, 0.15194940567016602, 0.15201562643051147]","[1.0630428791046143, 1.0664570331573486, 1.058330774307251, 1.060071587562561, 1.0693248510360718, 1.0640274286270142]","[0.1720263636095325, -1.398769963185364, 0.1720263636095325, 0.1720263636095325, 0.1720263636095325, 0.1720263636095325]","[0.1720263636095325, -1.398769963185364, 0.1720263636095325, 0.1720263636095325, 0.1720263636095325, 0.1720263636095325]",0.002,7,1
0,106,"[0.15389636158943176, -1.41678939879451, 0.15379268327821904, 0.1539047199436645, 0.15418626368045807, 0.15422432124614716]","[1.0630743503570557, 1.060186743736267, 1.0608234405517578, 1.0618095397949219, 1.0638220310211182, 1.0621660947799683]","[0.1727894894951107, -1.3980068372997858, 0.1727894894951107, 0.1727894894951107, 0.1727894894951107, 0.1727894894951107]","[0.1727894894951107, -1.3980068372997858, 0.1727894894951107, 0.1727894894951107, 0.1727894894951107, 0.1727894894951107]",0.002,7,1
0,107,"[0.15604475140571594, -1.4146945637515564, 0.15593034425844365, 0.15602902948345942, 0.15633419156074524, 0.1562952995300293]","[1.0611817836761475, 1.0567444562911987, 1.0608335733413696, 1.0640990734100342, 1.0614452362060547, 1.0575141906738281]","[0.17355152307469404, -1.3972448037202025, 0.17355152307469404, 0.17355152307469404, 0.17355152307469404, 0.17355152307469404]","[0.17355152307469404, -1.3972448037202025, 0.17355152307469404, 0.17355152307469404, 0.17355152307469404, 0.17355152307469404]",0.002,7,1
0,108,"[0.1581607311964035, -1.4126032006791611, 0.1580117384540003, 0.15818385660137935, 0.15843689441680908, 0.15845443308353424]","[1.058561086654663, 1.0486290454864502, 1.053415298461914, 1.064041018486023, 1.0557433366775513, 1.0540356636047363]","[0.17431245953101113, -1.3964838672638855, 0.17431245953101113, 0.17431245953101113, 0.17431245953101113, 0.17431245953101113]","[0.17431245953101113, -1.3964838672638855, 0.17431245953101113, 0.17431245953101113, 0.17431245953101113, 0.17431245953101113]",0.002,7,1
0,109,"[0.16014914214611053, -1.4105607134154816, 0.1601632277118128, 0.16033987581219478, 0.1605149656534195, 0.16051991283893585]","[1.0550007820129395, 1.0484131574630737, 1.0495965480804443, 1.0596890449523926, 1.0531015396118164, 1.048898458480835]","[0.17507229405372643, -1.3957240327411702, 0.17507229405372643, 0.17507229405372643, 0.17507229405372643, 0.17507229405372643]","[0.17507229405372643, -1.3957240327411702, 0.17507229405372643, 0.17507229405372643, 0.17507229405372643, 0.17507229405372643]",0.002,7,1
0,110,"[0.16241483390331268, -1.408414216046669, 0.1622393766986292, 0.16250543176617427, 0.1627013236284256, 0.1626819223165512]","[1.0484020709991455, 1.0418980121612549, 1.043972134590149, 1.0536870956420898, 1.046589970588684, 1.0452356338500977]","[0.17583102183946997, -1.3949653049554267, 0.17583102183946997, 0.17583102183946997, 0.17583102183946997, 0.17583102183946997]","[0.17583102183946997, -1.3949653049554267, 0.17583102183946997, 0.17583102183946997, 0.17583102183946997, 0.17583102183946997]",0.002,7,1
0,111,"[0.16449250280857086, -1.4063327473453064, 0.16441184679140264, 0.16458003103222651, 0.16470035910606384, 0.1646459400653839]","[1.0467000007629395, 1.0390574932098389, 1.0406371355056763, 1.048864722251892, 1.0421169996261597, 1.0392839908599854]","[0.17658863809186856, -1.394207688703028, 0.17658863809186856, 0.17658863809186856, 0.17658863809186856, 0.17658863809186856]","[0.17658863809186856, -1.394207688703028, 0.17658863809186856, 0.17658863809186856, 0.17658863809186856, 0.17658863809186856]",0.002,7,1
0,112,"[0.16661337018013, -1.4042666417411347, 0.16649419466127569, 0.16676120340313716, 0.1667592078447342, 0.16670328378677368]","[1.0437852144241333, 1.037540078163147, 1.0366342067718506, 1.0386649370193481, 1.0373471975326538, 1.0346472263336182]","[0.17734513802157542, -1.3934511887733212, 0.17734513802157542, 0.17734513802157542, 0.17734513802157542, 0.17734513802157542]","[0.17734513802157542, -1.3934511887733212, 0.17734513802157542, 0.17734513802157542, 0.17734513802157542, 0.17734513802157542]",0.002,7,1
0,113,"[0.1686125248670578, -1.4021549683860322, 0.16854936281313115, 0.16891436159100337, 0.16880680620670319, 0.16871686279773712]","[1.0409307479858398, 1.0359030961990356, 1.0337774753570557, 1.0360690355300903, 1.0318694114685059, 1.0337553024291992]","[0.17810051684630074, -1.3926958099485958, 0.17810051684630074, 0.17810051684630074, 0.17810051684630074, 0.17810051684630074]","[0.17810051684630074, -1.3926958099485958, 0.17810051684630074, 0.17810051684630074, 0.17810051684630074, 0.17810051684630074]",0.002,7,1
0,114,"[0.17065465450286865, -1.4001152080348511, 0.17062884966005498, 0.17104200899090571, 0.17083339393138885, 0.1706845909357071]","[1.032657265663147, 1.030207633972168, 1.031758189201355, 1.031139612197876, 1.0272499322891235, 1.029704213142395]","[0.17885476979084194, -1.3919415570040545, 0.17885476979084194, 0.17885476979084194, 0.17885476979084194, 0.17885476979084194]","[0.17885476979084194, -1.3919415570040545, 0.17885476979084194, 0.17885476979084194, 0.17885476979084194, 0.17885476979084194]",0.002,7,1
0,115,"[0.17272259294986725, -1.3981564056924363, 0.1726134459124964, 0.1731528478809814, 0.17279374599456787, 0.17275744676589966]","[1.025714635848999, 1.0250294208526611, 1.027075171470642, 1.027652621269226, 1.021939754486084, 1.0303516387939453]","[0.17960789208711384, -1.3911884347077828, 0.17960789208711384, 0.17960789208711384, 0.17960789208711384, 0.17960789208711384]","[0.17960789208711384, -1.3911884347077828, 0.17960789208711384, 0.17960789208711384, 0.17960789208711384, 0.17960789208711384]",0.002,7,1
0,116,"[0.17475998401641846, -1.396096871500351, 0.1746586004840296, 0.17507831632580562, 0.17489135265350342, 0.1748146414756775]","[1.0220744609832764, 1.023269534111023, 1.0219606161117554, 1.0193960666656494, 1.018107533454895, 1.024285078048706]","[0.18035987897417868, -1.3904364478207178, 0.18035987897417868, 0.18035987897417868, 0.18035987897417868, 0.18035987897417868]","[0.18035987897417868, -1.3904364478207178, 0.18035987897417868, 0.18035987897417868, 0.18035987897417868, 0.18035987897417868]",0.002,7,1
0,117,"[0.1768137663602829, -1.3940076243928452, 0.17659265199770147, 0.1770307260700683, 0.1769035905599594, 0.17684471607208252]","[1.0141795873641968, 1.0144784450531006, 1.0157380104064941, 1.007487177848816, 1.0150642395019531, 1.0196475982666016]","[0.18111072569827633, -1.3896856010966203, 0.18111072569827633, 0.18111072569827633, 0.18111072569827633, 0.18111072569827633]","[0.18111072569827633, -1.3896856010966203, 0.18111072569827633, 0.18111072569827633, 0.18111072569827633, 0.18111072569827633]",0.002,7,1
0,118,"[0.17886541783809662, -1.3920325648835679, 0.17867547670473272, 0.17892758428540034, 0.17889223992824554, 0.17890484631061554]","[1.0089497566223145, 1.012387752532959, 1.00882089138031, 0.999324381351471, 1.010822057723999, 1.0139251947402954]","[0.1818604275128543, -1.3889358992820422, 0.1818604275128543, 0.1818604275128543, 0.1818604275128543, 0.1818604275128543]","[0.1818604275128543, -1.3889358992820422, 0.1818604275128543, 0.1818604275128543, 0.1818604275128543, 0.1818604275128543]",0.002,7,1
0,119,"[0.1808294802904129, -1.3899624806693573, 0.18058711687196904, 0.18089990198101802, 0.1809741109609604, 0.18090659379959106]","[1.0035494565963745, 1.0051637887954712, 1.003341794013977, 0.9948293566703796, 1.005979061126709, 1.005901575088501]","[0.18260897967859785, -1.3881873471162987, 0.18260897967859785, 0.18260897967859785, 0.18260897967859785, 0.18260897967859785]","[0.18260897967859785, -1.3881873471162987, 0.18260897967859785, 0.18260897967859785, 0.18260897967859785, 0.18260897967859785]",0.002,7,1
0,120,"[0.18290191888809204, -1.387943686251976, 0.18258363405336553, 0.18281225740399165, 0.18298421800136566, 0.18297936022281647]","[0.9969905614852905, 0.9960604310035706, 0.9973995685577393, 0.9946352243423462, 0.9996553659439087, 1.000545859336853]","[0.1833563774634597, -1.3874399493314369, 0.1833563774634597, 0.1833563774634597, 0.1833563774634597, 0.1833563774634597]","[0.1833563774634597, -1.3874399493314369, 0.1833563774634597, 0.1833563774634597, 0.1833563774634597, 0.1833563774634597]",0.002,7,1
0,121,"[0.18481265008449554, -1.3859520715526124, 0.18464976945985967, 0.18477801858868403, 0.18500016629695892, 0.18502573668956757]","[0.9931420683860779, 0.9920660853385925, 0.9894425868988037, 0.9919995665550232, 0.9940690398216248, 0.992157518863678]","[0.1841026161426903, -1.3866937106522061, 0.1841026161426903, 0.1841026161426903, 0.1841026161426903, 0.1841026161426903]","[0.1841026161426903, -1.3866937106522061, 0.1841026161426903, 0.1841026161426903, 0.1841026161426903, 0.1841026161426903]",0.002,7,1
0,122,"[0.18679000437259674, -1.3839271378568192, 0.18658954301942998, 0.18673448144879146, 0.18700291216373444, 0.1869666427373886]","[0.9893544912338257, 0.9822502732276917, 0.9893030524253845, 0.9896842837333679, 0.9866015911102295, 0.9850360155105591]","[0.18484769099886728, -1.3859486357960293, 0.18484769099886728, 0.18484769099886728, 0.18484769099886728, 0.18484769099886728]","[0.18484769099886728, -1.3859486357960293, 0.18484769099886728, 0.18484769099886728, 0.18484769099886728, 0.18484769099886728]",0.002,7,1
0,123,"[0.18867051601409912, -1.3819277894547959, 0.1886079947101038, 0.1887247997471313, 0.18890734016895294, 0.18897835910320282]","[0.9826216697692871, 0.971403956413269, 0.9802849888801575, 0.9868695735931396, 0.980563223361969, 0.97837233543396]","[0.18559159732192573, -1.3852047294729708, 0.18559159732192573, 0.18559159732192573, 0.18559159732192573, 0.18559159732192573]","[0.18559159732192573, -1.3852047294729708, 0.18559159732192573, 0.18559159732192573, 0.18559159732192573, 0.18559159732192573]",0.002,7,1
0,124,"[0.19068217277526855, -1.3799737405828019, 0.19049340883363897, 0.19075946390118403, 0.19096465408802032, 0.1909276396036148]","[0.9736608266830444, 0.9656860828399658, 0.9718061685562134, 0.979344367980957, 0.970414936542511, 0.9715591073036194]","[0.1863343304091875, -1.384461996385709, 0.1863343304091875, 0.1863343304091875, 0.1863343304091875, 0.1863343304091875]","[0.1863343304091875, -1.384461996385709, 0.1863343304091875, 0.1863343304091875, 0.1863343304091875, 0.1863343304091875]",0.002,7,1
0,125,"[0.19269023835659027, -1.3780980867198487, 0.19241410890688115, 0.1926826673695068, 0.19289205968379974, 0.1928640902042389]","[0.9660581946372986, 0.9571693539619446, 0.9625612497329712, 0.9707356095314026, 0.9633192420005798, 0.9619045257568359]","[0.18707588556539143, -1.3837204412295052, 0.18707588556539143, 0.18707588556539143, 0.18707588556539143, 0.18707588556539143]","[0.18707588556539143, -1.3837204412295052, 0.18707588556539143, 0.18707588556539143, 0.18707588556539143, 0.18707588556539143]",0.002,7,1
0,126,"[0.1945955455303192, -1.376152904038765, 0.19438726106752569, 0.19470111906018062, 0.1947072595357895, 0.19469451904296875]","[0.9559134244918823, 0.9490541219711304, 0.9529328346252441, 0.9618332982063293, 0.9560447335243225, 0.9553102254867554]","[0.18781625810272246, -1.382980068692174, 0.18781625810272246, 0.18781625810272246, 0.18781625810272246, 0.18781625810272246]","[0.18781625810272246, -1.382980068692174, 0.18781625810272246, 0.18781625810272246, 0.18781625810272246, 0.18781625810272246]",0.002,7,1
0,127,"[0.19653591513633728, -1.374301792388298, 0.19632178941835576, 0.19658546030010982, 0.19667820632457733, 0.19658970832824707]","[0.9510800838470459, 0.945731520652771, 0.9510989785194397, 0.9489147663116455, 0.9466164708137512, 0.9494210481643677]","[0.18855544334084182, -1.3822408834540547, 0.18855544334084182, 0.18855544334084182, 0.18855544334084182, 0.18855544334084182]","[0.18855544334084182, -1.3822408834540547, 0.18855544334084182, 0.18855544334084182, 0.18855544334084182, 0.18855544334084182]",0.002,7,1
0,128,"[0.1984572410583496, -1.3723506194404145, 0.19822484651674444, 0.1985502678104858, 0.19847063720226288, 0.19843775033950806]","[0.9438310861587524, 0.9399693608283997, 0.9419496059417725, 0.9405625462532043, 0.9378877282142639, 0.9397525787353516]","[0.1892934366069163, -1.3815028901879802, 0.1892934366069163, 0.1892934366069163, 0.1892934366069163, 0.1892934366069163]","[0.1892934366069163, -1.3815028901879802, 0.1892934366069163, 0.1892934366069163, 0.1892934366069163, 0.1892934366069163]",0.002,7,1
0,129,"[0.20027048885822296, -1.370435820227005, 0.2000678221331995, 0.20056860029187007, 0.2003190964460373, 0.2001914381980896]","[0.9364931583404541, 0.934156060218811, 0.937893271446228, 0.9337918758392334, 0.9322336912155151, 0.9342834949493408]","[0.19003023323564783, -1.3807660935592487, 0.19003023323564783, 0.19003023323564783, 0.19003023323564783, 0.19003023323564783]","[0.19003023323564783, -1.3807660935592487, 0.19003023323564783, 0.19003023323564783, 0.19003023323564783, 0.19003023323564783]",0.002,7,1
0,130,"[0.20210111141204834, -1.368641973739006, 0.2019885222064417, 0.20247535287823482, 0.20219875872135162, 0.20202212035655975]","[0.927266538143158, 0.9271869659423828, 0.929736316204071, 0.9261031746864319, 0.9225364923477173, 0.9267357587814331]","[0.19076582856930302, -1.3800304982255935, 0.19076582856930302, 0.19076582856930302, 0.19076582856930302, 0.19076582856930302]","[0.19076582856930302, -1.3800304982255935, 0.19076582856930302, 0.19076582856930302, 0.19076582856930302, 0.19076582856930302]",0.002,7,1
0,131,"[0.20396028459072113, -1.3668079239181061, 0.2038520018206995, 0.2042570549198608, 0.20399600267410278, 0.20394030213356018]","[0.9182103872299194, 0.9204745888710022, 0.9216846227645874, 0.918895959854126, 0.9161368012428284, 0.9235620498657227]","[0.19150021795774258, -1.379296108837154, 0.19150021795774258, 0.19150021795774258, 0.19150021795774258, 0.19150021795774258]","[0.19150021795774258, -1.379296108837154, 0.19150021795774258, 0.19150021795774258, 0.19150021795774258, 0.19150021795774258]",0.002,7,1
0,132,"[0.20580220222473145, -1.3649814885905762, 0.20561677614320928, 0.20602457105603023, 0.205757275223732, 0.20571781694889069]","[0.9078587293624878, 0.9126260876655579, 0.9131314754486084, 0.9055193066596985, 0.9092978239059448, 0.9129155278205872]","[0.19223339675845078, -1.3785629300364457, 0.19223339675845078, 0.19223339675845078, 0.19223339675845078, 0.19223339675845078]","[0.19223339675845078, -1.3785629300364457, 0.19223339675845078, 0.19223339675845078, 0.19223339675845078, 0.19223339675845078]",0.002,7,1
0,133,"[0.2075837254524231, -1.363175706272461, 0.20742971101869756, 0.20769159376110835, 0.20761869847774506, 0.20754460990428925]","[0.9003982543945312, 0.8994360566139221, 0.904461681842804, 0.8905289173126221, 0.901087760925293, 0.9057000875473022]","[0.19296536033656458, -1.377830966458332, 0.19296536033656458, 0.19296536033656458, 0.19296536033656458, 0.19296536033656458]","[0.19296536033656458, -1.377830966458332, 0.19296536033656458, 0.19296536033656458, 0.19296536033656458, 0.19296536033656458]",0.002,7,1
0,134,"[0.20939503610134125, -1.3614085775664826, 0.20926982561220342, 0.2094457584568481, 0.20943790674209595, 0.20938731729984283]","[0.8905966877937317, 0.8896951079368591, 0.8971136212348938, 0.8784115314483643, 0.8948355317115784, 0.8945380449295044]","[0.19369610406490334, -1.377100222729993, 0.19369610406490334, 0.19369610406490334, 0.19369610406490334, 0.19369610406490334]","[0.19369610406490334, -1.377100222729993, 0.19369610406490334, 0.19369610406490334, 0.19369610406490334, 0.19369610406490334]",0.002,7,1
0,135,"[0.21109116077423096, -1.359568403368332, 0.21102840105165654, 0.21116833269085689, 0.21120794117450714, 0.21117141842842102]","[0.8827695250511169, 0.8844423294067383, 0.888279378414154, 0.872947096824646, 0.8849318623542786, 0.8869563341140747]","[0.19442562332399757, -1.376370703470899, 0.19442562332399757, 0.19442562332399757, 0.19442562332399757, 0.19442562332399757]","[0.19442562332399757, -1.376370703470899, 0.19442562332399757, 0.19442562332399757, 0.19442562332399757, 0.19442562332399757]",0.002,7,1
0,136,"[0.212847501039505, -1.3577877146056672, 0.21274358430971319, 0.21289138376202388, 0.21297651529312134, 0.21293394267559052]","[0.8744138479232788, 0.8734265565872192, 0.8741008043289185, 0.8688929080963135, 0.8764665126800537, 0.8762937784194946]","[0.1951539135021186, -1.375642413292778, 0.1951539135021186, 0.1951539135021186, 0.1951539135021186, 0.1951539135021186]","[0.1951539135021186, -1.375642413292778, 0.1951539135021186, 0.1951539135021186, 0.1951539135021186, 0.1951539135021186]",0.002,7,1
0,137,"[0.21459169685840607, -1.3560876858285447, 0.21453839937318975, 0.214536114329956, 0.21469712257385254, 0.2146911472082138]","[0.8636386394500732, 0.8622483611106873, 0.8685847520828247, 0.8668177127838135, 0.8669394850730896, 0.8648282885551453]","[0.19588096999530732, -1.3749153567995893, 0.19588096999530732, 0.19588096999530732, 0.19588096999530732, 0.19588096999530732]","[0.19588096999530732, -1.3749153567995893, 0.19588096999530732, 0.19588096999530732, 0.19588096999530732, 0.19588096999530732]",0.002,7,1
0,138,"[0.21628369390964508, -1.354345218544342, 0.21632033983339483, 0.21618632852520747, 0.21647587418556213, 0.21646153926849365]","[0.8565230369567871, 0.8549943566322327, 0.8635072112083435, 0.8574970364570618, 0.856611430644989, 0.8574938774108887]","[0.19660678820740363, -1.374189538587493, 0.19660678820740363, 0.19660678820740363, 0.19660678820740363, 0.19660678820740363]","[0.19660678820740363, -1.374189538587493, 0.19660678820740363, 0.19660678820740363, 0.19660678820740363, 0.19660678820740363]",0.002,7,1
0,139,"[0.21792647242546082, -1.352637158041336, 0.21800405183901006, 0.21785203992810054, 0.21818798780441284, 0.21816715598106384]","[0.8488112092018127, 0.8440009951591492, 0.8535194993019104, 0.8508334159851074, 0.8476732969284058, 0.8469605445861816]","[0.19733136355007524, -1.3734649632448213, 0.19733136355007524, 0.19733136355007524, 0.19733136355007524, 0.19733136355007524]","[0.19733136355007524, -1.3734649632448213, 0.19733136355007524, 0.19733136355007524, 0.19733136355007524, 0.19733136355007524]",0.002,7,1
0,140,"[0.21963126957416534, -1.3509961378625412, 0.21969730058778936, 0.21968094884838862, 0.21983905136585236, 0.21988406777381897]","[0.8402122259140015, 0.8299452066421509, 0.8419458866119385, 0.8438896536827087, 0.8371038436889648, 0.8348820805549622]","[0.19805469144284696, -1.3727416353520496, 0.19805469144284696, 0.19805469144284696, 0.19805469144284696, 0.19805469144284696]","[0.19805469144284696, -1.3727416353520496, 0.19805469144284696, 0.19805469144284696, 0.19805469144284696, 0.19805469144284696]",0.002,7,1
0,141,"[0.22128820419311523, -1.349282444720604, 0.22131330171693975, 0.2213548856922607, 0.2215086817741394, 0.221546933054924]","[0.8277971744537354, 0.8224802017211914, 0.8304436802864075, 0.8344092965126038, 0.8284528851509094, 0.8252670168876648]","[0.19877676731312927, -1.3720195594817672, 0.19877676731312927, 0.19877676731312927, 0.19877676731312927, 0.19877676731312927]","[0.19877676731312927, -1.3720195594817672, 0.19877676731312927, 0.19877676731312927, 0.19877676731312927, 0.19877676731312927]",0.002,7,1
0,142,"[0.22285860776901245, -1.3477079731277009, 0.22303611436952764, 0.22301892816510005, 0.22306862473487854, 0.22314731776714325]","[0.8206660151481628, 0.8101555705070496, 0.8184269666671753, 0.8237963914871216, 0.8155306577682495, 0.8138704299926758]","[0.19949758659624753, -1.371298740198649, 0.19949758659624753, 0.19949758659624753, 0.19949758659624753, 0.19949758659624753]","[0.19949758659624753, -1.371298740198649, 0.19949758659624753, 0.19949758659624753, 0.19949758659624753, 0.19949758659624753]",0.002,7,1
0,143,"[0.22456440329551697, -1.3460884255221863, 0.22454387346376592, 0.2246427971073608, 0.22476151585578918, 0.22469274699687958]","[0.8095003366470337, 0.8008694052696228, 0.8084613084793091, 0.8139604330062866, 0.8065826892852783, 0.8053278923034668]","[0.20021714473547073, -1.3705791820594257, 0.20021714473547073, 0.20021714473547073, 0.20021714473547073, 0.20021714473547073]","[0.20021714473547073, -1.3705791820594257, 0.20021714473547073, 0.20021714473547073, 0.20021714473547073, 0.20021714473547073]",0.002,7,1
0,144,"[0.22615301609039307, -1.3444613230279465, 0.22628623643984014, 0.2262449699589233, 0.22626157104969025, 0.22631223499774933]","[0.7983800768852234, 0.7912267446517944, 0.8028414249420166, 0.8006812930107117, 0.7963898777961731, 0.7925593256950378]","[0.20093543718204032, -1.3698608896128563, 0.20093543718204032, 0.20093543718204032, 0.20093543718204032, 0.20093543718204032]","[0.20093543718204032, -1.3698608896128563, 0.20093543718204032, 0.20093543718204032, 0.20093543718204032, 0.20093543718204032]",0.002,7,1
0,145,"[0.2278260439634323, -1.3428674054196854, 0.22787028947939092, 0.22787491857495112, 0.22782568633556366, 0.2278580218553543]","[0.7887352705001831, 0.7832180857658386, 0.7878288626670837, 0.7877655029296875, 0.7863820791244507, 0.7843320369720459]","[0.20165245939519896, -1.3691438673996976, 0.20165245939519896, 0.20165245939519896, 0.20165245939519896, 0.20165245939519896]","[0.20165245939519896, -1.3691438673996976, 0.20165245939519896, 0.20165245939519896, 0.20165245939519896, 0.20165245939519896]",0.002,7,1
0,146,"[0.22932462394237518, -1.3413510036519547, 0.2294099966632288, 0.22954563676800532, 0.229373499751091, 0.22938284277915955]","[0.7793336510658264, 0.7729619145393372, 0.7768980860710144, 0.775814950466156, 0.7736371755599976, 0.7742505073547363]","[0.2023682068422192, -1.3684281199526773, 0.2023682068422192, 0.2023682068422192, 0.2023682068422192, 0.2023682068422192]","[0.2023682068422192, -1.3684281199526773, 0.2023682068422192, 0.2023682068422192, 0.2023682068422192, 0.2023682068422192]",0.002,7,1
