Arnibjarnst/BoxLift/logs/ur_rtde/trajectory_dur=3.0_delay=1.0_ampl=20.0_sim.csv
arm_idx,step,actual_q,expected_q,loop_time,robot_mode,safety_mode
0,-1,"[-0.013535721597326855, -1.5843320483922216, -0.013535721597326855, -0.013535721597326855, -0.013535721597326855, -0.013535721597326855]","[0.0, -1.5707963267948966, 0.0, 0.0, 0.0, 0.0]",0.002,7,1
0,-1,"[-0.013414554930660572, -1.5842108817255554, -0.013414554930660572, -0.013414554930660572, -0.013414554930660572, -0.013414554930660572]","[0.0, -1.5707963267948966, 0.0, 0.0, 0.0, 0.0]",0.002,7,1
0,-1,"[-0.013254288263993885, -1.5840506150588887, -0.013254288263993885, -0.013254288263993885, -0.013254288263993885, -0.013254288263993885]","[0.0, -1.5707963267948966, 0.0, 0.0, 0.0, 0.0]",0.002,7,1
0,-1,"[-0.01239028826399391, -1.5831866150588887, -0.01239028826399391, -0.01239028826399391, -0.01239028826399391, -0.01239028826399391]","[0.0, -1.5707963267948966, 0.0, 0.0, 0.0, 0.0]",0.002,7,1
0,-1,"[-0.01162028826399375, -1.5824166150588885, -0.01162028826399375, -0.01162028826399375, -0.01162028826399375, -0.01162028826399375]","[0.0, -1.5707963267948966, 0.0, 0.0, 0.0, 0.0]",0.002,7,1
0,-1,"[-0.010654288263993728, -1.5814506150588894, -0.010654288263993728, -0.010654288263993728, -0.010654288263993728, -0.010654288263993728]","[0.0, -1.5707963267948966, 0.0, 0.0, 0.0, 0.0]",0.002,7,1
0,-1,"[-0.009320863406023783, -1.5801171902009195, -0.009320863406023783, -0.009320863406023783, -0.009320863406023783, -0.009320863406023783]","[0.0, -1.5707963267948966, 0.0, 0.0, 0.0, 0.0]",0.002,7,1
0,-1,"[-0.008012277529137357, -1.578808604324033, -0.008012277529137357, -0.008012277529137357, -0.008012277529137357, -0.008012277529137357]","[0.0, -1.5707963267948966, 0.0, 0.0, 0.0, 0.0]",0.002,7,1
0,-1,"[-0.007036495038056145, -1.5778328218329518, -0.007036495038056145, -0.007036495038056145, -0.007036495038056145, -0.007036495038056145]","[0.0, -1.5707963267948966, 0.0, 0.0, 0.0, 0.0]",0.002,7,1
0,-1,"[-0.006054813969221584, -1.5768511407641181, -0.006054813969221584, -0.006054813969221584, -0.006054813969221584, -0.006054813969221584]","[0.0, -1.5707963267948966, 0.0, 0.0, 0.0, 0.0]",0.002,7,1
0,-1,"[-0.004534255217359728, -1.5753305820122554, -0.004534255217359728, -0.004534255217359728, -0.004534255217359728, -0.004534255217359728]","[0.0, -1.5707963267948966, 0.0, 0.0, 0.0, 0.0]",0.002,7,1
0,-1,"[-0.0027106831267094122, -1.573507009921606, -0.0027106831267094122, -0.0027106831267094122, -0.0027106831267094122, -0.0027106831267094122]","[0.0, -1.5707963267948966, 0.0, 0.0, 0.0, 0.0]",0.002,7,1
0,-1,"[-0.0019100567802752266, -1.572706383575171, -0.0019100567802752266, -0.0019100567802752266, -0.0019100567802752266, -0.0019100567802752266]","[0.0, -1.5707963267948966, 0.0, 0.0, 0.0, 0.0]",0.002,7,1
0,-1,"[-0.0008162418118109471, -1.5716125686067075, -0.0008162418118109471, -0.0008162418118109471, -0.0008162418118109471, -0.0008162418118109471]","[0.0, -1.5707963267948966, 0.0, 0.0, 0.0, 0.0]",0.002,7,1
0,-1,"[-0.00037217774096998113, -1.5711685045358665, -0.00037217774096998113, -0.00037217774096998113, -0.00037217774096998113, -0.00037217774096998113]","[0.0, -1.5707963267948966, 0.0, 0.0, 0.0, 0.0]",0.002,7,1
0,-1,"[-6.29323845595664e-05, -1.5708592591794561, -6.29323845595664e-05, -6.29323845595664e-05, -6.29323845595664e-05, -6.29323845595664e-05]","[0.0, -1.5707963267948966, 0.0, 0.0, 0.0, 0.0]",0.002,7,1
0,-1,"[-1.263793045325201e-06, -1.5707975905879419, -1.263793045325201e-06, -1.263793045325201e-06, -1.263793045325201e-06, -1.263793045325201e-06]","[0.0, -1.5707963267948966, 0.0, 0.0, 0.0, 0.0]",0.002,7,1
0,-1,"[0.0, -1.5707963267948966, 0.0, 0.0, 0.0, 0.0]","[0.0, -1.5707963267948966, 0.0, 0.0, 0.0, 0.0]",0.002,7,1
0,-1,"[0.0, -1.5707963267948966, 0.0, 0.0, 0.0, 0.0]","[0.0, -1.5707963267948966, 0.0, 0.0, 0.0, 0.0]",0.002,7,1
0,-1,"[0.0, -1.5707963267948966, 0.0, 0.0, 0.0, 0.0]","[0.0, -1.5707963267948966, 0.0, 0.0, 0.0, 0.0]",0.002,7,1
0,-1,"[0.0, -1.5707963267948966, 0.0, 0.0, 0.0, 0.0]","[0.0, -1.5707963267948966, 0.0, 0.0, 0.0, 0.0]",0.002,7,1
0,-1,"[0.0, -1.5707963267948966, 0.0, 0.0, 0.0, 0.0]","[0.0, -1.5707963267948966, 0.0, 0.0, 0.0, 0.0]",0.002,7,1
0,-1,"[0.0, -1.5707963267948966, 0.0, 0.0, 0.0, 0.0]","[0.0, -1.5707963267948966, 0.0, 0.0, 0.0, 0.0]",0.002,7,1
0,-1,"[0.0, -1.5707963267948966, 0.0, 0.0, 0.0, 0.0]","[0.0, -1.5707963267948966, 0.0, 0.0, 0.0, 0.0]",0.002,7,1
0,-1,"[0.0, -1.5707963267948966, 0.0, 0.0, 0.0, 0.0]","[0.0, -1.5707963267948966, 0.0, 0.0, 0.0, 0.0]",0.002,7,1
0,-1,"[0.0, -1.5707963267948966, 0.0, 0.0, 0.0, 0.0]","[0.0, -1.5707963267948966, 0.0, 0.0, 0.0, 0.0]",0.002,7,1
0,-1,"[0.0, -1.5707963267948966, 0.0, 0.0, 0.0, 0.0]","[0.0, -1.5707963267948966, 0.0, 0.0, 0.0, 0.0]",0.002,7,1
0,-1,"[0.0, -1.5707963267948966, 0.0, 0.0, 0.0, 0.0]","[0.0, -1.5707963267948966, 0.0, 0.0, 0.0, 0.0]",0.002,7,1
0,-1,"[0.0, -1.5707963267948966, 0.0, 0.0, 0.0, 0.0]","[0.0, -1.5707963267948966, 0.0, 0.0, 0.0, 0.0]",0.002,7,1
0,-1,"[0.0, -1.5707963267948966, 0.0, 0.0, 0.0, 0.0]","[0.0, -1.5707963267948966, 0.0, 0.0, 0.0, 0.0]",0.002,7,1
0,-1,"[0.0, -1.5707963267948966, 0.0, 0.0, 0.0, 0.0]","[0.0, -1.5707963267948966, 0.0, 0.0, 0.0, 0.0]",0.002,7,1
0,-1,"[0.0, -1.5707963267948966, 0.0, 0.0, 0.0, 0.0]","[0.0, -1.5707963267948966, 0.0, 0.0, 0.0, 0.0]",0.002,7,1
0,-1,"[0.0, -1.5707963267948966, 0.0, 0.0, 0.0, 0.0]","[0.0, -1.5707963267948966, 0.0, 0.0, 0.0, 0.0]",0.002,7,1
0,-1,"[0.0, -1.5707963267948966, 0.0, 0.0, 0.0, 0.0]","[0.0, -1.5707963267948966, 0.0, 0.0, 0.0, 0.0]",0.002,7,1
0,-1,"[0.0, -1.5707963267948966, 0.0, 0.0, 0.0, 0.0]","[0.0, -1.5707963267948966, 0.0, 0.0, 0.0, 0.0]",0.002,7,1
0,-1,"[0.0, -1.5707963267948966, 0.0, 0.0, 0.0, 0.0]","[0.0, -1.5707963267948966, 0.0, 0.0, 0.0, 0.0]",0.002,7,1
0,-1,"[0.0, -1.5707963267948966, 0.0, 0.0, 0.0, 0.0]","[0.0, -1.5707963267948966, 0.0, 0.0, 0.0, 0.0]",0.002,7,1
0,-1,"[0.0, -1.5707963267948966, 0.0, 0.0, 0.0, 0.0]","[0.0, -1.5707963267948966, 0.0, 0.0, 0.0, 0.0]",0.002,7,1
0,-1,"[0.0, -1.5707963267948966, 0.0, 0.0, 0.0, 0.0]","[0.0, -1.5707963267948966, 0.0, 0.0, 0.0, 0.0]",0.002,7,1
0,-1,"[0.0, -1.5707963267948966, 0.0, 0.0, 0.0, 0.0]","[0.0, -1.5707963267948966, 0.0, 0.0, 0.0, 0.0]",0.002,7,1
0,-1,"[0.0, -1.5707963267948966, 0.0, 0.0, 0.0, 0.0]","[0.0, -1.5707963267948966, 0.0, 0.0, 0.0, 0.0]",0.002,7,1
0,-1,"[0.0, -1.5707963267948966, 0.0, 0.0, 0.0, 0.0]","[0.0, -1.5707963267948966, 0.0, 0.0, 0.0, 0.0]",0.002,7,1
0,-1,"[0.0, -1.5707963267948966, 0.0, 0.0, 0.0, 0.0]","[0.0, -1.5707963267948966, 0.0, 0.0, 0.0, 0.0]",0.002,7,1
0,-1,"[0.0, -1.5707963267948966, 0.0, 0.0, 0.0, 0.0]","[0.0, -1.5707963267948966, 0.0, 0.0, 0.0, 0.0]",0.002,7,1
0,-1,"[0.0, -1.5707963267948966, 0.0, 0.0, 0.0, 0.0]","[0.0, -1.5707963267948966, 0.0, 0.0, 0.0, 0.0]",0.002,7,1
0,-1,"[0.0, -1.5707963267948966, 0.0, 0.0, 0.0, 0.0]","[0.0, -1.5707963267948966, 0.0, 0.0, 0.0, 0.0]",0.002,7,1
0,-1,"[0.0, -1.5707963267948966, 0.0, 0.0, 0.0, 0.0]","[0.0, -1.5707963267948966, 0.0, 0.0, 0.0, 0.0]",0.002,7,1
0,-1,"[0.0, -1.5707963267948966, 0.0, 0.0, 0.0, 0.0]","[0.0, -1.5707963267948966, 0.0, 0.0, 0.0, 0.0]",0.002,7,1
0,-1,"[0.0, -1.5707963267948966, 0.0, 0.0, 0.0, 0.0]","[0.0, -1.5707963267948966, 0.0, 0.0, 0.0, 0.0]",0.002,7,1
0,-1,"[0.0, -1.5707963267948966, 0.0, 0.0, 0.0, 0.0]","[0.0, -1.5707963267948966, 0.0, 0.0, 0.0, 0.0]",0.002,7,1
0,-1,"[0.0, -1.5707963267948966, 0.0, 0.0, 0.0, 0.0]","[0.0, -1.5707963267948966, 0.0, 0.0, 0.0, 0.0]",0.002,7,1
0,-1,"[0.0, -1.5707963267948966, 0.0, 0.0, 0.0, 0.0]","[0.0, -1.5707963267948966, 0.0, 0.0, 0.0, 0.0]",0.002,7,1
0,-1,"[0.0, -1.5707963267948966, 0.0, 0.0, 0.0, 0.0]","[0.0, -1.5707963267948966, 0.0, 0.0, 0.0, 0.0]",0.002,7,1
0,-1,"[0.0, -1.5707963267948966, 0.0, 0.0, 0.0, 0.0]","[0.0, -1.5707963267948966, 0.0, 0.0, 0.0, 0.0]",0.002,7,1
0,1,"[0.0, -1.5707963267948966, 0.0, 0.0, 0.0, 0.0]","[0.30156567105355503, -1.2692306557413415, 0.30156567105355503, 0.30156567105355503, 0.30156567105355503, 0.30156567105355503]",0.002,7,1
0,2,"[0.00012091995761561453, -1.5706754068372808, 0.00012091995761561453, 0.00012091995761561453, 0.00012091995761561453, 0.00012091995761561453]","[0.30082614975353533, -1.2699701770413612, 0.30082614975353533, 0.30082614975353533, 0.30082614975353533, 0.30082614975353533]",0.002,7,1
0,3,"[0.0002723847622483844, -1.570523942032648, 0.0002723847622483844, 0.0002723847622483844, 0.0002723847622483844, 0.0002723847622483844]","[0.30008134313188983, -1.2707149836630067, 0.30008134313188983, 0.30008134313188983, 0.30008134313188983, 0.30008134313188983]",0.002,7,1
0,4,"[0.0005175664770783855, -1.5702787603178177, 0.0005175664770783855, 0.0005175664770783855, 0.0005175664770783855, 0.0005175664770783855]","[0.2993312642743912, -1.2714650625205053, 0.2993312642743912, 0.2993312642743912, 0.2993312642743912, 0.2993312642743912]",0.002,7,1
0,5,"[0.0005175664770783855, -1.5702787603178177, 0.0005175664770783855, 0.0005175664770783855, 0.0005175664770783855, 0.0005175664770783855]","[0.2985759263594416, -1.272220400435455, 0.2985759263594416, 0.2985759263594416, 0.2985759263594416, 0.2985759263594416]",0.002,7,1
0,6,"[0.0008504790848344013, -1.5699458477100618, 0.0008504790848344013, 0.0008504790848344013, 0.0008504790848344013, 0.0008504790848344013]","[0.29781534265784143, -1.2729809841370552, 0.29781534265784143, 0.29781534265784143, 0.29781534265784143, 0.29781534265784143]",0.002,7,1
0,7,"[0.0012691982882536736, -1.5695271285066426, 0.0012691982882536736, 0.0012691982882536736, 0.0012691982882536736, 0.0012691982882536736]","[0.2970495265325563, -1.2737468002623402, 0.2970495265325563, 0.2970495265325563, 0.2970495265325563, 0.2970495265325563]",0.002,7,1
0,8,"[0.0017730668578574017, -1.5690232599370386, 0.0017730668578574017, 0.0017730668578574017, 0.0017730668578574017, 0.0017730668578574017]","[0.2962784914384822, -1.2745178353564144, 0.2962784914384822, 0.2962784914384822, 0.2962784914384822, 0.2962784914384822]",0.002,7,1
0,9,"[0.0023614536412388436, -1.5684348731536568, 0.0023614536412388436, 0.0023614536412388436, 0.0023614536412388436, 0.0023614536412388436]","[0.29550225092220894, -1.2752940758726876, 0.29550225092220894, 0.29550225092220894, 0.29550225092220894, 0.29550225092220894]",0.002,7,1
0,10,"[0.003033704759862104, -1.5677626220350334, 0.003033704759862104, 0.003033704759862104, 0.003033704759862104, 0.003033704759862104]","[0.2947208186217822, -1.2760755081731143, 0.2947208186217822, 0.2947208186217822, 0.2947208186217822, 0.2947208186217822]",0.002,7,1
0,11,"[0.0037891403485691678, -1.5670071864463262, 0.0037891403485691678, 0.0037891403485691678, 0.0037891403485691678, 0.0037891403485691678]","[0.2939342082664639, -1.2768621185284328, 0.2939342082664639, 0.2939342082664639, 0.2939342082664639, 0.2939342082664639]",0.002,7,1
0,12,"[0.004626995028556478, -1.5661693317663383, 0.004626995028556478, 0.004626995028556478, 0.004626995028556478, 0.004626995028556478]","[0.2931424336764914, -1.2776538931184052, 0.2931424336764914, 0.2931424336764914, 0.2931424336764914, 0.2931424336764914]",0.002,7,1
0,13,"[0.005546398520756808, -1.5652499282741381, 0.005546398520756808, 0.005546398520756808, 0.005546398520756808, 0.005546398520756808]","[0.292345508762834, -1.2784508180320626, 0.292345508762834, 0.292345508762834, 0.292345508762834, 0.292345508762834]",0.002,7,1
0,14,"[0.0065464841985611215, -1.5642498425963334, 0.0065464841985611215, 0.0065464841985611215, 0.0065464841985611215, 0.0065464841985611215]","[0.2915434475269489, -1.2792528792679476, 0.2915434475269489, 0.2915434475269489, 0.2915434475269489, 0.2915434475269489]",0.002,7,1
0,15,"[0.007626378374495936, -1.5631699484203985, 0.007626378374495936, 0.007626378374495936, 0.007626378374495936, 0.007626378374495936]","[0.2907362640605352, -1.2800600627343615, 0.2907362640605352, 0.2907362640605352, 0.2907362640605352, 0.2907362640605352]",0.002,7,1
0,16,"[0.008785160500322345, -1.562011166294572, 0.008785160500322345, 0.008785160500322345, 0.008785160500322345, 0.008785160500322345]","[0.2899239725452865, -1.28087235424961, 0.2899239725452865, 0.2899239725452865, 0.2899239725452865, 0.2899239725452865]",0.002,7,1
0,17,"[0.010021725143833501, -1.5607746016510609, 0.010021725143833501, 0.010021725143833501, 0.010021725143833501, 0.010021725143833501]","[0.2891065872526413, -1.2816897395422553, 0.2891065872526413, 0.2891065872526413, 0.2891065872526413, 0.2891065872526413]",0.002,7,1
0,18,"[0.011335147957616818, -1.559461178837278, 0.011335147957616818, 0.011335147957616818, 0.011335147957616818, 0.011335147957616818]","[0.28828412254353253, -1.282512204251364, 0.28828412254353253, 0.28828412254353253, 0.28828412254353253, 0.28828412254353253]",0.002,7,1
0,19,"[0.012724483485867178, -1.558071843309028, 0.012724483485867178, 0.012724483485867178, 0.012724483485867178, 0.012724483485867178]","[0.2874565928681351, -1.2833397339267614, 0.2874565928681351, 0.2874565928681351, 0.2874565928681351, 0.2874565928681351]",0.002,7,1
0,20,"[0.014188764028082246, -1.5566075627668123, 0.014188764028082246, 0.014188764028082246, 0.014188764028082246, 0.014188764028082246]","[0.2866240127656123, -1.2841723140292842, 0.2866240127656123, 0.2866240127656123, 0.2866240127656123, 0.2866240127656123]",0.002,7,1
0,21,"[0.01572699890406901, -1.555069327890826, 0.01572699890406901, 0.01572699890406901, 0.01572699890406901, 0.01572699890406901]","[0.28578639686386015, -1.2850099299310365, 0.28578639686386015, 0.28578639686386015, 0.28578639686386015, 0.28578639686386015]",0.002,7,1
0,22,"[0.0173381740163365, -1.5534581527785587, 0.0173381740163365, 0.0173381740163365, 0.0173381740163365, 0.0173381740163365]","[0.2849437598792503, -1.2858525669156462, 0.2849437598792503, 0.2849437598792503, 0.2849437598792503, 0.2849437598792503]",0.002,7,1
0,23,"[0.01902125164091733, -1.5517750751539783, 0.01902125164091733, 0.01902125164091733, 0.01902125164091733, 0.01902125164091733]","[0.2840961166163717, -1.286700210178525, 0.2840961166163717, 0.2840961166163717, 0.2840961166163717, 0.2840961166163717]",0.002,7,1
0,24,"[0.02077517039899356, -1.5500211563959017, 0.02077517039899356, 0.02077517039899356, 0.02077517039899356, 0.02077517039899356]","[0.28324348196777016, -1.2875528448271263, 0.28324348196777016, 0.28324348196777016, 0.28324348196777016, 0.28324348196777016]",0.002,7,1
0,25,"[0.022598845375360214, -1.5481974814195354, 0.022598845375360214, 0.022598845375360214, 0.022598845375360214, 0.022598845375360214]","[0.2823858709136873, -1.2884104558812093, 0.2823858709136873, 0.2823858709136873, 0.2823858709136873, 0.2823858709136873]",0.002,7,1
0,26,"[0.024491168358869678, -1.5463051584360255, 0.024491168358869678, 0.024491168358869678, 0.024491168358869678, 0.024491168358869678]","[0.2815232985217967, -1.2892730282731, 0.2815232985217967, 0.2815232985217967, 0.2815232985217967, 0.2815232985217967]",0.002,7,1
0,27,"[0.026451008186294735, -1.5443453186085998, 0.026451008186294735, 0.026451008186294735, 0.026451008186294735, 0.026451008186294735]","[0.2806557799469395, -1.290140546847957, 0.2806557799469395, 0.2806557799469395, 0.2806557799469395, 0.2806557799469395]",0.002,7,1
0,28,"[0.02847721117553529, -1.5423191156193594, 0.02847721117553529, 0.02847721117553529, 0.02847721117553529, 0.02847721117553529]","[0.2797833304308581, -1.2910129963640384, 0.2797833304308581, 0.2797833304308581, 0.2797833304308581, 0.2797833304308581]",0.002,7,1
0,29,"[0.030568601637384958, -1.5402277251575098, 0.030568601637384958, 0.030568601637384958, 0.030568601637384958, 0.030568601637384958]","[0.2789059653019284, -1.2918903614929682, 0.2789059653019284, 0.2789059653019284, 0.2789059653019284, 0.2789059653019284]",0.002,7,1
0,30,"[0.032723982457555124, -1.5380723443373396, 0.032723982457555124, 0.032723982457555124, 0.032723982457555124, 0.032723982457555124]","[0.2780236999748905, -1.292772626820006, 0.2780236999748905, 0.2780236999748905, 0.2780236999748905, 0.2780236999748905]",0.002,7,1
0,31,"[0.03494213574257758, -1.5358541910523167, 0.03494213574257758, 0.03494213574257758, 0.03494213574257758, 0.03494213574257758]","[0.2771365499505776, -1.293659776844319, 0.2771365499505776, 0.2771365499505776, 0.2771365499505776, 0.2771365499505776]",0.002,7,1
0,32,"[0.03722182352474367, -1.5335745032701507, 0.03722182352474367, 0.03722182352474367, 0.03722182352474367, 0.03722182352474367]","[0.27624453081564404, -1.2945517959792525, 0.27624453081564404, 0.27624453081564404, 0.27624453081564404, 0.27624453081564404]",0.002,7,1
0,33,"[0.03956178852250762, -1.531234538272387, 0.03956178852250762, 0.03956178852250762, 0.03956178852250762, 0.03956178852250762]","[0.2753476582422914, -1.2954486685526052, 0.2753476582422914, 0.2753476582422914, 0.2753476582422914, 0.2753476582422914]",0.002,7,1
0,34,"[0.03956178852250762, -1.531234538272387, 0.03956178852250762, 0.03956178852250762, 0.03956178852250762, 0.03956178852250762]","[0.2744459479879929, -1.2963503788069037, 0.2744459479879929, 0.2744459479879929, 0.2744459479879929, 0.2744459479879929]",0.002,7,1
0,35,"[0.04196075495387181, -1.5288355718410234, 0.04196075495387181, 0.04196075495387181, 0.04196075495387181, 0.04196075495387181]","[0.27353941589521663, -1.2972569108996799, 0.27353941589521663, 0.27353941589521663, 0.27353941589521663, 0.27353941589521663]",0.002,7,1
0,36,"[0.0444263422485182, -1.5263699845463767, 0.0444263422485182, 0.0444263422485182, 0.0444263422485182, 0.0444263422485182]","[0.2726280778911473, -1.2981682489037492, 0.2726280778911473, 0.2726280778911473, 0.2726280778911473, 0.2726280778911473]",0.002,7,1
0,37,"[0.046970476369498367, -1.5238258504253963, 0.046970476369498367, 0.046970476369498367, 0.046970476369498367, 0.046970476369498367]","[0.2717119499874067, -1.2990843768074898, 0.2717119499874067, 0.2717119499874067, 0.2717119499874067, 0.2717119499874067]",0.002,7,1
0,38,"[0.04959124076046253, -1.5212050860344322, 0.04959124076046253, 0.04959124076046253, 0.04959124076046253, 0.04959124076046253]","[0.27079104827977174, -1.3000052785151248, 0.27079104827977174, 0.27079104827977174, 0.27079104827977174, 0.27079104827977174]",0.002,7,1
0,39,"[0.052286142755047664, -1.5185101840398474, 0.052286142755047664, 0.052286142755047664, 0.052286142755047664, 0.052286142755047664]","[0.269865388947892, -1.3009309378470046, 0.269865388947892, 0.269865388947892, 0.269865388947892, 0.269865388947892]",0.002,7,1
0,40,"[0.05500039726074205, -1.5157959295341525, 0.05500039726074205, 0.05500039726074205, 0.05500039726074205, 0.05500039726074205]","[0.2689349882550056, -1.301861338539891, 0.2689349882550056, 0.2689349882550056, 0.2689349882550056, 0.2689349882550056]",0.002,7,1
0,41,"[0.05770910810340131, -1.513087218691493, 0.05770910810340131, 0.05770910810340131, 0.05770910810340131, 0.05770910810340131]","[0.2679998625476532, -1.3027964642472434, 0.2679998625476532, 0.2679998625476532, 0.2679998625476532, 0.2679998625476532]",0.002,7,1
0,42,"[0.06041342802613437, -1.5103828987687598, 0.06041342802613437, 0.06041342802613437, 0.06041342802613437, 0.06041342802613437]","[0.267060028255391, -1.3037362985395056, 0.267060028255391, 0.267060028255391, 0.267060028255391, 0.267060028255391]",0.002,7,1
0,43,"[0.0631148496221156, -1.5076814771727785, 0.0631148496221156, 0.0631148496221156, 0.0631148496221156, 0.0631148496221156]","[0.266115501890502, -1.3046808249043946, 0.266115501890502, 0.266115501890502, 0.266115501890502, 0.266115501890502]",0.002,7,1
0,44,"[0.06581527333826163, -1.504981053456632, 0.06581527333826163, 0.06581527333826163, 0.06581527333826163, 0.06581527333826163]","[0.26516630004770564, -1.305630026747191, 0.26516630004770564, 0.26516630004770564, 0.26516630004770564, 0.26516630004770564]",0.002,7,1
0,45,"[0.06851351730663496, -1.5022828094882588, 0.06851351730663496, 0.06851351730663496, 0.06851351730663496, 0.06851351730663496]","[0.26421243940386707, -1.3065838873910294, 0.26421243940386707, 0.26421243940386707, 0.26421243940386707, 0.26421243940386707]",0.002,7,1
0,46,"[0.0712034556304609, -1.4995928711644329, 0.0712034556304609, 0.0712034556304609, 0.0712034556304609, 0.0712034556304609]","[0.2632539367177031, -1.3075423900771934, 0.2632539367177031, 0.2632539367177031, 0.2632539367177031, 0.2632539367177031]",0.002,7,1
0,47,"[0.07388340922736981, -1.4969129175675242, 0.07388340922736981, 0.07388340922736981, 0.07388340922736981, 0.07388340922736981]","[0.2622908088294882, -1.3085055179654084, 0.2622908088294882, 0.2622908088294882, 0.2622908088294882, 0.2622908088294882]",0.002,7,1
0,48,"[0.07655641965088336, -1.494239907144011, 0.07655641965088336, 0.07655641965088336, 0.07655641965088336, 0.07655641965088336]","[0.261323072660759, -1.3094732541341376, 0.261323072660759, 0.261323072660759, 0.261323072660759, 0.261323072660759]",0.002,7,1
0,49,"[0.07922596304638925, -1.4915703637485054, 0.07922596304638925, 0.07922596304638925, 0.07922596304638925, 0.07922596304638925]","[0.26035074521401613, -1.3104455815808804, 0.26035074521401613, 0.26035074521401613, 0.26035074521401613, 0.26035074521401613]",0.002,7,1
0,50,"[0.0818958904885609, -1.4889004363063343, 0.0818958904885609, 0.0818958904885609, 0.0818958904885609, 0.0818958904885609]","[0.2593738435724268, -1.3114224832224697, 0.2593738435724268, 0.2593738435724268, 0.2593738435724268, 0.2593738435724268]",0.002,7,1
0,51,"[0.08456507700201811, -1.4862312497928771, 0.08456507700201811, 0.08456507700201811, 0.08456507700201811, 0.08456507700201811]","[0.25839238489952326, -1.3124039418953732, 0.25839238489952326, 0.25839238489952326, 0.25839238489952326, 0.25839238489952326]",0.002,7,1
0,52,"[0.0872260362295414, -1.4835702905653534, 0.0872260362295414, 0.0872260362295414, 0.0872260362295414, 0.0872260362295414]","[0.2574063864389019, -1.3133899403559948, 0.2574063864389019, 0.2574063864389019, 0.2574063864389019, 0.2574063864389019]",0.002,7,1
0,53,"[0.08987941563225021, -1.4809169111626446, 0.08987941563225021, 0.08987941563225021, 0.08987941563225021, 0.08987941563225021]","[0.2564158655139204, -1.3143804612809762, 0.2564158655139204, 0.2564158655139204, 0.2564158655139204, 0.2564158655139204]",0.002,7,1
0,54,"[0.09253047431556166, -1.4782658524793337, 0.09253047431556166, 0.09253047431556166, 0.09253047431556166, 0.09253047431556166]","[0.2554208395273934, -1.3153754872675032, 0.2554208395273934, 0.2554208395273934, 0.2554208395273934, 0.2554208395273934]",0.002,7,1
0,55,"[0.09518301943206217, -1.475613307362833, 0.09518301943206217, 0.09518301943206217, 0.09518301943206217, 0.09518301943206217]","[0.25442132596128625, -1.3163750008336104, 0.25442132596128625, 0.25442132596128625, 0.25442132596128625, 0.25442132596128625]",0.002,7,1
0,56,"[0.09783035812616009, -1.4729659686687349, 0.09783035812616009, 0.09783035812616009, 0.09783035812616009, 0.09783035812616009]","[0.25341734237640834, -1.3173789844184882, 0.25341734237640834, 0.25341734237640834, 0.25341734237640834, 0.25341734237640834]",0.002,7,1
0,57,"[0.1004694280981002, -1.4703268986967943, 0.1004694280981002, 0.1004694280981002, 0.1004694280981002, 0.1004694280981002]","[0.2524089064121042, -1.3183874203827923, 0.2524089064121042, 0.2524089064121042, 0.2524089064121042, 0.2524089064121042]",0.002,7,1
0,58,"[0.1031061992311677, -1.4676901275637269, 0.1031061992311677, 0.1031061992311677, 0.1031061992311677, 0.1031061992311677]","[0.25139603578594427, -1.3194002910089524, 0.25139603578594427, 0.25139603578594427, 0.25139603578594427, 0.25139603578594427]",0.002,7,1
0,59,"[0.10574332068690401, -1.4650530061079907, 0.10574332068690401, 0.10574332068690401, 0.10574332068690401, 0.10574332068690401]","[0.25037874829341267, -1.320417578501484, 0.25037874829341267, 0.25037874829341267, 0.25037874829341267, 0.25037874829341267]",0.002,7,1
0,60,"[0.10837447334922606, -1.4624218534456688, 0.10837447334922606, 0.10837447334922606, 0.10837447334922606, 0.10837447334922606]","[0.2493570618075953, -1.3214392649873012, 0.2493570618075953, 0.2493570618075953, 0.2493570618075953, 0.2493570618075953]",0.002,7,1
0,61,"[0.11099953230660299, -1.459796794488292, 0.11099953230660299, 0.11099953230660299, 0.11099953230660299, 0.11099953230660299]","[0.24833099427886537, -1.3224653325160312, 0.24833099427886537, 0.24833099427886537, 0.24833099427886537, 0.24833099427886537]",0.002,7,1
0,62,"[0.11362444701129358, -1.4571718797836013, 0.11362444701129358, 0.11362444701129358, 0.11362444701129358, 0.11362444701129358]","[0.24730056373456807, -1.3234957630603286, 0.24730056373456807, 0.24730056373456807, 0.24730056373456807, 0.24730056373456807]",0.002,7,1
0,63,"[0.11362444701129358, -1.4571718797836013, 0.11362444701129358, 0.11362444701129358, 0.11362444701129358, 0.11362444701129358]","[0.2462657882787045, -1.324530538516192, 0.2462657882787045, 0.2462657882787045, 0.2462657882787045, 0.2462657882787045]",0.002,7,1
0,64,"[0.11624690373647835, -1.4545494230584168, 0.11624690373647835, 0.11624690373647835, 0.11624690373647835, 0.11624690373647835]","[0.24522668609161252, -1.325569640703284, 0.24522668609161252, 0.24522668609161252, 0.24522668609161252, 0.24522668609161252]",0.002,7,1
0,65,"[0.11886226971255737, -1.4519340570823385, 0.11886226971255737, 0.11886226971255737, 0.11886226971255737, 0.11886226971255737]","[0.2441832754296479, -1.3266130513652485, 0.2441832754296479, 0.2441832754296479, 0.2441832754296479, 0.2441832754296479]",0.002,7,1
0,66,"[0.12147519226190319, -1.4493211345329922, 0.12147519226190319, 0.12147519226190319, 0.12147519226190319, 0.12147519226190319]","[0.24313557462486401, -1.3276607521700325, 0.24313557462486401, 0.24313557462486401, 0.24313557462486401, 0.24313557462486401]",0.002,7,1
0,67,"[0.12408692729225629, -1.4467093995026392, 0.12408692729225629, 0.12408692729225629, 0.12408692729225629, 0.12408692729225629]","[0.2420836020846888, -1.3287127247102077, 0.2420836020846888, 0.2420836020846888, 0.2420836020846888, 0.2420836020846888]",0.002,7,1
0,68,"[0.126692804255041, -1.444103522539855, 0.126692804255041, 0.126692804255041, 0.126692804255041, 0.126692804255041]","[0.24102737629160198, -1.3297689505032946, 0.24102737629160198, 0.24102737629160198, 0.24102737629160198, 0.24102737629160198]",0.002,7,1
0,69,"[0.12929510796762012, -1.441501218827276, 0.12929510796762012, 0.12929510796762012, 0.12929510796762012, 0.12929510796762012]","[0.23996691580281018, -1.3308294109920864, 0.23996691580281018, 0.23996691580281018, 0.23996691580281018, 0.23996691580281018]",0.002,7,1
0,70,"[0.13189632032489504, -1.4389000064700008, 0.13189632032489504, 0.13189632032489504, 0.13189632032489504, 0.13189632032489504]","[0.23890223924992085, -1.3318940875449756, 0.23890223924992085, 0.23890223924992085, 0.23890223924992085, 0.23890223924992085]",0.002,7,1
0,71,"[0.13449251243879357, -1.4363038143561022, 0.13449251243879357, 0.13449251243879357, 0.13449251243879357, 0.13449251243879357]","[0.2378333653386153, -1.3329629614562812, 0.2378333653386153, 0.2378333653386153, 0.2378333653386153, 0.2378333653386153]",0.002,7,1
0,72,"[0.1370847698468204, -1.4337115569480758, 0.1370847698468204, 0.1370847698468204, 0.1370847698468204, 0.1370847698468204]","[0.23676031284831928, -1.3340360139465772, 0.23676031284831928, 0.23676031284831928, 0.23676031284831928, 0.23676031284831928]",0.002,7,1
0,73,"[0.13967560082467506, -1.4311207259702208, 0.13967560082467506, 0.13967560082467506, 0.13967560082467506, 0.13967560082467506]","[0.23568310063187367, -1.335113226163023, 0.23568310063187367, 0.23568310063187367, 0.23568310063187367, 0.23568310063187367]",0.002,7,1
0,74,"[0.14226179813181133, -1.428534528663084, 0.14226179813181133, 0.14226179813181133, 0.14226179813181133, 0.14226179813181133]","[0.234601747615203, -1.3361945791796936, 0.234601747615203, 0.234601747615203, 0.234601747615203, 0.234601747615203]",0.002,7,1
0,75,"[0.14484410335504633, -1.4259522234398485, 0.14484410335504633, 0.14484410335504633, 0.14484410335504633, 0.14484410335504633]","[0.23351627279698325, -1.3372800539979133, 0.23351627279698325, 0.23351627279698325, 0.23351627279698325, 0.23351627279698325]",0.002,7,1
0,76,"[0.1474244683061425, -1.4233718584887525, 0.1474244683061425, 0.1474244683061425, 0.1474244683061425, 0.1474244683061425]","[0.23242669524830742, -1.3383696315465892, 0.23242669524830742, 0.23242669524830742, 0.23242669524830742, 0.23242669524830742]",0.002,7,1
0,77,"[0.15000056095783343, -1.4207957658370614, 0.15000056095783343, 0.15000056095783343, 0.15000056095783343, 0.15000056095783343]","[0.2313330341123511, -1.3394632926825454, 0.2313330341123511, 0.2313330341123511, 0.2313330341123511, 0.2313330341123511]",0.002,7,1
0,78,"[0.1525731635083014, -1.4182231632865934, 0.1525731635083014, 0.1525731635083014, 0.1525731635083014, 0.1525731635083014]","[0.23023530860403557, -1.340561018190861, 0.23023530860403557, 0.23023530860403557, 0.23023530860403557, 0.23023530860403557]",0.002,7,1
0,79,"[0.155143320192951, -1.4156530066019437, 0.155143320192951, 0.155143320192951, 0.155143320192951, 0.155143320192951]","[0.22913353800969108, -1.3416627887852055, 0.22913353800969108, 0.22913353800969108, 0.22913353800969108, 0.22913353800969108]",0.002,7,1
0,80,"[0.15770945348878948, -1.4130868733061046, 0.15770945348878948, 0.15770945348878948, 0.15770945348878948, 0.15770945348878948]","[0.22802774168671697, -1.3427685851081796, 0.22802774168671697, 0.22802774168671697, 0.22802774168671697, 0.22802774168671697]",0.002,7,1
0,81,"[0.1602723595782486, -1.4105239672166459, 0.1602723595782486, 0.1602723595782486, 0.1602723595782486, 0.1602723595782486]","[0.226917939063242, -1.3438783877316545, 0.226917939063242, 0.226917939063242, 0.226917939063242, 0.226917939063242]",0.002,7,1
0,82,"[0.1628323496809381, -1.4079639771139565, 0.1628323496809381, 0.1628323496809381, 0.1628323496809381, 0.1628323496809381]","[0.22580414963778342, -1.3449921771571132, 0.22580414963778342, 0.22580414963778342, 0.22580414963778342, 0.22580414963778342]",0.002,7,1
0,83,"[0.16538865661373842, -1.4054076701811562, 0.16538865661373842, 0.16538865661373842, 0.16538865661373842, 0.16538865661373842]","[0.22468639297890358, -1.346109933815993, 0.22468639297890358, 0.22468639297890358, 0.22468639297890358, 0.22468639297890358]",0.002,7,1
0,84,"[0.16794176408746997, -1.4028545627074251, 0.16794176408746997, 0.16794176408746997, 0.16794176408746997, 0.16794176408746997]","[0.22356468872486704, -1.3472316380700295, 0.22356468872486704, 0.22356468872486704, 0.22356468872486704, 0.22356468872486704]",0.002,7,1
0,85,"[0.17049161027309417, -1.4003047165218012, 0.17049161027309417, 0.17049161027309417, 0.17049161027309417, 0.17049161027309417]","[0.22243905658329466, -1.348357270211602, 0.22243905658329466, 0.22243905658329466, 0.22243905658329466, 0.22243905658329466]",0.002,7,1
0,86,"[0.17303821379088732, -1.3977581130040075, 0.17303821379088732, 0.17303821379088732, 0.17303821379088732, 0.17303821379088732]","[0.22130951633081786, -1.3494868104640787, 0.22130951633081786, 0.22130951633081786, 0.22130951633081786, 0.22130951633081786]",0.002,7,1
0,87,"[0.17558128197195225, -1.395215044822943, 0.17558128197195225, 0.17558128197195225, 0.17558128197195225, 0.17558128197195225]","[0.22017608781273132, -1.3506202389821653, 0.22017608781273132, 0.22017608781273132, 0.22017608781273132, 0.22017608781273132]",0.002,7,1
0,88,"[0.17812099110584353, -1.3926753356890513, 0.17812099110584353, 0.17812099110584353, 0.17812099110584353, 0.17812099110584353]","[0.2190387909426437, -1.351757535852253, 0.2190387909426437, 0.2190387909426437, 0.2190387909426437, 0.2190387909426437]",0.002,7,1
0,89,"[0.1806579306081295, -1.3901383961867655, 0.1806579306081295, 0.1806579306081295, 0.1806579306081295, 0.1806579306081295]","[0.21789764570212822, -1.3528986810927683, 0.21789764570212822, 0.21789764570212822, 0.21789764570212822, 0.21789764570212822]",0.002,7,1
0,90,"[0.1831908251562774, -1.3876055016386175, 0.1831908251562774, 0.1831908251562774, 0.1831908251562774, 0.1831908251562774]","[0.21675267214037153, -1.3540436546545251, 0.21675267214037153, 0.21675267214037153, 0.21675267214037153, 0.21675267214037153]",0.002,7,1
0,91,"[0.18572051492800135, -1.3850758118668942, 0.18572051492800135, 0.18572051492800135, 0.18572051492800135, 0.18572051492800135]","[0.21560389037382122, -1.3551924364210755, 0.21560389037382122, 0.21560389037382122, 0.21560389037382122, 0.21560389037382122]",0.002,7,1
0,92,"[0.18824742377046483, -1.3825489030244311, 0.18824742377046483, 0.18824742377046483, 0.18824742377046483, 0.18824742377046483]","[0.21445132058583308, -1.3563450062090634, 0.21445132058583308, 0.21445132058583308, 0.21445132058583308, 0.21445132058583308]",0.002,7,1
0,93,"[0.18824742377046483, -1.3825489030244311, 0.18824742377046483, 0.18824742377046483, 0.18824742377046483, 0.18824742377046483]","[0.21329498302631547, -1.357501343768581, 0.21329498302631547, 0.21329498302631547, 0.21329498302631547, 0.21329498302631547]",0.002,7,1
0,94,"[0.19076920944860515, -1.380027117346291, 0.19076920944860515, 0.19076920944860515, 0.19076920944860515, 0.19076920944860515]","[0.21213489801137433, -1.3586614287835221, 0.21213489801137433, 0.21213489801137433, 0.21213489801137433, 0.21213489801137433]",0.002,7,1
0,95,"[0.19328710088571985, -1.3775092259091757, 0.19328710088571985, 0.19328710088571985, 0.19328710088571985, 0.19328710088571985]","[0.21097108592295577, -1.359825240871941, 0.21097108592295577, 0.21097108592295577, 0.21097108592295577, 0.21097108592295577]",0.002,7,1
0,96,"[0.195800159431232, -1.3749961673636637, 0.195800159431232, 0.195800159431232, 0.195800159431232, 0.195800159431232]","[0.20980356720848856, -1.360992759586408, 0.20980356720848856, 0.20980356720848856, 0.20980356720848856, 0.20980356720848856]",0.002,7,1
0,97,"[0.19830626533687307, -1.3724900614580227, 0.19830626533687307, 0.19830626533687307, 0.19830626533687307, 0.19830626533687307]","[0.20863236238052418, -1.3621639644143724, 0.20863236238052418, 0.20863236238052418, 0.20863236238052418, 0.20863236238052418]",0.002,7,1
0,98,"[0.20080763496344217, -1.3699886918314537, 0.20080763496344217, 0.20080763496344217, 0.20080763496344217, 0.20080763496344217]","[0.2074574920163768, -1.3633388347785198, 0.2074574920163768, 0.2074574920163768, 0.2074574920163768, 0.2074574920163768]",0.002,7,1
0,99,"[0.20330211528540004, -1.367494211509496, 0.20330211528540004, 0.20330211528540004, 0.20330211528540004, 0.20330211528540004]","[0.20627897675776163, -1.364517350037135, 0.20627897675776163, 0.20627897675776163, 0.20627897675776163, 0.20627897675776163]",0.002,7,1
0,100,"[0.2057886337019663, -1.36500769309293, 0.2057886337019663, 0.2057886337019663, 0.2057886337019663, 0.2057886337019663]","[0.2050968373104327, -1.3656994894844638, 0.2050968373104327, 0.2050968373104327, 0.2050968373104327, 0.2050968373104327]",0.002,7,1
0,101,"[0.2082702743869605, -1.3625260524079357, 0.2082702743869605, 0.2082702743869605, 0.2082702743869605, 0.2082702743869605]","[0.20391109444381825, -1.3668852323510783, 0.20391109444381825, 0.20391109444381825, 0.20391109444381825, 0.20391109444381825]",0.002,7,1
0,102,"[0.2107434573373297, -1.3600528694575669, 0.2107434573373297, 0.2107434573373297, 0.2107434573373297, 0.2107434573373297]","[0.20272176899065653, -1.3680745578042401, 0.20272176899065653, 0.20272176899065653, 0.20272176899065653, 0.20272176899065653]",0.002,7,1
0,103,"[0.21320890782420857, -1.357587418970688, 0.21320890782420857, 0.21320890782420857, 0.21320890782420857, 0.21320890782420857]","[0.2015288818466294, -1.3692674449482671, 0.2015288818466294, 0.2015288818466294, 0.2015288818466294, 0.2015288818466294]",0.002,7,1
0,104,"[0.21567016132632705, -1.355126165468569, 0.21567016132632705, 0.21567016132632705, 0.21567016132632705, 0.21567016132632705]","[0.20033245396999533, -1.3704638728249012, 0.20033245396999533, 0.20033245396999533, 0.20033245396999533, 0.20033245396999533]",0.002,7,1
0,105,"[0.21812181620920235, -1.352674510585694, 0.21812181620920235, 0.21812181620920235, 0.21812181620920235, 0.21812181620920235]","[0.19913250638122146, -1.371663820413675, 0.19913250638122146, 0.19913250638122146, 0.19913250638122146, 0.19913250638122146]",0.002,7,1
0,106,"[0.22056685299179446, -1.3502294738031022, 0.22056685299179446, 0.22056685299179446, 0.22056685299179446, 0.22056685299179446]","[0.1979290601626136, -1.372867266632283, 0.1979290601626136, 0.1979290601626136, 0.1979290601626136, 0.1979290601626136]",0.002,7,1
0,107,"[0.2230088122319812, -1.3477875145629152, 0.2230088122319812, 0.2230088122319812, 0.2230088122319812, 0.2230088122319812]","[0.1967221364579464, -1.3740741903369502, 0.1967221364579464, 0.1967221364579464, 0.1967221364579464, 0.1967221364579464]",0.002,7,1
0,108,"[0.22544145619602282, -1.3453548705988734, 0.22544145619602282, 0.22544145619602282, 0.22544145619602282, 0.22544145619602282]","[0.1955117564720919, -1.3752845703228047, 0.1955117564720919, 0.1955117564720919, 0.1955117564720919, 0.1955117564720919]",0.002,7,1
0,109,"[0.2278689488655772, -1.3429273779293194, 0.2278689488655772, 0.2278689488655772, 0.2278689488655772, 0.2278689488655772]","[0.1942979414706465, -1.37649838532425, 0.1942979414706465, 0.1942979414706465, 0.1942979414706465, 0.1942979414706465]",0.002,7,1
0,110,"[0.23029371948699986, -1.3405026073078963, 0.23029371948699986, 0.23029371948699986, 0.23029371948699986, 0.23029371948699986]","[0.19308071277955766, -1.3777156140153388, 0.19308071277955766, 0.19308071277955766, 0.19308071277955766, 0.19308071277955766]",0.002,7,1
0,111,"[0.2327094416491322, -1.3380868851457643, 0.2327094416491322, 0.2327094416491322, 0.2327094416491322, 0.2327094416491322]","[0.19186009178474922, -1.3789362350101473, 0.19186009178474922, 0.19186009178474922, 0.19186009178474922, 0.19186009178474922]",0.002,7,1
0,112,"[0.23512111843718422, -1.3356752083577126, 0.23512111843718422, 0.23512111843718422, 0.23512111843718422, 0.23512111843718422]","[0.19063609993174555, -1.380160226863151, 0.19063609993174555, 0.19063609993174555, 0.19063609993174555, 0.19063609993174555]",0.002,7,1
0,113,"[0.23753060820501282, -1.3332657185898835, 0.23753060820501282, 0.23753060820501282, 0.23753060820501282, 0.23753060820501282]","[0.189408758725295, -1.3813875680696015, 0.189408758725295, 0.189408758725295, 0.189408758725295, 0.189408758725295]",0.002,7,1
0,114,"[0.23993092936549246, -1.3308653974294042, 0.23993092936549246, 0.23993092936549246, 0.23993092936549246, 0.23993092936549246]","[0.18817808972899175, -1.3826182370659048, 0.18817808972899175, 0.18817808972899175, 0.18817808972899175, 0.18817808972899175]",0.002,7,1
0,115,"[0.2423274274208736, -1.3284688993740232, 0.2423274274208736, 0.2423274274208736, 0.2423274274208736, 0.2423274274208736]","[0.1869441145648971, -1.3838522122299994, 0.1869441145648971, 0.1869441145648971, 0.1869441145648971, 0.1869441145648971]",0.002,7,1
0,116,"[0.24472269567120372, -1.326073631123693, 0.24472269567120372, 0.24472269567120372, 0.24472269567120372, 0.24472269567120372]","[0.18570685491315947, -1.385089471881737, 0.18570685491315947, 0.18570685491315947, 0.18570685491315947, 0.18570685491315947]",0.002,7,1
0,117,"[0.24710827600405258, -1.3236880507908442, 0.24710827600405258, 0.24710827600405258, 0.24710827600405258, 0.24710827600405258]","[0.18446633251163405, -1.3863299942832625, 0.18446633251163405, 0.18446633251163405, 0.18446633251163405, 0.18446633251163405]",0.002,7,1
0,118,"[0.24710827600405258, -1.3236880507908442, 0.24710827600405258, 0.24710827600405258, 0.24710827600405258, 0.24710827600405258]","[0.18322256915549998, -1.3875737576393965, 0.18322256915549998, 0.18322256915549998, 0.18322256915549998, 0.18322256915549998]",0.002,7,1
0,119,"[0.24948898124818822, -1.3213073455467086, 0.24948898124818822, 0.24948898124818822, 0.24948898124818822, 0.24948898124818822]","[0.18197558669687813, -1.3888207400980184, 0.18197558669687813, 0.18197558669687813, 0.18197558669687813, 0.18197558669687813]",0.002,7,1
0,120,"[0.25187027272719875, -1.3189260540676981, 0.25187027272719875, 0.25187027272719875, 0.25187027272719875, 0.25187027272719875]","[0.18072540704444667, -1.39007091975045, 0.18072540704444667, 0.18072540704444667, 0.18072540704444667, 0.18072540704444667]",0.002,7,1
0,121,"[0.2542437677455715, -1.3165525590493257, 0.2542437677455715, 0.2542437677455715, 0.2542437677455715, 0.2542437677455715]","[0.17947205216305687, -1.3913242746318397, 0.17947205216305687, 0.17947205216305687, 0.17947205216305687, 0.17947205216305687]",0.002,7,1
0,122,"[0.2566100096232374, -1.31418631717166, 0.2566100096232374, 0.2566100096232374, 0.2566100096232374, 0.2566100096232374]","[0.17821554407334633, -1.3925807827215502, 0.17821554407334633, 0.17821554407334633, 0.17821554407334633, 0.17821554407334633]",0.002,7,1
0,123,"[0.2589765901237594, -1.3118197366711382, 0.2589765901237594, 0.2589765901237594, 0.2589765901237594, 0.2589765901237594]","[0.17695590485135257, -1.393840421943544, 0.17695590485135257, 0.17695590485135257, 0.17695590485135257, 0.17695590485135257]",0.002,7,1
0,124,"[0.2613386568207266, -1.3094576699741705, 0.2613386568207266, 0.2613386568207266, 0.2613386568207266, 0.2613386568207266]","[0.17569315662812515, -1.3951031701667713, 0.17569315662812515, 0.17569315662812515, 0.17569315662812515, 0.17569315662812515]",0.002,7,1
0,125,"[0.26369016271389845, -1.3071061640809987, 0.26369016271389845, 0.26369016271389845, 0.26369016271389845, 0.26369016271389845]","[0.17442732158933658, -1.39636900520556, 0.17442732158933658, 0.17442732158933658, 0.17442732158933658, 0.17442732158933658]",0.002,7,1
0,126,"[0.26603844167482504, -1.3047578851200718, 0.26603844167482504, 0.26603844167482504, 0.26603844167482504, 0.26603844167482504]","[0.1731584219748932, -1.3976379048200034, 0.1731584219748932, 0.1731584219748932, 0.1731584219748932, 0.1731584219748932]",0.002,7,1
0,127,"[0.2683870860208975, -1.3024092407739989, 0.2683870860208975, 0.2683870860208975, 0.2683870860208975, 0.2683870860208975]","[0.1718864800785435, -1.398909846716353, 0.1718864800785435, 0.1718864800785435, 0.1718864800785435, 0.1718864800785435]",0.002,7,1
0,128,"[0.270728667782823, -1.3000676590120737, 0.270728667782823, 0.270728667782823, 0.270728667782823, 0.270728667782823]","[0.170611518247487, -1.4001848085474096, 0.170611518247487, 0.170611518247487, 0.170611518247487, 0.170611518247487]",0.002,7,1
0,129,"[0.2730597185084116, -1.2977366082864847, 0.2730597185084116, 0.2730597185084116, 0.2730597185084116, 0.2730597185084116]","[0.16933355888198182, -1.4014627679129148, 0.16933355888198182, 0.16933355888198182, 0.16933355888198182, 0.16933355888198182]",0.002,7,1
0,130,"[0.2753881833762199, -1.2954081434186762, 0.2753881833762199, 0.2753881833762199, 0.2753881833762199, 0.2753881833762199]","[0.1680526244349505, -1.402743702359946, 0.1680526244349505, 0.1680526244349505, 0.1680526244349505, 0.1680526244349505]",0.002,7,1
0,131,"[0.2777168588890536, -1.2930794679058426, 0.2777168588890536, 0.2777168588890536, 0.2777168588890536, 0.2777168588890536]","[0.16676873741158596, -1.4040275893833105, 0.16676873741158596, 0.16676873741158596, 0.16676873741158596, 0.16676873741158596]",0.002,7,1
0,132,"[0.28003992551740253, -1.290756401277494, 0.28003992551740253, 0.28003992551740253, 0.28003992551740253, 0.28003992551740253]","[0.16548192036895595, -1.4053144064259406, 0.16548192036895595, 0.16548192036895595, 0.16548192036895595, 0.16548192036895595]",0.002,7,1
0,133,"[0.28235197689432234, -1.2884443499005744, 0.28235197689432234, 0.28235197689432234, 0.28235197689432234, 0.28235197689432234]","[0.16419219591560666, -1.4066041308792898, 0.16419219591560666, 0.16419219591560666, 0.16419219591560666, 0.16419219591560666]",0.002,7,1
0,134,"[0.28465551120600086, -1.2861408155888956, 0.28465551120600086, 0.28465551120600086, 0.28465551120600086, 0.28465551120600086]","[0.16289958671116606, -1.4078967400837306, 0.16289958671116606, 0.16289958671116606, 0.16289958671116606, 0.16289958671116606]",0.002,7,1
0,135,"[0.2869587002721836, -1.283837626522713, 0.2869587002721836, 0.2869587002721836, 0.2869587002721836, 0.2869587002721836]","[0.16160411546594486, -1.4091922113289517, 0.16160411546594486, 0.16160411546594486, 0.16160411546594486, 0.16160411546594486]",0.002,7,1
0,136,"[0.28926080768110374, -1.2815355191137936, 0.28926080768110374, 0.28926080768110374, 0.28926080768110374, 0.28926080768110374]","[0.16030580494053806, -1.4104905218543584, 0.16030580494053806, 0.16030580494053806, 0.16030580494053806, 0.16030580494053806]",0.002,7,1
0,137,"[0.2915583320814223, -1.2792379947134753, 0.2915583320814223, 0.2915583320814223, 0.2915583320814223, 0.2915583320814223]","[0.15900467794542528, -1.4117916488494713, 0.15900467794542528, 0.15900467794542528, 0.15900467794542528, 0.15900467794542528]",0.002,7,1
0,138,"[0.29384844574055985, -1.2769478810543378, 0.29384844574055985, 0.29384844574055985, 0.29384844574055985, 0.29384844574055985]","[0.15770075734056943, -1.413095569454327, 0.15770075734056943, 0.15770075734056943, 0.15770075734056943, 0.15770075734056943]",0.002,7,1
0,139,"[0.29612909978119656, -1.2746672270137012, 0.29612909978119656, 0.29612909978119656, 0.29612909978119656, 0.29612909978119656]","[0.15639406603501535, -1.4144022607598812, 0.15639406603501535, 0.15639406603501535, 0.15639406603501535, 0.15639406603501535]",0.002,7,1
0,140,"[0.2983990832219412, -1.2723972435729571, 0.2983990832219412, 0.2983990832219412, 0.2983990832219412, 0.2983990832219412]","[0.1550846269864874, -1.4157116998084092, 0.1550846269864874, 0.1550846269864874, 0.1550846269864874, 0.1550846269864874]",0.002,7,1
0,141,"[0.3006580377480948, -1.2701382890468036, 0.3006580377480948, 0.3006580377480948, 0.3006580377480948, 0.3006580377480948]","[0.15377246320098584, -1.4170238635939107, 0.15377246320098584, 0.15377246320098584, 0.15377246320098584, 0.15377246320098584]",0.002,7,1
0,142,"[0.30290894092612825, -1.2678873858687698, 0.30290894092612825, 0.30290894092612825, 0.30290894092612825, 0.30290894092612825]","[0.15245759773238318, -1.4183387290625133, 0.15245759773238318, 0.15245759773238318, 0.15245759773238318, 0.15245759773238318]",0.002,7,1
0,143,"[0.30512282087898057, -1.2656735059159177, 0.30512282087898057, 0.30512282087898057, 0.30512282087898057, 0.30512282087898057]","[0.1511400536820184, -1.4196562731128781, 0.1511400536820184, 0.1511400536820184, 0.1511400536820184, 0.1511400536820184]",0.002,7,1
0,144,"[0.30728265706240754, -1.2635136697324905, 0.30728265706240754, 0.30728265706240754, 0.30728265706240754, 0.30728265706240754]","[0.1498198541982916, -1.420976472596605, 0.1498198541982916, 0.1498198541982916, 0.1498198541982916, 0.1498198541982916]",0.002,7,1
0,145,"[0.3093809210039172, -1.2614154057909808, 0.3093809210039172, 0.3093809210039172, 0.3093809210039172, 0.3093809210039172]","[0.14849702247625707, -1.4222993043186394, 0.14849702247625707, 0.14849702247625707, 0.14849702247625707, 0.14849702247625707]",0.002,7,1
0,146,"[0.31141317564875826, -1.2593831511461397, 0.31141317564875826, 0.31141317564875826, 0.31141317564875826, 0.31141317564875826]","[0.14717158175721565, -1.4236247450376809, 0.14717158175721565, 0.14717158175721565, 0.14717158175721565, 0.14717158175721565]",0.002,7,1
0,147,"[0.31337636485162257, -1.2574199619432749, 0.31337636485162257, 0.31337636485162257, 0.31337636485162257, 0.31337636485162257]","[0.14584355532830715, -1.4249527714665895, 0.14584355532830715, 0.14584355532830715, 0.14584355532830715, 0.14584355532830715]",0.002,7,1
0,148,"[0.31337636485162257, -1.2574199619432749, 0.31337636485162257, 0.31337636485162257, 0.31337636485162257, 0.31337636485162257]","[0.14451296652210002, -1.4262833602727965, 0.14451296652210002, 0.14451296652210002, 0.14451296652210002, 0.14451296652210002]",0.002,7,1
0,149,"[0.31708673694476064, -1.2537095898501365, 0.31708673694476064, 0.31708673694476064, 0.31708673694476064, 0.31708673694476064]","[0.14317983871618223, -1.4276164880787143, 0.14317983871618223, 0.14317983871618223, 0.14317983871618223, 0.14317983871618223]",0.002,7,1
0,150,"[0.31708673694476064, -1.2537095898501365, 0.31708673694476064, 0.31708673694476064, 0.31708673694476064, 0.31708673694476064]","[0.14184419533275064, -1.4289521314621458, 0.14184419533275064, 0.14184419533275064, 0.14184419533275064, 0.14184419533275064]",0.002,7,1
0,151,"[0.3188304834889262, -1.251965843305971, 0.3188304834889262, 0.3188304834889262, 0.3188304834889262, 0.3188304834889262]","[0.14050605983819875, -1.430290266956698, 0.14050605983819875, 0.14050605983819875, 0.14050605983819875, 0.14050605983819875]",0.002,7,1
0,152,"[0.3204980525054368, -1.2502982742894604, 0.3204980525054368, 0.3204980525054368, 0.3204980525054368, 0.3204980525054368]","[0.13916545574270506, -1.4316308710521914, 0.13916545574270506, 0.13916545574270506, 0.13916545574270506, 0.13916545574270506]",0.002,7,1
0,153,"[0.32209710397497276, -1.2486992228199245, 0.32209710397497276, 0.32209710397497276, 0.32209710397497276, 0.32209710397497276]","[0.13782240659981973, -1.4329739201950769, 0.13782240659981973, 0.13782240659981973, 0.13782240659981973, 0.13782240659981973]",0.002,7,1
0,154,"[0.32362886224130366, -1.247167464553594, 0.32362886224130366, 0.32362886224130366, 0.32362886224130366, 0.32362886224130366]","[0.13647693600605074, -1.4343193907888458, 0.13647693600605074, 0.13647693600605074, 0.13647693600605074, 0.13647693600605074]",0.002,7,1
0,155,"[0.32509277325940356, -1.2457035535354937, 0.32509277325940356, 0.32509277325940356, 0.32509277325940356, 0.32509277325940356]","[0.13512906760044982, -1.4356672591944468, 0.13512906760044982, 0.13512906760044982, 0.13512906760044982, 0.13512906760044982]",0.002,7,1
0,156,"[0.32648833046574943, -1.2443079963291481, 0.32648833046574943, 0.32648833046574943, 0.32648833046574943, 0.32648833046574943]","[0.13377882506419625, -1.4370175017307003, 0.13377882506419625, 0.13377882506419625, 0.13377882506419625, 0.13377882506419625]",0.002,7,1
0,157,"[0.32781506626445944, -1.2429812605304384, 0.32781506626445944, 0.32781506626445944, 0.32781506626445944, 0.32781506626445944]","[0.13242623212018126, -1.4383700946747153, 0.13242623212018126, 0.13242623212018126, 0.13242623212018126, 0.13242623212018126]",0.002,7,1
0,158,"[0.3290725460069632, -1.2417237807879342, 0.3290725460069632, 0.3290725460069632, 0.3290725460069632, 0.3290725460069632]","[0.1310713125325917, -1.4397250142623048, 0.1310713125325917, 0.1310713125325917, 0.1310713125325917, 0.1310713125325917]",0.002,7,1
0,159,"[0.3302603636379371, -1.2405359631569608, 0.3302603636379371, 0.3302603636379371, 0.3302603636379371, 0.3302603636379371]","[0.12971409010649154, -1.441082236688405, 0.12971409010649154, 0.12971409010649154, 0.12971409010649154, 0.12971409010649154]",0.002,7,1
0,160,"[0.3313778954904067, -1.2394184313044914, 0.3313778954904067, 0.3313778954904067, 0.3313778954904067, 0.3313778954904067]","[0.1283545886874044, -1.442441738107492, 0.1283545886874044, 0.1283545886874044, 0.1283545886874044, 0.1283545886874044]",0.002,7,1
0,161,"[0.3324245899003558, -1.2383717368945426, 0.3324245899003558, 0.3324245899003558, 0.3324245899003558, 0.3324245899003558]","[0.12699283216089424, -1.4438034946340024, 0.12699283216089424, 0.12699283216089424, 0.12699283216089424, 0.12699283216089424]",0.002,7,1
0,162,"[0.3334001126405947, -1.2373962141543036, 0.3334001126405947, 0.3334001126405947, 0.3334001126405947, 0.3334001126405947]","[0.1256288444521457, -1.445167482342751, 0.1256288444521457, 0.1256288444521457, 0.1256288444521457, 0.1256288444521457]",0.002,7,1
0,163,"[0.3343041491409894, -1.2364921776539086, 0.3343041491409894, 0.3343041491409894, 0.3343041491409894, 0.3343041491409894]","[0.12426264952554428, -1.4465336772693522, 0.12426264952554428, 0.12426264952554428, 0.12426264952554428, 0.12426264952554428]",0.002,7,1
0,164,"[0.335136403283409, -1.2356599235114887, 0.335136403283409, 0.335136403283409, 0.335136403283409, 0.335136403283409]","[0.12289427138425443, -1.447902055410642, 0.12289427138425443, 0.12289427138425443, 0.12289427138425443, 0.12289427138425443]",0.002,7,1
0,165,"[0.33589659639411956, -1.2348997304007776, 0.33589659639411956, 0.33589659639411956, 0.33589659639411956, 0.33589659639411956]","[0.12152373406979844, -1.449272592725098, 0.12152373406979844, 0.12152373406979844, 0.12152373406979844, 0.12152373406979844]",0.002,7,1
0,166,"[0.3365844663736569, -1.2342118604212402, 0.3365844663736569, 0.3365844663736569, 0.3365844663736569, 0.3365844663736569]","[0.12015106166163388, -1.4506452651332626, 0.12015106166163388, 0.12015106166163388, 0.12015106166163388, 0.12015106166163388]",0.002,7,1
0,167,"[0.33719976691931114, -1.2335965598755854, 0.33719976691931114, 0.33719976691931114, 0.33719976691931114, 0.33719976691931114]","[0.11877627827673037, -1.4520200485181662, 0.11877627827673037, 0.11877627827673037, 0.11877627827673037, 0.11877627827673037]",0.002,7,1
0,168,"[0.337742266805851, -1.233054059989045, 0.337742266805851, 0.337742266805851, 0.337742266805851, 0.337742266805851]","[0.11739940806914652, -1.45339691872575, 0.11739940806914652, 0.11739940806914652, 0.11739940806914652, 0.11739940806914652]",0.002,7,1
0,169,"[0.33821174919743163, -1.2325845775974642, 0.33821174919743163, 0.33821174919743163, 0.33821174919743163, 0.33821174919743163]","[0.11602047522960456, -1.454775851565292, 0.11602047522960456, 0.11602047522960456, 0.11602047522960456, 0.11602047522960456]",0.002,7,1
0,170,"[0.3386080109687027, -1.2321883158261935, 0.3386080109687027, 0.3386080109687027, 0.3386080109687027, 0.3386080109687027]","[0.1146395039850659, -1.4561568228098307, 0.1146395039850659, 0.1146395039850659, 0.1146395039850659, 0.1146395039850659]",0.002,7,1
0,171,"[0.33893086201658584, -1.23186546477831, 0.33893086201658584, 0.33893086201658584, 0.33893086201658584, 0.33893086201658584]","[0.1132565185983058, -1.4575398081965907, 0.1132565185983058, 0.1132565185983058, 0.1132565185983058, 0.1132565185983058]",0.002,7,1
0,172,"[0.33918012454643043, -1.2316162022484658, 0.33918012454643043, 0.33918012454643043, 0.33918012454643043, 0.33918012454643043]","[0.11187154336748632, -1.4589247834274102, 0.11187154336748632, 0.11187154336748632, 0.11187154336748632, 0.11187154336748632]",0.002,7,1
0,173,"[0.3393556251817559, -1.2314407016131401, 0.3393556251817559, 0.3393556251817559, 0.3393556251817559, 0.3393556251817559]","[0.1104846026257299, -1.4603117241691668, 0.1104846026257299, 0.1104846026257299, 0.1104846026257299, 0.1104846026257299]",0.002,7,1
0,174,"[0.3394572497779874, -1.2313390770169086, 0.3394572497779874, 0.3394572497779874, 0.3394572497779874, 0.3394572497779874]","[0.10909572074069172, -1.4617006060542048, 0.10909572074069172, 0.10909572074069172, 0.10909572074069172, 0.10909572074069172]",0.002,7,1
0,175,"[0.3394849611315467, -1.2313113656633492, 0.3394849611315467, 0.3394849611315467, 0.3394849611315467, 0.3394849611315467]","[0.10770492211413153, -1.463091404680765, 0.10770492211413153, 0.10770492211413153, 0.10770492211413153, 0.10770492211413153]",0.002,7,1
0,176,"[0.33943874550173536, -1.2313575812931603, 0.33943874550173536, 0.33943874550173536, 0.33943874550173536, 0.33943874550173536]","[0.10631223118148536, -1.464484095613411, 0.10631223118148536, 0.10631223118148536, 0.10631223118148536, 0.10631223118148536]",0.002,7,1
0,177,"[0.33931861248242434, -1.2314777143124722, 0.33931861248242434, 0.33931861248242434, 0.33931861248242434, 0.33931861248242434]","[0.10491767241143543, -1.4658786543834612, 0.10491767241143543, 0.10491767241143543, 0.10491767241143543, 0.10491767241143543]",0.002,7,1
0,178,"[0.33912459486698854, -1.2316717319279071, 0.33912459486698854, 0.33912459486698854, 0.33912459486698854, 0.33912459486698854]","[0.10352127030548064, -1.467275056489416, 0.10352127030548064, 0.10352127030548064, 0.10352127030548064, 0.10352127030548064]",0.002,7,1
0,179,"[0.33912459486698854, -1.2316717319279071, 0.33912459486698854, 0.33912459486698854, 0.33912459486698854, 0.33912459486698854]","[0.10212304939750658, -1.46867327739739, 0.10212304939750658, 0.10212304939750658, 0.10212304939750658, 0.10212304939750658]",0.002,7,1
0,180,"[0.33885674850655967, -1.231939578288337, 0.33885674850655967, 0.33885674850655967, 0.33885674850655967, 0.33885674850655967]","[0.10072303425335358, -1.470073292541543, 0.10072303425335358, 0.10072303425335358, 0.10072303425335358, 0.10072303425335358]",0.002,7,1
0,181,"[0.3385151521616976, -1.2322811746331972, 0.3385151521616976, 0.3385151521616976, 0.3385151521616976, 0.3385151521616976]","[0.09932124947038568, -1.4714750773245109, 0.09932124947038568, 0.09932124947038568, 0.09932124947038568, 0.09932124947038568]",0.002,7,1
0,182,"[0.3380999073475568, -1.232696419447338, 0.3380999073475568, 0.3380999073475568, 0.3380999073475568, 0.3380999073475568]","[0.0979177196770583, -1.4728786071178384, 0.0979177196770583, 0.0979177196770583, 0.0979177196770583, 0.0979177196770583]",0.002,7,1
0,183,"[0.33761113817263944, -1.2331851886222545, 0.33761113817263944, 0.33761113817263944, 0.33761113817263944, 0.33761113817263944]","[0.09651246953248548, -1.474283857262411, 0.09651246953248548, 0.09651246953248548, 0.09651246953248548, 0.09651246953248548]",0.002,7,1
0,184,"[0.337048991171228, -1.233747335623665, 0.337048991171228, 0.337048991171228, 0.337048991171228, 0.337048991171228]","[0.09510552372600713, -1.4756908030688893, 0.09510552372600713, 0.09510552372600713, 0.09510552372600713, 0.09510552372600713]",0.002,7,1
0,185,"[0.3364136351295848, -1.2343826916653082, 0.3364136351295848, 0.3364136351295848, 0.3364136351295848, 0.3364136351295848]","[0.09369690697675441, -1.4770994198181422, 0.09369690697675441, 0.09369690697675441, 0.09369690697675441, 0.09369690697675441]",0.002,7,1
0,186,"[0.3357052609060185, -1.2350910658888736, 0.3357052609060185, 0.3357052609060185, 0.3357052609060185, 0.3357052609060185]","[0.092286644033216, -1.4785096827616806, 0.092286644033216, 0.092286644033216, 0.092286644033216, 0.092286644033216]",0.002,7,1
0,187,"[0.33492408124490325, -1.235872245549988, 0.33492408124490325, 0.33492408124490325, 0.33492408124490325, 0.33492408124490325]","[0.0908747596728032, -1.4799215671220933, 0.0908747596728032, 0.0908747596728032, 0.0908747596728032, 0.0908747596728032]",0.002,7,1
0,188,"[0.33407033058475566, -1.2367259962101365, 0.33407033058475566, 0.33407033058475566, 0.33407033058475566, 0.33407033058475566]","[0.08946127870141439, -1.4813350480934822, 0.08946127870141439, 0.08946127870141439, 0.08946127870141439, 0.08946127870141439]",0.002,7,1
0,189,"[0.3331440340652696, -1.2376522927296225, 0.3331440340652696, 0.3331440340652696, 0.3331440340652696, 0.3331440340652696]","[0.08804622595299977, -1.4827501008418968, 0.08804622595299977, 0.08804622595299977, 0.08804622595299977, 0.08804622595299977]",0.002,7,1
0,190,"[0.33214524529517053, -1.2386510814997216, 0.33214524529517053, 0.33214524529517053, 0.33214524529517053, 0.33214524529517053]","[0.08662962628912428, -1.4841667005057724, 0.08662962628912428, 0.08662962628912428, 0.08662962628912428, 0.08662962628912428]",0.002,7,1
0,191,"[0.33107426501082227, -1.239722061784068, 0.33107426501082227, 0.33107426501082227, 0.33107426501082227, 0.33107426501082227]","[0.08521150459853113, -1.4855848221963655, 0.08521150459853113, 0.08521150459853113, 0.08521150459853113, 0.08521150459853113]",0.002,7,1
0,192,"[0.3299314149570476, -1.2408649118378428, 0.3299314149570476, 0.3299314149570476, 0.3299314149570476, 0.3299314149570476]","[0.083791885796705, -1.4870044409981915, 0.083791885796705, 0.083791885796705, 0.083791885796705, 0.083791885796705]",0.002,7,1
0,193,"[0.3287170376653048, -1.2420792891295847, 0.3287170376653048, 0.3287170376653048, 0.3287170376653048, 0.3287170376653048]","[0.08237079482543343, -1.488425531969463, 0.08237079482543343, 0.08237079482543343, 0.08237079482543343, 0.08237079482543343]",0.002,7,1
0,194,"[0.32743149622648815, -1.2433648305684013, 0.32743149622648815, 0.32743149622648815, 0.32743149622648815, 0.32743149622648815]","[0.08094825665236915, -1.4898480701425274, 0.08094825665236915, 0.08094825665236915, 0.08094825665236915, 0.08094825665236915]",0.002,7,1
0,195,"[0.3260751740584542, -1.2447211527364352, 0.3260751740584542, 0.3260751740584542, 0.3260751740584542, 0.3260751740584542]","[0.07952429627059132, -1.4912720305243052, 0.07952429627059132, 0.07952429627059132, 0.07952429627059132, 0.07952429627059132]",0.002,7,1
0,196,"[0.3246484746683871, -1.2461478521265015, 0.3246484746683871, 0.3246484746683871, 0.3246484746683871, 0.3246484746683871]","[0.0780989386981662, -1.4926973880967305, 0.0780989386981662, 0.0780989386981662, 0.0780989386981662, 0.0780989386981662]",0.002,7,1
0,197,"[0.323151821410101, -1.2476445053847875, 0.323151821410101, 0.323151821410101, 0.323151821410101, 0.323151821410101]","[0.07667220897770827, -1.4941241178171882, 0.07667220897770827, 0.07667220897770827, 0.07667220897770827, 0.07667220897770827]",0.002,7,1
0,198,"[0.3215856572364002, -1.2492106695584866, 0.3215856572364002, 0.3215856572364002, 0.3215856572364002, 0.3215856572364002]","[0.07524413217593934, -1.4955521946189572, 0.07524413217593934, 0.07524413217593934, 0.07524413217593934, 0.07524413217593934]",0.002,7,1
0,199,"[0.31995044444659193, -1.250845882348294, 0.31995044444659193, 0.31995044444659193, 0.31995044444659193, 0.31995044444659193]","[0.0738147333832485, -1.4969815934116482, 0.0738147333832485, 0.0738147333832485, 0.0738147333832485, 0.0738147333832485]",0.002,7,1
0,200,"[0.3182466644292763, -1.2525496623656096, 0.3182466644292763, 0.3182466644292763, 0.3182466644292763, 0.3182466644292763]","[0.0723840377132519, -1.4984122890816447, 0.0723840377132519, 0.0723840377132519, 0.0723840377132519, 0.0723840377132519]",0.002,7,1
0,201,"[0.3164748174005192, -1.2543215093943658, 0.3164748174005192, 0.3164748174005192, 0.3164748174005192, 0.3164748174005192]","[0.07095207030235046, -1.499844256492546, 0.07095207030235046, 0.07095207030235046, 0.07095207030235046, 0.07095207030235046]",0.002,7,1
0,202,"[0.3146354221375116, -1.2561609046573743, 0.3146354221375116, 0.3146354221375116, 0.3146354221375116, 0.3146354221375116]","[0.06951885630928899, -1.5012774704856076, 0.06951885630928899, 0.06951885630928899, 0.06951885630928899, 0.06951885630928899]",0.002,7,1
0,203,"[0.31272901570784484, -1.2580673110870428, 0.31272901570784484, 0.31272901570784484, 0.31272901570784484, 0.31272901570784484]","[0.0680844209147139, -1.5027119058801826, 0.0680844209147139, 0.0680844209147139, 0.0680844209147139, 0.0680844209147139]",0.002,7,1
0,204,"[0.3107561531945029, -1.260040173600384, 0.3107561531945029, 0.3107561531945029, 0.3107561531945029, 0.3107561531945029]","[0.0666487893207307, -1.5041475374741657, 0.0666487893207307, 0.0666487893207307, 0.0666487893207307, 0.0666487893207307]",0.002,7,1
0,205,"[0.3087174074166903, -1.2620789193781956, 0.3087174074166903, 0.3087174074166903, 0.3087174074166903, 0.3087174074166903]","[0.06521198675046182, -1.5055843400444346, 0.06521198675046182, 0.06521198675046182, 0.06521198675046182, 0.06521198675046182]",0.002,7,1
0,206,"[0.3087174074166903, -1.2620789193781956, 0.3087174074166903, 0.3087174074166903, 0.3087174074166903, 0.3087174074166903]","[0.06377403844760249, -1.5070222883472941, 0.06377403844760249, 0.06377403844760249, 0.06377403844760249, 0.06377403844760249]",0.002,7,1
0,207,"[0.3066133686466115, -1.2641829581482753, 0.3066133686466115, 0.3066133686466115, 0.3066133686466115, 0.3066133686466115]","[0.06233496967597793, -1.5084613571189187, 0.06233496967597793, 0.06233496967597793, 0.06233496967597793, 0.06233496967597793]",0.002,7,1
0,208,"[0.3044446443223121, -1.2663516824725747, 0.3044446443223121, 0.3044446443223121, 0.3044446443223121, 0.3044446443223121]","[0.060894805719099256, -1.5099015210757973, 0.060894805719099256, 0.060894805719099256, 0.060894805719099256, 0.060894805719099256]",0.002,7,1
0,209,"[0.30221185875671, -1.268584468038176, 0.30221185875671, 0.30221185875671, 0.30221185875671, 0.30221185875671]","[0.05945357187971909, -1.5113427549151774, 0.05945357187971909, 0.05945357187971909, 0.05945357187971909, 0.05945357187971909]",0.002,7,1
0,210,"[0.2999156528429179, -1.270880673951968, 0.2999156528429179, 0.2999156528429179, 0.2999156528429179, 0.2999156528429179]","[0.058011293479387736, -1.5127850333155088, 0.058011293479387736, 0.058011293479387736, 0.058011293479387736, 0.058011293479387736]",0.002,7,1
0,211,"[0.2975566837559853, -1.2732396430388988, 0.2975566837559853, 0.2975566837559853, 0.2975566837559853, 0.2975566837559853]","[0.05656799585800724, -1.5142283309368894, 0.05656799585800724, 0.05656799585800724, 0.05656799585800724, 0.05656799585800724]",0.002,7,1
0,212,"[0.2951223006523769, -1.2756740261425072, 0.2951223006523769, 0.2951223006523769, 0.2951223006523769, 0.2951223006523769]","[0.05512370437338672, -1.5156726224215098, 0.05512370437338672, 0.05512370437338672, 0.05512370437338672, 0.05512370437338672]",0.002,7,1
0,213,"[0.2926577738719285, -1.2781385529229574, 0.2926577738719285, 0.2926577738719285, 0.2926577738719285, 0.2926577738719285]","[0.0536784444007973, -1.5171178823940992, 0.0536784444007973, 0.0536784444007973, 0.0536784444007973, 0.0536784444007973]",0.002,7,1
0,214,"[0.2901957396251955, -1.2806005871696904, 0.2901957396251955, 0.2901957396251955, 0.2901957396251955, 0.2901957396251955]","[0.052232241332525346, -1.5185640854623712, 0.052232241332525346, 0.052232241332525346, 0.052232241332525346, 0.052232241332525346]",0.002,7,1
0,215,"[0.28773612748220145, -1.2830601993126844, 0.28773612748220145, 0.28773612748220145, 0.28773612748220145, 0.28773612748220145]","[0.05078512057742697, -1.5200112062174695, 0.05078512057742697, 0.05078512057742697, 0.05078512057742697, 0.05078512057742697]",0.002,7,1
0,216,"[0.2852781576485226, -1.2855181691463642, 0.2852781576485226, 0.2852781576485226, 0.2852781576485226, 0.2852781576485226]","[0.04933710756048144, -1.5214592192344152, 0.04933710756048144, 0.04933710756048144, 0.04933710756048144, 0.04933710756048144]",0.002,7,1
0,217,"[0.28282015761943136, -1.2879761691754545, 0.28282015761943136, 0.28282015761943136, 0.28282015761943136, 0.28282015761943136]","[0.047888227722344336, -1.5229080990725523, 0.047888227722344336, 0.047888227722344336, 0.047888227722344336, 0.047888227722344336]",0.002,7,1
0,218,"[0.28035948645038555, -1.2904368403444995, 0.28035948645038555, 0.28035948645038555, 0.28035948645038555, 0.28035948645038555]","[0.046438506518901204, -1.5243578202759953, 0.046438506518901204, 0.046438506518901204, 0.046438506518901204, 0.046438506518901204]",0.002,7,1
0,219,"[0.277892185298632, -1.2929041414962512, 0.277892185298632, 0.277892185298632, 0.277892185298632, 0.277892185298632]","[0.04498796942081935, -1.5258083573740773, 0.04498796942081935, 0.04498796942081935, 0.04498796942081935, 0.04498796942081935]",0.002,7,1
0,220,"[0.2754199900281229, -1.2953763367667612, 0.2754199900281229, 0.2754199900281229, 0.2754199900281229, 0.2754199900281229]","[0.04353664191310084, -1.5272596848817956, 0.04353664191310084, 0.04353664191310084, 0.04353664191310084, 0.04353664191310084]",0.002,7,1
0,221,"[0.2729520999278936, -1.2978442268669923, 0.2729520999278936, 0.2729520999278936, 0.2729520999278936, 0.2729520999278936]","[0.0420845494946352, -1.5287117773002614, 0.0420845494946352, 0.0420845494946352, 0.0420845494946352, 0.0420845494946352]",0.002,7,1
0,222,"[0.2704895015719506, -1.3003068252229362, 0.2704895015719506, 0.2704895015719506, 0.2704895015719506, 0.2704895015719506]","[0.04063171767775046, -1.5301646091171461, 0.04063171767775046, 0.04063171767775046, 0.04063171767775046, 0.04063171767775046]",0.002,7,1
0,223,"[0.26802608649952653, -1.3027702402953611, 0.26802608649952653, 0.26802608649952653, 0.26802608649952653, 0.26802608649952653]","[0.03917817198776556, -1.531618154807131, 0.03917817198776556, 0.03917817198776556, 0.03917817198776556, 0.03917817198776556]",0.002,7,1
0,224,"[0.2655546882113491, -1.3052416385835386, 0.2655546882113491, 0.2655546882113491, 0.2655546882113491, 0.2655546882113491]","[0.037723937962541754, -1.5330723888323547, 0.037723937962541754, 0.037723937962541754, 0.037723937962541754, 0.037723937962541754]",0.002,7,1
0,225,"[0.2630791369568328, -1.3077171898380548, 0.2630791369568328, 0.2630791369568328, 0.2630791369568328, 0.2630791369568328]","[0.03626904115203372, -1.534527285642863, 0.03626904115203372, 0.03626904115203372, 0.03626904115203372, 0.03626904115203372]",0.002,7,1
0,226,"[0.2606095745072219, -1.3101867522876667, 0.2606095745072219, 0.2606095745072219, 0.2606095745072219, 0.2606095745072219]","[0.034813507117841334, -1.5359828196770553, 0.034813507117841334, 0.034813507117841334, 0.034813507117841334, 0.034813507117841334]",0.002,7,1
0,227,"[0.25814051284885586, -1.3126558139460336, 0.25814051284885586, 0.25814051284885586, 0.25814051284885586, 0.25814051284885586]","[0.033357361432759594, -1.537438965362137, 0.033357361432759594, 0.033357361432759594, 0.033357361432759594, 0.033357361432759594]",0.002,7,1
0,228,"[0.2556621699448334, -1.315134156850057, 0.2556621699448334, 0.2556621699448334, 0.2556621699448334, 0.2556621699448334]","[0.03190062968032998, -1.5388956971145666, 0.03190062968032998, 0.03190062968032998, 0.03190062968032998, 0.03190062968032998]",0.002,7,1
0,229,"[0.253181393969907, -1.3176149328249842, 0.253181393969907, 0.253181393969907, 0.253181393969907, 0.253181393969907]","[0.030443337454390793, -1.5403529893405057, 0.030443337454390793, 0.030443337454390793, 0.030443337454390793, 0.030443337454390793]",0.002,7,1
0,230,"[0.2507069401536679, -1.3200893866412233, 0.2507069401536679, 0.2507069401536679, 0.2507069401536679, 0.2507069401536679]","[0.028985510358627353, -1.5418108164362692, 0.028985510358627353, 0.028985510358627353, 0.028985510358627353, 0.028985510358627353]",0.002,7,1
0,231,"[0.24822797892299953, -1.3225683478718935, 0.24822797892299953, 0.24822797892299953, 0.24822797892299953, 0.24822797892299953]","[0.027527174006122732, -1.5432691527887739, 0.027527174006122732, 0.027527174006122732, 0.027527174006122732, 0.027527174006122732]",0.002,7,1
0,232,"[0.2457422780296632, -1.3250540487652298, 0.2457422780296632, 0.2457422780296632, 0.2457422780296632, 0.2457422780296632]","[0.02606835401890687, -1.5447279727759897, 0.02606835401890687, 0.02606835401890687, 0.02606835401890687, 0.02606835401890687]",0.002,7,1
0,233,"[0.24326058727176125, -1.3275357395231318, 0.24326058727176125, 0.24326058727176125, 0.24326058727176125, 0.24326058727176125]","[0.02460907602750687, -1.5461872507673897, 0.02460907602750687, 0.02460907602750687, 0.02460907602750687, 0.02460907602750687]",0.002,7,1
0,234,"[0.2407769329617775, -1.3300193938331155, 0.2407769329617775, 0.2407769329617775, 0.2407769329617775, 0.2407769329617775]","[0.023149365670497097, -1.5476469611243995, 0.023149365670497097, 0.023149365670497097, 0.023149365670497097, 0.023149365670497097]",0.002,7,1
0,235,"[0.23828574074275188, -1.3325105860521411, 0.23828574074275188, 0.23828574074275188, 0.23828574074275188, 0.23828574074275188]","[0.02168924859404788, -1.5491070782008487, 0.02168924859404788, 0.02168924859404788, 0.02168924859404788, 0.02168924859404788]",0.002,7,1
0,236,"[0.23828574074275188, -1.3325105860521411, 0.23828574074275188, 0.23828574074275188, 0.23828574074275188, 0.23828574074275188]","[0.02022875045147548, -1.550567576343421, 0.02022875045147548, 0.02022875045147548, 0.02022875045147548, 0.02022875045147548]",0.002,7,1
0,237,"[0.23579755894764975, -1.3349987678472424, 0.23579755894764975, 0.23579755894764975, 0.23579755894764975, 0.23579755894764975]","[0.018767896902791244, -1.5520284298921052, 0.018767896902791244, 0.018767896902791244, 0.018767896902791244, 0.018767896902791244]",0.002,7,1
0,238,"[0.2333072869631776, -1.3374890398317127, 0.2333072869631776, 0.2333072869631776, 0.2333072869631776, 0.2333072869631776]","[0.017306713614250624, -1.553489613180646, 0.017306713614250624, 0.017306713614250624, 0.017306713614250624, 0.017306713614250624]",0.002,7,1
0,239,"[0.23081015953887007, -1.339986167256022, 0.23081015953887007, 0.23081015953887007, 0.23081015953887007, 0.23081015953887007]","[0.01584522625790286, -1.5549511005369936, 0.01584522625790286, 0.01584522625790286, 0.01584522625790286, 0.01584522625790286]",0.002,7,1
0,240,"[0.22831632600192542, -1.3424800007929676, 0.22831632600192542, 0.22831632600192542, 0.22831632600192542, 0.22831632600192542]","[0.01438346051113899, -1.5564128662837575, 0.01438346051113899, 0.01438346051113899, 0.01438346051113899, 0.01438346051113899]",0.002,7,1
0,241,"[0.2258177187966668, -1.3449786079982253, 0.2258177187966668, 0.2258177187966668, 0.2258177187966668, 0.2258177187966668]","[0.0129214420562412, -1.5578748847386554, 0.0129214420562412, 0.0129214420562412, 0.0129214420562412, 0.0129214420562412]",0.002,7,1
0,242,"[0.2233143042996204, -1.3474820224952708, 0.2233143042996204, 0.2233143042996204, 0.2233143042996204, 0.2233143042996204]","[0.011459196579932213, -1.5593371302149643, 0.011459196579932213, 0.011459196579932213, 0.011459196579932213, 0.011459196579932213]",0.002,7,1
0,243,"[0.22081452364525944, -1.3499818031496318, 0.22081452364525944, 0.22081452364525944, 0.22081452364525944, 0.22081452364525944]","[0.00999674977292229, -1.5607995770219742, 0.00999674977292229, 0.00999674977292229, 0.00999674977292229, 0.00999674977292229]",0.002,7,1
0,244,"[0.2183066855326059, -1.3524896412622862, 0.2183066855326059, 0.2183066855326059, 0.2183066855326059, 0.2183066855326059]","[0.008534127329460022, -1.5622621994654364, 0.008534127329460022, 0.008534127329460022, 0.008534127329460022, 0.008534127329460022]",0.002,7,1
0,245,"[0.2157980190490294, -1.3549983077458627, 0.2157980190490294, 0.2157980190490294, 0.2157980190490294, 0.2157980190490294]","[0.007071354946879206, -1.5637249718480173, 0.007071354946879206, 0.007071354946879206, 0.007071354946879206, 0.007071354946879206]",0.002,7,1
0,246,"[0.2132901399517131, -1.3575061868431781, 0.2132901399517131, 0.2132901399517131, 0.2132901399517131, 0.2132901399517131]","[0.005608458325147965, -1.5651878684697487, 0.005608458325147965, 0.005608458325147965, 0.005608458325147965, 0.005608458325147965]",0.002,7,1
0,247,"[0.21077540454872423, -1.3600209222461679, 0.21077540454872423, 0.21077540454872423, 0.21077540454872423, 0.21077540454872423]","[0.004145463166417698, -1.5666508636284788, 0.004145463166417698, 0.004145463166417698, 0.004145463166417698, 0.004145463166417698]",0.002,7,1
0,248,"[0.2082630640321641, -1.3625332627627298, 0.2082630640321641, 0.2082630640321641, 0.2082630640321641, 0.2082630640321641]","[0.0026823951745705604, -1.568113931620326, 0.0026823951745705604, 0.0026823951745705604, 0.0026823951745705604, 0.0026823951745705604]",0.002,7,1
0,249,"[0.20574363541770957, -1.3650526913771834, 0.20574363541770957, 0.20574363541770957, 0.20574363541770957, 0.20574363541770957]","[0.0012192800547683473, -1.5695770467401282, 0.0012192800547683473, 0.0012192800547683473, 0.0012192800547683473, 0.0012192800547683473]",0.002,7,1
0,250,"[0.20322222337007467, -1.3675741034248183, 0.20322222337007467, 0.20322222337007467, 0.20322222337007467, 0.20322222337007467]","[-0.00024385648699852308, -1.571040183281895, -0.00024385648699852308, -0.00024385648699852308, -0.00024385648699852308, -0.00024385648699852308]",0.002,7,1
0,251,"[0.20070201925655873, -1.3700943075383343, 0.20070201925655873, 0.20070201925655873, 0.20070201925655873, 0.20070201925655873]","[-0.0017069887443643462, -1.572503315539261, -0.0017069887443643462, -0.0017069887443643462, -0.0017069887443643462, -0.0017069887443643462]",0.002,7,1
0,252,"[0.19817558652775435, -1.3726207402671378, 0.19817558652775435, 0.19817558652775435, 0.19817558652775435, 0.19817558652775435]","[-0.0031700910110376065, -1.5739664178059343, -0.0031700910110376065, -0.0031700910110376065, -0.0031700910110376065, -0.0031700910110376065]",0.002,7,1
0,253,"[0.19565124722089156, -1.3751450795740006, 0.19565124722089156, 0.19565124722089156, 0.19565124722089156, 0.19565124722089156]","[-0.004633137581254327, -1.5754294643761508, -0.004633137581254327, -0.004633137581254327, -0.004633137581254327, -0.004633137581254327]",0.002,7,1
0,254,"[0.19312001601175854, -1.3776763107831336, 0.19312001601175854, 0.19312001601175854, 0.19312001601175854, 0.19312001601175854]","[-0.0060961027502290785, -1.5768924295451257, -0.0060961027502290785, -0.0060961027502290785, -0.0060961027502290785, -0.0060961027502290785]",0.002,7,1
0,255,"[0.19058848733207068, -1.3802078394628214, 0.19058848733207068, 0.19058848733207068, 0.19058848733207068, 0.19058848733207068]","[-0.007558960814606138, -1.5783552876095026, -0.007558960814606138, -0.007558960814606138, -0.007558960814606138, -0.007558960814606138]",0.002,7,1
0,256,"[0.1880541284857058, -1.3827421983091863, 0.1880541284857058, 0.1880541284857058, 0.1880541284857058, 0.1880541284857058]","[-0.009021686072912002, -1.5798180128678085, -0.009021686072912002, -0.009021686072912002, -0.009021686072912002, -0.009021686072912002]",0.002,7,1
0,257,"[0.18551567295397042, -1.3852806538409226, 0.18551567295397042, 0.18551567295397042, 0.18551567295397042, 0.18551567295397042]","[-0.010484252826006336, -1.5812805796209028, -0.010484252826006336, -0.010484252826006336, -0.010484252826006336, -0.010484252826006336]",0.002,7,1
0,258,"[0.18297854533092117, -1.3878177814639727, 0.18297854533092117, 0.18297854533092117, 0.18297854533092117, 0.18297854533092117]","[-0.01194663537753363, -1.5827429621724303, -0.01194663537753363, -0.01194663537753363, -0.01194663537753363, -0.01194663537753363]",0.002,7,1
0,259,"[0.18043520901607213, -1.3903611177788218, 0.18043520901607213, 0.18043520901607213, 0.18043520901607213, 0.18043520901607213]","[-0.013408808034374838, -1.5842051348292714, -0.013408808034374838, -0.013408808034374838, -0.013408808034374838, -0.013408808034374838]",0.002,7,1
0,260,"[0.1778932007901437, -1.3929031260047502, 0.1778932007901437, 0.1778932007901437, 0.1778932007901437, 0.1778932007901437]","[-0.014870745107098167, -1.5856670719019947, -0.014870745107098167, -0.014870745107098167, -0.014870745107098167, -0.014870745107098167]",0.002,7,1
0,261,"[0.17534489195165026, -1.3954514348432436, 0.17534489195165026, 0.17534489195165026, 0.17534489195165026, 0.17534489195165026]","[-0.01633242091041134, -1.587128747705308, -0.01633242091041134, -0.01633242091041134, -0.01633242091041134, -0.01633242091041134]",0.002,7,1
0,262,"[0.1727965898173771, -1.3979997369775177, 0.1727965898173771, 0.1727965898173771, 0.1727965898173771, 0.1727965898173771]","[-0.017793809763612424, -1.588590136558509, -0.017793809763612424, -0.017793809763612424, -0.017793809763612424, -0.017793809763612424]",0.002,7,1
0,263,"[0.17024329127407078, -1.400553035520824, 0.17024329127407078, 0.17024329127407078, 0.17024329127407078, 0.17024329127407078]","[-0.019254885991040395, -1.590051212785937, -0.019254885991040395, -0.019254885991040395, -0.019254885991040395, -0.019254885991040395]",0.002,7,1
0,264,"[0.1676877108522472, -1.4031086159426494, 0.1676877108522472, 0.1676877108522472, 0.1676877108522472, 0.1676877108522472]","[-0.02071562392252794, -1.5915119507174245, -0.02071562392252794, -0.02071562392252794, -0.02071562392252794, -0.02071562392252794]",0.002,7,1
0,265,"[0.16513132326369728, -1.405665003531201, 0.16513132326369728, 0.16513132326369728, 0.16513132326369728, 0.16513132326369728]","[-0.022175997893850302, -1.5929723246887468, -0.022175997893850302, -0.022175997893850302, -0.022175997893850302, -0.022175997893850302]",0.002,7,1
0,266,"[0.16513132326369728, -1.405665003531201, 0.16513132326369728, 0.16513132326369728, 0.16513132326369728, 0.16513132326369728]","[-0.02363598224717791, -1.5944323090420744, -0.02363598224717791, -0.02363598224717791, -0.02363598224717791, -0.02363598224717791]",0.002,7,1
0,267,"[0.16257062633373387, -1.4082257004611645, 0.16257062633373387, 0.16257062633373387, 0.16257062633373387, 0.16257062633373387]","[-0.02509555133152649, -1.595891878126423, -0.02509555133152649, -0.02509555133152649, -0.02509555133152649, -0.02509555133152649]",0.002,7,1
0,268,"[0.16001042133545873, -1.4107859054594378, 0.16001042133545873, 0.16001042133545873, 0.16001042133545873, 0.16001042133545873]","[-0.026554679503207362, -1.597351006298104, -0.026554679503207362, -0.026554679503207362, -0.026554679503207362, -0.026554679503207362]",0.002,7,1
0,269,"[0.15744476790746909, -1.4133515588874275, 0.15744476790746909, 0.15744476790746909, 0.15744476790746909, 0.15744476790746909]","[-0.028013341126278818, -1.5988096679211754, -0.028013341126278818, -0.028013341126278818, -0.028013341126278818, -0.028013341126278818]",0.002,7,1
0,270,"[0.15487981610370394, -1.4159165106911917, 0.15487981610370394, 0.15487981610370394, 0.15487981610370394, 0.15487981610370394]","[-0.029471510572996133, -1.6002678373678927, -0.029471510572996133, -0.029471510572996133, -0.029471510572996133, -0.029471510572996133]",0.002,7,1
0,271,"[0.1523091442858595, -1.4184871825090362, 0.1523091442858595, 0.1523091442858595, 0.1523091442858595, 0.1523091442858595]","[-0.03092916222426118, -1.6017254890191577, -0.03092916222426118, -0.03092916222426118, -0.03092916222426118, -0.03092916222426118]",0.002,7,1
0,272,"[0.14973890353245078, -1.4210574232624467, 0.14973890353245078, 0.14973890353245078, 0.14973890353245078, 0.14973890353245078]","[-0.03238627047007424, -1.6031825972649707, -0.03238627047007424, -0.03238627047007424, -0.03238627047007424, -0.03238627047007424]",0.002,7,1
0,273,"[0.14716322002268267, -1.4236331067722148, 0.14716322002268267, 0.14716322002268267, 0.14716322002268267, 0.14716322002268267]","[-0.033842809709981804, -1.6046391365048784, -0.033842809709981804, -0.033842809709981804, -0.033842809709981804, -0.033842809709981804]",0.002,7,1
0,274,"[0.14458730092718586, -1.4262090258677134, 0.14458730092718586, 0.14458730092718586, 0.14458730092718586, 0.14458730092718586]","[-0.03529875435352805, -1.6060950811484247, -0.03529875435352805, -0.03529875435352805, -0.03529875435352805, -0.03529875435352805]",0.002,7,1
0,275,"[0.14200646681841622, -1.428789859976483, 0.14200646681841622, 0.14200646681841622, 0.14200646681841622, 0.14200646681841622]","[-0.03675407882070381, -1.6075504056156005, -0.03675407882070381, -0.03675407882070381, -0.03675407882070381, -0.03675407882070381]",0.002,7,1
0,276,"[0.13942459729473455, -1.4313717295001656, 0.13942459729473455, 0.13942459729473455, 0.13942459729473455, 0.13942459729473455]","[-0.03820875754239559, -1.609005084337292, -0.03820875754239559, -0.03820875754239559, -0.03820875754239559, -0.03820875754239559]",0.002,7,1
0,277,"[0.1368387713164898, -1.4339575554784112, 0.1368387713164898, 0.1368387713164898, 0.1368387713164898, 0.1368387713164898]","[-0.03966276496083565, -1.6104590917557322, -0.03966276496083565, -0.03966276496083565, -0.03966276496083565, -0.03966276496083565]",0.002,7,1
0,278,"[0.13425096508321488, -1.436545361711687, 0.13425096508321488, 0.13425096508321488, 0.13425096508321488, 0.13425096508321488]","[-0.041116075530050485, -1.6119124023249471, -0.041116075530050485, -0.041116075530050485, -0.041116075530050485, -0.041116075530050485]",0.002,7,1
0,279,"[0.13166061297002507, -1.4391357138248786, 0.13166061297002507, 0.13166061297002507, 0.13166061297002507, 0.13166061297002507]","[-0.04256866371630979, -1.6133649905112064, -0.04256866371630979, -0.04256866371630979, -0.04256866371630979, -0.04256866371630979]",0.002,7,1
0,280,"[0.12906744199579556, -1.441728884799108, 0.12906744199579556, 0.12906744199579556, 0.12906744199579556, 0.12906744199579556]","[-0.04402050399857518, -1.6148168307934718, -0.04402050399857518, -0.04402050399857518, -0.04402050399857518, -0.04402050399857518]",0.002,7,1
0,281,"[0.12647295009461512, -1.4443233767002894, 0.12647295009461512, 0.12647295009461512, 0.12647295009461512, 0.12647295009461512]","[-0.045471570868948055, -1.6162678976638447, -0.045471570868948055, -0.045471570868948055, -0.045471570868948055, -0.045471570868948055]",0.002,7,1
0,282,"[0.12387492455622695, -1.4469214022386776, 0.12387492455622695, 0.12387492455622695, 0.12387492455622695, 0.12387492455622695]","[-0.04692183883311857, -1.617718165628015, -0.04692183883311857, -0.04692183883311857, -0.04692183883311857, -0.04692183883311857]",0.002,7,1
0,283,"[0.12127593629453948, -1.449520390500366, 0.12127593629453948, 0.12127593629453948, 0.12127593629453948, 0.12127593629453948]","[-0.048371282410813184, -1.6191676092057097, -0.048371282410813184, -0.048371282410813184, -0.048371282410813184, -0.048371282410813184]",0.002,7,1
0,284,"[0.11867301575645328, -1.4521233110384522, 0.11867301575645328, 0.11867301575645328, 0.11867301575645328, 0.11867301575645328]","[-0.049819876136241656, -1.6206162029311382, -0.049819876136241656, -0.049819876136241656, -0.049819876136241656, -0.049819876136241656]",0.002,7,1
0,285,"[0.11606939922621162, -1.454726927568693, 0.11606939922621162, 0.11606939922621162, 0.11606939922621162, 0.11606939922621162]","[-0.0512675945585462, -1.6220639213534427, -0.0512675945585462, -0.0512675945585462, -0.0512675945585462, -0.0512675945585462]",0.002,7,1
0,286,"[0.11346162037839491, -1.4573347064165105, 0.11346162037839491, 0.11346162037839491, 0.11346162037839491, 0.11346162037839491]","[-0.05271441224224645, -1.623510739037143, -0.05271441224224645, -0.05271441224224645, -0.05271441224224645, -0.05271441224224645]",0.002,7,1
0,287,"[0.11085329739258665, -1.459943029402318, 0.11085329739258665, 0.11085329739258665, 0.11085329739258665, 0.11085329739258665]","[-0.05416030376768805, -1.6249566305625847, -0.05416030376768805, -0.05416030376768805, -0.05416030376768805, -0.05416030376768805]",0.002,7,1
0,288,"[0.10824070128913732, -1.4625556255057681, 0.10824070128913732, 0.10824070128913732, 0.10824070128913732, 0.10824070128913732]","[-0.055605243731488674, -1.6264015705263852, -0.055605243731488674, -0.055605243731488674, -0.055605243731488674, -0.055605243731488674]",0.002,7,1
0,289,"[0.10824070128913732, -1.4625556255057681, 0.10824070128913732, 0.10824070128913732, 0.10824070128913732, 0.10824070128913732]","[-0.05704920674698383, -1.6278455335418804, -0.05704920674698383, -0.05704920674698383, -0.05704920674698383, -0.05704920674698383]",0.002,7,1
0,290,"[0.10301026706755856, -1.4677860597273487, 0.10301026706755856, 0.10301026706755856, 0.10301026706755856, 0.10301026706755856]","[-0.058492167444673844, -1.6292884942395705, -0.058492167444673844, -0.058492167444673844, -0.058492167444673844, -0.058492167444673844]",0.002,7,1
0,291,"[0.10301026706755856, -1.4677860597273487, 0.10301026706755856, 0.10301026706755856, 0.10301026706755856, 0.10301026706755856]","[-0.05993410047266913, -1.6307304272675658, -0.05993410047266913, -0.05993410047266913, -0.05993410047266913, -0.05993410047266913]",0.002,7,1
0,292,"[0.10039245191565094, -1.4704038748792563, 0.10039245191565094, 0.10039245191565094, 0.10039245191565094, 0.10039245191565094]","[-0.06137498049713498, -1.6321713072920316, -0.06137498049713498, -0.06137498049713498, -0.06137498049713498, -0.06137498049713498]",0.002,7,1
0,293,"[0.09777036193234956, -1.4730259648625577, 0.09777036193234956, 0.09777036193234956, 0.09777036193234956, 0.09777036193234956]","[-0.06281478220273835, -1.6336111089976348, -0.06281478220273835, -0.06281478220273835, -0.06281478220273835, -0.06281478220273835]",0.002,7,1
0,294,"[0.09514781557304541, -1.4756485112218627, 0.09514781557304541, 0.09514781557304541, 0.09514781557304541, 0.09514781557304541]","[-0.06425348029309051, -1.635049807087987, -0.06425348029309051, -0.06425348029309051, -0.06425348029309051, -0.06425348029309051]",0.002,7,1
0,295,"[0.09252105769786478, -1.4782752690970433, 0.09252105769786478, 0.09252105769786478, 0.09252105769786478, 0.09252105769786478]","[-0.0656910494911931, -1.6364873762860896, -0.0656910494911931, -0.0656910494911931, -0.0656910494911931, -0.0656910494911931]",0.002,7,1
0,296,"[0.08989381471197788, -1.480902512082931, 0.08989381471197788, 0.08989381471197788, 0.08989381471197788, 0.08989381471197788]","[-0.06712746453988175, -1.6379237913347784, -0.06712746453988175, -0.06712746453988175, -0.06712746453988175, -0.06712746453988175]",0.002,7,1
0,297,"[0.087262447457511, -1.483533879337397, 0.087262447457511, 0.087262447457511, 0.087262447457511, 0.087262447457511]","[-0.06856270020226919, -1.6393590269971658, -0.06856270020226919, -0.06856270020226919, -0.06856270020226919, -0.06856270020226919]",0.002,7,1
0,298,"[0.08463055450537382, -1.4861657722895352, 0.08463055450537382, 0.08463055450537382, 0.08463055450537382, 0.08463055450537382]","[-0.06999673126218976, -1.6407930580570864, -0.06999673126218976, -0.06999673126218976, -0.06999673126218976, -0.06999673126218976]",0.002,7,1
0,299,"[0.08199464073414298, -1.488801686060766, 0.08199464073414298, 0.08199464073414298, 0.08199464073414298, 0.08199464073414298]","[-0.0714295325246417, -1.6422258593195382, -0.0714295325246417, -0.0714295325246417, -0.0714295325246417, -0.0714295325246417]",0.002,7,1
0,300,"[0.07935815295768656, -1.4914381738372207, 0.07935815295768656, 0.07935815295768656, 0.07935815295768656, 0.07935815295768656]","[-0.07286107881622997, -1.6436574056111266, -0.07286107881622997, -0.07286107881622997, -0.07286107881622997, -0.07286107881622997]",0.002,7,1
0,301,"[0.07671775986993712, -1.4940785669249692, 0.07671775986993712, 0.07671775986993712, 0.07671775986993712, 0.07671775986993712]","[-0.07429134498560876, -1.6450876717805054, -0.07429134498560876, -0.07429134498560876, -0.07429134498560876, -0.07429134498560876]",0.002,7,1
0,302,"[0.07407673421892635, -1.4967195925759782, 0.07407673421892635, 0.07407673421892635, 0.07407673421892635, 0.07407673421892635]","[-0.0757203059039227, -1.6465166326988192, -0.0757203059039227, -0.0757203059039227, -0.0757203059039227, -0.0757203059039227]",0.002,7,1
0,303,"[0.07143183598610126, -1.4993644908088033, 0.07143183598610126, 0.07143183598610126, 0.07143183598610126, 0.07143183598610126]","[-0.07714793646524931, -1.647944263260146, -0.07714793646524931, -0.07714793646524931, -0.07714793646524931, -0.07714793646524931]",0.002,7,1
0,304,"[0.06878623872835643, -1.5020100880665481, 0.06878623872835643, 0.06878623872835643, 0.06878623872835643, 0.06878623872835643]","[-0.07857421158703962, -1.6493705383819361, -0.07857421158703962, -0.07857421158703962, -0.07857421158703962, -0.07857421158703962]",0.002,7,1
0,305,"[0.06613696738017172, -1.5046593594147328, 0.06613696738017172, 0.06613696738017172, 0.06613696738017172, 0.06613696738017172]","[-0.07999910621055822, -1.6507954330054548, -0.07999910621055822, -0.07999910621055822, -0.07999910621055822, -0.07999910621055822]",0.002,7,1
0,306,"[0.0634869713136661, -1.5073093554812385, 0.0634869713136661, 0.0634869713136661, 0.0634869713136661, 0.0634869713136661]","[-0.08142259530132528, -1.6522189220962218, -0.08142259530132528, -0.08142259530132528, -0.08142259530132528, -0.08142259530132528]",0.002,7,1
0,307,"[0.06083345092418124, -1.5099628758707233, 0.06083345092418124, 0.06083345092418124, 0.06083345092418124, 0.06083345092418124]","[-0.0828446538495542, -1.6536409806444508, -0.0828446538495542, -0.0828446538495542, -0.0828446538495542, -0.0828446538495542]",0.002,7,1
0,308,"[0.058179126451686436, -1.5126172003432181, 0.058179126451686436, 0.058179126451686436, 0.058179126451686436, 0.058179126451686436]","[-0.08426525687059265, -1.6550615836654892, -0.08426525687059265, -0.08426525687059265, -0.08426525687059265, -0.08426525687059265]",0.002,7,1
0,309,"[0.05552144119976532, -1.5152748855951401, 0.05552144119976532, 0.05552144119976532, 0.05552144119976532, 0.05552144119976532]","[-0.08568437940536106, -1.6564807062002576, -0.08568437940536106, -0.08568437940536106, -0.08568437940536106, -0.08568437940536106]",0.002,7,1
0,310,"[0.05286286146428587, -1.5179334653306178, 0.05286286146428587, 0.05286286146428587, 0.05286286146428587, 0.05286286146428587]","[-0.08710199652079048, -1.657898323315687, -0.08710199652079048, -0.08710199652079048, -0.08710199652079048, -0.08710199652079048]",0.002,7,1
0,311,"[0.05020109976759901, -1.5205952270273038, 0.05020109976759901, 0.05020109976759901, 0.05020109976759901, 0.05020109976759901]","[-0.08851808331026181, -1.6593144101051585, -0.08851808331026181, -0.08851808331026181, -0.08851808331026181, -0.08851808331026181]",0.002,7,1
0,312,"[0.04753834100958798, -1.523257985785314, 0.04753834100958798, 0.04753834100958798, 0.04753834100958798, 0.04753834100958798]","[-0.08993261489404264, -1.6607289416889393, -0.08993261489404264, -0.08993261489404264, -0.08993261489404264, -0.08993261489404264]",0.002,7,1
0,313,"[0.044872595490637046, -1.525923731304264, 0.044872595490637046, 0.044872595490637046, 0.044872595490637046, 0.044872595490637046]","[-0.09134556641972405, -1.6621418932146206, -0.09134556641972405, -0.09134556641972405, -0.09134556641972405, -0.09134556641972405]",0.002,7,1
0,314,"[0.04220573772898106, -1.528590589065919, 0.04220573772898106, 0.04220573772898106, 0.04220573772898106, 0.04220573772898106]","[-0.09275691306265865, -1.6635532398575552, -0.09275691306265865, -0.09275691306265865, -0.09275691306265865, -0.09275691306265865]",0.002,7,1
0,315,"[0.0395361051770351, -1.531260221617865, 0.0395361051770351, 0.0395361051770351, 0.0395361051770351, 0.0395361051770351]","[-0.09416663002639486, -1.6649629568212914, -0.09416663002639486, -0.09416663002639486, -0.09416663002639486, -0.09416663002639486]",0.002,7,1
0,316,"[0.03686523308866185, -1.5339310937062383, 0.03686523308866185, 0.03686523308866185, 0.03686523308866185, 0.03686523308866185]","[-0.09557469254311407, -1.6663710193380106, -0.09557469254311407, -0.09557469254311407, -0.09557469254311407, -0.09557469254311407]",0.002,7,1
0,317,"[0.03419181441732366, -1.5366045123775756, 0.03419181441732366, 0.03419181441732366, 0.03419181441732366, 0.03419181441732366]","[-0.09698107587406522, -1.6677774026689618, -0.09698107587406522, -0.09698107587406522, -0.09698107587406522, -0.09698107587406522]",0.002,7,1
0,318,"[0.03151701834055576, -1.5392793084543435, 0.03151701834055576, 0.03151701834055576, 0.03151701834055576, 0.03151701834055576]","[-0.09838575530999906, -1.6691820821048957, -0.09838575530999906, -0.09838575530999906, -0.09838575530999906, -0.09838575530999906]",0.002,7,1
0,319,"[0.028839918540607634, -1.5419564082542916, 0.028839918540607634, 0.028839918540607634, 0.028839918540607634, 0.028839918540607634]","[-0.0997887061716031, -1.6705850329664997, -0.0997887061716031, -0.0997887061716031, -0.0997887061716031, -0.0997887061716031]",0.002,7,1
0,320,"[0.028839918540607634, -1.5419564082542916, 0.028839918540607634, 0.028839918540607634, 0.028839918540607634, 0.028839918540607634]","[-0.1011899038099346, -1.6719862306048312, -0.1011899038099346, -0.1011899038099346, -0.1011899038099346, -0.1011899038099346]",0.002,7,1
0,321,"[0.023480623624863917, -1.5473157031700353, 0.023480623624863917, 0.023480623624863917, 0.023480623624863917, 0.023480623624863917]","[-0.10258932360685391, -1.6733856504017504, -0.10258932360685391, -0.10258932360685391, -0.10258932360685391, -0.10258932360685391]",0.002,7,1
0,322,"[0.023480623624863917, -1.5473157031700353, 0.023480623624863917, 0.023480623624863917, 0.023480623624863917, 0.023480623624863917]","[-0.10398694097545698, -1.6747832677703536, -0.10398694097545698, -0.10398694097545698, -0.10398694097545698, -0.10398694097545698]",0.002,7,1
0,323,"[0.02079827854866867, -1.5499980482462306, 0.02079827854866867, 0.02079827854866867, 0.02079827854866867, 0.02079827854866867]","[-0.10538273136050684, -1.6761790581554035, -0.10538273136050684, -0.10538273136050684, -0.10538273136050684, -0.10538273136050684]",0.002,7,1
0,324,"[0.018114147505790434, -1.5526821792891088, 0.018114147505790434, 0.018114147505790434, 0.018114147505790434, 0.018114147505790434]","[-0.10677667023886592, -1.6775729970337625, -0.10677667023886592, -0.10677667023886592, -0.10677667023886592, -0.10677667023886592]",0.002,7,1
0,325,"[0.015428330389021916, -1.5553679964058773, 0.015428330389021916, 0.015428330389021916, 0.015428330389021916, 0.015428330389021916]","[-0.10816873311992638, -1.678965059914823, -0.10816873311992638, -0.10816873311992638, -0.10816873311992638, -0.10816873311992638]",0.002,7,1
0,326,"[0.012740931002581668, -1.5580553957923176, 0.012740931002581668, 0.012740931002581668, 0.012740931002581668, 0.012740931002581668]","[-0.10955889554603988, -1.6803552223409364, -0.10955889554603988, -0.10955889554603988, -0.10955889554603988, -0.10955889554603988]",0.002,7,1
0,327,"[0.010051706246027692, -1.5607446205488706, 0.010051706246027692, 0.010051706246027692, 0.010051706246027692, 0.010051706246027692]","[-0.11094713309294892, -1.6817434598878456, -0.11094713309294892, -0.11094713309294892, -0.11094713309294892, -0.11094713309294892]",0.002,7,1
0,328,"[0.007361181557271834, -1.5634351452376265, 0.007361181557271834, 0.007361181557271834, 0.007361181557271834, 0.007361181557271834]","[-0.11233342137021374, -1.6831297481651104, -0.11233342137021374, -0.11233342137021374, -0.11233342137021374, -0.11233342137021374]",0.002,7,1
0,329,"[0.00466879225272443, -1.566127534542174, 0.00466879225272443, 0.00466879225272443, 0.00466879225272443, 0.00466879225272443]","[-0.11371773602164273, -1.6845140628165394, -0.11371773602164273, -0.11371773602164273, -0.11371773602164273, -0.11371773602164273]",0.002,7,1
0,330,"[0.00197528895967114, -1.568821037835228, 0.00197528895967114, 0.00197528895967114, 0.00197528895967114, 0.00197528895967114]","[-0.11510005272571949, -1.685896379520616, -0.11510005272571949, -0.11510005272571949, -0.11510005272571949, -0.11510005272571949]",0.002,7,1
0,331,"[-0.0007201324320087465, -1.571516459226908, -0.0007201324320087465, -0.0007201324320087465, -0.0007201324320087465, -0.0007201324320087465]","[-0.11648034719602993, -1.6872766739909264, -0.11648034719602993, -0.11648034719602993, -0.11648034719602993, -0.11648034719602993]",0.002,7,1
0,332,"[-0.0034165319889769563, -1.5742128587838753, -0.0034165319889769563, -0.0034165319889769563, -0.0034165319889769563, -0.0034165319889769563]","[-0.11785859518168962, -1.6886549219765863, -0.11785859518168962, -0.11785859518168962, -0.11785859518168962, -0.11785859518168962]",0.002,7,1
0,333,"[-0.006114855699438593, -1.576911182494337, -0.006114855699438593, -0.006114855699438593, -0.006114855699438593, -0.006114855699438593]","[-0.11923477246776967, -1.6900310992626661, -0.11923477246776967, -0.11923477246776967, -0.11923477246776967, -0.11923477246776967]",0.002,7,1
0,334,"[-0.008814084053643256, -1.5796104108485416, -0.008814084053643256, -0.008814084053643256, -0.008814084053643256, -0.008814084053643256]","[-0.1206088548757214, -1.691405181670618, -0.1206088548757214, -0.1206088548757214, -0.1206088548757214, -0.1206088548757214]",0.002,7,1
0,335,"[-0.011515283534299314, -1.5823116103291976, -0.011515283534299314, -0.011515283534299314, -0.011515283534299314, -0.011515283534299314]","[-0.12198081826380282, -1.6927771450586995, -0.12198081826380282, -0.12198081826380282, -0.12198081826380282, -0.12198081826380282]",0.002,7,1
0,336,"[-0.014217296538665991, -1.5850136233335643, -0.014217296538665991, -0.014217296538665991, -0.014217296538665991, -0.014217296538665991]","[-0.12335063852750074, -1.6941469653223973, -0.12335063852750074, -0.12335063852750074, -0.12335063852750074, -0.12335063852750074]",0.002,7,1
0,337,"[-0.016921149347766118, -1.5877174761426645, -0.016921149347766118, -0.016921149347766118, -0.016921149347766118, -0.016921149347766118]","[-0.12471829159995584, -1.6955146183948524, -0.12471829159995584, -0.12471829159995584, -0.12471829159995584, -0.12471829159995584]",0.002,7,1
0,338,"[-0.019625759439794166, -1.5904220862346925, -0.019625759439794166, -0.019625759439794166, -0.019625759439794166, -0.019625759439794166]","[-0.12608375345238498, -1.6968800802472814, -0.12608375345238498, -0.12608375345238498, -0.12608375345238498, -0.12608375345238498]",0.002,7,1
