Arnibjarnst/BoxLift/logs/ur_rtde/trajectory_dur=5.0_delay=0.0_gain=200_lh=0.05_real.csv
arm_idx,step,actual_q,actual_qd,target_q,expected_q,loop_time,robot_mode,safety_mode
0,-1,"[-0.01219493547548467, -1.5828353367247523, -0.012055191211402416, -0.012187795048095751, -0.012105766926900685, -0.012128655110494435]","[0.04235494136810303, 0.0447847917675972, 0.04488770291209221, 0.04507311433553696, 0.04314637929201126, 0.04417119175195694]","[0.0, -1.5707963267948966, 0.0, 0.0, 0.0, 0.0]","[0.0, -1.5707963267948966, 0.0, 0.0, 0.0, 0.0]",0.002,7,1
0,-1,"[-0.011359993611470998, -1.582022329370016, -0.011261528357863426, -0.011384682064392138, -0.011283699666158498, -0.011275116597310841]","[0.058713700622320175, 0.059437982738018036, 0.0596173033118248, 0.062004830688238144, 0.06018147990107536, 0.06044626235961914]","[0.0, -1.5707963267948966, 0.0, 0.0, 0.0, 0.0]","[0.0, -1.5707963267948966, 0.0, 0.0, 0.0, 0.0]",0.002,7,1
0,-1,"[-0.010702912007467091, -1.5813790760436, -0.010591910220682621, -0.010700182323791552, -0.01062184969057256, -0.010631863270894826]","[0.0690358504652977, 0.0692499428987503, 0.07066613435745239, 0.07359401136636734, 0.06923650205135345, 0.069183349609375]","[0.0, -1.5707963267948966, 0.0, 0.0, 0.0, 0.0]","[0.0, -1.5707963267948966, 0.0, 0.0, 0.0, 0.0]",0.002,7,1
0,-1,"[-0.009933296834127248, -1.5806080303587855, -0.009851429611444473, -0.009953097706176806, -0.009808842335836232, -0.009823624287740529]","[0.0806630328297615, 0.07873362302780151, 0.0793791115283966, 0.08483421057462692, 0.08266368508338928, 0.08088257163763046]","[0.0, -1.5707963267948966, 0.0, 0.0, 0.0, 0.0]","[0.0, -1.5707963267948966, 0.0, 0.0, 0.0, 0.0]",0.002,7,1
0,-1,"[-0.009279553090230763, -1.579907556573385, -0.009117347188293934, -0.009252981548645067, -0.009147469197408498, -0.009137455617086232]","[0.08886014670133591, 0.0842612013220787, 0.08961178362369537, 0.09124208241701126, 0.08897124975919724, 0.08922407776117325]","[0.0, -1.5707963267948966, 0.0, 0.0, 0.0, 0.0]","[0.0, -1.5707963267948966, 0.0, 0.0, 0.0, 0.0]",0.002,7,1
0,-1,"[-0.007985893880025685, -1.5788384876646937, -0.008032018318772316, -0.008042530422546434, -0.007990185414449513, -0.007964913045064748]","[0.10355325043201447, 0.09817057102918625, 0.10008271038532257, 0.10307375341653824, 0.10012403875589371, 0.09813722968101501]","[0.0, -1.5707963267948966, 0.0, 0.0, 0.0, 0.0]","[0.0, -1.5707963267948966, 0.0, 0.0, 0.0, 0.0]",0.002,7,1
0,-1,"[-0.007030789052144826, -1.577752252618307, -0.006939911749213934, -0.007047132854797411, -0.006853405629293263, -0.006869141255513966]","[0.11187175661325455, 0.10733482986688614, 0.11172018945217133, 0.11171742528676987, 0.10918503999710083, 0.10901831835508347]","[0.0, -1.5707963267948966, 0.0, 0.0, 0.0, 0.0]","[0.0, -1.5707963267948966, 0.0, 0.0, 0.0, 0.0]",0.002,7,1
0,-1,"[-0.0052178541766565445, -1.5761009655394496, -0.005279178731143475, -0.005230979328491259, -0.005102936421529591, -0.005059067402974904]","[0.10169064253568649, 0.08009161055088043, 0.09493065625429153, 0.10288767516613007, 0.09875015914440155, 0.09936092048883438]","[0.0, -1.5707963267948966, 0.0, 0.0, 0.0, 0.0]","[0.0, -1.5707963267948966, 0.0, 0.0, 0.0, 0.0]",0.002,7,1
0,-1,"[-0.003985230122701466, -1.5746590099730433, -0.003923382610082626, -0.003917650585510302, -0.003797356282369435, -0.0037458578692834976]","[0.08783657103776932, 0.093122698366642, 0.09292455017566681, 0.09373895823955536, 0.0850457102060318, 0.0867362916469574]","[0.0, -1.5707963267948966, 0.0, 0.0, 0.0, 0.0]","[0.0, -1.5707963267948966, 0.0, 0.0, 0.0, 0.0]",0.002,7,1
0,-1,"[-0.0032237211810510757, -1.573801179925436, -0.0030584908090531826, -0.0031148952296753407, -0.0029972235309045914, -0.003022019063131154]","[0.0777740553021431, 0.08151475340127945, 0.07968393713235855, 0.08045722544193268, 0.0779346451163292, 0.07603637874126434]","[0.0, -1.5707963267948966, 0.0, 0.0, 0.0, 0.0]","[0.0, -1.5707963267948966, 0.0, 0.0, 0.0, 0.0]",0.002,7,1
0,-1,"[-0.0019710699664514664, -1.5726200542845667, -0.0017801928333938122, -0.0018854898265381337, -0.0016940275775354507, -0.0017846266375940445]","[0.061745479702949524, 0.06013667583465576, 0.0620964951813221, 0.06325826048851013, 0.05717194080352783, 0.05755176767706871]","[0.0, -1.5707963267948966, 0.0, 0.0, 0.0, 0.0]","[0.0, -1.5707963267948966, 0.0, 0.0, 0.0, 0.0]",0.002,7,1
0,-1,"[-0.0014703909503381851, -1.5720845661559046, -0.0013059211196377873, -0.0012797874263306142, -0.0011895338641565445, -0.0012338797198694351]","[0.05222762003540993, 0.049505580216646194, 0.050535041838884354, 0.051725126802921295, 0.04933221638202667, 0.04891018196940422]","[0.0, -1.5707963267948966, 0.0, 0.0, 0.0, 0.0]","[0.0, -1.5707963267948966, 0.0, 0.0, 0.0, 0.0]",0.002,7,1
0,-1,"[-0.0008762518512170914, -1.5715686283507289, -0.0008242130279541016, -0.0007530015758057118, -0.000672642384664357, -0.0007403532611292007]","[0.04018557071685791, 0.03668850287795067, 0.04038921743631363, 0.03955136612057686, 0.03823339194059372, 0.03769192472100258]","[0.0, -1.5707963267948966, 0.0, 0.0, 0.0, 0.0]","[0.0, -1.5707963267948966, 0.0, 0.0, 0.0, 0.0]",0.002,7,1
0,-1,"[-0.0004804770099084976, -1.5712386570372523, -0.00041604042053222656, -0.00037880361590580947, -0.0002892653094690445, -0.00031167665590459137]","[0.028682133182883263, 0.024529702961444855, 0.027547448873519897, 0.026378752663731575, 0.02562570758163929, 0.025869129225611687]","[0.0, -1.5707963267948966, 0.0, 0.0, 0.0, 0.0]","[0.0, -1.5707963267948966, 0.0, 0.0, 0.0, 0.0]",0.002,7,1
0,-1,"[-0.00013953844179326325, -1.5709463558592738, -9.183645306620747e-05, -7.934988055424697e-05, -6.133714784795075e-05, -0.00012284914125615387]","[0.012379666790366173, 0.010645330883562565, 0.011601961217820644, 0.011998486705124378, 0.010461803525686264, 0.009933525696396828]","[0.0, -1.5707963267948966, 0.0, 0.0, 0.0, 0.0]","[0.0, -1.5707963267948966, 0.0, 0.0, 0.0, 0.0]",0.002,7,1
0,-1,"[-0.000165287648336232, -1.5708772144713343, -6.29425048828125e-05, -4.3110256530809465e-05, -4.941621889287262e-05, -8.470216859990387e-05]","[-0.004587085917592049, 0.014846674166619778, -0.0007962829549796879, -0.0026761966291815042, -0.003587239421904087, -0.003115574363619089]","[0.0, -1.5707963267948966, 0.0, 0.0, 0.0, 0.0]","[0.0, -1.5707963267948966, 0.0, 0.0, 0.0, 0.0]",0.002,7,1
0,-1,"[-0.00012427965273076325, -1.570834299127096, -9.60182078415528e-05, -4.001081500248915e-05, -0.00014287630190068512, -6.467500795537262e-05]","[0.0007625228026881814, 0.002478730631992221, 3.8279988956446687e-08, -7.225658191600814e-05, 1.412019173585577e-05, -0.00027747449348680675]","[0.0, -1.5707963267948966, 0.0, 0.0, 0.0, 0.0]","[0.0, -1.5707963267948966, 0.0, 0.0, 0.0, 0.0]",0.002,7,1
0,-1,"[-0.0001176039325159195, -1.5709177456297816, -0.00011110305786132812, -4.3110256530809465e-05, -9.757677187138825e-05, -7.325807680302887e-05]","[2.0671797756222077e-05, -0.001298921531997621, -0.0020882263779640198, 9.388682542521565e-07, 1.675596120187528e-11, -7.82958377385512e-05]","[0.0, -1.5707963267948966, 0.0, 0.0, 0.0, 0.0]","[0.0, -1.5707963267948966, 0.0, 0.0, 0.0, 0.0]",0.002,7,1
0,-1,"[-8.422533144170075e-05, -1.570986887017721, -0.00011110305786132812, -8.376062426762587e-05, -1.9375477926075746e-05, -8.5179005758107e-05]","[0.0014646070776507258, -0.0025085185188800097, -0.0008366056135855615, 0.0005241197068244219, 0.0006613814039155841, -1.8272554598297575e-06]","[0.0, -1.5707963267948966, 0.0, 0.0, 0.0, 0.0]","[0.0, -1.5707963267948966, 0.0, 0.0, 0.0, 0.0]",0.002,7,1
0,-1,"[-8.1364308492482e-05, -1.570956369439596, -0.00010235726949758828, -4.3110256530809465e-05, -8.565584291631012e-05, -7.3734913961232e-05]","[-3.66504586679639e-08, -0.0018922105664387345, -0.00045188152580522, 0.00018629906116984785, 0.0005540712154470384, -1.4157734229761076e-13]","[0.0, -1.5707963267948966, 0.0, 0.0, 0.0, 0.0]","[0.0, -1.5707963267948966, 0.0, 0.0, 0.0, 0.0]",0.002,7,1
0,-1,"[-0.00012809434999638825, -1.5710183582701625, -0.00010235726949758828, -4.442155871586806e-05, -5.3707753316700746e-05, -5.6568776265919496e-05]","[-2.1373371213741364e-19, -0.000237260406720452, -0.00022708861797582358, 0.0005267408560030162, 0.0009384792065247893, 0.0005912312772125006]","[0.0, -1.5707963267948966, 0.0, 0.0, 0.0, 0.0]","[0.0, -1.5707963267948966, 0.0, 0.0, 0.0, 0.0]",0.002,7,1
0,-1,"[-0.000100437794820607, -1.5709225140013636, -9.799862164072692e-05, -4.752100024418837e-05, -5.3707753316700746e-05, -7.039705385381012e-05]","[-3.009981209256756e-36, 0.0011443619150668383, 0.00014915017527528107, 0.000444843404693529, 0.001361760892905295, 0.00046345064765773714]","[0.0, -1.5707963267948966, 0.0, 0.0, 0.0, 0.0]","[0.0, -1.5707963267948966, 0.0, 0.0, 0.0, 0.0]",0.002,7,1
0,-1,"[-8.851686586552887e-05, -1.5708633861937464, -0.00013494491577148438, -1.1758213378953997e-05, -3.415742983037262e-05, -8.70863543909195e-05]","[0.0001784429041435942, 0.0010818085866048932, 0.0001340531453024596, 0.0007335813716053963, 0.0009507940849289298, 0.0007564157713204622]","[0.0, -1.5707963267948966, 0.0, 0.0, 0.0, 0.0]","[0.0, -1.5707963267948966, 0.0, 0.0, 0.0, 0.0]",0.002,7,1
0,-1,"[-4.369417299443512e-05, -1.570949216882223, -0.00012740660167764872, -7.34746966557509e-06, -5.895296205693512e-05, -2.080598940068512e-05]","[0.0009408573969267309, 1.623781144266534e-11, 8.601065201219171e-05, 0.0006386168533936143, 0.000325507833622396, 0.0007405208307318389]","[0.0, -1.5707963267948966, 0.0, 0.0, 0.0, 0.0]","[0.0, -1.5707963267948966, 0.0, 0.0, 0.0, 0.0]",0.002,7,1
0,-1,"[-6.2290822164357e-05, -1.5709344349303187, -0.00015173733117990196, -3.560007128911025e-05, -4.560152162724762e-05, -1.794496645146637e-05]","[0.000803037139121443, 0.00013461294292937964, 9.843413135968149e-05, 0.0003733749035745859, 0.0006295671919360757, 0.00042999297147616744]","[0.0, -1.5707963267948966, 0.0, 0.0, 0.0, 0.0]","[0.0, -1.5707963267948966, 0.0, 0.0, 0.0, 0.0]",0.002,7,1
0,-1,"[-2.4143849508106996e-05, -1.5708605251707972, -0.00010672044300008565, -1.1758213378953997e-05, 2.716159724514e-05, -1.3653432027638246e-05]","[0.0009146327502094209, 0.0016666391165927052, 0.0006319450912997127, 0.000288797018583864, 0.0004898732877336442, 0.00030637954478152096]","[0.0, -1.5707963267948966, 0.0, 0.0, 0.0, 0.0]","[0.0, -1.5707963267948966, 0.0, 0.0, 0.0, 0.0]",0.002,7,1
0,-1,"[-1.9375477926075746e-05, -1.5708233318724574, -0.00012740660167764872, 2.0905131957960066e-05, -4.1309987203419496e-05, 1.2554644854390062e-05]","[0.0008533942745998502, 0.0011364476522430778, 0.00046228698920458555, 0.00017680508608464152, 0.00036119448486715555, 0.0002339977363590151]","[0.0, -1.5707963267948966, 0.0, 0.0, 0.0, 0.0]","[0.0, -1.5707963267948966, 0.0, 0.0, 0.0, 0.0]",0.002,7,1
0,-1,"[-1.732503072560121e-06, -1.5708910427489222, -4.9845577450469136e-05, -3.2500629760789934e-05, 3.57923490810208e-05, -2.080598940068512e-05]","[0.0011336656752973795, 0.00018601857300382107, 0.00029577797977253795, 0.0001301562151638791, 0.00021670987189281732, 0.0001453010772820562]","[0.0, -1.5707963267948966, 0.0, 0.0, 0.0, 0.0]","[0.0, -1.5707963267948966, 0.0, 0.0, 0.0, 0.0]",0.002,7,1
0,-1,"[-2.1282826558888246e-05, -1.5708891354002894, -0.00010200361430179328, 1.649438824458116e-05, 1.9556044208002277e-05, -2.557436098271637e-05]","[-0.00025529807317070663, 0.00013133905304130167, 0.000254033220699057, 0.00011665851343423128, 0.00023064068227540702, 0.00012867992336396128]","[0.0, -1.5707963267948966, 0.0, 0.0, 0.0, 0.0]","[0.0, -1.5707963267948966, 0.0, 0.0, 0.0, 0.0]",0.002,7,1
0,-1,"[-8.041063417607575e-05, -1.5708681545653285, -0.00012428700574673712, -7.34746966557509e-06, -4.274049867802887e-05, 1.7018090147757903e-05]","[-3.3878929257260756e-15, 9.134325227933004e-05, 0.00016477674944326282, 0.00012113977572880685, 0.0003053709806408733, 0.00013180078531149775]","[0.0, -1.5707963267948966, 0.0, 0.0, 0.0, 0.0]","[0.0, -1.5707963267948966, 0.0, 0.0, 0.0, 0.0]",0.002,7,1
0,-1,"[-4.7032033101856996e-05, -1.570900102654928, -2.5456189177930355e-05, -1.1758213378953997e-05, -2.175966371709137e-05, 1.2530325875559356e-05]","[-1.9757115356641527e-26, 0.00013794327969662845, 0.00021505735639948398, 0.0001067729463102296, 0.0002604271867312491, 0.00011496428487589583]","[0.0, -1.5707963267948966, 0.0, 0.0, 0.0, 0.0]","[0.0, -1.5707963267948966, 0.0, 0.0, 0.0, 0.0]",0.002,7,1
0,-1,"[-4.5124684469044496e-05, -1.570850511590475, -0.00011989235645160079, 1.3394946716260847e-05, -8.885060445606996e-06, -2.080598940068512e-05]","[-1.1521719239092053e-37, 0.0015655801398679614, 0.0009510047966614366, 9.544877684675157e-05, 0.00020196978584863245, 0.0001189306567539461]","[0.0, -1.5707963267948966, 0.0, 0.0, 0.0, 0.0]","[0.0, -1.5707963267948966, 0.0, 0.0, 0.0, 0.0]",0.002,7,1
0,-1,"[-1.8421803609669496e-05, -1.570796327, -7.031543646007776e-05, -2.5109653808641497e-05, 5.9699712437577546e-05, -4.178682436162262e-05]","[0.0, 0.0015103293117135763, 0.0011787802213802934, 9.60736142587848e-05, 0.00015110184904187918, 0.00010165994171984494]","[0.0, -1.5707963267948966, 0.0, 0.0, 0.0, 0.0]","[0.0, -1.5707963267948966, 0.0, 0.0, 0.0, 0.0]",0.002,7,1
0,-1,"[-3.0199159795074593e-07, -1.5707934659770508, -3.910064697265625e-05, 2.0905131957960066e-05, -2.6051198140919496e-05, -1.794496645146637e-05]","[0.0, 0.0010782094905152917, 0.0008893496706150472, 8.801981311989948e-05, 0.0001293790410272777, 9.268619760405272e-05]","[0.0, -1.5707963267948966, 0.0, 0.0, 0.0, 0.0]","[0.0, -1.5707963267948966, 0.0, 0.0, 0.0, 0.0]",0.002,7,1
0,-1,"[1.1740118679881562e-05, -1.5708004436888636, -4.349529626779258e-05, -1.1758213378953997e-05, 1.8401640772935934e-05, -2.080598940068512e-05]","[0.0, 9.782170733163564e-12, 0.0007708735065534711, 8.017825166461989e-05, 0.00011079599062213674, 9.60363686317578e-05]","[0.0, -1.5707963267948966, 0.0, 0.0, 0.0, 0.0]","[0.0, -1.5707963267948966, 0.0, 0.0, 0.0, 0.0]",0.002,7,1
0,-1,"[1.6330115613527596e-05, -1.5708004436888636, -5.1021575927734375e-05, -4.248028137254778e-06, -3.0819569722950746e-05, -4.655519594365387e-05]","[0.0, 5.704652053726816e-23, 0.0005589128704741597, 7.449022814398631e-05, 0.00011508808529470116, 8.892016194295138e-05]","[0.0, -1.5707963267948966, 0.0, 0.0, 0.0, 0.0]","[0.0, -1.5707963267948966, 0.0, 0.0, 0.0, 0.0]",0.002,7,1
0,-1,"[-4.2263661519825746e-05, -1.5708142719664515, -8.857155626174062e-05, -5.324304614262587e-05, -1.7468129293263246e-05, 1.2591223821800668e-05]","[0.0, 4.463291567788428e-36, 0.0007733262027613819, 4.541494945442537e-06, 0.00010204349382547662, 8.184487523976713e-05]","[0.0, -1.5707963267948966, 0.0, 0.0, 0.0, 0.0]","[0.0, -1.5707963267948966, 0.0, 0.0, 0.0, 0.0]",0.002,7,1
0,-1,"[4.291534423828125e-06, -1.5707860659225226, 5.547200338185121e-06, -2.057970080571181e-05, 1.8358230590820312e-05, -1.6514454976856996e-05]","[0.0, 1.401298464324817e-45, 0.0008161382866092026, 5.389240703007614e-12, 9.439819405088201e-05, 6.316517101367936e-05]","[0.0, -1.5707963267948966, 0.0, 0.0, 0.0, 0.0]","[0.0, -1.5707963267948966, 0.0, 0.0, 0.0, 0.0]",0.002,7,1
0,-1,"[-5.418459047490387e-05, -1.570850511590475, -2.8960769213881576e-06, -8.897190429735247e-06, -6.753603090459137e-05, -1.794496645146637e-05]","[0.0, 0.0, 2.584678645540104e-18, 5.880031040412048e-31, 7.614373316755518e-05, 5.1579641876742244e-05]","[0.0, -1.5707963267948966, 0.0, 0.0, 0.0, 0.0]","[0.0, -1.5707963267948966, 0.0, 0.0, 0.0, 0.0]",0.002,7,1
0,-1,"[-4.2263661519825746e-05, -1.570843359033102, -6.400329584721476e-05, 4.534303631587022e-05, 2.267360468977131e-05, 7.946252480905969e-06]","[0.0, 0.0, 2.713093491601642e-33, 1.9422557234927695e-40, 3.519122037687339e-05, 1.1672800226403268e-10]","[0.0, -1.5707963267948966, 0.0, 0.0, 0.0, 0.0]","[0.0, -1.5707963267948966, 0.0, 0.0, 0.0, 0.0]",0.002,7,1
0,-1,"[2.5951701445592334e-06, -1.570829530755514, 4.7032033101856996e-05, -3.2500629760789934e-05, -6.753603090459137e-05, 7.946252480905969e-06]","[0.0, 0.0, 1.5414283107572988e-44, 0.0, 2.7266468163172908e-12, 9.044187676862891e-18]","[0.0, -1.5707963267948966, 0.0, 0.0, 0.0, 0.0]","[0.0, -1.5707963267948966, 0.0, 0.0, 0.0, 0.0]",0.002,7,1
0,-1,"[-6.324449648076325e-05, -1.5708476505675257, -7.609033491462469e-05, 4.573459289503035e-06, -1.7468129293263246e-05, -8.885060445606996e-06]","[0.0, 0.0, -0.0, 0.0, 2.1126297534650603e-19, 7.00751748817906e-25]","[0.0, -1.5707963267948966, 0.0, 0.0, 0.0, 0.0]","[0.0, -1.5707963267948966, 0.0, 0.0, 0.0, 0.0]",0.002,7,1
0,-1,"[1.4534479305439163e-05, -1.5707975826659144, 5.036989320927887e-05, -1.1758213378953997e-05, -3.0819569722950746e-05, 1.2502984645834658e-05]","[0.0, 0.0, -0.0, 0.0, 5.999502006304169e-10, 1.5113186801587553e-35]","[0.0, -1.5707963267948966, 0.0, 0.0, 0.0, 0.0]","[0.0, -1.5707963267948966, 0.0, 0.0, 0.0, 0.0]",0.002,7,1
0,-1,"[-2.557436098271637e-05, -1.5708524189391078, -7.243632808240363e-06, -2.8089886047411028e-05, -4.3217335836231996e-05, 3.3105179682024755e-06]","[0.0, 0.0, -0.0, 0.0, 1.5354507296506348e-26, 0.0]","[0.0, -1.5707963267948966, 0.0, 0.0, 0.0, 0.0]","[0.0, -1.5707963267948966, 0.0, 0.0, 0.0, 0.0]",0.002,7,1
0,-1,"[-3.797212709599762e-05, -1.5708733997740687, -4.342770262155682e-05, 2.4481410644483503e-05, -5.895296205693512e-05, 4.079741847817786e-05]","[0.0, 0.0, -0.0, 0.0, 5.07179787012016e-36, 0.0]","[0.0, -1.5707963267948966, 0.0, 0.0, 0.0, 0.0]","[0.0, -1.5707963267948966, 0.0, 0.0, 0.0, 0.0]",0.002,7,1
0,-1,"[2.6044051537610358e-06, -1.5708004436888636, 2.175966371709137e-05, -2.057970080571181e-05, -1.7468129293263246e-05, 1.5276860722224228e-05]","[0.0, 0.0, -0.0, 0.0, 0.0001042471849359572, 0.0]","[0.0, -1.5707963267948966, 0.0, 0.0, 0.0, 0.0]","[0.0, -1.5707963267948966, 0.0, 0.0, 0.0, 0.0]",0.002,7,1
0,-1,"[1.1703848940669559e-05, -1.5708352528014125, -1.9333123418618925e-05, 2.0905131957960066e-05, 1.5257894119713455e-05, 1.2536249414552003e-05]","[0.0, 0.0, -0.0, 1.0184762755383048e-11, 8.844780677463859e-05, 0.0]","[0.0, -1.5707963267948966, 0.0, 0.0, 0.0, 0.0]","[0.0, -1.5707963267948966, 0.0, 0.0, 0.0, 0.0]",0.002,7,1
0,-1,"[7.185816684796009e-06, -1.5708352528014125, -3.15132419927977e-05, 4.573459289503035e-06, 4.009015538031235e-05, 7.924920282675885e-06]","[0.0, 0.0, -0.0, 1.2085921040761261e-17, 8.053336932789534e-05, 0.0]","[0.0, -1.5707963267948966, 0.0, 0.0, 0.0, 0.0]","[0.0, -1.5707963267948966, 0.0, 0.0, 0.0, 0.0]",0.002,7,1
0,1,"[-1.3653432027638246e-05, -1.5708385906615199, -2.352309093112126e-05, 2.901136364741319e-05, 4.776143759954721e-05, 1.976780367840547e-05]","[0.0, 0.0, -0.0, 1.701912995493404e-29, 6.830841448390856e-05, 0.0]","[0.0008776483039858048, -1.5699186784909107, 0.0008776483039858048, 0.0008776483039858048, 0.0008776483039858048, 0.0008776483039858048]","[0.0008776483039858048, -1.5699186784909107, 0.0008776483039858048, 0.0008776483039858048, 0.0008776483039858048, 0.0008776483039858048]",0.002,7,1
0,2,"[-4.7032033101856996e-05, -1.570843359033102, -4.78464353363961e-05, 3.1429478148936596e-06, 3.02094249491347e-05, 2.894812132581137e-05]","[0.0, 0.0, -0.0, 4.7373410488076847e-33, 6.533337000291795e-05, 0.0]","[0.001755291059830304, -1.5690410357350661, 0.001755291059830304, 0.001755291059830304, 0.001755291059830304, 0.001755291059830304]","[0.001755291059830304, -1.5690410357350661, 0.001755291059830304, 0.001755291059830304, 0.001755291059830304, 0.001755291059830304]",0.002,7,1
0,3,"[2.3648739443160594e-05, -1.5708476505675257, 4.178682436162262e-05, -2.367914233403212e-05, -2.366701234990387e-05, 3.3748237910913303e-06]","[0.002744238590821624, 0.002971018198877573, 0.002935399767011404, 9.871763177216053e-05, 0.005280620884150267, 0.0029882655944675207]","[0.0026329227194272654, -1.5681634040754693, 0.0026329227194272654, 0.0026329227194272654, 0.0026329227194272654, 0.0026329227194272654]","[0.0026329227194272654, -1.5681634040754693, 0.0026329227194272654, 0.0026329227194272654, 0.0026329227194272654, 0.0026329227194272654]",0.002,7,1
0,4,"[2.814280742313713e-05, -1.570753008727781, 8.885060445606996e-06, 2.9130572936963972e-05, 7.169846503529698e-05, 3.319740699225804e-06]","[0.0033513475209474564, 0.0022649921011179686, 0.0023972289636731148, 0.0020792358554899693, 0.005630454979836941, 0.005062847398221493]","[0.003510537734740602, -1.567285789060156, 0.003510537734740602, 0.003510537734740602, 0.003510537734740602, 0.003510537734740602]","[0.003510537734740602, -1.567285789060156, 0.003510537734740602, 0.003510537734740602, 0.003510537734740602, 0.003510537734740602]",0.002,7,1
0,5,"[-1.4130269185841371e-05, -1.5707815237104406, 4.655519594365387e-05, 3.0237385253428783e-06, 3.4606455301400274e-05, 6.319904059637338e-05]","[0.003328107763081789, 0.0016251553315669298, 0.0022702014539390802, 0.004209410864859819, 0.004963113460689783, 0.005317763891071081]","[0.004388130557839446, -1.566408196237057, 0.004388130557839446, 0.004388130557839446, 0.004388130557839446, 0.004388130557839446]","[0.004388130557839446, -1.566408196237057, 0.004388130557839446, 0.004388130557839446, 0.004388130557839446, 0.004388130557839446]",0.002,7,1
0,6,"[3.278099757153541e-05, -1.5707951802063072, 2.7958546773731996e-05, 3.640233959956163e-05, 0.00011246948270127177, -2.686177388966371e-06]","[0.004131178837269545, 0.0031072574201971292, 0.005890324711799622, 0.005581297446042299, 0.004624494351446629, 0.0054710679687559605]","[0.00526569564093322, -1.5655306311539634, 0.00526569564093322, 0.00526569564093322, 0.00526569564093322, 0.00526569564093322]","[0.00526569564093322, -1.5655306311539634, 0.00526569564093322, 0.00526569564093322, 0.00526569564093322, 0.00526569564093322]",0.002,7,1
0,7,"[2.2044639990781434e-05, -1.5707288831511796, 4.178682436162262e-05, 4.5462245605421e-05, 8.684944623382762e-05, 5.867813160875812e-05]","[0.005284256301820278, 0.010803451761603355, 0.008562921546399593, 0.0060179042629897594, 0.0065521663054823875, 0.006570833269506693]","[0.006143227436406706, -1.56465309935849, 0.006143227436406706, 0.006143227436406706, 0.006143227436406706, 0.006143227436406706]","[0.006143227436406706, -1.56465309935849, 0.006143227436406706, 0.006143227436406706, 0.006143227436406706, 0.006143227436406706]",0.002,7,1
0,8,"[2.65470862359507e-05, -1.570834299127096, 7.087389101201325e-05, 5.273401226801866e-05, 6.509977538371459e-05, 0.00010373964323662221]","[0.007430620025843382, 0.014475914649665356, 0.011608877219259739, 0.008846246637403965, 0.010394005104899406, 0.009451608173549175]","[0.007020720396855121, -1.5637756063980415, 0.007020720396855121, 0.007020720396855121, 0.007020720396855121, 0.007020720396855121]","[0.007020720396855121, -1.5637756063980415, 0.007020720396855121, 0.007020720396855121, 0.007020720396855121, 0.007020720396855121]",0.002,7,1
0,9,"[2.9399394406937063e-05, -1.5707425636104126, 0.00011092821230107575, 9.290754284663194e-05, 4.444442311068997e-05, 0.00013212017074692994]","[0.010995907709002495, 0.01953263022005558, 0.015577401034533978, 0.012966342270374298, 0.013647643849253654, 0.013272696174681187]","[0.007898168975119177, -1.5628981578197774, 0.007898168975119177, 0.007898168975119177, 0.007898168975119177, 0.007898168975119177]","[0.007898168975119177, -1.5628981578197774, 0.007898168975119177, 0.007898168975119177, 0.007898168975119177, 0.007898168975119177]",0.002,7,1
0,10,"[9.399546979693696e-05, -1.5707184833339234, 0.00016385713686162262, 9.600698437495225e-05, 9.819269325817004e-05, 0.00014433384058065712]","[0.01294746994972229, 0.02626183070242405, 0.02213745005428791, 0.01765451394021511, 0.017970267683267593, 0.018843332305550575]","[0.008775567624320156, -1.5620207591705764, 0.008775567624320156, 0.008775567624320156, 0.008775567624320156, 0.008775567624320156]","[0.008775567624320156, -1.5620207591705764, 0.008775567624320156, 0.008775567624320156, 0.008775567624320156, 0.008775567624320156]",0.002,7,1
0,11,"[0.00015276772319339216, -1.570604264143487, 0.000157658253804982, 0.0001529890247802257, 0.0001495940814493224, 0.00022063672076910734]","[0.01687854528427124, 0.031695105135440826, 0.02675763890147209, 0.022722093388438225, 0.021877435967326164, 0.022217024117708206]","[0.00965291079789497, -1.5611434159970017, 0.00965291079789497, 0.00965291079789497, 0.00965291079789497, 0.00965291079789497]","[0.00965291079789497, -1.5611434159970017, 0.00965291079789497, 0.00965291079789497, 0.00965291079789497, 0.00965291079789497]",0.002,7,1
0,12,"[0.00013458728790283203, -1.5706014484206499, 0.00023109117616826325, 0.00017599641766352647, 0.00021160049072932452, 0.000240196444792673]","[0.01961861178278923, 0.03347868099808693, 0.0297542791813612, 0.025652747601270676, 0.023449711501598358, 0.025132017210125923]","[0.010530192949631223, -1.5602661338452652, 0.010530192949631223, 0.010530192949631223, 0.010530192949631223, 0.010530192949631223]","[0.010530192949631223, -1.5602661338452652, 0.010530192949631223, 0.010530192949631223, 0.010530192949631223, 0.010530192949631223]",0.002,7,1
0,13,"[0.0001569353335071355, -1.5705294460097612, 0.0002611319171350601, 0.000228567714355421, 0.00027956918347626925, 0.0003335089422762394]","[0.021805832162499428, 0.03490874916315079, 0.03173317760229111, 0.02731659822165966, 0.026170719414949417, 0.027144353836774826]","[0.011407408533702281, -1.5593889182611942, 0.011407408533702281, 0.011407408533702281, 0.011407408533702281, 0.011407408533702281]","[0.011407408533702281, -1.5593889182611942, 0.011407408533702281, 0.011407408533702281, 0.011407408533702281, 0.011407408533702281]",0.002,7,1
0,14,"[0.0003180842031724751, -1.5704033965051458, 0.000371281300679982, 0.0003215509602050304, 0.0003352493222337216, 0.00036453301436267793]","[0.026070091873407364, 0.03797413408756256, 0.034442074596881866, 0.0285587590187788, 0.02555466815829277, 0.027392366901040077]","[0.012284552004702319, -1.5585117747901942, 0.012284552004702319, 0.012284552004702319, 0.012284552004702319, 0.012284552004702319]","[0.012284552004702319, -1.5585117747901942, 0.012284552004702319, 0.012284552004702319, 0.012284552004702319, 0.012284552004702319]",0.002,7,1
0,15,"[0.00040191650623455644, -1.5704335278463368, 0.0004151503192346695, 0.0003823476978759288, 0.00037133650039322674, 0.00040059781167656183]","[0.027685360983014107, 0.039100855588912964, 0.03671005368232727, 0.03041326254606247, 0.027561282739043236, 0.028253763914108276]","[0.01316161781768138, -1.5576347089772151, 0.01316161781768138, 0.01316161781768138, 0.01316161781768138, 0.01316161781768138]","[0.01316161781768138, -1.5576347089772151, 0.01316161781768138, 0.01316161781768138, 0.01316161781768138, 0.01316161781768138]",0.002,7,1
0,16,"[0.0003911619132850319, -1.5703284591475786, 0.0004885832415979507, 0.00042907773937983507, 0.0004554636252578348, 0.00043487548828125]","[0.0327153317630291, 0.04096917435526848, 0.04002702236175537, 0.03227391466498375, 0.03015504777431488, 0.030398644506931305]","[0.01403860042818044, -1.556757726366716, 0.01403860042818044, 0.01403860042818044, 0.01403860042818044, 0.01403860042818044]","[0.01403860042818044, -1.556757726366716, 0.01403860042818044, 0.01403860042818044, 0.01403860042818044, 0.01403860042818044]",0.002,7,1
0,17,"[0.0005265354993753135, -1.570227965745591, 0.0005672613727014664, 0.000480337733886671, 0.0005241844919510186, 0.0005188261275179684]","[0.0388791598379612, 0.044952888041734695, 0.043476756662130356, 0.03533950448036194, 0.0340326763689518, 0.034025631844997406]","[0.014915494292266438, -1.55588083250263, 0.014915494292266438, 0.014915494292266438, 0.014915494292266438, 0.014915494292266438]","[0.014915494292266438, -1.55588083250263, 0.014915494292266438, 0.014915494292266438, 0.014915494292266438, 0.014915494292266438]",0.002,7,1
0,18,"[0.0005472038756124675, -1.5701798790581343, 0.000680271779195607, 0.0005280214497069835, 0.0006171580171212554, 0.0005974555388092995]","[0.04146435856819153, 0.04847399890422821, 0.046914730221033096, 0.03845517337322235, 0.03794864937663078, 0.037731923162937164]","[0.015792293866567334, -1.5550040329283292, 0.015792293866567334, 0.015792293866567334, 0.015792293866567334, 0.015792293866567334]","[0.015792293866567334, -1.5550040329283292, 0.015792293866567334, 0.015792293866567334, 0.015792293866567334, 0.015792293866567334]",0.002,7,1
0,19,"[0.0006310548051260412, -1.570116817343962, 0.0007098356830042007, 0.0006943184086303233, 0.0006759557290934026, 0.0006931074312888086]","[0.044009558856487274, 0.04998990148305893, 0.04948747158050537, 0.04225148260593414, 0.042208001017570496, 0.04329884052276611]","[0.01666899360830715, -1.5541273331865895, 0.01666899360830715, 0.01666899360830715, 0.01666899360830715, 0.01666899360830715]","[0.01666899360830715, -1.5541273331865895, 0.01666899360830715, 0.01666899360830715, 0.01666899360830715, 0.01666899360830715]",0.002,7,1
0,20,"[0.0006986856460571289, -1.5699426812100974, 0.0008500258075159195, 0.0007523733326415538, 0.0007645190344192088, 0.000805441290140152]","[0.0498167984187603, 0.05792512372136116, 0.05569160729646683, 0.04721459373831749, 0.04675597324967384, 0.04892570152878761]","[0.017545587975341018, -1.5532507388195556, 0.017545587975341018, 0.017545587975341018, 0.017545587975341018, 0.017545587975341018]","[0.017545587975341018, -1.5532507388195556, 0.017545587975341018, 0.017545587975341018, 0.017545587975341018, 0.017545587975341018]",0.002,7,1
0,21,"[0.0008441662648692727, -1.569825736897048, 0.0009678045855920914, 0.0009111601063231944, 0.0008573203231208026, 0.0008142113802023232]","[0.05571431294083595, 0.06004835292696953, 0.059036482125520706, 0.05303293466567993, 0.05098443850874901, 0.05022827163338661]","[0.018422071426190196, -1.5523742553687063, 0.018422071426190196, 0.018422071426190196, 0.018422071426190196, 0.018422071426190196]","[0.018422071426190196, -1.5523742553687063, 0.018422071426190196, 0.018422071426190196, 0.018422071426190196, 0.018422071426190196]",0.002,7,1
0,22,"[0.0010441875783726573, -1.5698004359477018, 0.0011161009417932632, 0.0009981828876952648, 0.0009853787487372756, 0.00099729944486171]","[0.06020623445510864, 0.06478755921125412, 0.06577427685260773, 0.05526527389883995, 0.056392692029476166, 0.05571535974740982]","[0.019298438420077113, -1.5514978883748194, 0.019298438420077113, 0.019298438420077113, 0.019298438420077113, 0.019298438420077113]","[0.019298438420077113, -1.5514978883748194, 0.019298438420077113, 0.019298438420077113, 0.019298438420077113, 0.019298438420077113]",0.002,7,1
0,23,"[0.001121922628954053, -1.569594709235691, 0.0012362639056604507, 0.001073284740112257, 0.0011276071891188622, 0.001100887544453144]","[0.06562697887420654, 0.07178985327482224, 0.06820841133594513, 0.060553498566150665, 0.06203803792595863, 0.06192970275878906]","[0.020174683416960392, -1.550621643377936, 0.020174683416960392, 0.020174683416960392, 0.020174683416960392, 0.020174683416960392]","[0.020174683416960392, -1.550621643377936, 0.020174683416960392, 0.020174683416960392, 0.020174683416960392, 0.020174683416960392]",0.002,7,1
0,24,"[0.001195073127746582, -1.5694508690251787, 0.001408878956929982, 0.001246019000671339, 0.0012542388867586851, 0.0012945833150297403]","[0.07110445946455002, 0.07641769200563431, 0.0735744833946228, 0.06896016746759415, 0.06792113184928894, 0.06751784682273865]","[0.021050800877569876, -1.5497455259173267, 0.021050800877569876, 0.021050800877569876, 0.021050800877569876, 0.021050800877569876]","[0.021050800877569876, -1.5497455259173267, 0.021050800877569876, 0.021050800877569876, 0.021050800877569876, 0.021050800877569876]",0.002,7,1
0,25,"[0.0013738317647948861, -1.5693325847717752, 0.0015290419207971695, 0.0013655859180907726, 0.0014191005611792207, 0.0013480640482157469]","[0.07619909942150116, 0.0806557685136795, 0.08281973749399185, 0.07328987121582031, 0.07365243136882782, 0.07341911643743515]","[0.021926785263441637, -1.5488695415314548, 0.021926785263441637, 0.021926785263441637, 0.021926785263441637, 0.021926785263441637]","[0.021926785263441637, -1.5488695415314548, 0.021926785263441637, 0.021926785263441637, 0.021926785263441637, 0.021926785263441637]",0.002,7,1
0,26,"[0.0016034767031669617, -1.5691434735529874, 0.0016902128802698257, 0.0015291410633544444, 0.0015065681654959917, 0.0015580180333927274]","[0.08223482966423035, 0.08804253488779068, 0.08331938832998276, 0.0779009461402893, 0.07909028232097626, 0.07953611761331558]","[0.022802631036952997, -1.5479936957579437, 0.022802631036952997, 0.022802631036952997, 0.022802631036952997, 0.022802631036952997]","[0.022802631036952997, -1.5479936957579437, 0.022802631036952997, 0.022802631036952997, 0.022802631036952997, 0.022802631036952997]",0.002,7,1
0,27,"[0.0017760117771103978, -1.5689543169322242, 0.0018866697894495132, 0.0017515855976562023, 0.0017393408343195915, 0.0017004167893901467]","[0.08822938054800034, 0.09377245604991913, 0.09180032461881638, 0.08453133702278137, 0.08675523102283478, 0.08773487061262131]","[0.023678332661357517, -1.5471179941335391, 0.023678332661357517, 0.023678332661357517, 0.023678332661357517, 0.023678332661357517]","[0.023678332661357517, -1.5471179941335391, 0.023678332661357517, 0.023678332661357517, 0.023678332661357517, 0.023678332661357517]",0.002,7,1
0,28,"[0.0018717263592407107, -1.5687788408580055, 0.00209218660463506, 0.001964254970214796, 0.001932725659571588, 0.0019015508005395532]","[0.09425416588783264, 0.0996997207403183, 0.09723775833845139, 0.09133197367191315, 0.09050800651311874, 0.09063529223203659]","[0.024553884600820034, -1.5462424421940766, 0.024553884600820034, 0.024553884600820034, 0.024553884600820034, 0.024553884600820034]","[0.024553884600820034, -1.5462424421940766, 0.024553884600820034, 0.024553884600820034, 0.024553884600820034, 0.024553884600820034]",0.002,7,1
0,29,"[0.002126939594745636, -1.568556663380452, 0.0023525396930139664, 0.0020860868641356944, 0.002087980741634965, 0.0021357028745114803]","[0.09993241727352142, 0.10554944723844528, 0.10307079553604126, 0.09711401164531708, 0.0960412472486496, 0.09799034893512726]","[0.025429281320451615, -1.545367045474445, 0.025429281320451615, 0.025429281320451615, 0.025429281320451615, 0.025429281320451615]","[0.025429281320451615, -1.545367045474445, 0.025429281320451615, 0.025429281320451615, 0.025429281320451615, 0.025429281320451615]",0.002,7,1
0,30,"[0.002347633009776473, -1.5683333105738093, 0.0024974981891077164, 0.0022767025181273937, 0.002300103660672903, 0.0023610179778188467]","[0.10920998454093933, 0.11202669888734818, 0.10824362188577652, 0.102900430560112, 0.10472258925437927, 0.10257633775472641]","[0.02630451728634456, -1.544491809508552, 0.02630451728634456, 0.02630451728634456, 0.02630451728634456, 0.02630451728634456]","[0.02630451728634456, -1.544491809508552, 0.02630451728634456, 0.02630451728634456, 0.02630451728634456, 0.02630451728634456]",0.002,7,1
0,31,"[0.002592119388282299, -1.5680886025405307, 0.0027316252337854507, 0.002531452769897413, 0.002578434767201543, 0.0024891807697713375]","[0.11053075641393661, 0.11689899861812592, 0.11596021801233292, 0.11005871742963791, 0.11017690598964691, 0.10946648567914963]","[0.027179586965607412, -1.543616739829289, 0.027179586965607412, 0.027179586965607412, 0.027179586965607412, 0.027179586965607412]","[0.027179586965607412, -1.543616739829289, 0.027179586965607412, 0.027179586965607412, 0.027179586965607412, 0.027179586965607412]",0.002,7,1
0,32,"[0.0028322520665824413, -1.5679240816137572, 0.00299245515932256, 0.0027617651173095226, 0.0028069016989320517, 0.0027879076078534126]","[0.12353964149951935, 0.12455219030380249, 0.1255650818347931, 0.11770658940076828, 0.11762393265962601, 0.11684267222881317]","[0.02805448482639989, -1.5427418419684966, 0.02805448482639989, 0.02805448482639989, 0.02805448482639989, 0.02805448482639989]","[0.02805448482639989, -1.5427418419684966, 0.02805448482639989, 0.02805448482639989, 0.02805448482639989, 0.02805448482639989]",0.002,7,1
0,33,"[0.0030676680617034435, -1.5675664942576368, 0.003240410481588185, 0.0030032831379394054, 0.0030271492432802916, 0.002999411430209875]","[0.1271999627351761, 0.12983277440071106, 0.12737618386745453, 0.12523651123046875, 0.12440401315689087, 0.12362334132194519]","[0.028929205337967896, -1.5418671214569286, 0.028929205337967896, 0.028929205337967896, 0.028929205337967896, 0.028929205337967896]","[0.028929205337967896, -1.5418671214569286, 0.028929205337967896, 0.028929205337967896, 0.028929205337967896, 0.028929205337967896]",0.002,7,1
0,34,"[0.003324393182992935, -1.5673162455535312, 0.0035093466388147476, 0.003295703525207472, 0.0033333529718220234, 0.003270632354542613]","[0.13508209586143494, 0.13662633299827576, 0.13498392701148987, 0.1305287778377533, 0.13039976358413696, 0.13061150908470154]","[0.029803742970678452, -1.540992583824218, 0.029803742970678452, 0.029803742970678452, 0.029803742970678452, 0.029803742970678452]","[0.029803742970678452, -1.540992583824218, 0.029803742970678452, 0.029803742970678452, 0.029803742970678452, 0.029803742970678452]",0.002,7,1
0,35,"[0.0036406414583325386, -1.567099108160921, 0.003797356282369435, 0.0035503345676879405, 0.0035853565204888582, 0.00357240391895175]","[0.1420242041349411, 0.14370959997177124, 0.14378345012664795, 0.13774380087852478, 0.13872030377388, 0.138515904545784]","[0.03067809219605467, -1.5401182345988418, 0.03067809219605467, 0.03067809219605467, 0.03067809219605467, 0.03067809219605467]","[0.03067809219605467, -1.5401182345988418, 0.03067809219605467, 0.03067809219605467, 0.03067809219605467, 0.03067809219605467]",0.002,7,1
0,36,"[0.003969456069171429, -1.5667358155227085, 0.004160229359762013, 0.0038543182560424327, 0.0038860023487359285, 0.003880960401147604]","[0.14905551075935364, 0.15074463188648224, 0.15022379159927368, 0.14815975725650787, 0.14418084919452667, 0.14562726020812988]","[0.0315522474868107, -1.539244079308086, 0.0315522474868107, 0.0315522474868107, 0.0315522474868107, 0.0315522474868107]","[0.0315522474868107, -1.539244079308086, 0.0315522474868107, 0.0315522474868107, 0.0315522474868107, 0.0315522474868107]",0.002,7,1
0,37,"[0.004319106228649616, -1.5664626162363966, 0.004414383565084279, 0.0042053896137694835, 0.004153927322477102, 0.004131441004574299]","[0.1583404690027237, 0.15815861523151398, 0.154237762093544, 0.15351907908916473, 0.1538858264684677, 0.15246786177158356]","[0.03242620331688668, -1.5383701234780098, 0.03242620331688668, 0.03242620331688668, 0.03242620331688668, 0.03242620331688668]","[0.03242620331688668, -1.5383701234780098, 0.03242620331688668, 0.03242620331688668, 0.03242620331688668, 0.03242620331688668]",0.002,7,1
0,38,"[0.004621995612978935, -1.5661809414489944, 0.004745785390035451, 0.004553003902099562, 0.00452749477699399, 0.00451391888782382]","[0.16229137778282166, 0.16427865624427795, 0.16370250284671783, 0.16162177920341492, 0.15986061096191406, 0.15861986577510834]","[0.033299954161483625, -1.537496372633413, 0.033299954161483625, 0.033299954161483625, 0.033299954161483625, 0.033299954161483625]","[0.033299954161483625, -1.537496372633413, 0.033299954161483625, 0.033299954161483625, 0.033299954161483625, 0.033299954161483625]",0.002,7,1
0,39,"[0.0049369256012141705, -1.5658191244914015, 0.005086723958150685, 0.004820986385009718, 0.004847782664000988, 0.004863301757723093]","[0.1701628863811493, 0.1734214574098587, 0.16963021457195282, 0.1675596833229065, 0.16733813285827637, 0.1676074117422104]","[0.03417349449709842, -1.5366228322977982, 0.03417349449709842, 0.03417349449709842, 0.03417349449709842, 0.03417349449709842]","[0.03417349449709842, -1.5366228322977982, 0.03417349449709842, 0.03417349449709842, 0.03417349449709842, 0.03417349449709842]",0.002,7,1
0,40,"[0.0053176661022007465, -1.5654505191235621, 0.005425755177633107, 0.005196376437805128, 0.0052083334885537624, 0.0051881372928619385]","[0.17842137813568115, 0.18024124205112457, 0.17675679922103882, 0.17621327936649323, 0.17624105513095856, 0.17706534266471863]","[0.03504681880155869, -1.5357495079933379, 0.03504681880155869, 0.03504681880155869, 0.03504681880155869, 0.03504681880155869]","[0.03504681880155869, -1.5357495079933379, 0.03504681880155869, 0.03504681880155869, 0.03504681880155869, 0.03504681880155869]",0.002,7,1
0,41,"[0.005699110683053732, -1.565094808848091, 0.005811993275777638, 0.0055377918430785655, 0.0055975173600018024, 0.005545537918806076]","[0.18562722206115723, 0.1855582445859909, 0.1865938901901245, 0.18359999358654022, 0.1838938593864441, 0.18488317728042603]","[0.035919921554057724, -1.5348764052408388, 0.035919921554057724, 0.035919921554057724, 0.035919921554057724, 0.035919921554057724]","[0.035919921554057724, -1.5348764052408388, 0.035919921554057724, 0.035919921554057724, 0.035919921554057724, 0.035919921554057724]",0.002,7,1
0,42,"[0.006120986770838499, -1.5646942204660554, 0.006169621144429982, 0.005953832263610792, 0.005999657325446606, 0.005957640707492828]","[0.19326381385326385, 0.19381989538669586, 0.19196286797523499, 0.19244323670864105, 0.19208864867687225, 0.19457586109638214]","[0.03679279723518938, -1.5340035295597072, 0.03679279723518938, 0.03679279723518938, 0.03679279723518938, 0.03679279723518938]","[0.03679279723518938, -1.5340035295597072, 0.03679279723518938, 0.03679279723518938, 0.03679279723518938, 0.03679279723518938]",0.002,7,1
0,43,"[0.006467318627983332, -1.5643057173914094, 0.006668392811910451, 0.0063693958469848155, 0.006335331127047539, 0.006348998285830021]","[0.19936539232730865, 0.20074328780174255, 0.20083074271678925, 0.19798439741134644, 0.19958390295505524, 0.20146512985229492]","[0.03766544032698294, -1.5331308864679136, 0.03766544032698294, 0.03766544032698294, 0.03766544032698294, 0.03766544032698294]","[0.03766544032698294, -1.5331308864679136, 0.03766544032698294, 0.03766544032698294, 0.03766544032698294, 0.03766544032698294]",0.002,7,1
0,44,"[0.006908642128109932, -1.563914398462959, 0.007088486348287404, 0.0068391996571044444, 0.0067559946328401566, 0.006707785185426474]","[0.20619817078113556, 0.21068726480007172, 0.20726637542247772, 0.20628419518470764, 0.20638957619667053, 0.20771628618240356]","[0.03853784531293808, -1.5322584814819584, 0.03853784531293808, 0.03853784531293808, 0.03853784531293808, 0.03853784531293808]","[0.03853784531293808, -1.5322584814819584, 0.03853784531293808, 0.03853784531293808, 0.03853784531293808, 0.03853784531293808]",0.002,7,1
0,45,"[0.007373683620244265, -1.5634732337533315, 0.007415596638814748, 0.007242603892944288, 0.00721280463039875, 0.007138996850699186]","[0.21478164196014404, 0.21824492514133453, 0.2151019275188446, 0.21374976634979248, 0.21248634159564972, 0.21665889024734497]","[0.03941000667805963, -1.531386320116837, 0.03941000667805963, 0.03941000667805963, 0.03941000667805963, 0.03941000667805963]","[0.03941000667805963, -1.531386320116837, 0.03941000667805963, 0.03941000667805963, 0.03941000667805963, 0.03941000667805963]",0.002,7,1
0,46,"[0.007798297330737114, -1.5630084656043728, 0.00789958635439092, 0.0077149110981444835, 0.007673977874219418, 0.007590741850435734]","[0.22354766726493835, 0.22323721647262573, 0.22434811294078827, 0.22274534404277802, 0.21979235112667084, 0.22397392988204956]","[0.04028191890889251, -1.530514407886004, 0.04028191890889251, 0.04028191890889251, 0.04028191890889251, 0.04028191890889251]","[0.04028191890889251, -1.530514407886004, 0.04028191890889251, 0.04028191890889251, 0.04028191890889251, 0.04028191890889251]",0.002,7,1
0,47,"[0.008252431638538837, -1.5625858579627057, 0.008375469838277638, 0.008216901416442823, 0.008153103291988373, 0.008071796037256718]","[0.22948528826236725, 0.23211918771266937, 0.23128141462802887, 0.2308250069618225, 0.22926528751850128, 0.23123769462108612]","[0.041153576493556596, -1.52964275030134, 0.041153576493556596, 0.041153576493556596, 0.041153576493556596, 0.041153576493556596]","[0.041153576493556596, -1.52964275030134, 0.041153576493556596, 0.041153576493556596, 0.041153576493556596, 0.041153576493556596]",0.002,7,1
0,48,"[0.008758299052715302, -1.5621642500958224, 0.008848492299215138, 0.008695884341857862, 0.008556372486054897, 0.008539644069969654]","[0.23745359480381012, 0.2400401085615158, 0.24025890231132507, 0.23707102239131927, 0.23743502795696259, 0.23870109021663666]","[0.0420249739217815, -1.528771352873115, 0.0420249739217815, 0.0420249739217815, 0.0420249739217815, 0.0420249739217815]","[0.0420249739217815, -1.528771352873115, 0.0420249739217815, 0.0420249739217815, 0.0420249739217815, 0.0420249739217815]",0.002,7,1
0,49,"[0.009262197650969028, -1.5616075427136202, 0.009333435689107716, 0.00917760908093257, 0.00912814773619175, 0.00899551808834076]","[0.2459842413663864, 0.24958892166614532, 0.24742484092712402, 0.24536938965320587, 0.2475067675113678, 0.24522444605827332]","[0.04289610568494145, -1.527900221109955, 0.04289610568494145, 0.04289610568494145, 0.04289610568494145, 0.04289610568494145]","[0.04289610568494145, -1.527900221109955, 0.04289610568494145, 0.04289610568494145, 0.04289610568494145, 0.04289610568494145]",0.002,7,1
0,50,"[0.009725884534418583, -1.5610841282508154, 0.009847466145650685, 0.009679241771362257, 0.009647169150412083, 0.009528864175081253]","[0.25394731760025024, 0.25450265407562256, 0.2537844181060791, 0.2538891136646271, 0.25312986969947815, 0.25536012649536133]","[0.04376696627609011, -1.5270293605188066, 0.04376696627609011, 0.04376696627609011, 0.04376696627609011, 0.04376696627609011]","[0.04376696627609011, -1.5270293605188066, 0.04376696627609011, 0.04376696627609011, 0.04376696627609011, 0.04376696627609011]",0.002,7,1
0,51,"[0.010271990671753883, -1.5605859842947503, 0.010365788136617482, 0.010151787395141554, 0.010143265128135681, 0.010048672556877136]","[0.26164382696151733, 0.2608458697795868, 0.2597831189632416, 0.25950154662132263, 0.2625772953033447, 0.26379039883613586]","[0.044637550189995365, -1.5261587766049012, 0.044637550189995365, 0.044637550189995365, 0.044637550189995365, 0.044637550189995365]","[0.044637550189995365, -1.5261587766049012, 0.044637550189995365, 0.044637550189995365, 0.044637550189995365, 0.044637550189995365]",0.002,7,1
0,52,"[0.010823745280504227, -1.560067251590528, 0.010925118123189748, 0.010766549701354933, 0.01061897724866867, 0.010585627518594265]","[0.2689112722873688, 0.2672107219696045, 0.2671032249927521, 0.2677101194858551, 0.2704147696495056, 0.2702021300792694]","[0.045507851923174164, -1.5252884748717224, 0.045507851923174164, 0.045507851923174164, 0.045507851923174164, 0.045507851923174164]","[0.045507851923174164, -1.5252884748717224, 0.045507851923174164, 0.045507851923174164, 0.045507851923174164, 0.045507851923174164]",0.002,7,1
0,53,"[0.011372735723853111, -1.5595390640995284, 0.01137096086610967, 0.011308832759521437, 0.011221660301089287, 0.011105920188128948]","[0.27814996242523193, 0.2761283814907074, 0.27537110447883606, 0.2755371034145355, 0.27499905228614807, 0.27707284688949585]","[0.04637786597392728, -1.5244184608209692, 0.04637786597392728, 0.04637786597392728, 0.04637786597392728, 0.04637786597392728]","[0.04637786597392728, -1.5244184608209692, 0.04637786597392728, 0.04637786597392728, 0.04637786597392728, 0.04637786597392728]",0.002,7,1
0,54,"[0.011944616213440895, -1.5590231262943526, 0.012021366749898732, 0.011874242419860792, 0.01173952966928482, 0.01167718879878521]","[0.2838524878025055, 0.2824859321117401, 0.28178614377975464, 0.28248393535614014, 0.2842152416706085, 0.2859879434108734]","[0.04724758684237411, -1.5235487399525225, 0.04724758684237411, 0.04724758684237411, 0.04724758684237411, 0.04724758684237411]","[0.04724758684237411, -1.5235487399525225, 0.04724758684237411, 0.04724758684237411, 0.04724758684237411, 0.04724758684237411]",0.002,7,1
0,55,"[0.012468228116631508, -1.5584109493396063, 0.012583080922262013, 0.012467666263244581, 0.012317203916609287, 0.012287369929254055]","[0.2938230633735657, 0.29028186202049255, 0.2887229025363922, 0.29006725549697876, 0.2922127842903137, 0.2939298450946808]","[0.04811700903048741, -1.5226793177644091, 0.04811700903048741, 0.04811700903048741, 0.04811700903048741, 0.04811700903048741]","[0.04811700903048741, -1.5226793177644091, 0.04811700903048741, 0.04811700903048741, 0.04811700903048741, 0.04811700903048741]",0.002,7,1
0,56,"[0.01312650553882122, -1.5578123808703204, 0.013264004384176076, 0.013065500850341749, 0.012863514944911003, 0.012812016531825066]","[0.3008817136287689, 0.29962480068206787, 0.2960456907749176, 0.29706457257270813, 0.2994993329048157, 0.3017081916332245]","[0.0489861270421281, -1.5218101997527684, 0.0489861270421281, 0.0489861270421281, 0.0489861270421281, 0.0489861270421281]","[0.0489861270421281, -1.5218101997527684, 0.0489861270421281, 0.0489861270421281, 0.0489861270421281, 0.0489861270421281]",0.002,7,1
0,57,"[0.013708514161407948, -1.5572095301798363, 0.013770405446187794, 0.013708277339599562, 0.013493746519088745, 0.013519774191081524]","[0.30683550238609314, 0.3053840100765228, 0.30237895250320435, 0.30127277970314026, 0.3076466917991638, 0.31071189045906067]","[0.04985493538307995, -1.5209413914118166, 0.04985493538307995, 0.04985493538307995, 0.04985493538307995, 0.04985493538307995]","[0.04985493538307995, -1.5209413914118166, 0.04985493538307995, 0.04985493538307995, 0.04985493538307995, 0.04985493538307995]",0.002,7,1
0,58,"[0.014389760792255402, -1.5566397824189444, 0.014416042958394826, 0.014354749316833448, 0.014192058704793453, 0.014098621904850006]","[0.3151625990867615, 0.315898060798645, 0.3140605092048645, 0.31054648756980896, 0.31560471653938293, 0.3196059763431549]","[0.05072342856108438, -1.520072898233812, 0.05072342856108438, 0.05072342856108438, 0.05072342856108438, 0.05072342856108438]","[0.05072342856108438, -1.520072898233812, 0.05072342856108438, 0.05072342856108438, 0.05072342856108438, 0.05072342856108438]",0.002,7,1
0,59,"[0.015091845765709877, -1.5559194584241887, 0.014993015919820607, 0.014962835902831984, 0.014788094907999039, 0.01472063735127449]","[0.32217538356781006, 0.3219158351421356, 0.32125547528266907, 0.31860068440437317, 0.3227856755256653, 0.3266826570034027]","[0.05159160108587512, -1.5192047257090215, 0.05159160108587512, 0.05159160108587512, 0.05159160108587512, 0.05159160108587512]","[0.05159160108587512, -1.5192047257090215, 0.05159160108587512, 0.05159160108587512, 0.05159160108587512, 0.05159160108587512]",0.002,7,1
0,60,"[0.01572626829147339, -1.5552713910913845, 0.015679661427633107, 0.015640421504638624, 0.015508867800235748, 0.015415659174323082]","[0.33058658242225647, 0.33227768540382385, 0.32731637358665466, 0.325025349855423, 0.3306220769882202, 0.3332306742668152]","[0.05245944746921293, -1.5183368793256837, 0.05245944746921293, 0.05245944746921293, 0.05245944746921293, 0.05245944746921293]","[0.05245944746921293, -1.5183368793256837, 0.05245944746921293, 0.05245944746921293, 0.05245944746921293, 0.05245944746921293]",0.002,7,1
0,61,"[0.016402889043092728, -1.5546451614103098, 0.01628142992128545, 0.01623658716168208, 0.016107510775327682, 0.016124816611409187]","[0.33725467324256897, 0.3384226858615875, 0.33469119668006897, 0.33362823724746704, 0.3402186334133148, 0.3431910574436188]","[0.05332696222492035, -1.5174693645699762, 0.05332696222492035, 0.05332696222492035, 0.05332696222492035, 0.05332696222492035]","[0.05332696222492035, -1.5174693645699762, 0.05332696222492035, 0.05332696222492035, 0.05332696222492035, 0.05332696222492035]",0.002,7,1
0,62,"[0.01707482524216175, -1.5538897842964907, 0.017026726399556935, 0.016892119044921827, 0.016779841855168343, 0.016788490116596222]","[0.34462133049964905, 0.344654381275177, 0.34298187494277954, 0.3401091694831848, 0.3485862910747528, 0.3512163758277893]","[0.05419413986891631, -1.5166021869259803, 0.05419413986891631, 0.05419413986891631, 0.05419413986891631, 0.05419413986891631]","[0.05419413986891631, -1.5166021869259803, 0.05419413986891631, 0.05419413986891631, 0.05419413986891631, 0.05419413986891631]",0.002,7,1
0,63,"[0.01777592860162258, -1.5531935815564175, 0.017732922230855763, 0.01766018449749751, 0.017517978325486183, 0.01747654192149639]","[0.35206344723701477, 0.35027876496315, 0.34881582856178284, 0.34891268610954285, 0.3563920557498932, 0.35906746983528137]","[0.05506097491925081, -1.5157353518756458, 0.05506097491925081, 0.05506097491925081, 0.05506097491925081, 0.05506097491925081]","[0.05506097491925081, -1.5157353518756458, 0.05506097491925081, 0.05506097491925081, 0.05506097491925081, 0.05506097491925081]",0.002,7,1
0,64,"[0.018524205312132835, -1.5525448725423594, 0.018446270619527638, 0.018338127727172804, 0.018206601962447166, 0.018265025690197945]","[0.3575383424758911, 0.35548681020736694, 0.35634785890579224, 0.3567558228969574, 0.36285990476608276, 0.36553695797920227]","[0.055927461896139626, -1.514868864898757, 0.055927461896139626, 0.055927461896139626, 0.055927461896139626, 0.055927461896139626]","[0.055927461896139626, -1.514868864898757, 0.055927461896139626, 0.055927461896139626, 0.055927461896139626, 0.055927461896139626]",0.002,7,1
0,65,"[0.019259894266724586, -1.5518112492612381, 0.019177738820211232, 0.019088788623474073, 0.018946517258882523, 0.0189658235758543]","[0.36599981784820557, 0.3641471862792969, 0.36286431550979614, 0.36595773696899414, 0.36969003081321716, 0.3703230023384094]","[0.056793595321998874, -1.5140027314728977, 0.056793595321998874, 0.056793595321998874, 0.056793595321998874, 0.056793595321998874]","[0.056793595321998874, -1.5140027314728977, 0.056793595321998874, 0.056793595321998874, 0.056793595321998874, 0.056793595321998874]",0.002,7,1
0,66,"[0.020051682367920876, -1.5510958482376118, 0.019889179860250294, 0.01978127538647456, 0.019753700122237206, 0.019768185913562775]","[0.3740359842777252, 0.37011200189590454, 0.3710435628890991, 0.373587429523468, 0.3762037456035614, 0.377168744802475]","[0.057659369721479704, -1.5131369570734168, 0.057659369721479704, 0.057659369721479704, 0.057659369721479704, 0.057659369721479704]","[0.057659369721479704, -1.5131369570734168, 0.057659369721479704, 0.057659369721479704, 0.057659369721479704, 0.057659369721479704]",0.002,7,1
0,67,"[0.020735494792461395, -1.5502455730787297, 0.020667854939595998, 0.02053956567730708, 0.020443065091967583, 0.020489225164055824]","[0.3813592493534088, 0.37838292121887207, 0.37665441632270813, 0.38127797842025757, 0.38098764419555664, 0.3832453489303589]","[0.05852477962150289, -1.5122715471733936, 0.05852477962150289, 0.05852477962150289, 0.05852477962150289, 0.05852477962150289]","[0.05852477962150289, -1.5122715471733936, 0.05852477962150289, 0.05852477962150289, 0.05852477962150289, 0.05852477962150289]",0.002,7,1
0,68,"[0.021543897688388824, -1.5495393120548506, 0.021367375050679982, 0.02127627908673091, 0.02124062180519104, 0.021336745470762253]","[0.38732078671455383, 0.38326507806777954, 0.38277435302734375, 0.386232852935791, 0.39046749472618103, 0.3898013234138489]","[0.05938981955129341, -1.5114065072436031, 0.05938981955129341, 0.05938981955129341, 0.05938981955129341, 0.05938981955129341]","[0.05938981955129341, -1.5114065072436031, 0.05938981955129341, 0.05938981955129341, 0.05938981955129341, 0.05938981955129341]",0.002,7,1
0,69,"[0.02235027402639389, -1.548742887829878, 0.022170845662252248, 0.02200250207867427, 0.022004682570695877, 0.022116703912615776]","[0.39326974749565125, 0.38779839873313904, 0.38848647475242615, 0.3940111994743347, 0.3960631787776947, 0.39545413851737976]","[0.060254484042415055, -1.5105418427524815, 0.060254484042415055, 0.060254484042415055, 0.060254484042415055, 0.060254484042415055]","[0.060254484042415055, -1.5105418427524815, 0.060254484042415055, 0.060254484042415055, 0.060254484042415055, 0.060254484042415055]",0.002,7,1
0,70,"[0.023091711103916168, -1.547910415833332, 0.022974316273824513, 0.02282063543286128, 0.02286210097372532, 0.02290649339556694]","[0.39952677488327026, 0.3944864869117737, 0.39387330412864685, 0.4006132483482361, 0.40384387969970703, 0.400934100151062]","[0.06111876762880499, -1.5096775591660916, 0.06111876762880499, 0.06111876762880499, 0.06111876762880499, 0.06111876762880499]","[0.06111876762880499, -1.5096775591660916, 0.06111876762880499, 0.06111876762880499, 0.06111876762880499, 0.06111876762880499]",0.002,7,1
0,71,"[0.023941168561577797, -1.5470973879894991, 0.023760143910543263, 0.023582382793090773, 0.023699117824435234, 0.023717593401670456]","[0.40537285804748535, 0.4002545475959778, 0.3990620970726013, 0.4076539874076843, 0.41152456402778625, 0.4079838991165161]","[0.061982664846808304, -1.5088136619480883, 0.061982664846808304, 0.061982664846808304, 0.061982664846808304, 0.061982664846808304]","[0.061982664846808304, -1.5088136619480883, 0.061982664846808304, 0.061982664846808304, 0.061982664846808304, 0.061982664846808304]",0.002,7,1
0,72,"[0.02472475916147232, -1.5462781072459002, 0.024560276662008107, 0.024497790927551222, 0.02453613467514515, 0.02460421621799469]","[0.4120069146156311, 0.40590667724609375, 0.4057792127132416, 0.4153040647506714, 0.4166628122329712, 0.41407644748687744]","[0.06284617023521256, -1.507950156559684, 0.06284617023521256, 0.06284617023521256, 0.06284617023521256, 0.06284617023521256]","[0.06284617023521256, -1.507950156559684, 0.06284617023521256, 0.06284617023521256, 0.06284617023521256, 0.06284617023521256]",0.002,7,1
0,73,"[0.02560672163963318, -1.545409831484296, 0.025396172200338185, 0.02520267545666499, 0.02539602667093277, 0.025397786870598793]","[0.4213516414165497, 0.4128758907318115, 0.4156474173069, 0.42343100905418396, 0.42206642031669617, 0.42052727937698364]","[0.0637092783352823, -1.5070870484596142, 0.0637092783352823, 0.0637092783352823, 0.0637092783352823, 0.0637092783352823]","[0.0637092783352823, -1.5070870484596142, 0.0637092783352823, 0.0637092783352823, 0.0637092783352823, 0.0637092783352823]",0.002,7,1
0,74,"[0.026423433795571327, -1.5445441168597718, 0.0262530485736292, 0.02609984456982417, 0.026195023208856583, 0.026290511712431908]","[0.4250561594963074, 0.42092764377593994, 0.4213345944881439, 0.43092942237854004, 0.42731061577796936, 0.4254559576511383]","[0.06457198369079356, -1.506224343104103, 0.06457198369079356, 0.06457198369079356, 0.06457198369079356, 0.06457198369079356]","[0.06457198369079356, -1.506224343104103, 0.06457198369079356, 0.06457198369079356, 0.06457198369079356, 0.06457198369079356]",0.002,7,1
0,75,"[0.027254700660705566, -1.5437103391489764, 0.027097527180806935, 0.026895208949706984, 0.027122920379042625, 0.027187025174498558]","[0.43171626329421997, 0.4249211549758911, 0.4306713938713074, 0.4379831850528717, 0.43521320819854736, 0.4321447014808655]","[0.06543428084806839, -1.5053620459468282, 0.06543428084806839, 0.06543428084806839, 0.06543428084806839, 0.06543428084806839]","[0.06543428084806839, -1.5053620459468282, 0.06543428084806839, 0.06543428084806839, 0.06543428084806839, 0.06543428084806839]",0.002,7,1
0,76,"[0.028080912306904793, -1.542825448592641, 0.027969185506002248, 0.027788086528442335, 0.028046302497386932, 0.028065292164683342]","[0.4376956820487976, 0.4302263855934143, 0.4366747736930847, 0.4427543878555298, 0.4402921199798584, 0.43947574496269226]","[0.06629616435600925, -1.5045001624388874, 0.06629616435600925, 0.06629616435600925, 0.06629616435600925, 0.06629616435600925]","[0.06629616435600925, -1.5045001624388874, 0.06629616435600925, 0.06629616435600925, 0.06629616435600925, 0.06629616435600925]",0.002,7,1
0,77,"[0.028973205015063286, -1.5419043090990563, 0.02886993089784795, 0.02868144094433589, 0.028976405039429665, 0.028933363035321236]","[0.4430696964263916, 0.4369886815547943, 0.44169291853904724, 0.44874605536460876, 0.4462459981441498, 0.445431649684906]","[0.06715762876613363, -1.5036386980287628, 0.06715762876613363, 0.06715762876613363, 0.06715762876613363, 0.06715762876613363]","[0.06715762876613363, -1.5036386980287628, 0.06715762876613363, 0.06715762876613363, 0.06715762876613363, 0.06715762876613363]",0.002,7,1
0,78,"[0.0298160333186388, -1.5409907542965193, 0.029744450245992482, 0.029603405589721632, 0.029851779341697693, 0.029883313924074173]","[0.44815874099731445, 0.4410479962825775, 0.44919759035110474, 0.4545091688632965, 0.45350223779678345, 0.4496389329433441]","[0.06801866863260826, -1.5027776581622883, 0.06801866863260826, 0.06801866863260826, 0.06801866863260826, 0.06801866863260826]","[0.06801866863260826, -1.5027776581622883, 0.06801866863260826, 0.06801866863260826, 0.06801866863260826, 0.06801866863260826]",0.002,7,1
0,79,"[0.030750218778848648, -1.540076720794179, 0.030701939259664357, 0.03055207311596675, 0.03078017756342888, 0.030789237469434738]","[0.45523902773857117, 0.4478752315044403, 0.4550555348396301, 0.4628261625766754, 0.4573546051979065, 0.4538145661354065]","[0.06887927851228377, -1.5019170482826127, 0.06887927851228377, 0.06887927851228377, 0.06887927851228377, 0.06887927851228377]","[0.06887927851228377, -1.5019170482826127, 0.06887927851228377, 0.06887927851228377, 0.06887927851228377, 0.06887927851228377]",0.002,7,1
0,80,"[0.0316195972263813, -1.5391941380551835, 0.031603638325826466, 0.03147058069195552, 0.031716685742139816, 0.03172267973423004]","[0.458170622587204, 0.45298120379447937, 0.45899343490600586, 0.4680958092212677, 0.4627935290336609, 0.46065011620521545]","[0.06973945296472894, -1.5010568738301675, 0.06973945296472894, 0.06973945296472894, 0.06973945296472894, 0.06973945296472894]","[0.06973945296472894, -1.5010568738301675, 0.06973945296472894, 0.06973945296472894, 0.06973945296472894, 0.06973945296472894]",0.002,7,1
0,81,"[0.03254162520170212, -1.538257685755827, 0.03257304826845342, 0.03246061384167476, 0.032625194638967514, 0.032644644379615784]","[0.46856844425201416, 0.459215372800827, 0.46356382966041565, 0.47401323914527893, 0.46677690744400024, 0.46397659182548523]","[0.07059918655226517, -1.5001971402426313, 0.07059918655226517, 0.07059918655226517, 0.07059918655226517, 0.07059918655226517]","[0.07059918655226517, -1.5001971402426313, 0.07059918655226517, 0.07059918655226517, 0.07059918655226517, 0.07059918655226517]",0.002,7,1
0,82,"[0.033489856868982315, -1.5372610178640862, 0.03356916109193975, 0.033448858852050734, 0.03356834873557091, 0.033564165234565735]","[0.47064247727394104, 0.46373113989830017, 0.46753692626953125, 0.4787740707397461, 0.4708816111087799, 0.4696406126022339]","[0.07145847384000081, -1.4993378529548957, 0.07145847384000081, 0.07145847384000081, 0.07145847384000081, 0.07145847384000081]","[0.07145847384000081, -1.4993378529548957, 0.07145847384000081, 0.07145847384000081, 0.07145847384000081, 0.07145847384000081]",0.002,7,1
0,83,"[0.03439876437187195, -1.536346798097231, 0.03442269960512334, 0.034392161960266066, 0.034497059881687164, 0.03450833633542061]","[0.4741351008415222, 0.46749618649482727, 0.47319191694259644, 0.48140648007392883, 0.4758639931678772, 0.47216081619262695]","[0.07231730939586554, -1.498479017399031, 0.07231730939586554, 0.07231730939586554, 0.07231730939586554, 0.07231730939586554]","[0.07231730939586554, -1.498479017399031, 0.07231730939586554, 0.07231730939586554, 0.07231730939586554, 0.07231730939586554]",0.002,7,1
0,84,"[0.03539428859949112, -1.5354489919594307, 0.03542691866029912, 0.03545383989300532, 0.035502463579177856, 0.03543497994542122]","[0.48227551579475403, 0.4755863845348358, 0.4780077338218689, 0.4858960509300232, 0.4803277552127838, 0.4771885573863983]","[0.07317568779064473, -1.497620639004252, 0.07317568779064473, 0.07317568779064473, 0.07317568779064473, 0.07317568779064473]","[0.07317568779064473, -1.497620639004252, 0.07317568779064473, 0.07317568779064473, 0.07317568779064473, 0.07317568779064473]",0.002,7,1
0,85,"[0.03640474006533623, -1.5344309409013768, 0.036382500325338185, 0.03637938081707759, 0.03651542589068413, 0.03641096130013466]","[0.4856448769569397, 0.48149627447128296, 0.484256774187088, 0.48903688788414, 0.48448678851127625, 0.4821420907974243]","[0.07403360359801374, -1.4967627231968827, 0.07403360359801374, 0.07403360359801374, 0.07403360359801374, 0.07403360359801374]","[0.07403360359801374, -1.4967627231968827, 0.07403360359801374, 0.07403360359801374, 0.07403360359801374, 0.07403360359801374]",0.002,7,1
0,86,"[0.03742752596735954, -1.5334193681231518, 0.03738433519472295, 0.037428660983703566, 0.03748315945267677, 0.03737477958202362]","[0.49118703603744507, 0.486560583114624, 0.48761385679244995, 0.4924856126308441, 0.4888603687286377, 0.4895351231098175]","[0.0748910513945722, -1.4959052754003244, 0.0748910513945722, 0.0748910513945722, 0.0748910513945722, 0.0748910513945722]","[0.0748910513945722, -1.4959052754003244, 0.0748910513945722, 0.0748910513945722, 0.0748910513945722, 0.0748910513945722]",0.002,7,1
0,87,"[0.038430098444223404, -1.5324556690505524, 0.03841525713075811, 0.03843669473614497, 0.03846848011016846, 0.038417454808950424]","[0.49619266390800476, 0.49293971061706543, 0.4933728575706482, 0.49424874782562256, 0.49278098344802856, 0.49264955520629883]","[0.07574802575987832, -1.4950483010350182, 0.07574802575987832, 0.07574802575987832, 0.07574802575987832, 0.07574802575987832]","[0.07574802575987832, -1.4950483010350182, 0.07574802575987832, 0.07574802575987832, 0.07574802575987832, 0.07574802575987832]",0.002,7,1
0,88,"[0.03939457982778549, -1.5314650510302563, 0.03941470781435186, 0.03945116579022212, 0.03942436724901199, 0.03935118392109871]","[0.5003447532653809, 0.49875757098197937, 0.4988202452659607, 0.49917545914649963, 0.4970428943634033, 0.49822691082954407]","[0.07660452127648316, -1.4941918055184134, 0.07660452127648316, 0.07660452127648316, 0.07660452127648316, 0.07660452127648316]","[0.07660452127648316, -1.4941918055184134, 0.07660452127648316, 0.07660452127648316, 0.07660452127648316, 0.07660452127648316]",0.002,7,1
0,89,"[0.040418293327093124, -1.5304518353990098, 0.04046804109682256, 0.04053132116284175, 0.04043830931186676, 0.04032716900110245]","[0.504447877407074, 0.5027164816856384, 0.5013227462768555, 0.5034881830215454, 0.5005151629447937, 0.5023579597473145]","[0.07746053252996489, -1.4933357942649317, 0.07746053252996489, 0.07746053252996489, 0.07746053252996489, 0.07746053252996489]","[0.07746053252996489, -1.4933357942649317, 0.07746053252996489, 0.07746053252996489, 0.07746053252996489, 0.07746053252996489]",0.002,7,1
0,90,"[0.04141528531908989, -1.5294480857304116, 0.041417900715963185, 0.04160611211743159, 0.04136468842625618, 0.0413346141576767]","[0.5043281316757202, 0.5078499913215637, 0.509068489074707, 0.508565366268158, 0.5029321312904358, 0.506834864616394]","[0.07831605410896296, -1.4924802726859336, 0.07831605410896296, 0.07831605410896296, 0.07831605410896296, 0.07831605410896296]","[0.07831605410896296, -1.4924802726859336, 0.07831605410896296, 0.07831605410896296, 0.07831605410896296, 0.07831605410896296]",0.002,7,1
0,91,"[0.04241366311907768, -1.5284410056522866, 0.04245502153505498, 0.04252605020489497, 0.04243456944823265, 0.04235049709677696]","[0.5096405148506165, 0.5087891817092896, 0.5102540254592896, 0.5110208988189697, 0.5074580311775208, 0.5114499926567078]","[0.07917108060521237, -1.4916252461896842, 0.07917108060521237, 0.07917108060521237, 0.07917108060521237, 0.07917108060521237]","[0.07917108060521237, -1.4916252461896842, 0.07917108060521237, 0.07917108060521237, 0.07917108060521237, 0.07917108060521237]",0.002,7,1
0,92,"[0.04341934248805046, -1.5274234910360356, 0.043464485798971, 0.04362337171520991, 0.043431248515844345, 0.04335447773337364]","[0.5133733153343201, 0.5169516801834106, 0.5127236247062683, 0.5125352740287781, 0.5137784481048584, 0.5163146257400513]","[0.08002560661357781, -1.4907707201813187, 0.08002560661357781, 0.08002560661357781, 0.08002560661357781, 0.08002560661357781]","[0.08002560661357781, -1.4907707201813187, 0.08002560661357781, 0.08002560661357781, 0.08002560661357781, 0.08002560661357781]",0.002,7,1
0,93,"[0.04453876614570618, -1.526369248782732, 0.04454404512514287, 0.044633908862731886, 0.04447576031088829, 0.04434053227305412]","[0.5186723470687866, 0.5167556405067444, 0.5148988962173462, 0.5134387612342834, 0.516984760761261, 0.5173771381378174]","[0.0808796267320879, -1.4899167000628086, 0.0808796267320879, 0.0808796267320879, 0.0808796267320879, 0.0808796267320879]","[0.0808796267320879, -1.4899167000628086, 0.0808796267320879, 0.0808796267320879, 0.0808796267320879, 0.0808796267320879]",0.002,7,1
0,94,"[0.04554843530058861, -1.5253524158946057, 0.04551297823061162, 0.04569856702770991, 0.045521724969148636, 0.04536915570497513]","[0.5193619132041931, 0.5216642618179321, 0.5194593667984009, 0.5140666961669922, 0.5217055678367615, 0.5227625370025635]","[0.08173313556196925, -1.4890631912329273, 0.08173313556196925, 0.08173313556196925, 0.08173313556196925, 0.08173313556196925]","[0.08173313556196925, -1.4890631912329273, 0.08173313556196925, 0.08173313556196925, 0.08173313556196925, 0.08173313556196925]",0.002,7,1
0,95,"[0.04657278209924698, -1.5242920082858582, 0.04660016695131475, 0.0467497545429687, 0.04651613160967827, 0.046374689787626266]","[0.5242956280708313, 0.5261240005493164, 0.523125171661377, 0.5178065299987793, 0.5240883827209473, 0.5272842049598694]","[0.08258612770768066, -1.4882101990872159, 0.08258612770768066, 0.08258612770768066, 0.08258612770768066, 0.08258612770768066]","[0.08258612770768066, -1.4882101990872159, 0.08258612770768066, 0.08258612770768066, 0.08258612770768066, 0.08258612770768066]",0.002,7,1
0,96,"[0.047600071877241135, -1.523218722348549, 0.047549072896138966, 0.04778556405987544, 0.04755326360464096, 0.04743477702140808]","[0.5291323065757751, 0.5297693014144897, 0.5292112827301025, 0.5236992835998535, 0.5278668999671936, 0.5324574112892151]","[0.08343859777694718, -1.4873577290179494, 0.08343859777694718, 0.08343859777694718, 0.08343859777694718, 0.08343859777694718]","[0.08343859777694718, -1.4873577290179494, 0.08343859777694718, 0.08343859777694718, 0.08343859777694718, 0.08343859777694718]",0.002,7,1
0,97,"[0.04864966496825218, -1.5222014983049412, 0.04864627519716436, 0.04882506906475825, 0.04864241182804108, 0.04861478507518768]","[0.5294615030288696, 0.5325371623039246, 0.5296217203140259, 0.5255797505378723, 0.5300711393356323, 0.5380433797836304]","[0.08429054038079421, -1.4865057864141022, 0.08429054038079421, 0.08429054038079421, 0.08429054038079421, 0.08429054038079421]","[0.08429054038079421, -1.4865057864141022, 0.08429054038079421, 0.08429054038079421, 0.08429054038079421, 0.08429054038079421]",0.002,7,1
0,98,"[0.049715396016836166, -1.5210994494012375, 0.04970723787416631, 0.04983608304943843, 0.0497029684484005, 0.049606479704380035]","[0.5328925251960754, 0.533696174621582, 0.5325456261634827, 0.5277907252311707, 0.5341635942459106, 0.5382868051528931]","[0.08514195013358164, -1.4856543766613148, 0.08514195013358164, 0.08514195013358164, 0.08514195013358164, 0.08514195013358164]","[0.08514195013358164, -1.4856543766613148, 0.08514195013358164, 0.08514195013358164, 0.08514195013358164, 0.08514195013358164]",0.002,7,1
0,99,"[0.05086664855480194, -1.5200595830431958, 0.05081683794130498, 0.05089704572644038, 0.050743136554956436, 0.05072278529405594]","[0.5367091298103333, 0.5332820415496826, 0.5339692234992981, 0.529627799987793, 0.538176417350769, 0.5406708121299744]","[0.08599282165303773, -1.4848035051418589, 0.08599282165303773, 0.08599282165303773, 0.08599282165303773, 0.08599282165303773]","[0.08599282165303773, -1.4848035051418589, 0.08599282165303773, 0.08599282165303773, 0.08599282165303773, 0.08599282165303773]",0.002,7,1
0,100,"[0.05189773440361023, -1.5189747487059613, 0.051877800618306935, 0.051932139987609816, 0.051837045699357986, 0.051823437213897705]","[0.5390855073928833, 0.5349469184875488, 0.5375229716300964, 0.5329715609550476, 0.5419290661811829, 0.5422153472900391]","[0.08684314956029332, -1.4839531772346033, 0.08684314956029332, 0.08684314956029332, 0.08684314956029332, 0.08684314956029332]","[0.08684314956029332, -1.4839531772346033, 0.08684314956029332, 0.08684314956029332, 0.08684314956029332, 0.08684314956029332]",0.002,7,1
0,101,"[0.05294683203101158, -1.5179465872100373, 0.052920166646138966, 0.05297164499249263, 0.05295800790190697, 0.052897676825523376]","[0.5408450365066528, 0.5378280282020569, 0.5386584997177124, 0.5374478101730347, 0.5432936549186707, 0.5464547276496887]","[0.0876929284799157, -1.4831033983149808, 0.0876929284799157, 0.0876929284799157, 0.0876929284799157, 0.0876929284799157]","[0.0876929284799157, -1.4831033983149808, 0.0876929284799157, 0.0876929284799157, 0.0876929284799157, 0.0876929284799157]",0.002,7,1
0,102,"[0.05409848317503929, -1.516887394045927, 0.05399161974062139, 0.054056211108825636, 0.05401906743645668, 0.05403222143650055]","[0.5442540645599365, 0.5392574071884155, 0.5410287976264954, 0.5428385734558105, 0.5449391603469849, 0.5465817451477051]","[0.08854215303994269, -1.482254173754954, 0.08854215303994269, 0.08854215303994269, 0.08854215303994269, 0.08854215303994269]","[0.08854215303994269, -1.482254173754954, 0.08854215303994269, 0.08854215303994269, 0.08854215303994269, 0.08854215303994269]",0.002,7,1
0,103,"[0.0551939532160759, -1.515800980185606, 0.055001084004537404, 0.05510012685742183, 0.0550941526889801, 0.05514056980609894]","[0.5460859537124634, 0.5381841659545898, 0.5408831834793091, 0.545447051525116, 0.5473350882530212, 0.5469921827316284]","[0.08939081787191647, -1.48140550892298, 0.08939081787191647, 0.08939081787191647, 0.08939081787191647, 0.08939081787191647]","[0.08939081787191647, -1.48140550892298, 0.08939081787191647, 0.08939081787191647, 0.08939081787191647, 0.08939081787191647]",0.002,7,1
0,104,"[0.0563061498105526, -1.5146505621126671, 0.05611545244325811, 0.056167884463928175, 0.056101370602846146, 0.056269243359565735]","[0.5472862124443054, 0.5380560755729675, 0.5420129895210266, 0.5488191843032837, 0.5492222905158997, 0.5471299886703491]","[0.09023891761091771, -1.4805574091839788, 0.09023891761091771, 0.09023891761091771, 0.09023891761091771, 0.09023891761091771]","[0.09023891761091771, -1.4805574091839788, 0.09023891761091771, 0.09023891761091771, 0.09023891761091771, 0.09023891761091771]",0.002,7,1
0,105,"[0.057424213737249374, -1.5135832999697705, 0.057204548512594044, 0.05719260751690669, 0.05727548524737358, 0.057353999465703964]","[0.5498851537704468, 0.5396386981010437, 0.544654905796051, 0.55161452293396, 0.5544968843460083, 0.5490211844444275]","[0.09108644689559922, -1.4797098798992974, 0.09108644689559922, 0.09108644689559922, 0.09108644689559922, 0.09108644689559922]","[0.09108644689559922, -1.4797098798992974, 0.09108644689559922, 0.09108644689559922, 0.09108644689559922, 0.09108644689559922]",0.002,7,1
0,106,"[0.058525800704956055, -1.5125163582018395, 0.058294121419088185, 0.058356090182922316, 0.0584566630423069, 0.058566369116306305]","[0.5528879761695862, 0.5408232808113098, 0.5476223230361938, 0.5536723732948303, 0.5533726215362549, 0.5528532862663269]","[0.09193340036822013, -1.4788629264266764, 0.09193340036822013, 0.09193340036822013, 0.09193340036822013, 0.09193340036822013]","[0.09193340036822013, -1.4788629264266764, 0.09193340036822013, 0.09193340036822013, 0.09193340036822013, 0.09193340036822013]",0.002,7,1
0,107,"[0.05956437811255455, -1.5113722842982789, 0.059415642415181935, 0.05940012514080806, 0.05960581451654434, 0.059620317071676254]","[0.5560029149055481, 0.5436136722564697, 0.5490456223487854, 0.5579098463058472, 0.5571190714836121, 0.5524538159370422]","[0.09277977267467959, -1.478016554120217, 0.09277977267467959, 0.09277977267467959, 0.09277977267467959, 0.09277977267467959]","[0.09277977267467959, -1.478016554120217, 0.09277977267467959, 0.09277977267467959, 0.09277977267467959, 0.09277977267467959]",0.002,7,1
0,108,"[0.06068209558725357, -1.510319323544838, 0.060497585927144826, 0.060525580043456984, 0.060623474419116974, 0.06072346121072769]","[0.5579805970191956, 0.5442115664482117, 0.5517249703407288, 0.5592583417892456, 0.5562268495559692, 0.5532317757606506]","[0.09362555846455059, -1.4771707683303459, 0.09362555846455059, 0.09362555846455059, 0.09362555846455059, 0.09362555846455059]","[0.09362555846455059, -1.4771707683303459, 0.09362555846455059, 0.09362555846455059, 0.09362555846455059, 0.09362555846455059]",0.002,7,1
0,109,"[0.06179221719503403, -1.5092944514802475, 0.061596218739644826, 0.061607523555419874, 0.061852775514125824, 0.06193404272198677]","[0.5572492480278015, 0.542271614074707, 0.5517644882202148, 0.5621132254600525, 0.5574105978012085, 0.5546621084213257]","[0.09447075239111392, -1.4763255744037826, 0.09447075239111392, 0.09447075239111392, 0.09447075239111392, 0.09447075239111392]","[0.09447075239111392, -1.4763255744037826, 0.09447075239111392, 0.09447075239111392, 0.09447075239111392, 0.09447075239111392]",0.002,7,1
0,110,"[0.06288926303386688, -1.5081235852888604, 0.0628131071673792, 0.06275991975750728, 0.06297176331281662, 0.06301216781139374]","[0.5581451058387756, 0.5451487302780151, 0.554417073726654, 0.5628917217254639, 0.5594526529312134, 0.5566962361335754]","[0.09531534911139185, -1.4754809776835047, 0.09531534911139185, 0.09531534911139185, 0.09531534911139185, 0.09531534911139185]","[0.09531534911139185, -1.4754809776835047, 0.09531534911139185, 0.09531534911139185, 0.09531534911139185, 0.09531534911139185]",0.002,7,1
0,111,"[0.06397677212953568, -1.5069920283607026, 0.06386071840395147, 0.06391994535412593, 0.06415700912475586, 0.06415906548500061]","[0.5598052144050598, 0.5429703593254089, 0.5572656989097595, 0.5639541149139404, 0.5588381886482239, 0.5558157563209534]","[0.09615934328618193, -1.4746369835087145, 0.09615934328618193, 0.09615934328618193, 0.09615934328618193, 0.09615934328618193]","[0.09615934328618193, -1.4746369835087145, 0.09615934328618193, 0.09615934328618193, 0.09615934328618193, 0.09615934328618193]",0.002,7,1
0,112,"[0.06513538956642151, -1.5059146595052262, 0.0649650732623499, 0.06503979742016597, 0.06530885398387909, 0.06529656052589417]","[0.5607701539993286, 0.5473020076751709, 0.5537790060043335, 0.5638207793235779, 0.5596262216567993, 0.5552603006362915]","[0.09700272958009082, -1.4737935972148057, 0.09700272958009082, 0.09700272958009082, 0.09700272958009082, 0.09700272958009082]","[0.09700272958009082, -1.4737935972148057, 0.09700272958009082, 0.09700272958009082, 0.09700272958009082, 0.09700272958009082]",0.002,7,1
0,113,"[0.06625665724277496, -1.5047739011100312, 0.0661242643939417, 0.06625620901074214, 0.06636743992567062, 0.06634862720966339]","[0.5626592636108398, 0.5501066446304321, 0.5551716685295105, 0.562019407749176, 0.5604767203330994, 0.5558523535728455]","[0.09784550266156791, -1.4729508241333287, 0.09784550266156791, 0.09784550266156791, 0.09784550266156791, 0.09784550266156791]","[0.09784550266156791, -1.4729508241333287, 0.09784550266156791, 0.09784550266156791, 0.09784550266156791, 0.09784550266156791]",0.002,7,1
0,114,"[0.06735726445913315, -1.5037055176547547, 0.06725818315614873, 0.06737796842541499, 0.06743481010198593, 0.06752695143222809]","[0.5628506541252136, 0.5504825115203857, 0.5564306378364563, 0.5631942749023438, 0.5573827028274536, 0.5560826659202576]","[0.09868765720293912, -1.4721086695919574, 0.09868765720293912, 0.09868765720293912, 0.09868765720293912, 0.09868765720293912]","[0.09868765720293912, -1.4721086695919574, 0.09868765720293912, 0.09868765720293912, 0.09868765720293912, 0.09868765720293912]",0.002,7,1
0,115,"[0.06854581832885742, -1.5026026380113144, 0.06839305559267217, 0.06851987421002192, 0.06859252601861954, 0.06856777518987656]","[0.5608291029930115, 0.551552414894104, 0.5582565665245056, 0.5656740665435791, 0.5595775842666626, 0.5574453473091125]","[0.09952918788044049, -1.471267138914456, 0.09952918788044049, 0.09952918788044049, 0.09952918788044049, 0.09952918788044049]","[0.09952918788044049, -1.471267138914456, 0.09952918788044049, 0.09952918788044049, 0.09952918788044049, 0.09952918788044049]",0.002,7,1
0,116,"[0.06965498626232147, -1.5014332991889496, 0.0694807211505335, 0.06966642915692134, 0.06974243372678757, 0.06967538595199585]","[0.5612020492553711, 0.5543030500411987, 0.5583321452140808, 0.5626764297485352, 0.5576196908950806, 0.5584884881973267]","[0.10037008937425189, -1.4704262374206447, 0.10037008937425189, 0.10037008937425189, 0.10037008937425189, 0.10037008937425189]","[0.10037008937425189, -1.4704262374206447, 0.10037008937425189, 0.10037008937425189, 0.10037008937425189, 0.10037008937425189]",0.002,7,1
0,117,"[0.07080346345901489, -1.500280575161316, 0.07065421739687139, 0.07076160490002437, 0.07084061205387115, 0.0708109438419342]","[0.562965989112854, 0.5567867755889893, 0.5597001910209656, 0.5621023178100586, 0.5590521693229675, 0.5604535341262817]","[0.10121035636853062, -1.4695859704263659, 0.10121035636853062, 0.10121035636853062, 0.10121035636853062, 0.10121035636853062]","[0.10121035636853062, -1.4695859704263659, 0.10121035636853062, 0.10121035636853062, 0.10121035636853062, 0.10121035636853062]",0.002,7,1
0,118,"[0.07194525748491287, -1.4992083770087739, 0.07179004350771123, 0.07196049272503657, 0.0719245970249176, 0.07186505198478699]","[0.5626248121261597, 0.5594629049301147, 0.5619230270385742, 0.5594003200531006, 0.5597836971282959, 0.5612902641296387]","[0.10204998355144514, -1.4687463432434513, 0.10204998355144514, 0.10204998355144514, 0.10204998355144514, 0.10204998355144514]","[0.10204998355144514, -1.4687463432434513, 0.10204998355144514, 0.10204998355144514, 0.10204998355144514, 0.10204998355144514]",0.002,7,1
0,119,"[0.07301990687847137, -1.498069168334343, 0.07292157808412725, 0.07315675794567866, 0.07303406298160553, 0.07295151799917221]","[0.5618850588798523, 0.5603601932525635, 0.5596520304679871, 0.5597370862960815, 0.5606913566589355, 0.5609771609306335]","[0.10288896561520831, -1.4679073611796882, 0.10288896561520831, 0.10288896561520831, 0.10288896561520831, 0.10288896561520831]","[0.10288896561520831, -1.4679073611796882, 0.10288896561520831, 0.10288896561520831, 0.10288896561520831, 0.10288896561520831]",0.002,7,1
0,120,"[0.07411257922649384, -1.4969664749554177, 0.0740135351764124, 0.07431308805432124, 0.07415647059679031, 0.07404564321041107]","[0.5595756769180298, 0.5601595044136047, 0.5589199662208557, 0.5604822039604187, 0.5587936043739319, 0.5613946318626404]","[0.10372729725611143, -1.4670690295387852, 0.10372729725611143, 0.10372729725611143, 0.10372729725611143, 0.10372729725611143]","[0.10372729725611143, -1.4670690295387852, 0.10372729725611143, 0.10372729725611143, 0.10372729725611143, 0.10372729725611143]",0.002,7,1
0,121,"[0.07523351907730103, -1.4957985964468499, 0.07515365282167608, 0.07539157449688716, 0.07522974163293839, 0.07514245063066483]","[0.5579090118408203, 0.5592478513717651, 0.5614914894104004, 0.5617825984954834, 0.5600566864013672, 0.5613359808921814]","[0.10456497317455739, -1.466231353620339, 0.10456497317455739, 0.10456497317455739, 0.10456497317455739, 0.10456497317455739]","[0.10456497317455739, -1.466231353620339, 0.10456497317455739, 0.10456497317455739, 0.10456497317455739, 0.10456497317455739]",0.002,7,1
0,122,"[0.07636329531669617, -1.4947156098536034, 0.07630426088442022, 0.07653014242138667, 0.07636415958404541, 0.07627484202384949]","[0.5586145520210266, 0.5615178942680359, 0.5572035908699036, 0.5583066940307617, 0.5606975555419922, 0.5647380352020264]","[0.10540198807509427, -1.4653943387198023, 0.10540198807509427, 0.10540198807509427, 0.10540198807509427, 0.10540198807509427]","[0.10540198807509427, -1.4653943387198023, 0.10540198807509427, 0.10540198807509427, 0.10540198807509427, 0.10540198807509427]",0.002,7,1
0,123,"[0.0774853378534317, -1.4936176848462601, 0.07742149034609014, 0.07767324029888911, 0.07751291990280151, 0.07737072557210922]","[0.559814453125, 0.5626891255378723, 0.561417818069458, 0.5543575286865234, 0.5605867505073547, 0.5629254579544067]","[0.1062383366664489, -1.4645579901284476, 0.1062383366664489, 0.1062383366664489, 0.1062383366664489, 0.1062383366664489]","[0.1062383366664489, -1.4645579901284476, 0.1062383366664489, 0.1062383366664489, 0.1062383366664489, 0.1062383366664489]",0.002,7,1
0,124,"[0.0787089616060257, -1.4924049836448212, 0.07851630846132451, 0.07880274831738276, 0.07861901819705963, 0.07854010909795761]","[0.558219313621521, 0.5645869970321655, 0.5607248544692993, 0.552620530128479, 0.5617179274559021, 0.563836395740509]","[0.10707401366156022, -1.4637223131333363, 0.10707401366156022, 0.10707401366156022, 0.10707401366156022, 0.10707401366156022]","[0.10707401366156022, -1.4637223131333363, 0.10707401366156022, 0.10707401366156022, 0.10707401366156022, 0.10707401366156022]",0.002,7,1
0,125,"[0.07975991070270538, -1.491313861017563, 0.07957107225526983, 0.0798756319233398, 0.07965101301670074, 0.07960104197263718]","[0.5590898990631104, 0.562234103679657, 0.5602495670318604, 0.5523613095283508, 0.5611124038696289, 0.5636289119720459]","[0.10790901377761274, -1.462887313017284, 0.10790901377761274, 0.10790901377761274, 0.10790901377761274, 0.10790901377761274]","[0.10790901377761274, -1.462887313017284, 0.10790901377761274, 0.10790901377761274, 0.10790901377761274, 0.10790901377761274]",0.002,7,1
0,126,"[0.08084221184253693, -1.4901832354119797, 0.08072501817812139, 0.0809679466434936, 0.0808316245675087, 0.08076541125774384]","[0.5560175180435181, 0.5624098181724548, 0.5584813356399536, 0.5524228811264038, 0.5603893399238586, 0.5632860064506531]","[0.10874333173606994, -1.4620529950588266, 0.10874333173606994, 0.10874333173606994, 0.10874333173606994, 0.10874333173606994]","[0.10874333173606994, -1.4620529950588266, 0.10874333173606994, 0.10874333173606994, 0.10874333173606994, 0.10874333173606994]",0.002,7,1
0,127,"[0.08198843151330948, -1.4890552845648308, 0.08183747926820928, 0.08208636819805903, 0.08190341293811798, 0.08188746869564056]","[0.5578755736351013, 0.5615609288215637, 0.557689368724823, 0.5542408227920532, 0.5590319633483887, 0.5629121661186218]","[0.1095769622627076, -1.461219364532189, 0.1095769622627076, 0.1095769622627076, 0.1095769622627076, 0.1095769622627076]","[0.1095769622627076, -1.461219364532189, 0.1095769622627076, 0.1095769622627076, 0.1095769622627076, 0.1095769622627076]",0.002,7,1
0,128,"[0.08307027816772461, -1.4879581716707726, 0.08303386369814092, 0.08312587320294185, 0.0830502137541771, 0.08308126777410507]","[0.5567139983177185, 0.5589269399642944, 0.557542085647583, 0.5533498525619507, 0.5582920908927917, 0.5621448755264282]","[0.1104099000876472, -1.4603864267072493, 0.1104099000876472, 0.1104099000876472, 0.1104099000876472, 0.1104099000876472]","[0.1104099000876472, -1.4603864267072493, 0.1104099000876472, 0.1104099000876472, 0.1104099000876472, 0.1104099000876472]",0.002,7,1
0,129,"[0.08422654867172241, -1.4868264508298417, 0.08413774171938115, 0.08419065057720942, 0.08413350582122803, 0.0841871052980423]","[0.555531919002533, 0.5573967099189758, 0.5581737756729126, 0.5535193681716919, 0.5595117211341858, 0.5596283674240112]","[0.11124213994538917, -1.4595541868495074, 0.11124213994538917, 0.11124213994538917, 0.11124213994538917, 0.11124213994538917]","[0.11124213994538917, -1.4595541868495074, 0.11124213994538917, 0.11124213994538917, 0.11124213994538917, 0.11124213994538917]",0.002,7,1
0,130,"[0.08536054193973541, -1.4857084092548867, 0.08522397676576787, 0.08522646009411616, 0.08529230952262878, 0.08535220474004745]","[0.5556081533432007, 0.5559536814689636, 0.5570192933082581, 0.5511152744293213, 0.5582671761512756, 0.5561103820800781]","[0.11207367657484625, -1.4587226502200503, 0.11207367657484625, 0.11207367657484625, 0.11207367657484625, 0.11207367657484625]","[0.11207367657484625, -1.4587226502200503, 0.11207367657484625, 0.11207367657484625, 0.11207367657484625, 0.11207367657484625]",0.002,7,1
0,131,"[0.08648743480443954, -1.4846133154681702, 0.08628207841982061, 0.0863618093677978, 0.08635704964399338, 0.08642061054706573]","[0.5548859238624573, 0.5539965629577637, 0.5511378645896912, 0.5512500405311584, 0.5574640035629272, 0.5550907850265503]","[0.11290450471937667, -1.45789182207552, 0.11290450471937667, 0.11290450471937667, 0.11290450471937667, 0.11290450471937667]","[0.11290450471937667, -1.45789182207552, 0.11290450471937667, 0.11290450471937667, 0.11290450471937667, 0.11290450471937667]",0.002,7,1
0,132,"[0.08758926391601562, -1.4834678930095215, 0.08731967607607061, 0.08741871892895503, 0.0875077024102211, 0.08755876868963242]","[0.551272451877594, 0.5507491827011108, 0.5494245290756226, 0.5549201965332031, 0.5542428493499756, 0.5544384717941284]","[0.11373461912681745, -1.4570617076680792, 0.11373461912681745, 0.11373461912681745, 0.11373461912681745, 0.11373461912681745]","[0.11373461912681745, -1.4570617076680792, 0.11373461912681745, 0.11373461912681745, 0.11373461912681745, 0.11373461912681745]",0.002,7,1
0,133,"[0.08870809525251389, -1.4824070644429703, 0.08849507967104131, 0.0884675222584228, 0.08857657015323639, 0.08871045708656311]","[0.5510138869285583, 0.5477845668792725, 0.5459436178207397, 0.5563098788261414, 0.5512874126434326, 0.5499647259712219]","[0.11456401454951752, -1.456232312245379, 0.11456401454951752, 0.11456401454951752, 0.11456401454951752, 0.11456401454951752]","[0.11456401454951752, -1.456232312245379, 0.11456401454951752, 0.11456401454951752, 0.11456401454951752, 0.11456401454951752]",0.002,7,1
0,134,"[0.08982425928115845, -1.4812709552100678, 0.08956414857973272, 0.0896119314381103, 0.08971714973449707, 0.08981189876794815]","[0.5501347184181213, 0.5459367036819458, 0.5492197275161743, 0.5559564828872681, 0.5505015850067139, 0.5485415458679199]","[0.11539268574437102, -1.4554036410505256, 0.11539268574437102, 0.11539268574437102, 0.11539268574437102, 0.11539268574437102]","[0.11539268574437102, -1.4554036410505256, 0.11539268574437102, 0.11539268574437102, 0.11539268574437102, 0.11539268574437102]",0.002,7,1
0,135,"[0.09088069200515747, -1.4801981908134003, 0.09069425264467412, 0.09065620481457515, 0.09087660908699036, 0.09092023223638535]","[0.549700915813446, 0.5453130006790161, 0.5493799448013306, 0.5516471266746521, 0.5495298504829407, 0.5483811497688293]","[0.11622062747285028, -1.4545756993220462, 0.11622062747285028, 0.11622062747285028, 0.11622062747285028, 0.11622062747285028]","[0.11622062747285028, -1.4545756993220462, 0.11622062747285028, 0.11622062747285028, 0.11622062747285028, 0.11622062747285028]",0.002,7,1
0,136,"[0.09196566045284271, -1.47903614610944, 0.09179383913149053, 0.09177105009045405, 0.09203381091356277, 0.09205429255962372]","[0.5488155484199524, 0.5431756377220154, 0.5457236170768738, 0.5507395267486572, 0.5493377447128296, 0.545726478099823]","[0.11704783450103912, -1.4537484922938575, 0.11704783450103912, 0.11704783450103912, 0.11704783450103912, 0.11704783450103912]","[0.11704783450103912, -1.4537484922938575, 0.11704783450103912, 0.11704783450103912, 0.11704783450103912, 0.11704783450103912]",0.002,7,1
0,137,"[0.0929844006896019, -1.4779403519681473, 0.09285194078554326, 0.09287230550732417, 0.09308347851037979, 0.09318604320287704]","[0.5470836162567139, 0.5417478680610657, 0.5445303320884705, 0.5517914295196533, 0.5461932420730591, 0.5428013205528259]","[0.11787430159966572, -1.4529220251952308, 0.11787430159966572, 0.11787430159966572, 0.11787430159966572, 0.11787430159966572]","[0.11787430159966572, -1.4529220251952308, 0.11787430159966572, 0.11787430159966572, 0.11787430159966572, 0.11787430159966572]",0.002,7,1
0,138,"[0.09407125413417816, -1.4768747103265305, 0.09398824373354131, 0.09397010385479732, 0.09422673285007477, 0.09426824748516083]","[0.5427535772323608, 0.5354247689247131, 0.5417762398719788, 0.5507025718688965, 0.543298602104187, 0.5413331985473633]","[0.11870002354413592, -1.4520963032507606, 0.11870002354413592, 0.11870002354413592, 0.11870002354413592, 0.11870002354413592]","[0.11870002354413592, -1.4520963032507606, 0.11870002354413592, 0.11870002354413592, 0.11870002354413592, 0.11870002354413592]",0.002,7,1
0,139,"[0.09512462466955185, -1.4757913214019318, 0.0949938933001917, 0.09504119932141109, 0.09527812898159027, 0.09533841162919998]","[0.5420223474502563, 0.537152111530304, 0.5403256416320801, 0.5509212017059326, 0.5411412715911865, 0.5394282937049866]","[0.1195249951145661, -1.4512713316803305, 0.1195249951145661, 0.1195249951145661, 0.1195249951145661, 0.1195249951145661]","[0.1195249951145661, -1.4512713316803305, 0.1195249951145661, 0.1195249951145661, 0.1195249951145661, 0.1195249951145661]",0.002,7,1
0,140,"[0.09619568288326263, -1.474708454017975, 0.09614211717714483, 0.09615246831860347, 0.09637667238712311, 0.09636043012142181]","[0.5422118902206421, 0.5344967842102051, 0.5388686060905457, 0.5453410744667053, 0.5405585169792175, 0.5369699001312256]","[0.12034921109581614, -1.4504471156990804, 0.12034921109581614, 0.12034921109581614, 0.12034921109581614, 0.12034921109581614]","[0.12034921109581614, -1.4504471156990804, 0.12034921109581614, 0.12034921109581614, 0.12034921109581614, 0.12034921109581614]",0.002,7,1
0,141,"[0.09737814217805862, -1.473596603875496, 0.09719258943666631, 0.09731523572888179, 0.09742817282676697, 0.09742612391710281]","[0.5404577851295471, 0.5323912501335144, 0.5360879898071289, 0.5412144660949707, 0.5374043583869934, 0.534965991973877]","[0.12117266627752252, -1.449623660517374, 0.12117266627752252, 0.12117266627752252, 0.12117266627752252, 0.12117266627752252]","[0.12117266627752252, -1.449623660517374, 0.12117266627752252, 0.12117266627752252, 0.12117266627752252, 0.12117266627752252]",0.002,7,1
0,142,"[0.09844993054866791, -1.4724860501340409, 0.09827119508852178, 0.09841172277416987, 0.0984816774725914, 0.09848778694868088]","[0.5377222299575806, 0.5327647924423218, 0.5348734855651855, 0.5406325459480286, 0.5350340008735657, 0.5315940976142883]","[0.12199535545413111, -1.4488009713407655, 0.12199535545413111, 0.12199535545413111, 0.12199535545413111, 0.12199535545413111]","[0.12199535545413111, -1.4488009713407655, 0.12199535545413111, 0.12199535545413111, 0.12199535545413111, 0.12199535545413111]",0.002,7,1
0,143,"[0.09950751066207886, -1.4714220997742196, 0.09935456911195928, 0.09949569284405513, 0.09956122189760208, 0.09957534074783325]","[0.5341527462005615, 0.5305832028388977, 0.5347657799720764, 0.5399250388145447, 0.5313787460327148, 0.5313851237297058]","[0.12281727342493026, -1.4479790533699664, 0.12281727342493026, 0.12281727342493026, 0.12281727342493026, 0.12281727342493026]","[0.12281727342493026, -1.4479790533699664, 0.12281727342493026, 0.12281727342493026, 0.12281727342493026, 0.12281727342493026]",0.002,7,1
0,144,"[0.10058628022670746, -1.4704086494496842, 0.10042220750917608, 0.10056821882214351, 0.10057700425386429, 0.1006074920296669]","[0.5296745896339417, 0.528401255607605, 0.5321919918060303, 0.534695565700531, 0.5297852754592896, 0.5283104777336121]","[0.12363841499408351, -1.447157911800813, 0.12363841499408351, 0.12363841499408351, 0.12363841499408351, 0.12363841499408351]","[0.12363841499408351, -1.447157911800813, 0.12363841499408351, 0.12363841499408351, 0.12363841499408351, 0.12363841499408351]",0.002,7,1
0,145,"[0.10165761411190033, -1.4692582872560997, 0.10151368776430303, 0.10171203195538325, 0.1017332375049591, 0.10157983005046844]","[0.5311247706413269, 0.5303235054016113, 0.5311060547828674, 0.5297760963439941, 0.5277341604232788, 0.5279453992843628]","[0.1244587749706625, -1.446337551824234, 0.1244587749706625, 0.1244587749706625, 0.1244587749706625, 0.1244587749706625]","[0.1244587749706625, -1.446337551824234, 0.1244587749706625, 0.1244587749706625, 0.1244587749706625, 0.1244587749706625]",0.002,7,1
0,146,"[0.1027434915304184, -1.4682683286121865, 0.10262853304018194, 0.10271493970837398, 0.10276288539171219, 0.10264008492231369]","[0.5283761620521545, 0.5301118493080139, 0.5271012187004089, 0.52577805519104, 0.526665449142456, 0.5267952084541321]","[0.12527834816867986, -1.4455179786262167, 0.12527834816867986, 0.12527834816867986, 0.12527834816867986, 0.12527834816867986]","[0.12527834816867986, -1.4455179786262167, 0.12527834816867986, 0.12527834816867986, 0.12527834816867986, 0.12527834816867986]",0.002,7,1
0,147,"[0.10376230627298355, -1.4671797764352341, 0.10356074968446904, 0.103871150607727, 0.10375094413757324, 0.1036471277475357]","[0.524614691734314, 0.5300601720809937, 0.5279363989830017, 0.5251191854476929, 0.5223612785339355, 0.5266516804695129]","[0.12609712940712178, -1.4446991973877747, 0.12609712940712178, 0.12609712940712178, 0.12609712940712178, 0.12609712940712178]","[0.12609712940712178, -1.4446991973877747, 0.12609712940712178, 0.12609712940712178, 0.12609712940712178, 0.12609712940712178]",0.002,7,1
0,148,"[0.10475072264671326, -1.4661320087364693, 0.1046822706805628, 0.10496453821148677, 0.10482258349657059, 0.10467402637004852]","[0.5217267870903015, 0.5260776281356812, 0.5234135389328003, 0.5238857865333557, 0.5207949280738831, 0.5240923762321472]","[0.12691511350998105, -1.4438812132849155, 0.12691511350998105, 0.12691511350998105, 0.12691511350998105, 0.12691511350998105]","[0.12691511350998105, -1.4438812132849155, 0.12691511350998105, 0.12691511350998105, 0.12691511350998105, 0.12691511350998105]",0.002,7,1
0,149,"[0.10576201975345612, -1.4651122701219101, 0.10574943224062139, 0.1059848505207519, 0.1057746410369873, 0.10570216923952103]","[0.5191874504089355, 0.5283300876617432, 0.5208144187927246, 0.5214605927467346, 0.5188691020011902, 0.5238322019577026]","[0.1277322953062895, -1.443064031488607, 0.1277322953062895, 0.1277322953062895, 0.1277322953062895, 0.1277322953062895]","[0.1277322953062895, -1.443064031488607, 0.1277322953062895, 0.1277322953062895, 0.1277322953062895, 0.1277322953062895]",0.002,7,1
0,150,"[0.10681081563234329, -1.4640747544220467, 0.10672170320619756, 0.1070212560841064, 0.10682002454996109, 0.10670998692512512]","[0.5166851282119751, 0.5231389999389648, 0.5190829038619995, 0.5148728489875793, 0.5167431831359863, 0.5203289985656738]","[0.12854866963015096, -1.4422476571647456, 0.12854866963015096, 0.12854866963015096, 0.12854866963015096, 0.12854866963015096]","[0.12854866963015096, -1.4422476571647456, 0.12854866963015096, 0.12854866963015096, 0.12854866963015096, 0.12854866963015096]",0.002,7,1
0,151,"[0.1078501045703888, -1.4630764958313485, 0.10779363313783819, 0.10804776727642817, 0.1077922135591507, 0.10774058848619461]","[0.5127668380737305, 0.520022988319397, 0.5172371864318848, 0.5086678862571716, 0.5173581838607788, 0.519317090511322]","[0.12936423132077363, -1.4414320954741229, 0.12936423132077363, 0.12936423132077363, 0.12936423132077363, 0.12936423132077363]","[0.12936423132077363, -1.4414320954741229, 0.12936423132077363, 0.12936423132077363, 0.12936423132077363, 0.12936423132077363]",0.002,7,1
0,152,"[0.10889406502246857, -1.4620147955468674, 0.10884696642030889, 0.10906760274853511, 0.10884635150432587, 0.1088261529803276]","[0.5108522176742554, 0.5193889737129211, 0.5142948031425476, 0.5066423416137695, 0.5145377516746521, 0.5172725319862366]","[0.13017897522250294, -1.4406173515723937, 0.13017897522250294, 0.13017897522250294, 0.13017897522250294, 0.13017897522250294]","[0.13017897522250294, -1.4406173515723937, 0.13017897522250294, 0.13017897522250294, 0.13017897522250294, 0.13017897522250294]",0.002,7,1
0,153,"[0.10989483445882797, -1.4610256043127556, 0.10978871980776006, 0.1101263004490356, 0.10991552472114563, 0.10980258136987686]","[0.5118096470832825, 0.5190168023109436, 0.5146034359931946, 0.5046548843383789, 0.5132966637611389, 0.5156619548797607]","[0.1309928961848541, -1.4398034306100425, 0.1309928961848541, 0.1309928961848541, 0.1309928961848541, 0.1309928961848541]","[0.1309928961848541, -1.4398034306100425, 0.1309928961848541, 0.1309928961848541, 0.1309928961848541, 0.1309928961848541]",0.002,7,1
