Arnibjarnst/BoxLift/logs/ur_rtde/trajectory_dur=7.5_delay=0.0_gain=100_lh=0.05_real.csv
arm_idx,step,actual_q,actual_qd,target_q,expected_q,applied_torque,loop_time,robot_mode,safety_mode
0,-1,"[-0.009531799946920216, -1.5803891621031703, -0.009510906413197517, -0.009643272762634325, -0.009577576314107716, -0.009588066731588185]","[0.03553134202957153, 0.03378305211663246, 0.035362087190151215, 0.0351908877491951, 0.033166054636240005, 0.0329335518181324]","[0.0, -1.5707963267948966, 0.0, 0.0, 0.0, 0.0]","[0.0, -1.5707963267948966, 0.0, 0.0, 0.0, 0.0]","[1.2916297526542522, 5.381843634117089, 2.3790817373563535, -1.5479759590243884, 0.7643752352126985, 0.23264006209366314]",0.002,7,1
0,-1,"[-0.008922402058736623, -1.5796481571593226, -0.00885048694908619, -0.00900323808703618, -0.008956734334127248, -0.008887116109029591]","[0.049306318163871765, 0.050098828971385956, 0.05016685277223587, 0.04961976408958435, 0.04844346269965172, 0.04910430312156677]","[0.0, -1.5707963267948966, 0.0, 0.0, 0.0, 0.0]","[0.0, -1.5707963267948966, 0.0, 0.0, 0.0, 0.0]","[1.292690720030119, 5.3245187391898465, 2.3524886261538898, -1.5476374373139925, 0.7642498214708253, 0.23265116637769162]",0.002,7,1
0,-1,"[-0.007962528859273732, -1.5787817440428675, -0.007931056432425976, -0.008038238888122606, -0.007912937794820607, -0.007950607930318654]","[0.06364034116268158, 0.063634492456913, 0.06402069330215454, 0.06790142506361008, 0.0663590207695961, 0.0641990602016449]","[0.0, -1.5707963267948966, 0.0, 0.0, 0.0, 0.0]","[0.0, -1.5707963267948966, 0.0, 0.0, 0.0, 0.0]","[1.2941138292942682, 5.2590437088922695, 2.3218408083071176, -1.5471394024535166, 0.7640671649282201, 0.23266605846648972]",0.002,7,1
0,-1,"[-0.006698910390035451, -1.5776039562621058, -0.0067204623483121395, -0.0068828624537964345, -0.006734673176900685, -0.006748501454488576]","[0.08290339261293411, 0.07888612896203995, 0.07954509556293488, 0.08719398826360703, 0.08370769023895264, 0.08002419024705887]","[0.0, -1.5707963267948966, 0.0, 0.0, 0.0, 0.0]","[0.0, -1.5707963267948966, 0.0, 0.0, 0.0, 0.0]","[1.296113177381121, 5.162378704208381, 2.2761535978775873, -1.546524091632698, 0.7638377633236939, 0.23268547550095778]",0.002,7,1
0,-1,"[-0.005263153706685841, -1.5761038265623988, -0.005303020589053631, -0.005376533871032763, -0.0052407423602502945, -0.005181137715474904]","[0.09664066880941391, 0.09424272924661636, 0.10119129717350006, 0.10189974308013916, 0.09833216667175293, 0.10007898509502411]","[0.0, -1.5707963267948966, 0.0, 0.0, 0.0, 0.0]","[0.0, -1.5707963267948966, 0.0, 0.0, 0.0, 0.0]","[1.2986705861082495, 5.04749714598316, 2.2228165364099675, -1.5457669700685734, 0.763551108425217, 0.2327085964522377]",0.002,7,1
0,-1,"[-0.004477326069967091, -1.5753780804076136, -0.004569110926240683, -0.00452931345019536, -0.00442678133119756, -0.004390541707174123]","[0.09895017743110657, 0.05811936408281326, 0.08093993365764618, 0.09587206691503525, 0.09395687282085419, 0.09384983032941818]","[0.0, -1.5707963267948966, 0.0, 0.0, 0.0, 0.0]","[0.0, -1.5707963267948966, 0.0, 0.0, 0.0, 0.0]","[-1.2885337691198857, -7.914726887236114, -5.502247513008241, -2.100596792209367, 0.3566093004375501, -0.2326131630627423]",0.002,7,1
0,-1,"[-0.0033343474017542007, -1.5741855106749476, -0.003363428171724081, -0.003330544834472704, -0.0031345526324670914, -0.003171745930806935]","[0.07692722231149673, 0.09786676615476608, 0.08829491585493088, 0.08107306808233261, 0.07916225492954254, 0.07860149443149567]","[0.0, -1.5707963267948966, 0.0, 0.0, 0.0, 0.0]","[0.0, -1.5707963267948966, 0.0, 0.0, 0.0, 0.0]","[-1.2904702974435194, -8.004300344059638, -5.545678150430181, -2.1013956586602642, 0.35691711411796323, -0.23263275896262456]",0.002,7,1
0,-1,"[-0.002190415059224904, -1.57293762783193, -0.0020879912190139294, -0.0020942252925415517, -0.002004448567525685, -0.0020249525653284195]","[0.06511060893535614, 0.06829776614904404, 0.06773874908685684, 0.06517760455608368, 0.06409154832363129, 0.06416106969118118]","[0.0, -1.5707963267948966, 0.0, 0.0, 0.0, 0.0]","[0.0, -1.5707963267948966, 0.0, 0.0, 0.0, 0.0]","[-1.2925004709856291, -8.103900122893858, -5.592102797029799, -2.102121917469065, 0.3572010120882275, -0.2326512360542364]",0.002,7,1
0,-1,"[-0.001519505177633107, -1.5722104511656703, -0.0014521622797474265, -0.0014861387065430165, -0.001313511525289357, -0.0013378302203577164]","[0.056146830320358276, 0.05428548529744148, 0.054477762430906296, 0.05291371792554855, 0.05229604244232178, 0.05198974907398224]","[0.0, -1.5707963267948966, 0.0, 0.0, 0.0, 0.0]","[0.0, -1.5707963267948966, 0.0, 0.0, 0.0, 0.0]","[-1.293744503566952, -8.157056288870807, -5.617884877608075, -2.1025572026620116, 0.3573694332497772, -0.23266241865204018]",0.002,7,1
0,-1,"[-0.000924412404195607, -1.5716883144774378, -0.0008513927459716797, -0.0008528989604492665, -0.0007970968829553726, -0.0007913748370569351]","[0.042150694876909256, 0.04115189611911774, 0.04276935011148453, 0.04404820501804352, 0.03994116932153702, 0.03996311500668526]","[0.0, -1.5707963267948966, 0.0, 0.0, 0.0, 0.0]","[0.0, -1.5707963267948966, 0.0, 0.0, 0.0, 0.0]","[-1.2948127678584371, -8.206618505316689, -5.641115381512063, -2.10288810569075, 0.35749959190704816, -0.23267144793492345]",0.002,7,1
0,-1,"[-0.00035697618593388825, -1.5710793934264125, -0.00022950649145059288, -0.0002654355815430165, -0.00021583238710576325, -0.00022346178163701325]","[0.0245419442653656, 0.023577963933348656, 0.024804377928376198, 0.02381763979792595, 0.022069621831178665, 0.022435447201132774]","[0.0, -1.5707963267948966, 0.0, 0.0, 0.0, 0.0]","[0.0, -1.5707963267948966, 0.0, 0.0, 0.0, 0.0]","[-1.2959049270073906, -8.252542777293717, -5.663245145113027, -2.103208207392811, 0.357627319188774, -0.23268001382960157]",0.002,7,1
0,-1,"[-0.0001290480243127945, -1.5709086857237757, -8.398084173677489e-05, -7.076681170659072e-05, -4.464784731084137e-05, -8.279481996709137e-05]","[0.013299720361828804, 0.012162006460130215, 0.012904171831905842, 0.012851131148636341, 0.01072759460657835, 0.010779716074466705]","[0.0, -1.5707963267948966, 0.0, 0.0, 0.0, 0.0]","[0.0, -1.5707963267948966, 0.0, 0.0, 0.0, 0.0]","[-1.296284301017498, -8.267423245956111, -5.670905347418371, -2.103322446388268, 0.35767182364475103, -0.23268326945106974]",0.002,7,1
0,-1,"[-9.757677187138825e-05, -1.570874353448385, -4.820585309062153e-05, -3.130853686528212e-05, -6.753603090459137e-05, -4.464784731084137e-05]","[-0.004334716126322746, -0.007489085663110018, -0.007559518795460463, -0.007449998054653406, -0.009533912874758244, -0.007161152083426714]","[0.0, -1.5707963267948966, 0.0, 0.0, 0.0, 0.0]","[0.0, -1.5707963267948966, 0.0, 0.0, 0.0, 0.0]","[-0.27066107607085466, -3.1666525463210378, -2.627512852668314, -1.8846798259832753, 0.5188984094136221, -0.048580571146364465]",0.002,7,1
0,-1,"[-0.0001099745379846695, -1.5708862743773402, -0.0001248288172064349, -9.699285540776259e-05, -7.659593691045075e-05, -8.5179005758107e-05]","[-5.0730812972688e-07, -0.011211887001991272, -0.0024327407591044903, -7.439534783770796e-07, -0.0005840431549586356, -0.0005716313025914133]","[0.0, -1.5707963267948966, 0.0, 0.0, 0.0, 0.0]","[0.0, -1.5707963267948966, 0.0, 0.0, 0.0, 0.0]","[2.795849273926037e-19, -1.8199112327707134, -1.8242033385117669, -1.8269746204757487, 0.5614384951870884, 0.0]",0.002,7,1
0,-1,"[-0.0001023451434534195, -1.5709554157652796, -9.636640606913716e-05, -5.884588275151259e-05, -7.7549611226857e-05, -5.227724184209137e-05]","[-3.969154760384385e-20, -0.002919968217611313, -0.0009443155140616, -3.76362234156798e-15, -0.0001838004682213068, -0.0002729994885157794]","[0.0, -1.5707963267948966, 0.0, 0.0, 0.0, 0.0]","[0.0, -1.5707963267948966, 0.0, 0.0, 0.0, 0.0]","[-6.621713669372878e-19, -1.8201009736029696, -1.823564768300124, -1.8269746096331543, 0.5614384966997831, 0.0]",0.002,7,1
0,-1,"[-0.00013143221010381012, -1.5709673366942347, -8.726119995117188e-05, -7.636964831547743e-05, -7.7549611226857e-05, -3.8448964254200746e-05]","[-4.1663563424832076e-35, -0.0006023180903866887, -0.0005335702444426715, -1.2431741835772973e-24, 0.0005921644624322653, 0.00011100460687885061]","[0.0, -1.5707963267948966, 0.0, 0.0, 0.0, 0.0]","[0.0, -1.5707963267948966, 0.0, 0.0, 0.0, 0.0]","[4.053549477967242e-19, -1.815360526514895, -1.8225517208938584, -1.8269746158576081, 0.5614384989634347, 0.0]",0.002,7,1
0,-1,"[-8.422533144170075e-05, -1.5709582767882289, -0.00013218320964369923, -7.934988055424697e-05, -6.086031068974762e-05, -8.041063417607575e-05]","[0.0, -0.0003479516599327326, -0.00033814110793173313, 0.0008777123293839395, 0.00041066011181101203, 0.00049108563689515]","[0.0, -1.5707963267948966, 0.0, 0.0, 0.0, 0.0]","[0.0, -1.5707963267948966, 0.0, 0.0, 0.0, 0.0]","[4.1010063806730575e-19, -1.8148791868804024, -1.8220703812593657, -1.8269745720994137, 0.5614384835032242, 0.0]",0.002,7,1
0,-1,"[-0.00014716783632451325, -1.5710083446898402, -7.028818072285503e-05, -3.130853686528212e-05, -0.00011283556093388825, -0.00010329881776982575]","[7.089056452969089e-05, -0.00018631665443535894, -0.00028466980438679457, 0.0006770628970116377, 0.0014019608497619629, 0.0004492084844969213]","[0.0, -1.5707963267948966, 0.0, 0.0, 0.0, 0.0]","[0.0, -1.5707963267948966, 0.0, 0.0, 0.0, 0.0]","[1.117932633311462e-18, -1.812994875282789, -1.8217638049609632, -1.8269745960173442, 0.5614384851112981, 0.0]",0.002,7,1
0,-1,"[-9.757677187138825e-05, -1.5709392033019007, -0.00010779573494801298, -7.243574176030165e-05, -6.562868227177887e-05, -2.7958546773731996e-05]","[5.556911855819635e-05, 0.00017551940982230008, -0.00019509029516484588, 0.000560109328944236, 0.0006068218499422073, 0.000453394022770226]","[0.0, -1.5707963267948966, 0.0, 0.0, 0.0, 0.0]","[0.0, -1.5707963267948966, 0.0, 0.0, 0.0, 0.0]","[1.2560394838651399e-18, -1.8152466146885466, -1.8225166958327381, -1.8269746273220588, 0.5614385002836386, 0.0]",0.002,7,1
0,-1,"[-7.94569598596695e-05, -1.5708891354002894, -8.726119995117188e-05, -3.130853686528212e-05, -7.468858827763825e-05, -6.977711812794496e-06]","[4.688455010182224e-05, 0.000741280906368047, -5.6936598411994055e-05, 0.0006184326484799385, 0.0012602910865098238, 0.000631153816357255]","[0.0, -1.5707963267948966, 0.0, 0.0, 0.0, 0.0]","[0.0, -1.5707963267948966, 0.0, 0.0, 0.0, 0.0]","[1.279095230584889e-20, -1.816504374189565, -1.8227883707665964, -1.8269746307198054, 0.5614385020018404, 0.0]",0.002,7,1
0,-1,"[-9.328523744756012e-05, -1.5709482632079066, -0.00011692456610035151, -3.560007128911025e-05, 2.9177901524235494e-05, -6.562868227177887e-05]","[6.082110121496953e-05, 0.0006889548385515809, -2.3965894797584042e-05, 0.00044203962897881866, 0.0007058498449623585, 0.000621904619038105]","[0.0, -1.5707963267948966, 0.0, 0.0, 0.0, 0.0]","[0.0, -1.5707963267948966, 0.0, 0.0, 0.0, 0.0]","[6.109108292810118e-19, -1.817841349951562, -1.8234350873294225, -1.8269746089599272, 0.5614384950994009, 0.0]",0.002,7,1
0,-1,"[-7.230440248662262e-05, -1.5709434948363246, -0.00010782874596770853, 1.756727185053819e-05, -7.468858827763825e-05, -7.039705385381012e-05]","[0.0001995429047383368, 0.0003773866919800639, -2.0635501641663723e-05, 0.0006523621268570423, 0.0008996415417641401, 0.0006665175314992666]","[0.0, -1.5707963267948966, 0.0, 0.0, 0.0, 0.0]","[0.0, -1.5707963267948966, 0.0, 0.0, 0.0, 0.0]","[-3.905071591989739e-19, -1.8175305410603928, -1.8229467832153496, -1.8269746173260797, 0.561438500314126, 0.0]",0.002,7,1
0,-1,"[-8.613268007451325e-05, -1.5709601841368617, -4.930734576191753e-05, -5.18125346680165e-05, 5.245208740234375e-06, -6.562868227177887e-05]","[0.0007177898660302162, 0.00016794544353615493, -1.8224936866317876e-05, 0.000709341315086931, 0.0005705925286747515, 0.0006266352138482034]","[0.0, -1.5707963267948966, 0.0, 0.0, 0.0, 0.0]","[0.0, -1.5707963267948966, 0.0, 0.0, 0.0, 0.0]","[-6.527757842508159e-20, -1.8153847367830231, -1.8218856719651557, -1.8269745868561589, 0.5614384882811192, 0.0]",0.002,7,1
0,-1,"[-6.41981707971695e-05, -1.5709930859007777, -8.274316496681422e-05, -1.1758213378953997e-05, -6.024037496388246e-06, -1.3653432027638246e-05]","[0.0003648865094874054, 0.00013369288353715092, -1.5354504284914583e-05, 0.0004925155662931502, 0.00043924967758357525, 0.00046945325448177755]","[0.0, -1.5707963267948966, 0.0, 0.0, 0.0, 0.0]","[0.0, -1.5707963267948966, 0.0, 0.0, 0.0, 0.0]","[-1.6427894853243213e-19, -1.8158397468311434, -1.8227942809142665, -1.8269746214265579, 0.5614385018314321, 0.0]",0.002,7,1
0,-1,"[-7.659593691045075e-05, -1.5709101162352503, -0.00012475656694732606, -1.1758213378953997e-05, 4.76837158203125e-07, -2.9865895406544496e-05]","[0.0003367819881532341, 0.001443682238459587, -1.8981135951889883e-07, 0.0003185910754837096, 0.0003842982987407595, 0.0004113093891646713]","[0.0, -1.5707963267948966, 0.0, 0.0, 0.0, 0.0]","[0.0, -1.5707963267948966, 0.0, 0.0, 0.0, 0.0]","[-3.357939696659016e-19, -1.818820778492741, -1.824039803733244, -1.8269746381470962, 0.5614385060564214, 0.0]",0.002,7,1
0,-1,"[-0.000123325978414357, -1.570895334283346, -8.398385398322716e-05, 3.3302898071241316e-05, 1.5648191038053483e-05, -2.557436098271637e-05]","[0.0003464742621872574, 0.0018526280764490366, -2.6730863373471547e-24, 0.0002427538565825671, 0.00027535209665074944, 0.0002729150000959635]","[0.0, -1.5707963267948966, 0.0, 0.0, 0.0, 0.0]","[0.0, -1.5707963267948966, 0.0, 0.0, 0.0, 0.0]","[1.192884916180964e-19, -1.8236373066732985, -1.8255036443535857, -1.826974661362528, 0.5614385133916286, 0.0]",0.002,7,1
0,-1,"[-7.3734913961232e-05, -1.5708533726134242, -6.578218744834885e-05, 1.2083644531202253e-05, 2.86102294921875e-06, -2.080598940068512e-05]","[0.0007657706155441701, 0.0007913418230600655, -1.5588584726886414e-35, 0.0002243632188765332, 0.00031946724629960954, 0.00021126044157426804]","[0.0, -1.5707963267948966, 0.0, 0.0, 0.0, 0.0]","[0.0, -1.5707963267948966, 0.0, 0.0, 0.0, 0.0]","[2.9940158992996e-19, -1.8226053916402118, -1.8246492245447765, -1.826974647762604, 0.561438509809808, 0.0]",0.002,7,1
0,-1,"[4.291534423828125e-06, -1.5709496937193812, -0.00014123138680588454, 1.637517895503038e-05, -1.732503072560121e-06, 7.958411515573971e-06]","[0.001157588791102171, 0.0001322984171565622, -0.0, 0.00017580826533958316, 0.00022973879822529852, 0.000182280782610178]","[0.0, -1.5707963267948966, 0.0, 0.0, 0.0, 0.0]","[0.0, -1.5707963267948966, 0.0, 0.0, 0.0, 0.0]","[6.914614705362725e-19, -1.8176707607768645, -1.823264498154725, -1.8269746420150936, 0.5614385088053928, 0.0]",0.002,7,1
0,-1,"[-4.5124684469044496e-05, -1.5709644756712855, -3.7341047573136166e-05, -4.85938838501454e-05, 3.656335320556536e-05, -1.0315571920216371e-05]","[0.0014613231178373098, 9.18060977710411e-05, -0.0, 0.00015334191266447306, 0.00019655413052532822, 0.00017749957623891532]","[0.0, -1.5707963267948966, 0.0, 0.0, 0.0, 0.0]","[0.0, -1.5707963267948966, 0.0, 0.0, 0.0, 0.0]","[3.321756231726532e-19, -1.81892948137618, -1.8233201955747322, -1.8269746372090152, 0.5614385069875814, 0.0]",0.002,7,1
0,-1,"[-3.034273256474762e-05, -1.5709148846068324, -8.72521850396879e-05, -1.1758213378953997e-05, 2.0099638277315535e-05, 2.4409293473581783e-05]","[0.0010317749110981822, 0.00011437352804932743, -0.0, 0.00014130386989563704, 0.0002006326976697892, 0.00016157048230525106]","[0.0, -1.5707963267948966, 0.0, 0.0, 0.0, 0.0]","[0.0, -1.5707963267948966, 0.0, 0.0, 0.0, 0.0]","[-2.7576118161350075e-19, -1.8219516559853584, -1.82431103595521, -1.8269746475224293, 0.5614385099995061, 0.0]",0.002,7,1
0,-1,"[-5.418459047490387e-05, -1.5708385906615199, -8.851658640196547e-05, -4.1202907897996965e-05, 2.86102294921875e-06, -1.6514454976856996e-05]","[-3.314139587762277e-11, 0.002071747789159417, 0.0001681580179138109, 0.0001200918122776784, 0.00019972652080468833, 0.00010776786075439304]","[0.0, -1.5707963267948966, 0.0, 0.0, 0.0, 0.0]","[0.0, -1.5707963267948966, 0.0, 0.0, 0.0, 0.0]","[6.75523768083907e-20, -1.822940910848841, -1.8249847437534057, -1.8269746574211154, 0.5614385134411026, 0.0]",0.002,7,1
0,-1,"[-3.0199159795074593e-07, -1.5708261928954066, -0.00010098695929627866, 5.646342895460066e-06, -1.5083943502247621e-05, -4.369417299443512e-05]","[-1.9327012660735543e-22, 0.0026701856404542923, 0.0005062947166152298, 0.00010916675819316879, 0.0001718518469715491, 0.00011306537635391578]","[0.0, -1.5707963267948966, 0.0, 0.0, 0.0, 0.0]","[0.0, -1.5707963267948966, 0.0, 0.0, 0.0, 0.0]","[-3.325819239497816e-20, -1.8276344068029347, -1.8266435623330053, -1.8269746648808003, 0.5614385158486792, 0.0]",0.002,7,1
0,-1,"[-9.361897603810121e-06, -1.5707905958759802, -8.729754335945472e-05, 1.2083644531202253e-05, -1.7468129293263246e-05, 4.8489571781829e-05]","[-1.1270893301653489e-33, 0.0005578210693784058, 0.0004374092386569828, 6.987364031374454e-05, 0.00015032656665425748, 0.00010045256203738973]","[0.0, -1.5707963267948966, 0.0, 0.0, 0.0, 0.0]","[0.0, -1.5707963267948966, 0.0, 0.0, 0.0, 0.0]","[-4.25174970755319e-20, -1.8233311816813806, -1.82531584951119, -1.8269746540103144, 0.5614385122380512, 0.0]",0.002,7,1
0,-1,"[-9.361897603810121e-06, -1.5707886976054688, -4.63736432720907e-05, 1.2083644531202253e-05, 3.202056905138306e-05, -1.3653432027638246e-05]","[-7.006492321624085e-45, 9.901097655529156e-05, 0.00027426285669207573, 6.391869101207703e-05, 0.000122416066005826, 9.036468691192567e-05]","[0.0, -1.5707963267948966, 0.0, 0.0, 0.0, 0.0]","[0.0, -1.5707963267948966, 0.0, 0.0, 0.0, 0.0]","[2.75351365318769e-20, -1.8279778312510937, -1.827054475104375, -1.8269746661193542, 0.561438515490332, 0.0]",0.002,7,1
0,-1,"[-3.034273256474762e-05, -1.5708309612669886, -5.842447353643365e-05, 1.6271557612412835e-07, 6.4373016357421875e-06, 4.0860177250579e-05]","[0.0, 7.544680158400041e-12, 0.00028059136820957065, 5.889898966415785e-05, 0.00010524038225412369, 8.212067041313276e-05]","[0.0, -1.5707963267948966, 0.0, 0.0, 0.0, 0.0]","[0.0, -1.5707963267948966, 0.0, 0.0, 0.0, 0.0]","[1.7441651222836405e-19, -1.8233481459112364, -1.824958101600841, -1.8269746467433154, 0.5614385094787755, 0.0]",0.002,7,1
0,-1,"[-3.9402638570606996e-05, -1.5707934659770508, -5.844007682753727e-05, 4.454249999952253e-06, 3.202056905138306e-05, -3.892580141240387e-05]","[0.0, 1.0625060595161646e-28, 0.0002287569222971797, 5.2692077588289976e-05, 0.00010432878480060026, 8.427302236668766e-05]","[0.0, -1.5707963267948966, 0.0, 0.0, 0.0, 0.0]","[0.0, -1.5707963267948966, 0.0, 0.0, 0.0, 0.0]","[-2.1056968167091295e-20, -1.826632182317221, -1.8255229541322937, -1.8269746645613347, 0.5614385156323777, 0.0]",0.002,7,1
0,-1,"[-2.1282826558888246e-05, -1.5707786013047844, -4.181030817562714e-05, 1.2083644531202253e-05, 2.2852420443086885e-05, 7.958411515573971e-06]","[0.0, 1.401298464324817e-45, 0.0006548980018123984, 9.046875470986038e-10, 0.00010366888454882428, 7.521692896261811e-05]","[0.0, -1.5707963267948966, 0.0, 0.0, 0.0, 0.0]","[0.0, -1.5707963267948966, 0.0, 0.0, 0.0, 0.0]","[-5.597453656963911e-20, -1.823051831102607, -1.824997055549244, -1.826974654445479, 0.5614385125944079, 0.0]",0.002,7,1
0,-1,"[3.275120252510533e-05, -1.570776969227456, -7.213547360152006e-05, 2.0785922668409285e-05, -4.116688863575746e-06, -8.885060445606996e-06]","[0.0, 0.0, 0.0005470297764986753, 7.009598655690301e-17, 9.436852997168899e-05, 7.01897733961232e-05]","[0.0, -1.5707963267948966, 0.0, 0.0, 0.0, 0.0]","[0.0, -1.5707963267948966, 0.0, 0.0, 0.0, 0.0]","[7.970583135590263e-20, -1.824423392248411, -1.8253628104236546, -1.8269746577931432, 0.5614385139759328, 0.0]",0.002,7,1
0,-1,"[-4.2263661519825746e-05, -1.5707975826659144, -7.667746831430122e-05, -2.7970676757860247e-05, -3.5587941304981996e-05, 3.169774936395697e-05]","[0.0, 0.0, 0.0004179374373052269, 1.5117670876420189e-27, 8.31567813293077e-05, 1.1621652025331584e-14]","[0.0, -1.5707963267948966, 0.0, 0.0, 0.0, 0.0]","[0.0, -1.5707963267948966, 0.0, 0.0, 0.0, 0.0]","[-5.804538323316562e-20, -1.8249932005999547, -1.8255381849430947, -1.8269746644815874, 0.561438515842585, 0.0]",0.002,7,1
0,-1,"[-2.8912221090138246e-05, -1.5708385906615199, -4.8154659452848136e-05, 1.6271557612412835e-07, -6.024037496388246e-06, -4.178682436162262e-05]","[0.0, 0.0, 0.0004387865774333477, 4.9935676592250125e-37, 7.521449151681736e-05, 3.838785702561791e-24]","[0.0, -1.5707963267948966, 0.0, 0.0, 0.0, 0.0]","[0.0, -1.5707963267948966, 0.0, 0.0, 0.0, 0.0]","[-6.126249543053748e-20, -1.8242265244065672, -1.8252645510398249, -1.8269746546977372, 0.5614385130886276, 0.0]",0.002,7,1
0,-1,"[7.185816684796009e-06, -1.5707975826659144, -3.6248449760023504e-05, -8.777981140184465e-06, -1.732503072560121e-06, 2.4385213691857643e-05]","[0.0, 0.0, 0.000506541458889842, 9.07621015343184e-42, 7.178718078648672e-05, 6.9768106219609e-29]","[0.0, -1.5707963267948966, 0.0, 0.0, 0.0, 0.0]","[0.0, -1.5707963267948966, 0.0, 0.0, 0.0, 0.0]","[2.4701768930304873e-19, -1.822624088934295, -1.8248651387546793, -1.826974653696709, 0.5614385115603873, 0.0]",0.002,7,1
0,-1,"[-5.895296205693512e-05, -1.5707994900145472, -2.3890159354778007e-05, -3.0559352417469654e-06, 9.357798262499273e-06, 2.4385213691857643e-05]","[0.0, 0.0, 0.0006779198301956058, 0.0, 1.7798712807423622e-13, 9.824643663227725e-41]","[0.0, -1.5707963267948966, 0.0, 0.0, 0.0, 0.0]","[0.0, -1.5707963267948966, 0.0, 0.0, 0.0, 0.0]","[-2.1227419072065504e-20, -1.8269316841953132, -1.827555555304879, -1.8269746643206302, 0.561438514964774, 0.0]",0.002,7,1
0,-1,"[-1.6514454976856996e-05, -1.5708023510374964, 1.794496645146637e-05, 4.454249999952253e-06, -1.985231508427887e-05, -5.547200338185121e-06]","[0.0, 0.0, 0.0002714942384045571, 0.0, 2.112113928804951e-19, 0.0]","[0.0, -1.5707963267948966, 0.0, 0.0, 0.0, 0.0]","[0.0, -1.5707963267948966, 0.0, 0.0, 0.0, 0.0]","[3.970549658315788e-20, -1.8244604461973535, -1.8259520717373905, -1.8269746612886955, 0.5614385142835017, 0.0]",0.002,7,1
0,-1,"[-1.6514454976856996e-05, -1.5708023510374964, -4.544450712273829e-05, -8.658771850633684e-06, -2.175966371709137e-05, 1.9776820408878848e-05]","[0.0, 0.0, -1.6398135019995985e-13, 0.0, 1.0685073775934967e-27, 0.0]","[0.0, -1.5707963267948966, 0.0, 0.0, 0.0, 0.0]","[0.0, -1.5707963267948966, 0.0, 0.0, 0.0, 0.0]","[-2.6945822044221153e-20, -1.8250022167648152, -1.8261191301644797, -1.8269746605427801, 0.5614385147152451, 0.0]",0.002,7,1
0,-1,"[-9.361897603810121e-06, -1.570760459639434, -5.2745104767382145e-05, 2.901136364741319e-05, -1.732503072560121e-06, -7.788287561538709e-07]","[0.0, 0.0, -2.3093257964277028e-30, 0.0, 2.3044605479545195e-38, 0.0]","[0.0, -1.5707963267948966, 0.0, 0.0, 0.0, 0.0]","[0.0, -1.5707963267948966, 0.0, 0.0, 0.0, 0.0]","[7.590059374300557e-20, -1.8273449956429082, -1.8272266739762195, -1.826974663411017, 0.561438515544406, 0.0]",0.002,7,1
0,-1,"[-9.361897603810121e-06, -1.5708142719664515, -2.545619099691976e-05, 5.833684887690538e-05, -1.7468129293263246e-05, -2.080598940068512e-05]","[0.0, 0.0, -1.3467879540625817e-41, 0.0, 1.401298464324817e-45, 0.0]","[0.0, -1.5707963267948966, 0.0, 0.0, 0.0, 0.0]","[0.0, -1.5707963267948966, 0.0, 0.0, 0.0, 0.0]","[1.233719204107527e-20, -1.826675595533929, -1.8268458677365242, -1.8269746657705679, 0.5614385160723087, 0.0]",0.002,7,1
0,-1,"[-7.135072817021637e-05, -1.5707694472296971, 5.5615101949513246e-05, 5.7025546691846785e-05, -6.276765932256012e-05, 1.9776820408878848e-05]","[0.0, 0.0, -0.0, 0.0, 1.3780153494735714e-05, 0.0]","[0.0, -1.5707963267948966, 0.0, 0.0, 0.0, 0.0]","[0.0, -1.5707963267948966, 0.0, 0.0, 0.0, 0.0]","[2.6860870595311957e-19, -1.8245533366715727, -1.8256702500712372, -1.8269746536802285, 0.5614385106461801, 0.0]",0.002,7,1
0,-1,"[-1.4130269185841371e-05, -1.5708114109435023, -3.170050331391394e-05, -2.0460491516161028e-05, 1.8339980670134537e-05, -1.3653432027638246e-05]","[0.0, 0.0, -0.0, 0.0, 1.0676982301754956e-12, 0.0]","[0.0, -1.5707963267948966, 0.0, 0.0, 0.0, 0.0]","[0.0, -1.5707963267948966, 0.0, 0.0, 0.0, 0.0]","[1.1606900127646344e-19, -1.8274069567126658, -1.8280308278222317, -1.8269746592992597, 0.5614385142067665, 0.0]",0.002,7,1
0,-1,"[-1.8421803609669496e-05, -1.5708400211729945, 1.732503072560121e-06, 6.596624340815538e-05, -6.024037496388246e-06, -1.794496645146637e-05]","[0.0, 0.0, -0.0, 0.0, 3.5267497204632665e-22, 0.0]","[0.0, -1.5707963267948966, 0.0, 0.0, 0.0, 0.0]","[0.0, -1.5707963267948966, 0.0, 0.0, 0.0, 0.0]","[-1.935276931007892e-20, -1.8267768442472625, -1.8272034984407601, -1.8269746648928684, 0.5614385156698508, 0.0]",0.002,7,1
0,-1,"[-1.4130269185841371e-05, -1.5708400211729945, -4.36484842794016e-05, -5.300462756352431e-05, 2.284050060552545e-05, -2.557436098271637e-05]","[0.0, 0.0, -0.0, 0.0, 6.409699003494826e-27, 0.0]","[0.0, -1.5707963267948966, 0.0, 0.0, 0.0, 0.0]","[0.0, -1.5707963267948966, 0.0, 0.0, 0.0, 0.0]","[3.931139672006465e-20, -1.82542655144771, -1.8263659696229535, -1.8269746659633745, 0.5614385158977804, 0.0]",0.002,7,1
0,1,"[1.1703848031174857e-05, -1.5707886976054688, -2.388114262430463e-05, -1.1758213378953997e-05, -3.892580141240387e-05, 1.52587890625e-05]","[0.0, 0.0, -0.0, 0.0, 3.8479655830359477e-41, 0.0]","[0.0005850211778378632, -1.5702113056170588, 0.0005850211778378632, 0.0005850211778378632, 0.0005850211778378632, 0.0005850211778378632]","[0.0005850211778378632, -1.5702113056170588, 0.0005850211778378632, 0.0005850211778378632, 0.0005850211778378632, 0.0005850211778378632]","[3.503595862771947e-20, -1.8248380868789038, -1.8273355186897764, -1.8269746636032342, 0.5614385155063972, 0.0]",0.002,7,1
0,2,"[-1.6514454976856996e-05, -1.5708896122374476, -5.7308316172566265e-05, 1.5779132507276472e-05, -2.652803529912262e-05, -2.080598940068512e-05]","[0.0, 0.0, -0.0, 0.0, 0.0, 0.0]","[0.0011700407124382083, -1.5696262860824584, 0.0011700407124382083, 0.0011700407124382083, 0.0011700407124382083, 0.0011700407124382083]","[0.0011700407124382083, -1.5696262860824584, 0.0011700407124382083, 0.0011700407124382083, 0.0011700407124382083, 0.0011700407124382083]","[0.07424488794455708, -1.4605295113408971, -1.6074001258486341, -1.811146338922544, 0.5731069331142018, 0.013325400931568379]",0.002,7,1
0,3,"[-5.132356752568512e-05, -1.5707975826659144, -4.8209214583039284e-05, 3.34221073607921e-05, 7.076536712702364e-05, 1.52587890625e-05]","[0.0012655867030844092, 0.0007734018145129085, 0.0008042572299018502, 0.0011227704817429185, 0.0013114598114043474, 0.0018655789317563176]","[0.0017550569605681327, -1.5690412698343283, 0.0017550569605681327, 0.0017550569605681327, 0.0017550569605681327, 0.0017550569605681327]","[0.0017550569605681327, -1.5690412698343283, 0.0017550569605681327, 0.0017550569605681327, 0.0017550569605681327, 0.0017550569605681327]","[0.06504027409921657, -1.5038614146501765, -1.6339953387538633, -1.8131085032331442, 0.5716601565749553, 0.011673301737603082]",0.002,7,1
0,4,"[4.474616071092896e-05, -1.5707934659770508, -2.86102294921875e-06, 7.553691528272566e-06, 9.402638170286082e-06, 4.8489571781829e-05]","[0.0011873487383127213, 0.0006059961742721498, 0.0010724239982664585, 0.0020988674368709326, 0.0013380087912082672, 0.0017564943991601467]","[0.0023400682790039656, -1.5684562585158925, 0.0023400682790039656, 0.0023400682790039656, 0.0023400682790039656, 0.0023400682790039656]","[0.0023400682790039656, -1.5684562585158925, 0.0023400682790039656, 0.0023400682790039656, 0.0023400682790039656, 0.0023400682790039656]","[0.06402198252319352, -1.5074838930156154, -1.6360513324000674, -1.8133252269264208, 0.5715001309967198, 0.0114906279022602]",0.002,7,1
0,5,"[-5.070363179981996e-06, -1.5707906049541016, -2.8793235742341494e-06, 5.261480297846788e-05, 3.4782355214701965e-05, -2.686177388966371e-06]","[0.0009928614599630237, 0.0006564827053807676, 0.0012393255019560456, 0.0026279843878000975, 0.0014060434186831117, 0.001499341451562941]","[0.0029250730245358814, -1.5678712537703607, 0.0029250730245358814, 0.0029250730245358814, 0.0029250730245358814, 0.0029250730245358814]","[0.0029250730245358814, -1.5678712537703607, 0.0029250730245358814, 0.0029250730245358814, 0.0029250730245358814, 0.0029250730245358814]","[0.13883316305182536, -1.1363614349883056, -1.4149323565609349, -1.797376349889263, 0.583257558228755, 0.024917652762016358]",0.002,7,1
0,6,"[-4.846254457646637e-05, -1.5707830828481129, -1.935720501933247e-05, 7.013856854243272e-05, 7.078647468006238e-05, 6.1082846514182165e-06]","[0.0010559505317360163, 0.0012168295215815306, 0.001212355331517756, 0.0022740408312529325, 0.0016919104382395744, 0.0015073484973981977]","[0.0035100695539725195, -1.567286257240924, 0.0035100695539725195, 0.0035100695539725195, 0.0035100695539725195, 0.0035100695539725195]","[0.0035100695539725195, -1.567286257240924, 0.0035100695539725195, 0.0035100695539725195, 0.0035100695539725195, 0.0035100695539725195]","[0.2128406413869856, -0.7683306660564965, -1.1953417269186344, -1.7815998346372448, 0.5948889325278887, 0.03820040407302045]",0.002,7,1
0,7,"[-1.3653432027638246e-05, -1.570778564815857, 3.4634266988575746e-05, 3.640233959956163e-05, -1.5083943502247621e-05, 2.7179718017578125e-05]","[0.0018758358201012015, 0.0018082604510709643, 0.0019079941557720304, 0.0018721972592175007, 0.0029713965486735106, 0.0018596819136291742]","[0.004095056224145594, -1.566701270570751, 0.004095056224145594, 0.004095056224145594, 0.004095056224145594, 0.004095056224145594]","[0.004095056224145594, -1.566701270570751, 0.004095056224145594, 0.004095056224145594, 0.004095056224145594, 0.004095056224145594]","[0.28602223289269046, -0.4043817643547727, -0.9779832651140358, -1.7659983798980545, 0.6063902785239722, 0.05133496443143616]",0.002,7,1
0,8,"[-1.0792409078419496e-05, -1.570778564815857, 2.271333803349762e-05, 2.018987622065538e-05, 6.792270869482309e-05, 5.125999450683594e-05]","[0.002273330232128501, 0.005187804810702801, 0.0033621613401919603, 0.002169238403439522, 0.003964411094784737, 0.0033129847142845392]","[0.004680031391914515, -1.5661162954029821, 0.004680031391914515, 0.004680031391914515, 0.004680031391914515, 0.004680031391914515]","[0.004680031391914515, -1.5661162954029821, 0.004680031391914515, 0.004680031391914515, 0.004680031391914515, 0.004680031391914515]","[0.35836144441750206, -0.04577232271683729, -0.7643841121414784, -1.7505772962380923, 0.6177580158588002, 0.06431734376725097]",0.002,7,1
0,9,"[-1.8421803609669496e-05, -1.5707922092727422, 2.557436098271637e-05, 2.4481410644483503e-05, 1.6751735529396683e-05, 6.318092346191406e-05]","[0.004131801892071962, 0.007866871543228626, 0.005755387246608734, 0.00355925178155303, 0.005370124243199825, 0.005199335981160402]","[0.0052649934141709995, -1.5655313333807255, 0.0052649934141709995, 0.0052649934141709995, 0.0052649934141709995, 0.0052649934141709995]","[0.0052649934141709995, -1.5655313333807255, 0.0052649934141709995, 0.0052649934141709995, 0.0052649934141709995, 0.0052649934141709995]","[0.429828490462811, 0.3100175401646922, -0.5520549190976577, -1.7353376519228019, 0.6289889208039087, 0.07714422981455983]",0.002,7,1
0,10,"[2.202350333391223e-05, -1.5707830828490223, 8.088747133427887e-05, -1.7361049987840715e-05, 9.978249727282673e-05, 4.220008850097656e-05]","[0.00531861511990428, 0.008033598773181438, 0.007294673006981611, 0.005494093056768179, 0.007266913540661335, 0.006661479361355305]","[0.005849940647843686, -1.564946386147053, 0.005849940647843686, 0.005849940647843686, 0.005849940647843686, 0.005849940647843686]","[0.005849940647843686, -1.564946386147053, 0.005849940647843686, 0.005849940647843686, 0.005849940647843686, 0.005849940647843686]","[0.5004097502942295, 0.6619182659224785, -0.34239034889488795, -1.7202906250507892, 0.6400807239618055, 0.08981154857475691]",0.002,7,1
0,11,"[5.964994488749653e-05, -1.5707425636104126, 7.516542543584137e-05, 0.00011043130841059678, 5.896145012229681e-05, 4.220008850097656e-05]","[0.006483033299446106, 0.009055312722921371, 0.0083926385268569, 0.00803657528012991, 0.008432759903371334, 0.0076547726057469845]","[0.006434871449902759, -1.5643614553449938, 0.006434871449902759, 0.006434871449902759, 0.006434871449902759, 0.006434871449902759]","[0.006434871449902759, -1.5643614553449938, 0.006434871449902759, 0.006434871449902759, 0.006434871449902759, 0.006434871449902759]","[0.5700901636627791, 1.0069886732199143, -0.13679436824037128, -1.7054300990940119, 0.6510282855089582, 0.1023162920470286]",0.002,7,1
0,12,"[1.106176569010131e-05, -1.5707591669600625, 8.088747133427887e-05, 0.00012545167889399522, 0.00014453678159043193, 0.0001488637935835868]","[0.00774676026776433, 0.01206980086863041, 0.011055974289774895, 0.010749547742307186, 0.009650489315390587, 0.009895981289446354]","[0.007019784177364551, -1.563776542617532, 0.007019784177364551, 0.007019784177364551, 0.007019784177364551, 0.007019784177364551]","[0.007019784177364551, -1.563776542617532, 0.007019784177364551, 0.007019784177364551, 0.007019784177364551, 0.007019784177364551]","[0.6388545966984585, 1.3466447629789986, 0.06656276357854696, -1.6907826895257163, 0.66183384752973, 0.1146545012267418]",0.002,7,1
0,13,"[9.569065878167748e-05, -1.5707047936997078, 0.00012618700136357575, 0.00011233865704340928, 0.00010536265472183004, 0.00014433384058065712]","[0.00862620398402214, 0.01372678205370903, 0.013140725903213024, 0.012621521949768066, 0.012513099238276482, 0.012367626652121544]","[0.007604677187296164, -1.5631916496076004, 0.007604677187296164, 0.007604677187296164, 0.007604677187296164, 0.007604677187296164]","[0.007604677187296164, -1.5631916496076004, 0.007604677187296164, 0.007604677187296164, 0.007604677187296164, 0.007604677187296164]","[0.7066615800632756, 1.6848419218313413, 0.26798365993408824, -1.6763234579983333, 0.6724880352737583, 0.12682347666409366]",0.002,7,1
0,14,"[0.0001334989647148177, -1.5706871645491738, 0.00018006960024052887, 0.0001160341450194835, 0.00018522510072216392, 0.00013518333435058594]","[0.011192686855793, 0.015484074130654335, 0.014819751493632793, 0.014863566495478153, 0.014485521242022514, 0.014981924556195736]","[0.008189548836820083, -1.5626067779580766, 0.008189548836820083, 0.008189548836820083, 0.008189548836820083, 0.008189548836820083]","[0.008189548836820083, -1.5626067779580766, 0.008189548836820083, 0.008189548836820083, 0.008189548836820083, 0.008189548836820083]","[0.7735303863566204, 2.013260462827228, 0.4645035118449472, -1.6620686173266337, 0.6829894294382266, 0.13881933406602986]",0.002,7,1
0,15,"[0.00011523489956744015, -1.570658640270569, 0.00017434755434209137, 0.0002342897602538585, 0.0001113221951527521, 0.0002464675926603377]","[0.013210395351052284, 0.01710216887295246, 0.01788557693362236, 0.01737671159207821, 0.017054224386811256, 0.01578502357006073]","[0.008774397483118796, -1.5620219293117779, 0.008774397483118796, 0.008774397483118796, 0.008774397483118796, 0.008774397483118796]","[0.008774397483118796, -1.5620219293117779, 0.008774397483118796, 0.008774397483118796, 0.008774397483118796, 0.008774397483118796]","[0.8394157236702897, 2.3388435776451795, 0.6586376389444825, -1.6480195766768682, 0.6933365869002919, 0.15063969021656146]",0.002,7,1
0,16,"[0.00016781792510300875, -1.57059974897523, 0.00019532838930302887, 0.0002298790165404796, 0.00023145103477872908, 0.00021910667419433594]","[0.014987820759415627, 0.020059779286384583, 0.020383333787322044, 0.019814545288681984, 0.019140951335430145, 0.02065148763358593]","[0.0093592214834394, -1.561437105311457, 0.0093592214834394, 0.0093592214834394, 0.0093592214834394, 0.0093592214834394]","[0.0093592214834394, -1.561437105311457, 0.0093592214834394, 0.0093592214834394, 0.0093592214834394, 0.0093592214834394]","[0.9043127453792064, 2.6598524916938673, 0.8506694284975636, -1.634200137471907, 0.7035306599644171, 0.16228064498053463]",0.002,7,1
0,17,"[0.00020088450401090086, -1.5705775418212689, 0.0002129713641565445, 0.00024489938702387803, 0.000263163005001843, 0.000292630196781829]","[0.017570586875081062, 0.02062457799911499, 0.022462278604507446, 0.02106858789920807, 0.02166275680065155, 0.022873103618621826]","[0.009944019195098217, -1.5608523075997984, 0.009944019195098217, 0.009944019195098217, 0.009944019195098217, 0.009944019195098217]","[0.009944019195098217, -1.5608523075997984, 0.009944019195098217, 0.009944019195098217, 0.009944019195098217, 0.009944019195098217]","[0.9682041889396581, 2.9735775182605746, 1.0386880527283873, -1.6205709889536732, 0.7135593867734203, 0.17374052941898432]",0.002,7,1
0,18,"[0.00025910601834766567, -1.5705745977214356, 0.00027496019472295075, 0.00025562822308344835, 0.0003190040588378906, 0.0003121805202681571]","[0.019579574465751648, 0.020781518891453743, 0.022974904626607895, 0.021260613575577736, 0.020512552931904793, 0.02155030146241188]","[0.010528788975485414, -1.560267537819411, 0.010528788975485414, 0.010528788975485414, 0.010528788975485414, 0.010528788975485414]","[0.010528788975485414, -1.560267537819411, 0.010528788975485414, 0.010528788975485414, 0.010528788975485414, 0.010528788975485414]","[1.0310656105120282, 3.2844132633445406, 1.2243770344836986, -1.6071653648385644, 0.7234269802156552, 0.18501552297919743]",0.002,7,1
0,19,"[0.00032069062581285834, -1.5705477229533535, 0.00028068224062138825, 0.00037757932629389757, 0.00038960346137173474, 0.0003243398678023368]","[0.02127785235643387, 0.021944787353277206, 0.024107085540890694, 0.021329551935195923, 0.018572263419628143, 0.020304054021835327]","[0.01111352918206961, -1.559682797612827, 0.01111352918206961, 0.01111352918206961, 0.01111352918206961, 0.01111352918206961]","[0.01111352918206961, -1.559682797612827, 0.01111352918206961, 0.01111352918206961, 0.01111352918206961, 0.01111352918206961]","[1.0928908005443314, 3.590378313747588, 1.4065051408343479, -1.593979699140424, 0.733129711741136, 0.19610335464720852]",0.002,7,1
0,20,"[0.0003478058206383139, -1.5704437631396395, 0.0003541151629846695, 0.00037209569897456163, 0.0003910064697265625, 0.0003631114959716797]","[0.020494729280471802, 0.02367466688156128, 0.026347799226641655, 0.021343760192394257, 0.019157176837325096, 0.020298754796385765]","[0.011698238172402493, -1.559098088622494, 0.011698238172402493, 0.011698238172402493, 0.011698238172402493, 0.011698238172402493]","[0.011698238172402493, -1.559098088622494, 0.011698238172402493, 0.011698238172402493, 0.011698238172402493, 0.011698238172402493]","[1.1536687880566816, 3.8906335788491777, 1.5860536725198922, -1.5810316736176895, 0.7426693162763301, 0.207001403012726]",0.002,7,1
0,21,"[0.00036263465881347656, -1.5704546731761475, 0.00042611757387334137, 0.0004009443470458507, 0.0004332370590418577, 0.0004516553890425712]","[0.024045856669545174, 0.02541465312242508, 0.02766573615372181, 0.02113567478954792, 0.020074578002095222, 0.020566746592521667]","[0.012282914304123434, -1.5585134124907731, 0.012282914304123434, 0.012282914304123434, 0.012282914304123434, 0.012282914304123434]","[0.012282914304123434, -1.5585134124907731, 0.012282914304123434, 0.012282914304123434, 0.012282914304123434, 0.012282914304123434]","[1.2134181224685858, 4.179724558332262, 1.7597796763784204, -1.5682915195820422, 0.75203297400971, 0.21770677657212123]",0.002,7,1
0,22,"[0.000424210331402719, -1.570364463088783, 0.0004342238055627945, 0.0004848676868896007, 0.0004901085630990565, 0.0004257249820511788]","[0.027366552501916885, 0.02687772735953331, 0.029041176661849022, 0.021980827674269676, 0.02133861370384693, 0.021540917456150055]","[0.012867555934964097, -1.5579287708599325, 0.012867555934964097, 0.012867555934964097, 0.012867555934964097, 0.012867555934964097]","[0.012867555934964097, -1.5579287708599325, 0.012867555934964097, 0.012867555934964097, 0.012867555934964097, 0.012867555934964097]","[1.2720513242473563, 4.470286703211549, 1.9324170438152208, -1.5557862813792933, 0.7612278439067857, 0.2282175956194022]",0.002,7,1
0,23,"[0.0005173850222490728, -1.5703421396068116, 0.0005891958819788101, 0.0004759269901732921, 0.0005503073916770518, 0.0005233287811279297]","[0.02771160379052162, 0.028686771169304848, 0.030520785599946976, 0.023223329335451126, 0.02268226258456707, 0.02341485768556595]","[0.01345216142275306, -1.5573441653721436, 0.01345216142275306, 0.01345216142275306, 0.01345216142275306, 0.01345216142275306]","[0.01345216142275306, -1.5573441653721436, 0.01345216142275306, 0.01345216142275306, 0.01345216142275306, 0.01345216142275306]","[1.3296242662476898, 4.750492112934791, 2.1010907275490416, -1.5435148523581634, 0.7702492544348725, 0.23853145972970885]",0.002,7,1
0,24,"[0.0005864705890417099, -1.570289504747354, 0.0006125609027307632, 0.0005399423786620616, 0.0005521228304132819, 0.0005712509155273438]","[0.02913232333958149, 0.030049044638872147, 0.03205038234591484, 0.02458399347960949, 0.02425915189087391, 0.024362990632653236]","[0.01403672912542041, -1.5567595976694761, 0.01403672912542041, 0.01403672912542041, 0.01403672912542041, 0.01403672912542041]","[0.01403672912542041, -1.5567595976694761, 0.01403672912542041, 0.01403672912542041, 0.01403672912542041, 0.01403672912542041]","[1.3860982777713953, 5.026525201077725, 2.265035542420484, -1.5314664947087784, 0.7790917831904098, 0.24864612827722882]",0.002,7,1
0,25,"[0.0005953025538474321, -1.5702626270106812, 0.0006974379168909195, 0.0006132560917357921, 0.00056218181271106, 0.0006571721751242876]","[0.03005976974964142, 0.03278675675392151, 0.0335574671626091, 0.026094460859894753, 0.026417722925543785, 0.02573147416114807]","[0.014621257401002376, -1.5561750693938943, 0.014621257401002376, 0.014621257401002376, 0.014621257401002376, 0.014621257401002376]","[0.014621257401002376, -1.5561750693938943, 0.014621257401002376, 0.014621257401002376, 0.014621257401002376, 0.014621257401002376]","[1.441451058362113, 5.297555564141584, 2.427485488798128, -1.5196635656956776, 0.7877590393871718, 0.25855916140486634]",0.002,7,1
0,26,"[0.0005842988612130284, -1.5701200221413565, 0.0007479826556604507, 0.0006809669682006358, 0.0006975596188567579, 0.0006344318389892578]","[0.032157376408576965, 0.035619739443063736, 0.035378504544496536, 0.028166908770799637, 0.028358669951558113, 0.02877623401582241]","[0.015205744607645925, -1.5555905821872507, 0.015205744607645925, 0.015205744607645925, 0.015205744607645925, 0.015205744607645925]","[0.015205744607645925, -1.5555905821872507, 0.015205744607645925, 0.015205744607645925, 0.015205744607645925, 0.015205744607645925]","[1.495687693355055, 5.5633128423077745, 2.5858998754465627, -1.5081032453063326, 0.7962478800092261, 0.26826893537379376]",0.002,7,1
0,27,"[0.0006941584870219231, -1.5701065820506592, 0.0007818380938928726, 0.000752254123352003, 0.0007504273089580238, 0.0007694673258811235]","[0.03518931567668915, 0.036299318075180054, 0.037511225789785385, 0.0308730099350214, 0.030187424272298813, 0.03150806948542595]","[0.015790189103613395, -1.5550061376912832, 0.015790189103613395, 0.015790189103613395, 0.015790189103613395, 0.015790189103613395]","[0.015790189103613395, -1.5550061376912832, 0.015790189103613395, 0.015790189103613395, 0.015790189103613395, 0.015790189103613395]","[1.5488335251536816, 5.81712073509577, 2.739439144800412, -1.4967657137115418, 0.8045511423756457, 0.2777742975701522]",0.002,7,1
0,28,"[0.0007753085810691118, -1.5699968927986738, 0.000871006642476857, 0.0008167463489989757, 0.0008132549119181931, 0.0008173894602805376]","[0.03740907832980156, 0.038315821439027786, 0.040437500923871994, 0.034109629690647125, 0.03202776983380318, 0.03260235860943794]","[0.016374589247287068, -1.5544217375476095, 0.016374589247287068, 0.016374589247287068, 0.016374589247287068, 0.016374589247287068]","[0.016374589247287068, -1.5544217375476095, 0.016374589247287068, 0.016374589247287068, 0.016374589247287068, 0.016374589247287068]","[1.6007781957888647, 6.073184625568967, 2.892223888473025, -1.4856788430825492, 0.8126743043397316, 0.2870722141205002]",0.002,7,1
0,29,"[0.000830531120300293, -1.5698679683012706, 0.0009759108172815445, 0.0008724170872191905, 0.0008782041259109974, 0.0008638810832053423]","[0.03969660401344299, 0.044038981199264526, 0.04211680218577385, 0.03620084747672081, 0.034906577318906784, 0.033420830965042114]","[0.016958943397173833, -1.5538373833977228, 0.016958943397173833, 0.016958943397173833, 0.016958943397173833, 0.016958943397173833]","[0.016958943397173833, -1.5538373833977228, 0.016958943397173833, 0.016958943397173833, 0.016958943397173833, 0.016958943397173833]","[1.6516367084524641, 6.3166578077833115, 3.0387593694372175, -1.4748306635343982, 0.8206102598390106, 0.29616156258237863]",0.002,7,1
0,30,"[0.0009598205215297639, -1.5698291367483144, 0.0010226408587854507, 0.000927730197570753, 0.0009651367436163127, 0.0009120416361838579]","[0.041841376572847366, 0.04419344663619995, 0.04437928646802902, 0.03614411875605583, 0.03816143050789833, 0.03680804371833801]","[0.017543249911909743, -1.5532530768829869, 0.017543249911909743, 0.017543249911909743, 0.017543249911909743, 0.017543249911909743]","[0.017543249911909743, -1.5532530768829869, 0.017543249911909743, 0.017543249911909743, 0.017543249911909743, 0.017543249911909743]","[1.7013552334953497, 6.5528422615088955, 3.181170636979349, -1.4642233678142174, 0.8283586031836608, 0.30504071430570995]",0.002,7,1
0,31,"[0.0010528730927035213, -1.569757060297281, 0.001160923634664357, 0.0010159450718383312, 0.0009724765550345182, 0.0010260962881147861]","[0.044643472880125046, 0.04588998481631279, 0.048306237906217575, 0.03904319182038307, 0.04040757194161415, 0.04058980569243431]","[0.018127507150264666, -1.5526688196446319, 0.018127507150264666, 0.018127507150264666, 0.018127507150264666, 0.018127507150264666]","[0.018127507150264666, -1.5526688196446319, 0.018127507150264666, 0.018127507150264666, 0.018127507150264666, 0.018127507150264666]","[1.749844547612101, 6.789620549017357, 3.322814143468324, -1.4538592885243564, 0.8359201930236193, 0.31370832759113454]",0.002,7,1
0,32,"[0.0011581063736230135, -1.5696446033292268, 0.0012691656695764664, 0.00109664976086421, 0.001073050545528531, 0.0011247110087424517]","[0.04636743664741516, 0.05042174458503723, 0.048905014991760254, 0.042153000831604004, 0.04383353888988495, 0.043047837913036346]","[0.018711713471146876, -1.5520846133237496, 0.018711713471146876, 0.018711713471146876, 0.018711713471146876, 0.018711713471146876]","[0.018711713471146876, -1.5520846133237496, 0.018711713471146876, 0.018711713471146876, 0.018711713471146876, 0.018711713471146876]","[1.79721710644495, 7.016708749620282, 3.45858774412552, -1.443759868764909, 0.8432953671830424, 0.32216230548991875]",0.002,7,1
0,33,"[0.0012209581909701228, -1.5695696421065186, 0.0013411680804651382, 0.0012048917957763194, 0.0012071949895471334, 0.0012254142202436924]","[0.049381110817193985, 0.052431583404541016, 0.050968606024980545, 0.04652951657772064, 0.04667093604803085, 0.04577373340725899]","[0.019295867233607666, -1.551500459561289, 0.019295867233607666, 0.019295867233607666, 0.019295867233607666, 0.019295867233607666]","[0.019295867233607666, -1.551500459561289, 0.019295867233607666, 0.019295867233607666, 0.019295867233607666, 0.019295867233607666]","[1.8434224497659173, 7.236010448540586, 3.590640696250153, -1.4338946768162226, 0.8504772606436601, 0.33040259022787677]",0.002,7,1
0,34,"[0.0012913929531350732, -1.569383396567293, 0.001477543507711232, 0.0013295847126464366, 0.0013286269968375564, 0.0012718152720481157]","[0.05192684382200241, 0.05744811147451401, 0.054069239646196365, 0.049926940351724625, 0.049556273967027664, 0.04918050765991211]","[0.019879966796845963, -1.5509163599980507, 0.019879966796845963, 0.019879966796845963, 0.019879966796845963, 0.019879966796845963]","[0.019879966796845963, -1.5509163599980507, 0.019879966796845963, 0.019879966796845963, 0.019879966796845963, 0.019879966796845963]","[1.8884132836459884, 7.452219546723919, 3.7204730394295416, -1.4242818659483891, 0.8574696181636603, 0.3384275987304674]",0.002,7,1
0,35,"[0.0014249436790123582, -1.5693130704206233, 0.001576725636617482, 0.0013759571262816905, 0.0013570156879723072, 0.0014005613047629595]","[0.054789431393146515, 0.05599702149629593, 0.05928844213485718, 0.050580449402332306, 0.052450086921453476, 0.05221239849925041]","[0.020464010520212926, -1.5503323162746836, 0.020464010520212926, 0.020464010520212926, 0.020464010520212926, 0.020464010520212926]","[0.020464010520212926, -1.5503323162746836, 0.020464010520212926, 0.020464010520212926, 0.020464010520212926, 0.020464010520212926]","[1.9323100126896984, 7.654511035667898, 3.843461137004599, -1.4149222732734215, 0.8642680305662307, 0.34623590579511543]",0.002,7,1
0,36,"[0.0015614291187375784, -1.569162832256854, 0.0016968886004846695, 0.0015169817158202648, 0.0014775734161958098, 0.0015581559855490923]","[0.05807003751397133, 0.06192710995674133, 0.05722855404019356, 0.05353797227144241, 0.055195532739162445, 0.0557505339384079]","[0.02104799676321656, -1.5497483300316799, 0.02104799676321656, 0.02104799676321656, 0.02104799676321656, 0.02104799676321656]","[0.02104799676321656, -1.5497483300316799, 0.02104799676321656, 0.02104799676321656, 0.02104799676321656, 0.02104799676321656]","[1.9749273655560833, 7.858413000178809, 3.965692257304002, -1.405801691171653, 0.8708701617826986, 0.35382588608813453]",0.002,7,1
0,37,"[0.001648406614549458, -1.5690566631131624, 0.001809422169820607, 0.0016617017933349132, 0.0016186423599720001, 0.001633019419386983]","[0.060739725828170776, 0.0648755207657814, 0.06275001913309097, 0.05703163519501686, 0.05914216861128807, 0.059027545154094696]","[0.02163192388552632, -1.5491644029093703, 0.02163192388552632, 0.02163192388552632, 0.02163192388552632, 0.02163192388552632]","[0.02163192388552632, -1.5491644029093703, 0.02163192388552632, 0.02163192388552632, 0.02163192388552632, 0.02163192388552632]","[2.016413767889399, 8.050995706148953, 4.0824024638521035, -1.3969481431438338, 0.8772817828480614, 0.3611980836291521]",0.002,7,1
0,38,"[0.0017712449189275503, -1.5688960550217708, 0.0019205252276819351, 0.0016833978840331554, 0.0018095806008204818, 0.0017578935949131846]","[0.06318965554237366, 0.0674605444073677, 0.06598655879497528, 0.060990188270807266, 0.06262977421283722, 0.06300142407417297]","[0.022215790246977733, -1.5485805365479188, 0.022215790246977733, 0.022215790246977733, 0.022215790246977733, 0.022215790246977733]","[0.022215790246977733, -1.5485805365479188, 0.022215790246977733, 0.022215790246977733, 0.022215790246977733, 0.022215790246977733]","[2.056669109266347, 8.240247168189377, 4.196429874337483, -1.3883471981017732, 0.8834990122900706, 0.3683511617289567]",0.002,7,1
0,39,"[0.001992340898141265, -1.568783515398838, 0.00207692781557256, 0.0019177633472899913, 0.0019014648860320449, 0.0018805458676069975]","[0.06666726619005203, 0.07044123858213425, 0.06799132376909256, 0.06346359848976135, 0.06305535137653351, 0.06298516690731049]","[0.02279959420757699, -1.5479967325873196, 0.02279959420757699, 0.02279959420757699, 0.02279959420757699, 0.02279959420757699]","[0.02279959420757699, -1.5479967325873196, 0.02279959420757699, 0.02279959420757699, 0.02279959420757699, 0.02279959420757699]","[2.0957414523550977, 8.420273945879874, 4.305919468606504, -1.3799528646330965, 0.8895076153092158, 0.37528467182414654]",0.002,7,1
0,40,"[0.002060825238004327, -1.5686396477143099, 0.0022390524493616226, 0.002007885570190382, 0.0019584151450544596, 0.001995892496779561]","[0.0694861188530922, 0.07362610101699829, 0.07144242525100708, 0.06741064786911011, 0.06611564010381699, 0.06640205532312393]","[0.02338333412750555, -1.547412992667391, 0.02338333412750555, 0.02338333412750555, 0.02338333412750555, 0.02338333412750555]","[0.02338333412750555, -1.547412992667391, 0.02338333412750555, 0.02338333412750555, 0.02338333412750555, 0.02338333412750555]","[2.1336249001822827, 8.595931940097834, 4.411644058879696, -1.3718901467782567, 0.8953394044558809, 0.38199677384021163]",0.002,7,1
0,41,"[0.002246987307444215, -1.5684789556874712, 0.002354447041646779, 0.002158327693603468, 0.002177818678319454, 0.002198729431256652]","[0.07249382883310318, 0.07627182453870773, 0.07402860373258591, 0.07003603130578995, 0.07219434529542923, 0.072600819170475]","[0.023967008367124766, -1.5468293184277717, 0.023967008367124766, 0.023967008367124766, 0.023967008367124766, 0.023967008367124766]","[0.023967008367124766, -1.5468293184277717, 0.023967008367124766, 0.023967008367124766, 0.023967008367124766, 0.023967008367124766]","[2.170311386207057, 8.763572786770315, 4.513101800224748, -1.364037301685621, 0.9009611253233188, 0.3884874642183859]",0.002,7,1
0,42,"[0.0023399065248668194, -1.5683093050359567, 0.0025065580951135757, 0.002297325725219679, 0.0022891475819051266, 0.002330574905499816]","[0.07719736546278, 0.08042003959417343, 0.07722341269254684, 0.0736280083656311, 0.07474178820848465, 0.07284772396087646]","[0.024550615286980458, -1.546245711507916, 0.024550615286980458, 0.024550615286980458, 0.024550615286980458, 0.024550615286980458]","[0.024550615286980458, -1.546245711507916, 0.024550615286980458, 0.024550615286980458, 0.024550615286980458, 0.024550615286980458]","[2.2057814911085214, 8.924908342177925, 4.611436453892523, -1.3564361708920663, 0.9063868326977924, 0.39475802676975036]",0.002,7,1
0,43,"[0.00251864199526608, -1.5681579425330092, 0.0027573744403284195, 0.0024326282688598155, 0.0024225711822509766, 0.00244125840254128]","[0.07781842350959778, 0.0828915387392044, 0.08051872253417969, 0.07760007679462433, 0.07765843719244003, 0.07712332159280777]","[0.025134153247807548, -1.545662173547089, 0.025134153247807548, 0.025134153247807548, 0.025134153247807548, 0.025134153247807548]","[0.025134153247807548, -1.545662173547089, 0.025134153247807548, 0.025134153247807548, 0.025134153247807548, 0.025134153247807548]","[2.240070163167073, 9.078802807644413, 4.705230996902738, -1.349096011381397, 0.9116142573874235, 0.40080581358780043]",0.002,7,1
0,44,"[0.0027135175187140703, -1.5679676197799672, 0.002847019826070607, 0.002637191409728956, 0.002597268670797348, 0.0025927447713911533]","[0.08581691235303879, 0.0844898596405983, 0.0827292650938034, 0.08083280920982361, 0.08156998455524445, 0.08067197352647781]","[0.025717620610534668, -1.5450787061843618, 0.025717620610534668, 0.025717620610534668, 0.025717620610534668, 0.025717620610534668]","[0.025717620610534668, -1.5450787061843618, 0.025717620610534668, 0.025717620610534668, 0.025717620610534668, 0.025717620610534668]","[2.273177396489651, 9.225738284692204, 4.79385621386876, -1.342013208951771, 0.9166436385537868, 0.406631713586496]",0.002,7,1
0,45,"[0.002886046888306737, -1.5678311370177944, 0.0030363241778772476, 0.0027562814899901866, 0.0028107326943427324, 0.002814712468534708]","[0.08665504306554794, 0.09077481180429459, 0.08922913670539856, 0.08491211384534836, 0.08481936901807785, 0.08425333350896835]","[0.026301015736288732, -1.544495311058608, 0.026301015736288732, 0.026301015736288732, 0.026301015736288732, 0.026301015736288732]","[0.026301015736288732, -1.544495311058608, 0.026301015736288732, 0.026301015736288732, 0.026301015736288732, 0.026301015736288732]","[2.3050421588817667, 9.36713978661927, 4.881026842642436, -1.3351872509060811, 0.9214766347459381, 0.41223576528692296]",0.002,7,1
0,46,"[0.0030510539654642344, -1.5676315687927236, 0.0032122770892542007, 0.0029361683079223155, 0.0029954402707517147, 0.0029619073029607534]","[0.08978762477636337, 0.09058430045843124, 0.08867298066616058, 0.08876413106918335, 0.08756966888904572, 0.08780644834041595]","[0.026884336986399547, -1.543911989808497, 0.026884336986399547, 0.026884336986399547, 0.026884336986399547, 0.026884336986399547]","[0.026884336986399547, -1.543911989808497, 0.026884336986399547, 0.026884336986399547, 0.026884336986399547, 0.026884336986399547]","[2.3356850552471458, 9.503774713174966, 4.963720475682865, -1.3285920332715082, 0.9261049528138856, 0.41761790630655843]",0.002,7,1
0,47,"[0.0032642665319144726, -1.5675013729235907, 0.0033453146563928726, 0.0031695800968627452, 0.003196641569957137, 0.003162655746564269]","[0.09468095004558563, 0.09661481529474258, 0.09532734751701355, 0.0919988676905632, 0.09257687628269196, 0.09134556353092194]","[0.027467582722404453, -1.543328744072492, 0.027467582722404453, 0.027467582722404453, 0.027467582722404453, 0.027467582722404453]","[0.027467582722404453, -1.543328744072492, 0.027467582722404453, 0.027467582722404453, 0.027467582722404453, 0.027467582722404453]","[2.3651763236298184, 9.630616721855715, 5.041766225729299, -1.3222661966480966, 0.9305373090492111, 0.4227775604247326]",0.002,7,1
0,48,"[0.003418679814785719, -1.567312240400799, 0.0035918394671838882, 0.0033655601688842296, 0.003374552819877863, 0.003380093490704894]","[0.09801945090293884, 0.09805011749267578, 0.09625022858381271, 0.09760484844446182, 0.0933803915977478, 0.09491263329982758]","[0.028050751306052873, -1.5427455754888437, 0.028050751306052873, 0.028050751306052873, 0.028050751306052873, 0.028050751306052873]","[0.028050751306052873, -1.5427455754888437, 0.028050751306052873, 0.028050751306052873, 0.028050751306052873, 0.028050751306052873]","[2.393386921058653, 9.756169260847242, 5.118164605522049, -1.3162100663578584, 0.9347770242378433, 0.4277152659552382]",0.002,7,1
0,49,"[0.003655744018033147, -1.5670661498191585, 0.0038102308856409195, 0.003539724940917921, 0.0036100561264902353, 0.0034999274648725986]","[0.10149071365594864, 0.10175158828496933, 0.10133616626262665, 0.09922842681407928, 0.09999355673789978, 0.09921495616436005]","[0.02863384109931096, -1.5421624856955856, 0.02863384109931096, 0.02863384109931096, 0.02863384109931096, 0.02863384109931096]","[0.02863384109931096, -1.5421624856955856, 0.02863384109931096, 0.02863384109931096, 0.02863384109931096, 0.02863384109931096]","[2.4204947941223836, 9.869885309871076, 5.187714684405753, -1.3103985655619113, 0.9388132476785211, 0.432430864235101]",0.002,7,1
0,50,"[0.003912288695573807, -1.5668757094866415, 0.004047218953267873, 0.003703280086181593, 0.0037859552539885044, 0.003724756184965372]","[0.1050458699464798, 0.10546320676803589, 0.10356984287500381, 0.10472463071346283, 0.1014108881354332, 0.10211195051670074]","[0.029216850464366173, -1.5415794763305304, 0.029216850464366173, 0.029216850464366173, 0.029216850464366173, 0.029216850464366173]","[0.029216850464366173, -1.5415794763305304, 0.029216850464366173, 0.029216850464366173, 0.029216850464366173, 0.029216850464366173]","[2.446433032641851, 9.974590644984762, 5.253090426860739, -1.3048174168889148, 0.9426450774102797, 0.4369254160075486]",0.002,7,1
0,51,"[0.004144926555454731, -1.5666247124648471, 0.004209343587056935, 0.003984375590942335, 0.003985909279435873, 0.0039964960888028145]","[0.10793828219175339, 0.1086605116724968, 0.10745447129011154, 0.10748876631259918, 0.10617315769195557, 0.10642267018556595]","[0.029799777763631855, -1.5409965490312647, 0.029799777763631855, 0.029799777763631855, 0.029799777763631855, 0.029799777763631855]","[0.029799777763631855, -1.5409965490312647, 0.029799777763631855, 0.029799777763631855, 0.029799777763631855, 0.029799777763631855]","[2.4711341687503343, 10.076085232773602, 5.315469266485046, -1.2994934679310723, 0.9462800476011137, 0.4411981965415814]",0.002,7,1
0,52,"[0.004389385227113962, -1.56645576263357, 0.004425827656881154, 0.004188581103942823, 0.004265523049980402, 0.004215274006128311]","[0.11259251087903976, 0.1125483438372612, 0.11013482511043549, 0.11130820214748383, 0.11117579787969589, 0.11005610227584839]","[0.030382621359751904, -1.5404137054351446, 0.030382621359751904, 0.030382621359751904, 0.030382621359751904, 0.030382621359751904]","[0.030382621359751904, -1.5404137054351446, 0.030382621359751904, 0.030382621359751904, 0.030382621359751904, 0.030382621359751904]","[2.494673418805434, 10.169096508415155, 5.374379422166859, -1.2944466807283737, 0.9497241147256104, 0.4452504672428499]",0.002,7,1
0,53,"[0.004587148316204548, -1.5661900465241452, 0.004666153584615529, 0.00444893419232173, 0.004399258643388748, 0.004443292506039143]","[0.11573226004838943, 0.11582237482070923, 0.11473045498132706, 0.11574162542819977, 0.11373354494571686, 0.11285041272640228]","[0.030965379615605294, -1.5398309471792913, 0.030965379615605294, 0.030965379615605294, 0.030965379615605294, 0.030965379615605294]","[0.030965379615605294, -1.5398309471792913, 0.030965379615605294, 0.030965379615605294, 0.030965379615605294, 0.030965379615605294]","[2.516953706477974, 10.259949761915404, 5.430212308040778, -1.2896228320848713, 0.9529652069106959, 0.44908332478013546]",0.002,7,1
0,54,"[0.004803507123142481, -1.5659484833343704, 0.0049241224872034195, 0.004696531886718702, 0.004682954866439104, 0.0047044516541063786]","[0.11972228437662125, 0.11891016364097595, 0.11799649149179459, 0.11952176690101624, 0.11809825152158737, 0.12021699547767639]","[0.031548050894310724, -1.5392482759005859, 0.031548050894310724, 0.031548050894310724, 0.031548050894310724, 0.031548050894310724]","[0.031548050894310724, -1.5392482759005859, 0.031548050894310724, 0.031548050894310724, 0.031548050894310724, 0.031548050894310724]","[2.538171545610966, 10.338316242574813, 5.480105061909247, -1.285074921048282, 0.9560125313712163, 0.45269521427244047]",0.002,7,1
0,55,"[0.005088452715426683, -1.5657341166264196, 0.005117718373433888, 0.00493578493084712, 0.004950515925884247, 0.0048896693624556065]","[0.12390395253896713, 0.12517049908638, 0.12000187486410141, 0.12299823760986328, 0.12319021672010422, 0.12248651683330536]","[0.03213063355923119, -1.5386656932356653, 0.03213063355923119, 0.03213063355923119, 0.03213063355923119, 0.03213063355923119]","[0.03213063355923119, -1.5386656932356653, 0.03213063355923119, 0.03213063355923119, 0.03213063355923119, 0.03213063355923119]","[2.5581814806088543, 10.411752121596761, 5.526528892988132, -1.2807556645206384, 0.9588601592482509, 0.4560897310765898]",0.002,7,1
0,56,"[0.005373457912355661, -1.5655271692997594, 0.005424801503316701, 0.005176230067871046, 0.005196704994887114, 0.005141768604516983]","[0.12766696512699127, 0.12443646043539047, 0.12520402669906616, 0.12724614143371582, 0.12777851521968842, 0.12794016301631927]","[0.03271312597397859, -1.538083200820918, 0.03271312597397859, 0.03271312597397859, 0.03271312597397859, 0.03271312597397859]","[0.03271312597397859, -1.538083200820918, 0.03271312597397859, 0.03271312597397859, 0.03271312597397859, 0.03271312597397859]","[2.576949170671787, 10.481954584197574, 5.571030467284181, -1.2766774243853711, 0.961511390003648, 0.45926605482293176]",0.002,7,1
0,57,"[0.005658676847815514, -1.565258709979691, 0.005676571522847951, 0.005439921016357374, 0.005461513064801693, 0.005445899907499552]","[0.13134755194187164, 0.1320105493068695, 0.13096581399440765, 0.1320788413286209, 0.13191676139831543, 0.131880521774292]","[0.03329552650241833, -1.5375008002924782, 0.03329552650241833, 0.03329552650241833, 0.03329552650241833, 0.03329552650241833]","[0.03329552650241833, -1.5375008002924782, 0.03329552650241833, 0.03329552650241833, 0.03329552650241833, 0.03329552650241833]","[2.5946008253750636, 10.544367685348773, 5.609956665334207, -1.272853988385878, 0.9639683395139925, 0.46222500419341084]",0.002,7,1
0,58,"[0.005863865837454796, -1.564978164886572, 0.0059769789325159195, 0.005801721210143995, 0.005709380842745304, 0.005714450031518936]","[0.13480597734451294, 0.13454264402389526, 0.1325940042734146, 0.13432398438453674, 0.13402318954467773, 0.1352410912513733]","[0.03387783350867391, -1.5369184932862225, 0.03387783350867391, 0.03387783350867391, 0.03387783350867391, 0.03387783350867391]","[0.03387783350867391, -1.5369184932862225, 0.03387783350867391, 0.03387783350867391, 0.03387783350867391, 0.03387783350867391]","[2.6111220552344774, 10.598098892694889, 5.645176403018468, -1.2692697878290495, 0.9662291800562892, 0.4649679258423629]",0.002,7,1
0,59,"[0.00616102572530508, -1.5647592230564733, 0.006214443837301076, 0.006044788951538038, 0.0059907566756010056, 0.006023063324391842]","[0.13817185163497925, 0.1384490579366684, 0.13616862893104553, 0.1384812593460083, 0.13971886038780212, 0.14025504887104034]","[0.034460045357131514, -1.536336281437765, 0.034460045357131514, 0.034460045357131514, 0.034460045357131514, 0.034460045357131514]","[0.034460045357131514, -1.536336281437765, 0.034460045357131514, 0.034460045357131514, 0.034460045357131514, 0.034460045357131514]","[2.626541296324276, 10.644049616987862, 5.675624531591847, -1.2659658057659509, 0.9683052402681928, 0.4674954948723173]",0.002,7,1
0,60,"[0.0065153599716722965, -1.5643959299525996, 0.006523434315816701, 0.006377263660095167, 0.006312202196568251, 0.006302736233919859]","[0.1419801563024521, 0.1424933671951294, 0.14164666831493378, 0.14124515652656555, 0.14259839057922363, 0.14514465630054474]","[0.0350421604124446, -1.5357541663824519, 0.0350421604124446, 0.0350421604124446, 0.0350421604124446, 0.0350421604124446]","[0.0350421604124446, -1.5357541663824519, 0.0350421604124446, 0.0350421604124446, 0.0350421604124446, 0.0350421604124446]","[2.6406802017831006, 10.68905836277694, 5.704917983054827, -1.2628558857181216, 0.9701784118076693, 0.469809319566926]",0.002,7,1
0,61,"[0.006723689381033182, -1.564141151295491, 0.00681478181947881, 0.006640954608581495, 0.0065552955493330956, 0.0065651582553982735]","[0.14538195729255676, 0.14635539054870605, 0.14547951519489288, 0.14581480622291565, 0.14755424857139587, 0.14817021787166595]","[0.03562417703953853, -1.535172149755358, 0.03562417703953853, 0.03562417703953853, 0.03562417703953853, 0.03562417703953853]","[0.03562417703953853, -1.535172149755358, 0.03562417703953853, 0.03562417703953853, 0.03562417703953853, 0.03562417703953853]","[2.6538916848558376, 10.718037714968414, 5.726642053805707, -1.2600032610700371, 0.9718610213190351, 0.47191064300158386]",0.002,7,1
0,62,"[0.007111015263944864, -1.563822845728584, 0.007046047841207326, 0.006894631976745558, 0.006973896641284227, 0.006841008551418781]","[0.15189582109451294, 0.15259738266468048, 0.14851127564907074, 0.1502331644296646, 0.14975205063819885, 0.15181297063827515]","[0.03620609360361513, -1.5345902331912815, 0.03620609360361513, 0.03620609360361513, 0.03620609360361513, 0.03620609360361513]","[0.03620609360361513, -1.5345902331912815, 0.03620609360361513, 0.03620609360361513, 0.03620609360361513, 0.03620609360361513]","[2.665823729037504, 10.747982689720056, 5.747210929228119, -1.2573790718806068, 0.9733520329810392, 0.4737995340798884]",0.002,7,1
0,63,"[0.007420157548040152, -1.5635532110794266, 0.007415596638814748, 0.0072020727344970226, 0.007235376164317131, 0.007169227581471205]","[0.1542394459247589, 0.15275664627552032, 0.15434236824512482, 0.1542525440454483, 0.15240631997585297, 0.15755584836006165]","[0.03678790847015727, -1.5340084183247393, 0.03678790847015727, 0.03678790847015727, 0.03678790847015727, 0.03678790847015727]","[0.03678790847015727, -1.5340084183247393, 0.03678790847015727, 0.03678790847015727, 0.03678790847015727, 0.03678790847015727]","[2.6766478016659487, 10.769484319388072, 5.76428678338446, -1.254956943986857, 0.9746454333810624, 0.47547985701828777]",0.002,7,1
0,64,"[0.007722950074821711, -1.5632063693231721, 0.007718865071431935, 0.0075508791157226085, 0.007540234364569187, 0.0075185876339674]","[0.15808351337909698, 0.15795399248600006, 0.16116729378700256, 0.15743999183177948, 0.15823258459568024, 0.16112306714057922]","[0.037369620004933476, -1.5334267067899632, 0.037369620004933476, 0.037369620004933476, 0.037369620004933476, 0.037369620004933476]","[0.037369620004933476, -1.5334267067899632, 0.037369620004933476, 0.037369620004933476, 0.037369620004933476, 0.037369620004933476]","[2.6863966762798848, 10.785297805792586, 5.776151563427241, -1.2528175052966255, 0.9757608998964973, 0.47694967159831136]",0.002,7,1
0,65,"[0.008051762357354164, -1.5628962035155674, 0.008094612752095998, 0.007858796710632276, 0.007796682883054018, 0.007805241271853447]","[0.16201621294021606, 0.16201406717300415, 0.16260714828968048, 0.1617482453584671, 0.16474485397338867, 0.1647016853094101]","[0.03795122657400253, -1.532845100220894, 0.03795122657400253, 0.03795122657400253, 0.03795122657400253, 0.03795122657400253]","[0.03795122657400253, -1.532845100220894, 0.03795122657400253, 0.03795122657400253, 0.03795122657400253, 0.03795122657400253]","[2.695087346915452, 10.791933866339852, 5.784362691480249, -1.2509073697729265, 0.976687923660954, 0.47821244989176936]",0.002,7,1
0,66,"[0.008351357653737068, -1.5625389621457835, 0.008379761372701466, 0.008255406016967726, 0.008238669484853745, 0.008150092326104641]","[0.1666903793811798, 0.16723133623600006, 0.1647358387708664, 0.1676039695739746, 0.16654086112976074, 0.16871602833271027]","[0.038532726543718046, -1.5322636002511785, 0.038532726543718046, 0.038532726543718046, 0.038532726543718046, 0.038532726543718046]","[0.038532726543718046, -1.5322636002511785, 0.038532726543718046, 0.038532726543718046, 0.038532726543718046, 0.038532726543718046]","[2.7026723403873, 10.793659339390835, 5.788510492070442, -1.2492246400607114, 0.9774276441097758, 0.479268804027211]",0.002,7,1
0,67,"[0.008690407499670982, -1.562215250251331, 0.008796040211812794, 0.008569760913513136, 0.008542557246983051, 0.00844406895339489]","[0.1688717007637024, 0.1711932122707367, 0.17005576193332672, 0.1702553778886795, 0.17201018333435059, 0.1731051504611969]","[0.039114118280733065, -1.5316822085141635, 0.039114118280733065, 0.039114118280733065, 0.039114118280733065, 0.039114118280733065]","[0.039114118280733065, -1.5316822085141635, 0.039114118280733065, 0.039114118280733065, 0.039114118280733065, 0.039114118280733065]","[2.7091615653720638, 10.788562171863719, 5.790060255771069, -1.247770821004137, 0.9779843988239951, 0.4801226712036705]",0.002,7,1
0,68,"[0.009073040448129177, -1.5618747549927612, 0.00912028947939092, 0.00898234426464839, 0.008891024626791477, 0.008850005455315113]","[0.17336656153202057, 0.17552058398723602, 0.17327293753623962, 0.17347665131092072, 0.1764976978302002, 0.17773684859275818]","[0.039695400152004616, -1.5311009266428919, 0.039695400152004616, 0.039695400152004616, 0.039695400152004616, 0.039695400152004616]","[0.039695400152004616, -1.5311009266428919, 0.039695400152004616, 0.039695400152004616, 0.039695400152004616, 0.039695400152004616]","[2.7146074413125465, 10.777351143043646, 5.786467390605361, -1.2465382082974625, 0.978354624222828, 0.480772477184619]",0.002,7,1
0,69,"[0.009386580437421799, -1.5615643889508029, 0.009426895772115529, 0.009254856700561476, 0.009261922910809517, 0.009190384298563004]","[0.17855952680110931, 0.18277278542518616, 0.1794787347316742, 0.17952175438404083, 0.18095721304416656, 0.18402554094791412]","[0.04027657052479833, -1.5305197562700983, 0.04027657052479833, 0.04027657052479833, 0.04027657052479833, 0.04027657052479833]","[0.04027657052479833, -1.5305197562700983, 0.04027657052479833, 0.04027657052479833, 0.04027657052479833, 0.04027657052479833]","[2.7189466130990514, 10.76118512387443, 5.780874819386468, -1.2455518876787208, 0.9785501735339657, 0.4812217746619273]",0.002,7,1
0,70,"[0.009772011078894138, -1.5611954594827075, 0.009824577962056935, 0.009637280101440382, 0.009572558104991913, 0.009599587880074978]","[0.18268460035324097, 0.1836118996143341, 0.1808607578277588, 0.18353073298931122, 0.18362222611904144, 0.1867532581090927]","[0.04085762776669305, -1.5299386990282036, 0.04085762776669305, 0.04085762776669305, 0.04085762776669305, 0.04085762776669305]","[0.04085762776669305, -1.5299386990282036, 0.04085762776669305, 0.04085762776669305, 0.04085762776669305, 0.04085762776669305]","[2.7221409581002187, 10.741777728046145, 5.772974205294484, -1.2447364598767998, 0.9785533008229554, 0.48147213305304065]",0.002,7,1
0,71,"[0.01018177717924118, -1.5608565241894503, 0.010160748158590138, 0.01006106912579341, 0.010007761418819427, 0.009970972314476967]","[0.18683311343193054, 0.1874304860830307, 0.18524669110774994, 0.1852857768535614, 0.18835943937301636, 0.19152706861495972]","[0.041438570245585345, -1.5293577565493113, 0.041438570245585345, 0.041438570245585345, 0.041438570245585345, 0.041438570245585345]","[0.041438570245585345, -1.5293577565493113, 0.041438570245585345, 0.041438570245585345, 0.041438570245585345, 0.041438570245585345]","[2.7244446674219205, 10.711463601923949, 5.758942406477809, -1.2441837736286583, 0.978386333300379, 0.4815245790835519]",0.002,7,1
0,72,"[0.010528311133384705, -1.5604725510678072, 0.010533157979146779, 0.01046101629223628, 0.010325794108211994, 0.010372373275458813]","[0.19048146903514862, 0.19159238040447235, 0.18965478241443634, 0.19092316925525665, 0.19233663380146027, 0.1938084065914154]","[0.04201939632969416, -1.5287769304652024, 0.04201939632969416, 0.04201939632969416, 0.04201939632969416, 0.04201939632969416]","[0.04201939632969416, -1.5287769304652024, 0.04201939632969416, 0.04201939632969416, 0.04201939632969416, 0.04201939632969416]","[2.7256123015338276, 10.67866787453401, 5.743362226929677, -1.2438491547201391, 0.9780447684510334, 0.48138285281603693]",0.002,7,1
0,73,"[0.010948202572762966, -1.56005101770673, 0.010929886494771779, 0.010851426715515089, 0.010664870962500572, 0.01070991437882185]","[0.19742657244205475, 0.196482852101326, 0.19360579550266266, 0.19599799811840057, 0.19496311247348785, 0.19708925485610962]","[0.04260010438756538, -1.528196222407331, 0.04260010438756538, 0.04260010438756538, 0.04260010438756538, 0.04260010438756538]","[0.04260010438756538, -1.528196222407331, 0.04260010438756538, 0.04260010438756538, 0.04260010438756538, 0.04260010438756538]","[2.72584011414353, 10.637070461281375, 5.723068249084912, -1.2437290614454308, 0.9775260603348259, 0.48104654065702196]",0.002,7,1
0,74,"[0.011275380849838257, -1.559650033046939, 0.011347119008199513, 0.011248751277587843, 0.011202732101082802, 0.011089273728430271]","[0.19997809827327728, 0.20034100115299225, 0.19590544700622559, 0.19996550679206848, 0.1988649219274521, 0.20163212716579437]","[0.043180692788076395, -1.52761563400682, 0.043180692788076395, 0.043180692788076395, 0.043180692788076395, 0.043180692788076395]","[0.043180692788076395, -1.52761563400682, 0.043180692788076395, 0.043180692788076395, 0.043180692788076395, 0.043180692788076395]","[2.7251157295593686, 10.587441177195922, 5.698475811810691, -1.2438117928404009, 0.9768304120954479, 0.48051903266544055]",0.002,7,1
0,75,"[0.011741869151592255, -1.5592409021085878, 0.01175100008119756, 0.011696620578430128, 0.011508303694427013, 0.01150605920702219]","[0.2028382420539856, 0.20519223809242249, 0.1988641917705536, 0.20364980399608612, 0.2051318734884262, 0.20647622644901276]","[0.0437611599004407, -1.527035166894456, 0.0437611599004407, 0.0437611599004407, 0.0437611599004407, 0.0437611599004407]","[0.0437611599004407, -1.527035166894456, 0.0437611599004407, 0.0437611599004407, 0.0437611599004407, 0.0437611599004407]","[2.7233527158001944, 10.53343848157134, 5.670789704391503, -1.2440891429675207, 0.9759597478811937, 0.4798041303561119]",0.002,7,1
0,76,"[0.012107830494642258, -1.5589006573757906, 0.012182537709371388, 0.012077017421386671, 0.011991115286946297, 0.011942432262003422]","[0.20812247693538666, 0.20850703120231628, 0.20382578670978546, 0.20795752108097076, 0.2109554558992386, 0.21078619360923767]","[0.04434150409421247, -1.526454822700684, 0.04434150409421247, 0.04434150409421247, 0.04434150409421247, 0.04434150409421247]","[0.04434150409421247, -1.526454822700684, 0.04434150409421247, 0.04434150409421247, 0.04434150409421247, 0.04434150409421247]","[2.720615450645135, 10.47383248554681, 5.6400075276363175, -1.2446125966037347, 0.9749292321652803, 0.4788997906454739]",0.002,7,1
0,77,"[0.012577815912663937, -1.5583961385167022, 0.012582127247945607, 0.012529774303100538, 0.01242239959537983, 0.01237849798053503]","[0.21437998116016388, 0.21351858973503113, 0.2086622714996338, 0.2115112543106079, 0.21530987322330475, 0.21504998207092285]","[0.04492172373929114, -1.5258746030556054, 0.04492172373929114, 0.04492172373929114, 0.04492172373929114, 0.04492172373929114]","[0.04492172373929114, -1.5258746030556054, 0.04492172373929114, 0.04492172373929114, 0.04492172373929114, 0.04492172373929114]","[2.716781255449197, 10.412810451817473, 5.60701115166348, -1.245308937697193, 0.9737240984839606, 0.47781216224034295]",0.002,7,1
0,78,"[0.012964434921741486, -1.5579926150715728, 0.013011757527486623, 0.012967510814331007, 0.01281731203198433, 0.01276580523699522]","[0.21701626479625702, 0.2188979834318161, 0.21226367354393005, 0.21499739587306976, 0.2178640067577362, 0.21891093254089355]","[0.04550181720592597, -1.5252945095889705, 0.04550181720592597, 0.04550181720592597, 0.04550181720592597, 0.04550181720592597]","[0.04550181720592597, -1.5252945095889705, 0.04550181720592597, 0.04550181720592597, 0.04550181720592597, 0.04550181720592597]","[2.7122181618846453, 10.337371278936821, 5.568494521350761, -1.246215278959241, 0.9723518469160447, 0.4765412773423088]",0.002,7,1
0,79,"[0.013437062501907349, -1.55756252471868, 0.013387028370992482, 0.013391419047973585, 0.0132873160764575, 0.013222464360296726]","[0.21883821487426758, 0.22138264775276184, 0.21634285151958466, 0.2192036509513855, 0.22188347578048706, 0.2243875414133072]","[0.04608178286472068, -1.524714543930176, 0.04608178286472068, 0.04608178286472068, 0.04608178286472068, 0.04608178286472068]","[0.04608178286472068, -1.524714543930176, 0.04608178286472068, 0.04608178286472068, 0.04608178286472068, 0.04608178286472068]","[2.706555570732684, 10.262374354595272, 5.528295854965515, -1.247332765045565, 0.97082101334049, 0.47508958928655404]",0.002,7,1
0,80,"[0.013935218565165997, -1.5570716776749869, 0.013819519673482716, 0.013863845462463331, 0.013722248375415802, 0.013683472760021687]","[0.223098024725914, 0.22651855647563934, 0.21931777894496918, 0.22229236364364624, 0.22570113837718964, 0.2271847128868103]","[0.046661619086637914, -1.5241347077082585, 0.046661619086637914, 0.046661619086637914, 0.046661619086637914, 0.046661619086637914]","[0.046661619086637914, -1.5241347077082585, 0.046661619086637914, 0.046661619086637914, 0.046661619086637914, 0.046661619086637914]","[2.6999321749438883, 10.181912324312401, 5.485695018196521, -1.2486297255851033, 0.9691242799627824, 0.4734604871153578]",0.002,7,1
0,81,"[0.014374393969774246, -1.5566608545235177, 0.014273945485250294, 0.014273686999938917, 0.014184805564582348, 0.014146653935313225]","[0.22832615673542023, 0.23062972724437714, 0.22521378099918365, 0.22539106011390686, 0.22999796271324158, 0.23233936727046967]","[0.04724132424300397, -1.5235550025518927, 0.04724132424300397, 0.04724132424300397, 0.04724132424300397, 0.04724132424300397]","[0.04724132424300397, -1.5235550025518927, 0.04724132424300397, 0.04724132424300397, 0.04724132424300397, 0.04724132424300397]","[2.692527424965861, 10.091753010864297, 5.437969317813302, -1.250133873592551, 0.967269243427821, 0.47165531955560636]",0.002,7,1
0,82,"[0.014818256720900536, -1.55618087228898, 0.014742676411763966, 0.01473049699749751, 0.014681323431432247, 0.014593259431421757]","[0.2317400574684143, 0.235404834151268, 0.2291591763496399, 0.22862957417964935, 0.2322588860988617, 0.23536840081214905]","[0.04782089670551321, -1.5229754300893834, 0.04782089670551321, 0.04782089670551321, 0.04782089670551321, 0.04782089670551321]","[0.04782089670551321, -1.5229754300893834, 0.04782089670551321, 0.04782089670551321, 0.04782089670551321, 0.04782089670551321]","[2.6840705894767476, 10.001219478959987, 5.388495868581225, -1.251817197914831, 0.9652554932181341, 0.46967711308890125]",0.002,7,1
0,83,"[0.015298762358725071, -1.5557535973242302, 0.015216652547017873, 0.015241785640380812, 0.015100040473043919, 0.015087044797837734]","[0.2363162785768509, 0.24011753499507904, 0.23243141174316406, 0.23215828835964203, 0.2347751408815384, 0.23720622062683105]","[0.04840033484623275, -1.5223959919486638, 0.04840033484623275, 0.04840033484623275, 0.04840033484623275, 0.04840033484623275]","[0.04840033484623275, -1.5223959919486638, 0.04840033484623275, 0.04840033484623275, 0.04840033484623275, 0.04840033484623275]","[2.6748353942154797, 9.901475841945626, 5.334637000800283, -1.2536920841649037, 0.9630854600182119, 0.46752839090641524]",0.002,7,1
0,84,"[0.015749963000416756, -1.555258805198111, 0.01569825807680303, 0.015715046519897413, 0.015584266744554043, 0.015575450845062733]","[0.23926043510437012, 0.24465149641036987, 0.2374306321144104, 0.23601137101650238, 0.2405838668346405, 0.2438894659280777]","[0.04897963703760701, -1.5218166897572896, 0.04897963703760701, 0.04897963703760701, 0.04897963703760701, 0.04897963703760701]","[0.04897963703760701, -1.5218166897572896, 0.04897963703760701, 0.04897963703760701, 0.04897963703760701, 0.04897963703760701]","[2.664626871396493, 9.800011726312905, 5.278812946810856, -1.255783923567701, 0.9607724560454637, 0.46521067075543376]",0.002,7,1
0,85,"[0.01623282954096794, -1.5546971310726185, 0.01622039476503545, 0.01616160451855464, 0.016064807772636414, 0.01607191562652588]","[0.2439161092042923, 0.2463313788175583, 0.2419615238904953, 0.24089741706848145, 0.24578528106212616, 0.24908237159252167]","[0.04955880165246223, -1.5212375251424344, 0.04955880165246223, 0.04955880165246223, 0.04955880165246223, 0.04955880165246223]","[0.04955880165246223, -1.5212375251424344, 0.04955880165246223, 0.04955880165246223, 0.04955880165246223, 0.04955880165246223]","[2.6536480221650427, 9.68981733806352, 5.2189111625891496, -1.2580310492815203, 0.9582999337635714, 0.4627278089393734]",0.002,7,1
0,86,"[0.01675819605588913, -1.5542777863195916, 0.016631428395406544, 0.01668362199749751, 0.016599247232079506, 0.016611695289611816]","[0.2506953775882721, 0.24991585314273834, 0.24804513156414032, 0.24548687040805817, 0.2514592707157135, 0.25311022996902466]","[0.05013782706401114, -1.5206584997308854, 0.05013782706401114, 0.05013782706401114, 0.05013782706401114, 0.05013782706401114]","[0.05013782706401114, -1.5206584997308854, 0.05013782706401114, 0.05013782706401114, 0.05013782706401114, 0.05013782706401114]","[2.6419518765260603, 9.570332827687889, 5.154355143928505, -1.2604411549342232, 0.9556728312377428, 0.4600817851364905]",0.002,7,1
0,87,"[0.01726650260388851, -1.5537721303156395, 0.017101589833394826, 0.017166538829467726, 0.01708243601024151, 0.01708284765481949]","[0.2523641586303711, 0.25564122200012207, 0.2524130940437317, 0.2481226921081543, 0.25599291920661926, 0.25640180706977844]","[0.050716711645857414, -1.5200796151490392, 0.050716711645857414, 0.050716711645857414, 0.050716711645857414, 0.050716711645857414]","[0.050716711645857414, -1.5200796151490392, 0.050716711645857414, 0.050716711645857414, 0.050716711645857414, 0.050716711645857414]","[2.6290479378409826, 9.456975754701237, 5.091777880064518, -1.263064641529794, 0.9529144973949326, 0.4572757534589454]",0.002,7,1
0,88,"[0.017745306715369225, -1.5532065101763983, 0.01761514345277959, 0.0176432567783813, 0.017573274672031403, 0.017627157270908356]","[0.25538718700408936, 0.2580832540988922, 0.25477442145347595, 0.2540726065635681, 0.25990191102027893, 0.26141947507858276]","[0.05129545377200032, -1.5195008730228963, 0.05129545377200032, 0.05129545377200032, 0.05129545377200032, 0.05129545377200032]","[0.05129545377200032, -1.5195008730228963, 0.05129545377200032, 0.05129545377200032, 0.05129545377200032, 0.05129545377200032]","[2.615506675069441, 9.33295633844459, 5.023933212396887, -1.2658433905377593, 0.950005613201744, 0.4543114720232496]",0.002,7,1
0,89,"[0.018307842314243317, -1.5527373191765328, 0.018145386372701466, 0.018127961749694776, 0.01814345084130764, 0.018118776381015778]","[0.2579651176929474, 0.2617066502571106, 0.26122623682022095, 0.25984182953834534, 0.26392149925231934, 0.2635214924812317]","[0.051874051816839274, -1.5189222749780573, 0.051874051816839274, 0.051874051816839274, 0.051874051816839274, 0.051874051816839274]","[0.051874051816839274, -1.5189222749780573, 0.051874051816839274, 0.051874051816839274, 0.051874051816839274, 0.051874051816839274]","[2.6012865041133955, 9.200215234783522, 4.951632565973329, -1.268782129194209, 0.9469510253106493, 0.4511921721216076]",0.002,7,1
0,90,"[0.018877681344747543, -1.5521716990372916, 0.018659893666402638, 0.01867322504010005, 0.01866411790251732, 0.018684158101677895]","[0.26339012384414673, 0.26730427145957947, 0.26447007060050964, 0.26592907309532166, 0.26929065585136414, 0.26611649990081787]","[0.05245250415517839, -1.5183438226397181, 0.05245250415517839, 0.05245250415517839, 0.05245250415517839, 0.05245250415517839]","[0.05245250415517839, -1.5183438226397181, 0.05245250415517839, 0.05245250415517839, 0.05245250415517839, 0.05245250415517839]","[2.5860804205153913, 9.068717611079553, 4.878296422378991, -1.2718986863353956, 0.9437622272291709, 0.44792120619798176]",0.002,7,1
0,91,"[0.019414439797401428, -1.5516555973193427, 0.019237820302144826, 0.019232078189514112, 0.019112296402454376, 0.01924491859972477]","[0.26955273747444153, 0.2698866128921509, 0.26957255601882935, 0.27186572551727295, 0.27402690052986145, 0.27247437834739685]","[0.053030809162231005, -1.5177655176326657, 0.053030809162231005, 0.053030809162231005, 0.053030809162231005, 0.053030809162231005]","[0.053030809162231005, -1.5177655176326657, 0.053030809162231005, 0.053030809162231005, 0.053030809162231005, 0.053030809162231005]","[2.570253538313498, 8.92751524267927, 4.800962199747491, -1.275186718235613, 0.940437772931734, 0.44450027119551816]",0.002,7,1
0,92,"[0.019904160872101784, -1.5511414644173165, 0.019716564808980763, 0.019737525577209425, 0.01970008574426174, 0.019763417541980743]","[0.27201828360557556, 0.2735821306705475, 0.276054322719574, 0.2762644290924072, 0.2773382067680359, 0.27695366740226746]","[0.05360896521362437, -1.517187361581272, 0.05360896521362437, 0.05360896521362437, 0.05360896521362437, 0.05360896521362437]","[0.05360896521362437, -1.517187361581272, 0.05360896521362437, 0.05360896521362437, 0.05360896521362437, 0.05360896521362437]","[2.553610051177991, 8.783951549370371, 4.720927732148098, -1.2786526785626888, 0.9369856620764826, 0.44093202560049705]",0.002,7,1
0,93,"[0.02051333151757717, -1.5505612411401053, 0.020305935536519826, 0.020352645511291456, 0.020259570330381393, 0.020301736891269684]","[0.27537497878074646, 0.27660852670669556, 0.2770462930202484, 0.28143879771232605, 0.28068897128105164, 0.280923455953598]","[0.054186970685404054, -1.5166093561094924, 0.054186970685404054, 0.054186970685404054, 0.054186970685404054, 0.054186970685404054]","[0.054186970685404054, -1.5166093561094924, 0.054186970685404054, 0.054186970685404054, 0.054186970685404054, 0.054186970685404054]","[2.5360795398193368, 8.638526934884633, 4.640453029593375, -1.2822520608754515, 0.933396866646159, 0.4372210316673696]",0.002,7,1
0,94,"[0.021026864647865295, -1.549988179733493, 0.020871464406148732, 0.020877643222473097, 0.020868787541985512, 0.0208821389824152]","[0.27723750472068787, 0.28081998229026794, 0.28160277009010315, 0.2854454517364502, 0.2849138379096985, 0.2834565341472626]","[0.054764823954038644, -1.516031502840858, 0.054764823954038644, 0.054764823954038644, 0.054764823954038644, 0.054764823954038644]","[0.054764823954038644, -1.516031502840858, 0.054764823954038644, 0.054764823954038644, 0.054764823954038644, 0.054764823954038644]","[2.5180432642712622, 8.482990328964945, 4.554327544121278, -1.2860268139415376, 0.9296817722882834, 0.4333687839066202]",0.002,7,1
0,95,"[0.021577557548880577, -1.5494243197939177, 0.021407906209127248, 0.021431370372436476, 0.021512925624847412, 0.021438369527459145]","[0.2829207181930542, 0.282937228679657, 0.2854852080345154, 0.288246750831604, 0.287429541349411, 0.28741908073425293]","[0.0553425233964242, -1.5154538033984724, 0.0553425233964242, 0.0553425233964242, 0.0553425233964242, 0.0553425233964242]","[0.0553425233964242, -1.5154538033984724, 0.0553425233964242, 0.0553425233964242, 0.0553425233964242, 0.0553425233964242]","[2.499213571445698, 8.32462585843684, 4.466568423514544, -1.289927140436256, 0.9258348617360109, 0.429378817891222]",0.002,7,1
0,96,"[0.022181129083037376, -1.5487859465977927, 0.02203065553774053, 0.021998687381408644, 0.022037992253899574, 0.022066602483391762]","[0.28660938143730164, 0.28482407331466675, 0.2880920171737671, 0.29297226667404175, 0.28987762331962585, 0.28914305567741394]","[0.055920067389888854, -1.5148762594050078, 0.055920067389888854, 0.055920067389888854, 0.055920067389888854, 0.055920067389888854]","[0.055920067389888854, -1.5148762594050078, 0.055920067389888854, 0.055920067389888854, 0.055920067389888854, 0.055920067389888854]","[2.479609750764192, 8.163612842908572, 4.377280618337658, -1.293983286426803, 0.9218673083486921, 0.4252539272178993]",0.002,7,1
0,97,"[0.02278144843876362, -1.5482814826867362, 0.022570435200826466, 0.02253834783520503, 0.022611644119024277, 0.022613773122429848]","[0.28967639803886414, 0.28804680705070496, 0.2913007438182831, 0.2942490875720978, 0.2941713035106659, 0.2930034399032593]","[0.05649745431219742, -1.5142988724826991, 0.05649745431219742, 0.05649745431219742, 0.05649745431219742, 0.05649745431219742]","[0.05649745431219742, -1.5142988724826991, 0.05649745431219742, 0.05649745431219742, 0.05649745431219742, 0.05649745431219742]","[2.4595405136636668, 7.992768908800021, 4.2828285806262, -1.2981829279536394, 0.9177779703816243, 0.4209959116119435]",0.002,7,1
0,98,"[0.023315554484725, -1.5476393786123772, 0.023169819508687794, 0.02309672414746089, 0.023188486695289612, 0.023251157253980637]","[0.2939680516719818, 0.29012706875801086, 0.29533058404922485, 0.2971903681755066, 0.29834580421447754, 0.29484957456588745]","[0.05707468254155584, -1.5137216442533408, 0.05707468254155584, 0.05707468254155584, 0.05707468254155584, 0.05707468254155584]","[0.05707468254155584, -1.5137216442533408, 0.05707468254155584, 0.05707468254155584, 0.05707468254155584, 0.05707468254155584]","[2.4384045905446006, 7.828012110153075, 4.190269568765396, -1.3025387477082462, 0.9135796408576733, 0.41660903688007467]",0.002,7,1
0,99,"[0.02391417883336544, -1.547064773072936, 0.023799721394674123, 0.023678703899047804, 0.02380276657640934, 0.023801006376743317]","[0.2961285412311554, 0.2957598865032196, 0.29597681760787964, 0.2995452880859375, 0.30144190788269043, 0.2985571324825287]","[0.05765175045661585, -1.5131445763382807, 0.05765175045661585, 0.05765175045661585, 0.05765175045661585, 0.05765175045661585]","[0.05765175045661585, -1.5131445763382807, 0.05765175045661585, 0.05765175045661585, 0.05765175045661585, 0.05765175045661585]","[2.4169349229197437, 7.650361579629407, 4.09200024551265, -1.3070135116892252, 0.9092570287290253, 0.41209593023434565]",0.002,7,1
0,100,"[0.024574406445026398, -1.5464060057750721, 0.02434713045229131, 0.024324341411254835, 0.024395711719989777, 0.024429330602288246]","[0.30087751150131226, 0.29799315333366394, 0.29783597588539124, 0.3040692210197449, 0.30229878425598145, 0.3011249601840973]","[0.058228656436479447, -1.5125676703584172, 0.058228656436479447, 0.058228656436479447, 0.058228656436479447, 0.058228656436479447]","[0.058228656436479447, -1.5125676703584172, 0.058228656436479447, 0.058228656436479447, 0.058228656436479447, 0.058228656436479447]","[2.3946845027206427, 7.4727583573827445, 3.992382193480745, -1.3116373359249862, 0.9048267545219555, 0.4074598649980701]",0.002,7,1
0,101,"[0.025071756914258003, -1.545761165474989, 0.02492410341371709, 0.024902268046997023, 0.025061899796128273, 0.025049934163689613]","[0.3031238913536072, 0.30263200402259827, 0.3047237694263458, 0.30868932604789734, 0.30573537945747375, 0.30519425868988037]","[0.0588053988607035, -1.511990927934193, 0.0588053988607035, 0.0588053988607035, 0.0588053988607035, 0.0588053988607035]","[0.0588053988607035, -1.511990927934193, 0.0588053988607035, 0.0588053988607035, 0.0588053988607035, 0.0588053988607035]","[2.371885209736585, 7.288318815133428, 3.8907262704004424, -1.316396899751283, 0.90028811695949, 0.4027034633673431]",0.002,7,1
0,102,"[0.02568666636943817, -1.545197570031025, 0.025575939808980763, 0.025528593654296827, 0.025623183697462082, 0.025664426386356354]","[0.30707913637161255, 0.30546578764915466, 0.30552077293395996, 0.31266188621520996, 0.3105526268482208, 0.30669736862182617]","[0.0593819761093043, -1.5114143506855922, 0.0593819761093043, 0.0593819761093043, 0.0593819761093043, 0.0593819761093043]","[0.0593819761093043, -1.5114143506855922, 0.0593819761093043, 0.0593819761093043, 0.0593819761093043, 0.0593819761093043]","[2.348435888045551, 7.101005238356609, 3.7869146874279305, -1.32126767735826, 0.8956375144229608, 0.3978304252983122]",0.002,7,1
0,103,"[0.026342909783124924, -1.5445356995663424, 0.026209179555074513, 0.026150389308593702, 0.026339085772633553, 0.026279091835021973]","[0.3105064928531647, 0.31001314520835876, 0.31091591715812683, 0.3172721564769745, 0.31373658776283264, 0.310175359249115]","[0.059958386562762055, -1.5108379402321346, 0.059958386562762055, 0.059958386562762055, 0.059958386562762055, 0.059958386562762055]","[0.059958386562762055, -1.5108379402321346, 0.059958386562762055, 0.059958386562762055, 0.059958386562762055, 0.059958386562762055]","[2.3242710897645353, 6.91390816461645, 3.6813077085795904, -1.3262917137757133, 0.8908940196247563, 0.39284264157271276]",0.002,7,1
0,104,"[0.026989491656422615, -1.5439120356789608, 0.026814762745992482, 0.026759906406066847, 0.026954112574458122, 0.026933202520012856]","[0.31449830532073975, 0.3112642168998718, 0.3177386224269867, 0.3207293152809143, 0.31848031282424927, 0.31545090675354004]","[0.06053462860202547, -1.5102616981928711, 0.06053462860202547, 0.06053462860202547, 0.06053462860202547, 0.06053462860202547]","[0.06053462860202547, -1.5102616981928711, 0.06053462860202547, 0.06053462860202547, 0.06053462860202547, 0.06053462860202547]","[2.2996856355624553, 6.718280554217538, 3.5724521028545775, -1.331411135007367, 0.8860371911347713, 0.38774486954504406]",0.002,7,1
0,105,"[0.027604125440120697, -1.5431978453746815, 0.027508083974019826, 0.027438445682189894, 0.027643512934446335, 0.02760450355708599]","[0.316453754901886, 0.31670916080474854, 0.31898659467697144, 0.32481423020362854, 0.31887227296829224, 0.31932616233825684]","[0.061110700608516366, -1.5096856261863802, 0.061110700608516366, 0.061110700608516366, 0.061110700608516366, 0.061110700608516366]","[0.061110700608516366, -1.5096856261863802, 0.061110700608516366, 0.061110700608516366, 0.061110700608516366, 0.061110700608516366]","[2.2743953263079906, 6.522492498152435, 3.4630334408948262, -1.3366611172010225, 0.8810902995772292, 0.38253859904865883]",0.002,7,1
0,106,"[0.028170740231871605, -1.5425618191114445, 0.028126064931051076, 0.027973933810852003, 0.02826792187988758, 0.028244974091649055]","[0.3213216960430145, 0.3185870051383972, 0.3227057456970215, 0.32806357741355896, 0.32222050428390503, 0.3227296471595764]","[0.061686600964134086, -1.5091097258307624, 0.061686600964134086, 0.061686600964134086, 0.061686600964134086, 0.061686600964134086]","[0.061686600964134086, -1.5091097258307624, 0.061686600964134086, 0.061686600964134086, 0.061686600964134086, 0.061686600964134086]","[2.2488253468198307, 6.316685234238884, 3.348607363901672, -1.3420134331529483, 0.8760387675194574, 0.37722799745191377]",0.002,7,1
0,107,"[0.028872909024357796, -1.5419515588185568, 0.02879792848695928, 0.02867095052685542, 0.028895054012537003, 0.028925636783242226]","[0.3261122405529022, 0.32249799370765686, 0.32592734694480896, 0.332720011472702, 0.3272414207458496, 0.32566821575164795]","[0.06226232805126016, -1.5085339987436364, 0.06226232805126016, 0.06226232805126016, 0.06226232805126016, 0.06226232805126016]","[0.06226232805126016, -1.5085339987436364, 0.06226232805126016, 0.06226232805126016, 0.06226232805126016, 0.06226232805126016]","[2.222423516252677, 6.114325477561969, 3.2354039514416835, -1.3474747739857287, 0.8709013861254546, 0.371815412021477]",0.002,7,1
0,108,"[0.029428740963339806, -1.541275118743517, 0.029429260884420216, 0.029372377986572218, 0.029611870646476746, 0.029557090252637863]","[0.33207255601882935, 0.32607027888298035, 0.32968807220458984, 0.33625465631484985, 0.33116111159324646, 0.328986793756485]","[0.06283788025276278, -1.5079584465421338, 0.06283788025276278, 0.06283788025276278, 0.06283788025276278, 0.06283788025276278]","[0.06283788025276278, -1.5079584465421338, 0.06283788025276278, 0.06283788025276278, 0.06283788025276278, 0.06283788025276278]","[2.1954838912903147, 5.909649684675866, 3.1200019991680983, -1.353074068268089, 0.8656812643906111, 0.3663043357056633]",0.002,7,1
0,109,"[0.030157502740621567, -1.5405329682729025, 0.030142132435933888, 0.030111833209655714, 0.030255841091275215, 0.030224185436964035]","[0.3341555595397949, 0.32685932517051697, 0.3345247507095337, 0.3392293155193329, 0.3338225781917572, 0.3317990303039551]","[0.06341325595200138, -1.5073830708428952, 0.06341325595200138, 0.06341325595200138, 0.06341325595200138, 0.06341325595200138]","[0.06341325595200138, -1.5073830708428952, 0.06341325595200138, 0.06341325595200138, 0.06341325595200138, 0.06341325595200138]","[2.168113193104845, 5.699203986070026, 3.0025898743166195, -1.3587644924522657, 0.8603678240319672, 0.36069839859434794]",0.002,7,1
0,110,"[0.030844716355204582, -1.5398887314698477, 0.030795876179830373, 0.030772729510925245, 0.030945105478167534, 0.030924329534173012]","[0.33587759733200073, 0.33013591170310974, 0.33603596687316895, 0.34248262643814087, 0.3366107642650604, 0.33526724576950073]","[0.06398845353283117, -1.5068078732620653, 0.06398845353283117, 0.06398845353283117, 0.06398845353283117, 0.06398845353283117]","[0.06398845353283117, -1.5068078732620653, 0.06398845353283117, 0.06398845353283117, 0.06398845353283117, 0.06398845353283117]","[2.1404699666622307, 5.480693236403715, 2.8809492394097482, -1.3645455910730697, 0.8549670551962358, 0.35499983467286794]",0.002,7,1
0,111,"[0.031495600938797, -1.5392157484642048, 0.031484429036275685, 0.031457825297973585, 0.031574830412864685, 0.031629275530576706]","[0.3393007814884186, 0.33174893260002136, 0.3387099802494049, 0.3455432951450348, 0.339327871799469, 0.3398057222366333]","[0.06456347137960762, -1.5062328554152888, 0.06456347137960762, 0.06456347137960762, 0.06456347137960762, 0.06456347137960762]","[0.06456347137960762, -1.5062328554152888, 0.06456347137960762, 0.06456347137960762, 0.06456347137960762, 0.06456347137960762]","[2.112019498916939, 5.266834969646889, 2.760789293940496, -1.3704346176705566, 0.8494918137802907, 0.349212489129976]",0.002,7,1
0,112,"[0.03219027817249298, -1.538547222768404, 0.03225738206972295, 0.03211752950634761, 0.03229255601763725, 0.03226624056696892]","[0.3444090485572815, 0.3385142683982849, 0.3413706421852112, 0.34914731979370117, 0.3409762382507324, 0.3405177891254425]","[0.06513830787719112, -1.5056580189177053, 0.06513830787719112, 0.06513830787719112, 0.06513830787719112, 0.06513830787719112]","[0.06513830787719112, -1.5056580189177053, 0.06513830787719112, 0.06513830787719112, 0.06513830787719112, 0.06513830787719112]","[2.0831871342903043, 5.048218637653433, 2.6380520246808192, -1.3764153984075607, 0.8439390080603002, 0.34333894583238433]",0.002,7,1
0,113,"[0.03282049298286438, -1.5378220540336152, 0.03285676637758428, 0.03283457338299556, 0.03300962969660759, 0.032963287085294724]","[0.3462202548980713, 0.33738240599632263, 0.3427179157733917, 0.3519582450389862, 0.3452494740486145, 0.34310173988342285]","[0.06571296141095137, -1.5050833653839453, 0.06571296141095137, 0.06571296141095137, 0.06571296141095137, 0.06571296141095137]","[0.06571296141095137, -1.5050833653839453, 0.06571296141095137, 0.06571296141095137, 0.06571296141095137, 0.06571296141095137]","[2.053953476211161, 4.826047271437979, 2.5125337711140876, -1.3824743358624103, 0.8383040431231312, 0.3373830979023845]",0.002,7,1
