Arnibjarnst/BoxLift/logs/ur_rtde/trajectory_dur=10.0_delay=0.2_gain=200_lh=0.03_real.csv
arm_idx,step,actual_q,actual_qd,target_q,expected_q,loop_time,robot_mode,safety_mode
0,-1,"[-0.008459870015279591, -1.5792600117125453, -0.008477410301566124, -0.008536533718444872, -0.008539501820699513, -0.008498970662252248]","[0.04340076819062233, 0.04559635743498802, 0.043749820441007614, 0.044722359627485275, 0.04366276413202286, 0.04290400445461273]","[0.0, -1.5707963267948966, 0.0, 0.0, 0.0, 0.0]","[0.0, -1.5707963267948966, 0.0, 0.0, 0.0, 0.0]",0.002,7,1
0,-1,"[-0.0076516310321252945, -1.5784293613829554, -0.007730730343610048, -0.007749633198120165, -0.007689301167623341, -0.007740322743551076]","[0.0618898831307888, 0.05970071628689766, 0.058764390647411346, 0.06214156374335289, 0.059272415935993195, 0.059085745364427567]","[0.0, -1.5707963267948966, 0.0, 0.0, 0.0, 0.0]","[0.0, -1.5707963267948966, 0.0, 0.0, 0.0, 0.0]",0.002,7,1
0,-1,"[-0.006471935902730763, -1.5770851574339808, -0.006487693637609482, -0.006560997372009325, -0.00640279451479131, -0.006377045308248341]","[0.07884759455919266, 0.07514914125204086, 0.07749959081411362, 0.08262573182582855, 0.07868026942014694, 0.0770183727145195]","[0.0, -1.5707963267948966, 0.0, 0.0, 0.0, 0.0]","[0.0, -1.5707963267948966, 0.0, 0.0, 0.0, 0.0]",0.002,7,1
0,-1,"[-0.0034316221820276382, -1.574221750298971, -0.0035652879159897566, -0.0034446281245728017, -0.003289047871724904, -0.0033038298236292007]","[0.07959235459566116, 0.06832215934991837, 0.07801494747400284, 0.08080198615789413, 0.08013898134231567, 0.07948087155818939]","[0.0, -1.5707963267948966, 0.0, 0.0, 0.0, 0.0]","[0.0, -1.5707963267948966, 0.0, 0.0, 0.0, 0.0]",0.002,7,1
0,-1,"[-0.002118889485494435, -1.5727697811522425, -0.002209094353020191, -0.002098874454834032, -0.001988236104146779, -0.002034489308492482]","[0.06392605602741241, 0.06701625883579254, 0.06631717830896378, 0.06316164135932922, 0.0636293888092041, 0.06439382582902908]","[0.0, -1.5707963267948966, 0.0, 0.0, 0.0, 0.0]","[0.0, -1.5707963267948966, 0.0, 0.0, 0.0, 0.0]",0.002,7,1
0,-1,"[-0.0005930105792444351, -1.571268697778219, -0.0005366593832150102, -0.0005539220622559071, -0.0004609266864221695, -0.0005405584918420914]","[0.0330418162047863, 0.03105010837316513, 0.03336445242166519, 0.03331669047474861, 0.030377211049199104, 0.031137995421886444]","[0.0, -1.5707963267948966, 0.0, 0.0, 0.0, 0.0]","[0.0, -1.5707963267948966, 0.0, 0.0, 0.0, 0.0]",0.002,7,1
0,-1,"[-0.000157658253804982, -1.5709072552123011, -0.00013928167754784226, -0.00011761606250004775, -7.325807680302887e-05, -0.00010472932924443512]","[0.015612452290952206, 0.01427996065467596, 0.0140098100528121, 0.01631230115890503, 0.0141066899523139, 0.013605061918497086]","[0.0, -1.5707963267948966, 0.0, 0.0, 0.0, 0.0]","[0.0, -1.5707963267948966, 0.0, 0.0, 0.0, 0.0]",0.002,7,1
0,-1,"[-6.896654237920075e-05, -1.5708309612669886, -5.099501140648499e-05, -2.654016528325087e-05, -6.562868227177887e-05, -7.802644838506012e-05]","[-0.006291817408055067, -0.008122807368636131, -0.00814785435795784, -0.005770031828433275, -0.007582045625895262, -0.004499136935919523]","[0.0, -1.5707963267948966, 0.0, 0.0, 0.0, 0.0]","[0.0, -1.5707963267948966, 0.0, 0.0, 0.0, 0.0]",0.002,7,1
0,-1,"[-8.8993703023732e-05, -1.5708981953062953, -0.00011552367504918948, -6.850183520512587e-05, -8.994737734013825e-05, -6.467500795537262e-05]","[-0.00033371345489285886, -0.0004220202099531889, -0.0010604310082271695, -3.135336737614125e-05, 0.00020164091256447136, -0.00034222225076518953]","[0.0, -1.5707963267948966, 0.0, 0.0, 0.0, 0.0]","[0.0, -1.5707963267948966, 0.0, 0.0, 0.0, 0.0]",0.002,7,1
0,-1,"[-4.8939381734669496e-05, -1.5709568462767542, -0.00016928119293879718, -5.94419291992665e-05, -3.225008119756012e-05, -8.947054018193512e-05]","[-2.896782813621712e-09, -0.001829440938308835, -0.0006727777072228491, -3.720600216805536e-11, 0.0002495525113772601, -0.0002479034010320902]","[0.0, -1.5707963267948966, 0.0, 0.0, 0.0, 0.0]","[0.0, -1.5707963267948966, 0.0, 0.0, 0.0, 0.0]",0.002,7,1
0,-1,"[-6.80128680627945e-05, -1.5709301433958949, -0.00019004421483259648, -6.397188220219618e-05, -8.994737734013825e-05, -9.423891176396637e-05]","[-3.04070439386533e-24, -0.0006870788056403399, -0.000362823368050158, 0.0004175046051386744, 0.000604909029789269, -0.00010323514288756996]","[0.0, -1.5707963267948966, 0.0, 0.0, 0.0, 0.0]","[0.0, -1.5707963267948966, 0.0, 0.0, 0.0, 0.0]",0.002,7,1
0,-1,"[-0.000130955372945607, -1.5709148846068324, -0.00010306834883522242, -5.205095324711806e-05, -3.701845277959137e-05, -4.8939381734669496e-05]","[-5.74532370373175e-43, -0.00011836418707389385, -6.851876969449222e-05, 0.0007069624844007194, 0.0005972586222924292, 0.00010223266144748777]","[0.0, -1.5707963267948966, 0.0, 0.0, 0.0, 0.0]","[0.0, -1.5707963267948966, 0.0, 0.0, 0.0, 0.0]",0.002,7,1
0,-1,"[-8.1364308492482e-05, -1.5709806881346644, -0.00013485719682648778, -3.27390483398915e-05, -3.225008119756012e-05, -3.2726918355763246e-05]","[0.0, -4.1902580960595515e-06, -2.8018215743941255e-05, 0.0005419256049208343, 0.0009538331651128829, 0.00039145321352407336]","[0.0, -1.5707963267948966, 0.0, 0.0, 0.0, 0.0]","[0.0, -1.5707963267948966, 0.0, 0.0, 0.0, 0.0]",0.002,7,1
0,-1,"[-0.00010091463197881012, -1.5709101162352503, -0.00012743067054543644, -2.6983073730946217e-06, -7.135072817021637e-05, -3.2726918355763246e-05]","[0.0, -1.3575941857236346e-13, -5.555852999883371e-10, 0.0004164977581240237, 0.0008600185392424464, 0.0003683282411657274]","[0.0, -1.5707963267948966, 0.0, 0.0, 0.0, 0.0]","[0.0, -1.5707963267948966, 0.0, 0.0, 0.0, 0.0]",0.002,7,1
0,-1,"[-0.00010520616640263825, -1.5709315739073695, -0.00014819148054812104, -5.205095324711806e-05, -3.701845277959137e-05, -5.547200338185121e-06]","[0.0, 0.0007307757623493671, -2.414972668406288e-19, 0.0002655148273333907, 0.0006937833386473358, 0.00038021543878130615]","[0.0, -1.5707963267948966, 0.0, 0.0, 0.0, 0.0]","[0.0, -1.5707963267948966, 0.0, 0.0, 0.0, 0.0]",0.002,7,1
0,-1,"[-0.00012189546693974762, -1.5709315739073695, -0.00010230458428850397, -7.228260376024309e-06, -1.7468129293263246e-05, -3.2726918355763246e-05]","[0.0001304865290876478, 0.0004500008071772754, -1.4083355195167817e-30, 0.0003136917657684535, 0.0007121062953956425, 0.0006292915786616504]","[0.0, -1.5707963267948966, 0.0, 0.0, 0.0, 0.0]","[0.0, -1.5707963267948966, 0.0, 0.0, 0.0, 0.0]",0.002,7,1
0,-1,"[-9.328523744756012e-05, -1.5708981953062953, -0.00016122579108923674, -5.205095324711806e-05, -4.1309987203419496e-05, -4.178682436162262e-05]","[0.00017753175052348524, 0.0002501244598533958, -8.213010299407753e-42, 0.00041233329102396965, 0.0004135935741942376, 0.00047518708743155]","[0.0, -1.5707963267948966, 0.0, 0.0, 0.0, 0.0]","[0.0, -1.5707963267948966, 0.0, 0.0, 0.0, 0.0]",0.002,7,1
0,-1,"[-8.565584291631012e-05, -1.5709058247008265, -0.00013498000043909997, -4.0130024292039934e-05, -4.116688863575746e-06, 2.4436892999801785e-05]","[0.0004747017228510231, 0.0001286089391214773, -0.0, 0.00040751462802290916, 0.0005876768263988197, 0.0005702174385078251]","[0.0, -1.5707963267948966, 0.0, 0.0, 0.0, 0.0]","[0.0, -1.5707963267948966, 0.0, 0.0, 0.0, 0.0]",0.002,7,1
0,-1,"[-2.8912221090138246e-05, -1.5708729229369105, -6.16072429693304e-05, -3.27390483398915e-05, 1.8358230590820312e-05, -8.885060445606996e-06]","[0.0003603736695367843, 5.844837141921744e-05, 0.0001869944535428658, 0.0002974886156152934, 0.00036541660665534437, 0.00035878614289686084]","[0.0, -1.5707963267948966, 0.0, 0.0, 0.0, 0.0]","[0.0, -1.5707963267948966, 0.0, 0.0, 0.0, 0.0]",0.002,7,1
0,-1,"[-4.464784731084137e-05, -1.5708996258177699, -4.9773814680520445e-05, 1.828252758784288e-05, -9.6623097554982e-05, 2.6199100830126554e-05]","[0.00031758021214045584, 0.0011472523910924792, 0.0005280460463836789, 0.00020335377485025674, 0.00033781700767576694, 0.0002856564533431083]","[0.0, -1.5707963267948966, 0.0, 0.0, 0.0, 0.0]","[0.0, -1.5707963267948966, 0.0, 0.0, 0.0, 0.0]",0.002,7,1
0,-1,"[-1.1269246236622621e-05, -1.5708252392210902, -7.48459788155742e-05, 3.830968823237413e-05, -1.732503072560121e-06, 7.946252480905969e-06]","[0.0005507980822585523, 0.0008300572517327964, 0.0006109575624577701, 0.00019486501696519554, 0.00023894404876045883, 0.00023184544988907874]","[0.0, -1.5707963267948966, 0.0, 0.0, 0.0, 0.0]","[0.0, -1.5707963267948966, 0.0, 0.0, 0.0, 0.0]",0.002,7,1
0,-1,"[-8.184114565068512e-05, -1.5708891354002894, -6.606972601730376e-05, 2.114355053706163e-05, 1.0999679943779483e-05, 0.0]","[0.0009217244805768132, 0.00014651795208919793, 0.0003965310752391815, 0.000163149437867105, 0.00016692440840415657, 0.00012075986887793988]","[0.0, -1.5707963267948966, 0.0, 0.0, 0.0, 0.0]","[0.0, -1.5707963267948966, 0.0, 0.0, 0.0, 0.0]",0.002,7,1
0,-1,"[-4.5124684469044496e-05, -1.5709616146483363, -0.00010745108011178672, -5.3600674011278215e-05, 6.4373016357421875e-06, -6.276765932256012e-05]","[2.328113851035596e-06, 0.00011524558794917539, 0.00037139898631721735, 0.00014654545520897955, 0.00012370424519758672, 0.00012776671792380512]","[0.0, -1.5707963267948966, 0.0, 0.0, 0.0, 0.0]","[0.0, -1.5707963267948966, 0.0, 0.0, 0.0, 0.0]",0.002,7,1
0,-1,"[-8.184114565068512e-05, -1.570883413354391, -6.29425048828125e-05, 4.73695942382335e-05, -1.3176594869435121e-05, -4.178682436162262e-05]","[2.443782739062528e-21, 0.00131550757214427, 0.0011993267107754946, 0.0001260247954633087, 0.00010139813093701378, 0.00012525689089670777]","[0.0, -1.5707963267948966, 0.0, 0.0, 0.0, 0.0]","[0.0, -1.5707963267948966, 0.0, 0.0, 0.0, 0.0]",0.002,7,1
0,-1,"[-4.5124684469044496e-05, -1.5708462200560511, 1.0315571920216371e-05, -3.27390483398915e-05, -1.732503072560121e-06, 3.319740699225804e-06]","[1.938662008704739e-10, 0.0019057709723711014, 0.001391193363815546, 8.381229417864233e-05, 0.00010116233897861093, 0.00010630275210132822]","[0.0, -1.5707963267948966, 0.0, 0.0, 0.0, 0.0]","[0.0, -1.5707963267948966, 0.0, 0.0, 0.0, 0.0]",0.002,7,1
0,-1,"[-6.276765932256012e-05, -1.5708667240538539, -3.155152080580592e-05, 3.366052593989366e-05, 3.170359195792116e-05, -4.116688863575746e-06]","[1.1867362173055886e-36, 0.00042623700574040413, -3.476072867183511e-15, 7.977368659339845e-05, 9.349994797958061e-05, 9.827375470194966e-05]","[0.0, -1.5707963267948966, 0.0, 0.0, 0.0, 0.0]","[0.0, -1.5707963267948966, 0.0, 0.0, 0.0, 0.0]",0.002,7,1
0,-1,"[1.134443300543353e-05, -1.570878644982809, -1.8392393030808307e-05, -4.367237426805559e-06, -4.9893056051075746e-05, 3.337860107421875e-06]","[0.0, 0.0002892373304348439, -2.719662730143818e-28, 7.229738548630849e-05, 8.47003175294958e-05, 8.970303315436468e-05]","[0.0, -1.5707963267948966, 0.0, 0.0, 0.0, 0.0]","[0.0, -1.5707963267948966, 0.0, 0.0, 0.0, 0.0]",0.002,7,1
0,-1,"[-6.6105519429982e-05, -1.5708009205260218, -4.7852892748778686e-05, 6.215154614253038e-05, 2.0503998712229077e-06, -1.6514454976856996e-05]","[0.0, 0.00023825143580324948, -4.203895392974451e-45, 6.452274101320654e-05, 8.635205449536443e-05, 7.375494169536978e-05]","[0.0, -1.5707963267948966, 0.0, 0.0, 0.0, 0.0]","[0.0, -1.5707963267948966, 0.0, 0.0, 0.0, 0.0]",0.002,7,1
0,-1,"[-7.788287561538709e-07, -1.570834299127096, 1.255665914356996e-06, -2.546728167729384e-05, 3.166779424645938e-05, -1.255665914356996e-06]","[-6.709086301270872e-05, 1.5417037089306295e-21, -0.0, 1.7811986152520276e-13, 7.053188164718449e-05, 5.998966298648156e-05]","[0.0, -1.5707963267948966, 0.0, 0.0, 0.0, 0.0]","[0.0, -1.5707963267948966, 0.0, 0.0, 0.0, 0.0]",0.002,7,1
0,-1,"[-4.655519594365387e-05, -1.5708214245238246, -3.908298458554782e-05, 4.692668579053816e-06, 3.0305778636829928e-05, 1.9776820408878848e-05]","[-8.773977231606514e-15, 1.2062204415380878e-34, -0.0, 9.010992775093884e-22, 7.627005106769502e-05, 6.511800165753812e-05]","[0.0, -1.5707963267948966, 0.0, 0.0, 0.0, 0.0]","[0.0, -1.5707963267948966, 0.0, 0.0, 0.0, 0.0]",0.002,7,1
0,-1,"[-9.361897603810121e-06, -1.570829530755514, -7.61264527682215e-05, 4.725038494868272e-05, -3.0819569722950746e-05, -5.547200338185121e-06]","[-5.1167025160223314e-26, 1.401298464324817e-45, -0.0, 6.981798178663756e-29, 8.050189353525639e-05, 6.135470903245732e-05]","[0.0, -1.5707963267948966, 0.0, 0.0, 0.0, 0.0]","[0.0, -1.5707963267948966, 0.0, 0.0, 0.0, 0.0]",0.002,7,1
0,-1,"[-3.7495289937794496e-05, -1.570843359033102, -6.036162631062325e-06, -1.1758213378953997e-05, 2.2745132810086943e-05, -1.3653432027638246e-05]","[-7.20267410662956e-43, 0.0, -0.0, 1.5057722713325538e-39, 7.342594471992925e-05, 1.1811801536865119e-12]","[0.0, -1.5707963267948966, 0.0, 0.0, 0.0, 0.0]","[0.0, -1.5707963267948966, 0.0, 0.0, 0.0, 0.0]",0.002,7,1
0,-1,"[-6.276765932256012e-05, -1.5708385906615199, -3.910064697265625e-05, -6.564081225590712e-05, 3.1721137929707766e-05, 1.2530325875559356e-05]","[0.0, 2.7324449547450058e-05, -0.0, 1.401298464324817e-45, 3.5167046007700264e-05, 1.4016671639457263e-18]","[0.0, -1.5707963267948966, 0.0, 0.0, 0.0, 0.0]","[0.0, -1.5707963267948966, 0.0, 0.0, 0.0, 0.0]",0.002,7,1
0,-1,"[-3.7495289937794496e-05, -1.5707815955932638, -4.349529626779258e-05, 2.904529235792097e-06, 1.980020897462964e-05, -4.116688863575746e-06]","[0.0, 6.838828267063946e-05, -0.0, 0.0, 4.1731562649971465e-11, 1.6633120353671456e-24]","[0.0, -1.5707963267948966, 0.0, 0.0, 0.0, 0.0]","[0.0, -1.5707963267948966, 0.0, 0.0, 0.0, 0.0]",0.002,7,1
0,-1,"[-4.5124684469044496e-05, -1.5708185635008753, -1.4781951904296875e-05, 1.661359753413194e-05, 5.248483648756519e-05, 7.937054760986939e-06]","[0.0, 8.193802932510152e-05, -0.0, 0.0, 3.2333985564524194e-18, 1.2887487646454818e-31]","[0.0, -1.5707963267948966, 0.0, 0.0, 0.0, 0.0]","[0.0, -1.5707963267948966, 0.0, 0.0, 0.0, 0.0]",0.002,7,1
0,-1,"[-4.178682436162262e-05, -1.5708023510374964, -2.7179718017578125e-05, -2.081811938481337e-05, 5.5414187954738736e-05, -2.080598940068512e-05]","[0.0, 5.406971467891708e-05, -0.0, 0.0, 2.505265202357988e-25, 9.985337564624173e-39]","[0.0, -1.5707963267948966, 0.0, 0.0, 0.0, 0.0]","[0.0, -1.5707963267948966, 0.0, 0.0, 0.0, 0.0]",0.002,7,1
0,-1,"[2.6401312425150536e-06, -1.5708476505675257, -6.856981781311333e-05, -2.546728167729384e-05, -5.1800404683888246e-05, -4.116688863575746e-06]","[0.0, 7.045448001008481e-05, -0.0, 0.0, 1.9411014622261237e-32, 1.401298464324817e-45]","[0.0, -1.5707963267948966, 0.0, 0.0, 0.0, 0.0]","[0.0, -1.5707963267948966, 0.0, 0.0, 0.0, 0.0]",0.002,7,1
0,-1,"[-2.1282826558888246e-05, -1.5708385906615199, -6.857865082565695e-05, -3.7269001342821184e-05, 3.460424341028556e-05, 3.355847184138838e-06]","[0.0, 2.852769466699101e-05, -0.0, 0.0, 1.503982813193611e-39, 0.0]","[0.0, -1.5707963267948966, 0.0, 0.0, 0.0, 0.0]","[0.0, -1.5707963267948966, 0.0, 0.0, 0.0, 0.0]",0.002,7,1
0,-1,"[8.106231689453125e-06, -1.570876260797018, 6.024037496388246e-06, -9.016399719286028e-06, 2.2683032511849888e-05, -1.6514454976856996e-05]","[0.0, 4.793768675881438e-05, -0.0, 0.0, 0.0, 0.0]","[0.0, -1.5707963267948966, 0.0, 0.0, 0.0, 0.0]","[0.0, -1.5707963267948966, 0.0, 0.0, 0.0, 0.0]",0.002,7,1
0,-1,"[2.8903483325848356e-05, -1.570867200891012, -1.043081283569336e-05, 4.0932292602491316e-05, 1.0990574082825333e-05, -2.9865895406544496e-05]","[0.0, 3.866920087602921e-05, -0.0, 0.0, 0.0, 0.0]","[0.0, -1.5707963267948966, 0.0, 0.0, 0.0, 0.0]","[0.0, -1.5707963267948966, 0.0, 0.0, 0.0, 0.0]",0.002,7,1
0,-1,"[-2.557436098271637e-05, -1.5708548031248988, -7.173180347308517e-05, -4.367237426805559e-06, -3.0819569722950746e-05, -1.603761781865387e-05]","[0.0, -2.3886948838480748e-05, -0.0, 0.0, 0.0, 0.0]","[0.0, -1.5707963267948966, 0.0, 0.0, 0.0, 0.0]","[0.0, -1.5707963267948966, 0.0, 0.0, 0.0, 0.0]",0.002,7,1
0,1,"[-1.732503072560121e-06, -1.570643470466468, 8.947054018193512e-05, 5.285322155756944e-05, 9.593759023118764e-05, 0.00013383426994550973]","[0.037519894540309906, 0.16938018798828125, 0.11651018261909485, 0.06175251677632332, 0.05341823026537895, 0.057256344705820084]","[0.04418479434657463, -1.5266115324483218, 0.04418479434657463, 0.04418479434657463, 0.04418479434657463, 0.04418479434657463]","[0.04418479434657463, -1.5266115324483218, 0.04418479434657463, 0.04418479434657463, 0.04418479434657463, 0.04418479434657463]",0.002,7,1
0,2,"[-1.732503072560121e-06, -1.570643470466468, 8.947054018193512e-05, 5.285322155756944e-05, 9.593759023118764e-05, 0.00013383426994550973]","[0.037519894540309906, 0.16938018798828125, 0.11651018261909485, 0.06175251677632332, 0.05341823026537895, 0.057256344705820084]","[0.04461996713404648, -1.52617635966085, 0.04461996713404648, 0.04461996713404648, 0.04461996713404648, 0.04461996713404648]","[0.04461996713404648, -1.52617635966085, 0.04461996713404648, 0.04461996713404648, 0.04461996713404648, 0.04461996713404648]",0.002,7,1
0,3,"[0.0001040634888340719, -1.5703523420127858, 0.00028068224062138825, 0.00020329534497065538, 0.0002238080487586558, 0.0002867968287318945]","[0.04846243932843208, 0.20162871479988098, 0.14381419122219086, 0.09856089949607849, 0.08979351073503494, 0.09255947172641754]","[0.045055069432306895, -1.5257412573625897, 0.045055069432306895, 0.045055069432306895, 0.045055069432306895, 0.045055069432306895]","[0.045055069432306895, -1.5257412573625897, 0.045055069432306895, 0.045055069432306895, 0.045055069432306895, 0.045055069432306895]",0.002,7,1
0,4,"[0.00027788858278654516, -1.5701335372617287, 0.0005338827716272476, 0.0003875929066161632, 0.0005392343155108392, 0.00045768480049446225]","[0.06147747114300728, 0.19672389328479767, 0.14175409078598022, 0.108502596616745, 0.10175785422325134, 0.10599444806575775]","[0.045490100553995036, -1.5253062262409016, 0.045490100553995036, 0.045490100553995036, 0.045490100553995036, 0.045490100553995036]","[0.045490100553995036, -1.5253062262409016, 0.045490100553995036, 0.045490100553995036, 0.045490100553995036, 0.045490100553995036]",0.002,7,1
0,5,"[0.00055174739100039, -1.5698181456285347, 0.0008423964129846695, 0.000626369113586378, 0.0007060965872369707, 0.0007142449612729251]","[0.08591233938932419, 0.19131377339363098, 0.14896105229854584, 0.10979382693767548, 0.10965269804000854, 0.11324691772460938]","[0.04592505981186254, -1.524871266983034, 0.04592505981186254, 0.04592505981186254, 0.04592505981186254, 0.04592505981186254]","[0.04592505981186254, -1.524871266983034, 0.04592505981186254, 0.04592505981186254, 0.04592505981186254, 0.04592505981186254]",0.002,7,1
0,6,"[0.0007763087633065879, -1.5693563808784639, 0.0012076536761682632, 0.0009705263325194835, 0.0009893845999613404, 0.0010101466905325651]","[0.10822267085313797, 0.19934755563735962, 0.16734103858470917, 0.1221219077706337, 0.12110890448093414, 0.12208212167024612]","[0.0463599465187745, -1.524436380276122, 0.0463599465187745, 0.0463599465187745, 0.0463599465187745, 0.0463599465187745]","[0.0463599465187745, -1.524436380276122, 0.0463599465187745, 0.0463599465187745, 0.0463599465187745, 0.0463599465187745]",0.002,7,1
0,7,"[0.0010522345546633005, -1.56895722556904, 0.001580540333883107, 0.0012257534214477062, 0.0011835823534056544, 0.0012948224321007729]","[0.13106630742549896, 0.20959818363189697, 0.17577849328517914, 0.13862167298793793, 0.1343565583229065, 0.13533423840999603]","[0.0467947599877107, -1.5240015668071858, 0.0467947599877107, 0.0467947599877107, 0.0467947599877107, 0.0467947599877107]","[0.0467947599877107, -1.5240015668071858, 0.0467947599877107, 0.0467947599877107, 0.0467947599877107, 0.0467947599877107]",0.002,7,1
0,8,"[0.0013872202252969146, -1.568761062608548, 0.0019610563861292007, 0.0016489463993529796, 0.0014843158423900604, 0.0015944333281368017]","[0.16051237285137177, 0.19097700715065002, 0.17098695039749146, 0.15196624398231506, 0.14878439903259277, 0.1486082226037979]","[0.047229499531766576, -1.52356682726313, 0.047229499531766576, 0.047229499531766576, 0.047229499531766576, 0.047229499531766576]","[0.047229499531766576, -1.52356682726313, 0.047229499531766576, 0.047229499531766576, 0.047229499531766576, 0.047229499531766576]",0.002,7,1
0,9,"[0.001886017038486898, -1.5684969327742984, 0.0023525396930139664, 0.002095027560852003, 0.0018155365251004696, 0.0018736347556114197]","[0.18330566585063934, 0.15011198818683624, 0.15273644030094147, 0.17187586426734924, 0.16488713026046753, 0.16503667831420898]","[0.047664164464154356, -1.5231321623307421, 0.047664164464154356, 0.047664164464154356, 0.047664164464154356, 0.047664164464154356]","[0.047664164464154356, -1.5231321623307421, 0.047664164464154356, 0.047664164464154356, 0.047664164464154356, 0.047664164464154356]",0.002,7,1
0,10,"[0.0022215896751731634, -1.568183043771871, 0.0024870077716272476, 0.0023720699497680187, 0.0021569577511399984, 0.002224249765276909]","[0.1964953988790512, 0.12228190898895264, 0.16814251244068146, 0.190056711435318, 0.17695479094982147, 0.18229882419109344]","[0.048098754098204126, -1.5226975726966925, 0.048098754098204126, 0.048098754098204126, 0.048098754098204126, 0.048098754098204126]","[0.048098754098204126, -1.5226975726966925, 0.048098754098204126, 0.048098754098204126, 0.048098754098204126, 0.048098754098204126]",0.002,7,1
0,11,"[0.0024704744573682547, -1.5679451851504673, 0.00280172029604131, 0.0026259857365111827, 0.0025940497871488333, 0.0026169067714363337]","[0.2073206901550293, 0.16134905815124512, 0.19405105710029602, 0.19533006846904755, 0.19257129728794098, 0.19348911941051483]","[0.048533267747364967, -1.5222630590475317, 0.048533267747364967, 0.048533267747364967, 0.048533267747364967, 0.048533267747364967]","[0.048533267747364967, -1.5222630590475317, 0.048533267747364967, 0.048533267747364967, 0.048533267747364967, 0.048533267747364967]",0.002,7,1
0,12,"[0.002892583142966032, -1.567664649370574, 0.0031455198871057632, 0.0030135351368407726, 0.003108036471530795, 0.0030551967211067677]","[0.21822571754455566, 0.19318518042564392, 0.1999364048242569, 0.1997929811477661, 0.21250632405281067, 0.2075372189283371]","[0.048967704725205966, -1.5218286220696906, 0.048967704725205966, 0.048967704725205966, 0.048967704725205966, 0.048967704725205966]","[0.048967704725205966, -1.5218286220696906, 0.048967704725205966, 0.048967704725205966, 0.048967704725205966, 0.048967704725205966]",0.002,7,1
0,13,"[0.0033293068408966064, -1.567217602427565, 0.003575627003804982, 0.003392143840454054, 0.00350663298740983, 0.0035243688616901636]","[0.2310301661491394, 0.20290613174438477, 0.20887476205825806, 0.208689883351326, 0.22985900938510895, 0.22278155386447906]","[0.049402064345417336, -1.5213942624494792, 0.049402064345417336, 0.049402064345417336, 0.049402064345417336, 0.049402064345417336]","[0.049402064345417336, -1.5213942624494792, 0.049402064345417336, 0.049402064345417336, 0.049402064345417336, 0.049402064345417336]",0.002,7,1
0,14,"[0.0038460753858089447, -1.56686377179388, 0.004166905079976857, 0.0039061742969970226, 0.004077394027262926, 0.0039878287352621555]","[0.24605178833007812, 0.21301333606243134, 0.22408151626586914, 0.22459955513477325, 0.24186372756958008, 0.23748835921287537]","[0.04983634592181149, -1.5209599808730851, 0.04983634592181149, 0.04983634592181149, 0.04983634592181149, 0.04983634592181149]","[0.04983634592181149, -1.5209599808730851, 0.04983634592181149, 0.04983634592181149, 0.04983634592181149, 0.04983634592181149]",0.002,7,1
0,15,"[0.004487972240895033, -1.566377662388124, 0.004638973866597951, 0.004457517261169386, 0.004522243048995733, 0.004505351651459932]","[0.2643355429172516, 0.22803732752799988, 0.24785955250263214, 0.24943417310714722, 0.25685206055641174, 0.2516024708747864]","[0.05027054876832418, -1.5205257780265724, 0.05027054876832418, 0.05027054876832418, 0.05027054876832418, 0.05027054876832418]","[0.05027054876832418, -1.5205257780265724, 0.05027054876832418, 0.05027054876832418, 0.05027054876832418, 0.05027054876832418]",0.002,7,1
0,16,"[0.005160850938409567, -1.5659128541922946, 0.005186859761373341, 0.005073829288146925, 0.005004617851227522, 0.005079865455627441]","[0.2810863256454468, 0.24544548988342285, 0.2676008343696594, 0.27329763770103455, 0.26686033606529236, 0.2694704532623291]","[0.05070467219901544, -1.5200916545958811, 0.05070467219901544, 0.05070467219901544, 0.05070467219901544, 0.05070467219901544]","[0.05070467219901544, -1.5200916545958811, 0.05070467219901544, 0.05070467219901544, 0.05070467219901544, 0.05070467219901544]",0.002,7,1
0,17,"[0.0057694679126143456, -1.5653978812373062, 0.005764786397115529, 0.005734487170837355, 0.005607106722891331, 0.0056295571848750114]","[0.29854756593704224, 0.2639037072658539, 0.28209003806114197, 0.29293835163116455, 0.27954912185668945, 0.28453317284584045]","[0.051138715528070866, -1.5196576112668256, 0.051138715528070866, 0.051138715528070866, 0.051138715528070866, 0.051138715528070866]","[0.051138715528070866, -1.5196576112668256, 0.051138715528070866, 0.051138715528070866, 0.051138715528070866, 0.051138715528070866]",0.002,7,1
0,18,"[0.006388761568814516, -1.564835235276707, 0.006348911915914357, 0.0062424379536132335, 0.0062003168277442455, 0.006228584796190262]","[0.31289222836494446, 0.2779657244682312, 0.2937982678413391, 0.30595892667770386, 0.29322126507759094, 0.2985612750053406]","[0.051572678069802536, -1.519223648725094, 0.051572678069802536, 0.051572678069802536, 0.051572678069802536, 0.051572678069802536]","[0.051572678069802536, -1.519223648725094, 0.051572678069802536, 0.051572678069802536, 0.051572678069802536, 0.051572678069802536]",0.002,7,1
0,19,"[0.00699669448658824, -1.5642349727316578, 0.006918255482808888, 0.006815119380615187, 0.006908289156854153, 0.006848424207419157]","[0.32462984323501587, 0.2933160960674286, 0.30429497361183167, 0.31140005588531494, 0.3116331994533539, 0.31205031275749207]","[0.05200655913865015, -1.5187897676562465, 0.05200655913865015, 0.05200655913865015, 0.05200655913865015, 0.05200655913865015]","[0.05200655913865015, -1.5187897676562465, 0.05200655913865015, 0.05200655913865015, 0.05200655913865015, 0.05200655913865015]",0.002,7,1
0,20,"[0.007560098078101873, -1.5636054941317816, 0.0075104872332971695, 0.007469220752380323, 0.007612994406372309, 0.007438930682837963]","[0.33339622616767883, 0.30684736371040344, 0.3193111717700958, 0.3161202073097229, 0.3278762996196747, 0.325879842042923]","[0.05244035804918214, -1.5183559687457144, 0.05244035804918214, 0.05244035804918214, 0.05244035804918214, 0.05244035804918214]","[0.05244035804918214, -1.5183559687457144, 0.05244035804918214, 0.05244035804918214, 0.05244035804918214, 0.05244035804918214]",0.002,7,1
0,21,"[0.008239000104367733, -1.5629656364074727, 0.008245293294088185, 0.008149905795715284, 0.0083029605448246, 0.00814339704811573]","[0.3425469696521759, 0.32203105092048645, 0.3325043022632599, 0.3290666937828064, 0.34221240878105164, 0.3398820161819458]","[0.05287407411609672, -1.5179222526787999, 0.05287407411609672, 0.05287407411609672, 0.05287407411609672, 0.05287407411609672]","[0.05287407411609672, -1.5179222526787999, 0.05287407411609672, 0.05287407411609672, 0.05287407411609672, 0.05287407411609672]",0.002,7,1
0,22,"[0.009040804579854012, -1.562278702189662, 0.0090106169330042, 0.008889122600219679, 0.00895038340240717, 0.008857215754687786]","[0.3568613529205322, 0.3372832238674164, 0.34759244322776794, 0.34400317072868347, 0.3546072840690613, 0.3525190055370331]","[0.05330770665422299, -1.5174886201406736, 0.05330770665422299, 0.05330770665422299, 0.05330770665422299, 0.05330770665422299]","[0.05330770665422299, -1.5174886201406736, 0.05330770665422299, 0.05330770665422299, 0.05330770665422299, 0.05330770665422299]",0.002,7,1
0,23,"[0.009861186146736145, -1.5615045682391901, 0.009710613881246388, 0.009686632747314405, 0.009663617238402367, 0.009585745632648468]","[0.372594952583313, 0.35315391421318054, 0.3612351417541504, 0.3656926155090332, 0.3641289472579956, 0.3675515651702881]","[0.05374125497852198, -1.5170550718163747, 0.05374125497852198, 0.05374125497852198, 0.05374125497852198, 0.05374125497852198]","[0.05374125497852198, -1.5170550718163747, 0.05374125497852198, 0.05374125497852198, 0.05374125497852198, 0.05374125497852198]",0.002,7,1
0,24,"[0.010599484667181969, -1.5608012306368728, 0.010517899190084279, 0.010502381915710401, 0.010333686135709286, 0.01035948283970356]","[0.38951799273490906, 0.3661271631717682, 0.3758595883846283, 0.3849019408226013, 0.3748188614845276, 0.3815736174583435]","[0.05417471840408779, -1.5166216083908088, 0.05417471840408779, 0.05417471840408779, 0.05417471840408779, 0.05417471840408779]","[0.05417471840408779, -1.5166216083908088, 0.05417471840408779, 0.05417471840408779, 0.05417471840408779, 0.05417471840408779]",0.002,7,1
0,25,"[0.011298548430204391, -1.5599851936898013, 0.011295620595113576, 0.011321111316345167, 0.011170710436999798, 0.011082201264798641]","[0.4020116925239563, 0.3817552626132965, 0.3894680440425873, 0.3981839418411255, 0.3868851363658905, 0.3927684724330902]","[0.05460809624614861, -1.516188230548748, 0.05460809624614861, 0.05460809624614861, 0.05460809624614861, 0.05460809624614861]","[0.05460809624614861, -1.516188230548748, 0.05460809624614861, 0.05460809624614861, 0.05460809624614861, 0.05460809624614861]",0.002,7,1
0,26,"[0.012087025679647923, -1.5591914684376498, 0.01205474535097295, 0.012080593700073194, 0.011958686634898186, 0.011869045905768871]","[0.41007232666015625, 0.39629054069519043, 0.40123414993286133, 0.40736138820648193, 0.399739146232605, 0.40591326355934143]","[0.05504138782006785, -1.5157549389748286, 0.05504138782006785, 0.05504138782006785, 0.05504138782006785, 0.05504138782006785]","[0.05504138782006785, -1.5157549389748286, 0.05504138782006785, 0.05504138782006785, 0.05504138782006785, 0.05504138782006785]",0.002,7,1
0,27,"[0.012908118776977062, -1.5583064270070572, 0.012940231953756154, 0.012893601054809523, 0.012752431444823742, 0.012726705521345139]","[0.4185549020767212, 0.4088226854801178, 0.41281288862228394, 0.41445475816726685, 0.4163528382778168, 0.41637980937957764]","[0.055474592441345186, -1.5153217343535514, 0.055474592441345186, 0.055474592441345186, 0.055474592441345186, 0.055474592441345186]","[0.055474592441345186, -1.5153217343535514, 0.055474592441345186, 0.055474592441345186, 0.055474592441345186, 0.055474592441345186]",0.002,7,1
0,28,"[0.013874930329620838, -1.557496703495719, 0.013704601918355763, 0.013751431102416944, 0.013624332845211029, 0.013549123890697956]","[0.42971140146255493, 0.42349669337272644, 0.42177584767341614, 0.4198669195175171, 0.42914897203445435, 0.4290209114551544]","[0.0559077094256177, -1.5148886173692788, 0.0559077094256177, 0.0559077094256177, 0.0559077094256177, 0.0559077094256177]","[0.0559077094256177, -1.5148886173692788, 0.0559077094256177, 0.0559077094256177, 0.0559077094256177, 0.0559077094256177]",0.002,7,1
0,29,"[0.014740556478500366, -1.5565728026307006, 0.014549080525533498, 0.014647288913391066, 0.01450174767524004, 0.014420954510569572]","[0.44351398944854736, 0.4398738443851471, 0.43641364574432373, 0.42994067072868347, 0.441183477640152, 0.4407745599746704]","[0.05634073808866088, -1.5144555887062356, 0.05634073808866088, 0.05634073808866088, 0.05634073808866088, 0.05634073808866088]","[0.05634073808866088, -1.5144555887062356, 0.05634073808866088, 0.05634073808866088, 0.05634073808866088, 0.05634073808866088]",0.002,7,1
0,30,"[0.015649544075131416, -1.5556613088450213, 0.015430275593892873, 0.01557116090740962, 0.015427814796566963, 0.015298852697014809]","[0.456863671541214, 0.45117446780204773, 0.4461715519428253, 0.44124099612236023, 0.44939494132995605, 0.44899624586105347]","[0.05677367774638972, -1.514022649048507, 0.05677367774638972, 0.05677367774638972, 0.05677367774638972, 0.05677367774638972]","[0.05677367774638972, -1.514022649048507, 0.05677367774638972, 0.05677367774638972, 0.05677367774638972, 0.05677367774638972]",0.002,7,1
0,31,"[0.016570299863815308, -1.554748810162284, 0.016413036976949513, 0.0165138679691772, 0.016275480389595032, 0.01628083363175392]","[0.4653995633125305, 0.46368607878685, 0.45646679401397705, 0.4553748667240143, 0.4595998227596283, 0.46113869547843933]","[0.05720652771485992, -1.5135897990800367, 0.05720652771485992, 0.05720652771485992, 0.05720652771485992, 0.05720652771485992]","[0.05720652771485992, -1.5135897990800367, 0.05720652771485992, 0.05720652771485992, 0.05720652771485992, 0.05720652771485992]",0.002,7,1
0,32,"[0.01746981590986252, -1.5537426316044112, 0.017333332692281544, 0.017427011127136183, 0.01717470958828926, 0.017179623246192932]","[0.4754790961742401, 0.47552603483200073, 0.4690934121608734, 0.4671620726585388, 0.4700874388217926, 0.4731210470199585]","[0.057639287310268766, -1.5131570394846279, 0.057639287310268766, 0.057639287310268766, 0.057639287310268766, 0.057639287310268766]","[0.057639287310268766, -1.5131570394846279, 0.057639287310268766, 0.057639287310268766, 0.057639287310268766, 0.057639287310268766]",0.002,7,1
0,33,"[0.01850014366209507, -1.552787036900856, 0.018336121235982716, 0.018350763911865187, 0.018184391781687737, 0.018151938915252686]","[0.4811502993106842, 0.48302412033081055, 0.48106977343559265, 0.4766872227191925, 0.48231106996536255, 0.484165221452713]","[0.05807195584895635, -1.5127243709459401, 0.05807195584895635, 0.05807195584895635, 0.05807195584895635, 0.05807195584895635]","[0.05807195584895635, -1.5127243709459401, 0.05807195584895635, 0.05807195584895635, 0.05807195584895635, 0.05807195584895635]",0.002,7,1
0,34,"[0.01947030797600746, -1.551719944258668, 0.01929933229555303, 0.01926986753430171, 0.019179197028279305, 0.01917625404894352]","[0.4933854341506958, 0.49462810158729553, 0.4921475052833557, 0.48725903034210205, 0.49365776777267456, 0.49439433217048645]","[0.05850453264740661, -1.51229179414749, 0.05850453264740661, 0.05850453264740661, 0.05850453264740661, 0.05850453264740661]","[0.05850453264740661, -1.51229179414749, 0.05850453264740661, 0.05850453264740661, 0.05850453264740661, 0.05850453264740661]",0.002,7,1
0,35,"[0.02051720768213272, -1.55067731559787, 0.020349804555074513, 0.0202144819447021, 0.020123695954680443, 0.020155929028987885]","[0.5039392113685608, 0.5048625469207764, 0.5034312605857849, 0.4979611039161682, 0.5051684379577637, 0.505601167678833]","[0.05893701702224843, -1.511859309772648, 0.05893701702224843, 0.05893701702224843, 0.05893701702224843, 0.05893701702224843]","[0.05893701702224843, -1.511859309772648, 0.05893701702224843, 0.05893701702224843, 0.05893701702224843, 0.05893701702224843]",0.002,7,1
0,36,"[0.0215016920119524, -1.549583825548627, 0.02131683031191045, 0.021211667651794386, 0.02117099240422249, 0.021210992708802223]","[0.5133819580078125, 0.5149140954017639, 0.509060263633728, 0.5070338845252991, 0.5159454941749573, 0.5145328044891357]","[0.059369408290256664, -1.5114269185046398, 0.059369408290256664, 0.059369408290256664, 0.059369408290256664, 0.059369408290256664]","[0.059369408290256664, -1.5114269185046398, 0.059369408290256664, 0.059369408290256664, 0.059369408290256664, 0.059369408290256664]",0.002,7,1
0,37,"[0.0225730761885643, -1.5485580277493973, 0.022311035786763966, 0.022287293071411085, 0.02221565693616867, 0.022227659821510315]","[0.5199182629585266, 0.5201473236083984, 0.5171127319335938, 0.5170823931694031, 0.5266841053962708, 0.5230824947357178]","[0.05980170576835331, -1.5109946210265432, 0.05980170576835331, 0.05980170576835331, 0.05980170576835331, 0.05980170576835331]","[0.05980170576835331, -1.5109946210265432, 0.05980170576835331, 0.05980170576835331, 0.05980170576835331, 0.05980170576835331]",0.002,7,1
0,38,"[0.023583896458148956, -1.5474984527430315, 0.023448769246236623, 0.02325264989819331, 0.02335323952138424, 0.023316368460655212]","[0.5293275713920593, 0.5272567868232727, 0.5234649181365967, 0.5257929563522339, 0.5336061120033264, 0.5298653244972229]","[0.060233908773608465, -1.510562418021288, 0.060233908773608465, 0.060233908773608465, 0.060233908773608465, 0.060233908773608465]","[0.060233908773608465, -1.510562418021288, 0.060233908773608465, 0.060233908773608465, 0.060233908773608465, 0.060233908773608465]",0.002,7,1
0,39,"[0.02461356483399868, -1.5463813480785866, 0.02450257936586553, 0.024327321643493605, 0.024375014007091522, 0.024428589269518852]","[0.5338780879974365, 0.5340569615364075, 0.5295377373695374, 0.5361899137496948, 0.5405510067939758, 0.5369012951850891]","[0.060666016623241524, -1.510130310171655, 0.060666016623241524, 0.060666016623241524, 0.060666016623241524, 0.060666016623241524]","[0.060666016623241524, -1.510130310171655, 0.060666016623241524, 0.060666016623241524, 0.060666016623241524, 0.060666016623241524]",0.002,7,1
0,40,"[0.02567758597433567, -1.5452322711101552, 0.02551728883852178, 0.02537934362377925, 0.025481410324573517, 0.025479568168520927]","[0.5435094237327576, 0.5414836406707764, 0.5381813049316406, 0.5455178022384644, 0.5465021133422852, 0.5455557703971863]","[0.061098028634622194, -1.5096982981602745, 0.061098028634622194, 0.061098028634622194, 0.061098028634622194, 0.061098028634622194]","[0.061098028634622194, -1.5096982981602745, 0.061098028634622194, 0.061098028634622194, 0.061098028634622194, 0.061098028634622194]",0.002,7,1
0,41,"[0.02676289901137352, -1.5440915630063792, 0.026676003132955373, 0.026532693500183058, 0.02657201513648033, 0.026644181460142136]","[0.5507433414459229, 0.5498562455177307, 0.5480027198791504, 0.5543520450592041, 0.5533100962638855, 0.5485070943832397]","[0.06152994412527155, -1.509266382669625, 0.06152994412527155, 0.06152994412527155, 0.06152994412527155, 0.06152994412527155]","[0.06152994412527155, -1.509266382669625, 0.06152994412527155, 0.06152994412527155, 0.06152994412527155, 0.06152994412527155]",0.002,7,1
0,42,"[0.027861876413226128, -1.5429505848190566, 0.02773458162416631, 0.027578874225280714, 0.027733735740184784, 0.027771444991230965]","[0.5598725080490112, 0.5548659563064575, 0.5562936067581177, 0.5619962811470032, 0.5602840781211853, 0.5578927397727966]","[0.06196176241286319, -1.5088345643820333, 0.06196176241286319, 0.06196176241286319, 0.06196176241286319, 0.06196176241286319]","[0.06196176241286319, -1.5088345643820333, 0.06196176241286319, 0.06196176241286319, 0.06196176241286319, 0.06196176241286319]",0.002,7,1
0,43,"[0.02898653969168663, -1.541833470841386, 0.02887136140932256, 0.0286828714558105, 0.02890734001994133, 0.028910866007208824]","[0.5651949048042297, 0.5601308345794678, 0.56094890832901, 0.5670586228370667, 0.5671329498291016, 0.5667592883110046]","[0.062393482815224256, -1.5084028439796724, 0.062393482815224256, 0.062393482815224256, 0.062393482815224256, 0.062393482815224256]","[0.062393482815224256, -1.5084028439796724, 0.062393482815224256, 0.062393482815224256, 0.062393482815224256, 0.062393482815224256]",0.002,7,1
0,44,"[0.03002312034368515, -1.540677448069193, 0.030068222676412404, 0.029765172595642042, 0.03011295013129711, 0.030092405155301094]","[0.5711463093757629, 0.5623865127563477, 0.5681943893432617, 0.5735663175582886, 0.5761529803276062, 0.5720202922821045]","[0.06282510465033653, -1.50797122214456, 0.06282510465033653, 0.06282510465033653, 0.06282510465033653, 0.06282510465033653]","[0.06282510465033653, -1.50797122214456, 0.06282510465033653, 0.06282510465033653, 0.06282510465033653, 0.06282510465033653]",0.002,7,1
0,45,"[0.0311447661370039, -1.5394888308695336, 0.031220261250631154, 0.031001134509704542, 0.031296174973249435, 0.031203828752040863]","[0.5754821300506592, 0.5662499070167542, 0.5739296078681946, 0.5803122520446777, 0.5820092558860779, 0.5770668387413025]","[0.06325662723633747, -1.507539699558559, 0.06325662723633747, 0.06325662723633747, 0.06325662723633747, 0.06325662723633747]","[0.06325662723633747, -1.507539699558559, 0.06325662723633747, 0.06325662723633747, 0.06325662723633747, 0.06325662723633747]",0.002,7,1
0,46,"[0.03233179450035095, -1.5383592073670407, 0.032358948384420216, 0.032179637546203566, 0.03243685141205788, 0.03241809830069542]","[0.580635666847229, 0.5727377533912659, 0.5796760320663452, 0.5879726409912109, 0.5843738317489624, 0.5826734304428101]","[0.0636880498915214, -1.5071082769033752, 0.0636880498915214, 0.0636880498915214, 0.0636880498915214, 0.0636880498915214]","[0.0636880498915214, -1.5071082769033752, 0.0636880498915214, 0.0636880498915214, 0.0636880498915214, 0.0636880498915214]",0.002,7,1
0,47,"[0.033511094748973846, -1.5371962387910862, 0.03359586397279912, 0.03331296026196284, 0.03359154611825943, 0.03356673941016197]","[0.5883463621139526, 0.5782473087310791, 0.5828952789306641, 0.5945413112640381, 0.5888500809669495, 0.5868902802467346]","[0.06411937193434043, -1.506676954860556, 0.06411937193434043, 0.06411937193434043, 0.06411937193434043, 0.06411937193434043]","[0.06411937193434043, -1.506676954860556, 0.06411937193434043, 0.06411937193434043, 0.06411937193434043, 0.06411937193434043]",0.002,7,1
0,48,"[0.034789275377988815, -1.5359802667847653, 0.03478748003114873, 0.03464619695629878, 0.034765489399433136, 0.034783557057380676]","[0.5917468667030334, 0.5835172533988953, 0.5871922373771667, 0.5954067707061768, 0.5943727493286133, 0.589809775352478]","[0.06455059268340568, -1.506245734111491, 0.06455059268340568, 0.06455059268340568, 0.06455059268340568, 0.06455059268340568]","[0.06455059268340568, -1.506245734111491, 0.06455059268340568, 0.06455059268340568, 0.06455059268340568, 0.06455059268340568]",0.002,7,1
0,49,"[0.03592905029654503, -1.5347827237895508, 0.0359576384173792, 0.03585331022228999, 0.03600936010479927, 0.035921309143304825]","[0.5978175401687622, 0.5877978205680847, 0.5897315740585327, 0.6012536287307739, 0.5966840982437134, 0.5946691632270813]","[0.06498171145748827, -1.5058146153374083, 0.06498171145748827, 0.06498171145748827, 0.06498171145748827, 0.06498171145748827]","[0.06498171145748827, -1.5058146153374083, 0.06498171145748827, 0.06498171145748827, 0.06498171145748827, 0.06498171145748827]",0.002,7,1
0,50,"[0.03713585436344147, -1.5335874532214184, 0.03716737428774053, 0.037085099811218214, 0.03717425838112831, 0.037125058472156525]","[0.598814845085144, 0.5931643843650818, 0.5969963669776917, 0.607554018497467, 0.5971086621284485, 0.5983602404594421]","[0.06541272757552037, -1.5053835992193763, 0.06541272757552037, 0.06541272757552037, 0.06541272757552037, 0.06541272757552037]","[0.06541272757552037, -1.5053835992193763, 0.06541272757552037, 0.06541272757552037, 0.06541272757552037, 0.06541272757552037]",0.002,7,1
0,51,"[0.03832998126745224, -1.532352329497673, 0.03840333620180303, 0.03832177698101802, 0.03843628987669945, 0.038284219801425934]","[0.6021477580070496, 0.598271906375885, 0.6004568338394165, 0.6095238327980042, 0.6020665168762207, 0.6035470962524414]","[0.06584364035659639, -1.5049526864383003, 0.06584364035659639, 0.06584364035659639, 0.06584364035659639, 0.06584364035659639]","[0.06584364035659639, -1.5049526864383003, 0.06584364035659639, 0.06584364035659639, 0.06584364035659639, 0.06584364035659639]",0.002,7,1
0,52,"[0.0395435132086277, -1.531177283530571, 0.039593044911519826, 0.039608998889587355, 0.039662424474954605, 0.03950052708387375]","[0.6066401600837708, 0.6029729843139648, 0.6042419075965881, 0.6112115383148193, 0.6047782301902771, 0.6072160601615906]","[0.06627444911997396, -1.5045218776749225, 0.06627444911997396, 0.06627444911997396, 0.06627444911997396, 0.06627444911997396]","[0.06627444911997396, -1.5045218776749225, 0.06627444911997396, 0.06627444911997396, 0.06627444911997396, 0.06627444911997396]",0.002,7,1
0,53,"[0.04071829840540886, -1.5299440820566197, 0.04085380235780889, 0.040849609965942335, 0.04076164588332176, 0.04070569947361946]","[0.6122047305107117, 0.6068870425224304, 0.6051898002624512, 0.6130915880203247, 0.6097562909126282, 0.611610472202301]","[0.06670515318507503, -1.5040911736098215, 0.06670515318507503, 0.06670515318507503, 0.06670515318507503, 0.06670515318507503]","[0.06670515318507503, -1.5040911736098215, 0.06670515318507503, 0.06670515318507503, 0.06670515318507503, 0.06670515318507503]",0.002,7,1
0,54,"[0.04200606420636177, -1.5287826930037518, 0.0420611540423792, 0.04205171644177241, 0.04209943115711212, 0.041889872401952744]","[0.6170178651809692, 0.6079208850860596, 0.6114428639411926, 0.6142038702964783, 0.6113708019256592, 0.6167272925376892]","[0.06713575187148693, -1.5036605749234095, 0.06713575187148693, 0.06713575187148693, 0.06713575187148693, 0.06713575187148693]","[0.06713575187148693, -1.5036605749234095, 0.06713575187148693, 0.06713575187148693, 0.06713575187148693, 0.06713575187148693]",0.002,7,1
0,55,"[0.04322003573179245, -1.527517744605877, 0.04322797456850225, 0.0433775621601562, 0.04317281022667885, 0.04312397167086601]","[0.6174848079681396, 0.6147941946983337, 0.6112363338470459, 0.6164190173149109, 0.613800585269928, 0.6182569861412048]","[0.06756624449896355, -1.503230082295933, 0.06756624449896355, 0.06756624449896355, 0.06756624449896355, 0.06756624449896355]","[0.06756624449896355, -1.503230082295933, 0.06756624449896355, 0.06756624449896355, 0.06756624449896355, 0.06756624449896355]",0.002,7,1
0,56,"[0.04440408945083618, -1.5263061051121731, 0.04448920885194951, 0.044632120723388624, 0.04450801759958267, 0.04438020661473274]","[0.6200791001319885, 0.6106781959533691, 0.6140305399894714, 0.6169622540473938, 0.6140989065170288, 0.6197861433029175]","[0.0679966303874262, -1.5027996964074704, 0.0679966303874262, 0.0679966303874262, 0.0679966303874262, 0.0679966303874262]","[0.0679966303874262, -1.5027996964074704, 0.0679966303874262, 0.0679966303874262, 0.0679966303874262, 0.0679966303874262]",0.002,7,1
0,57,"[0.04571801424026489, -1.5251078207841893, 0.045702759419576466, 0.045883460635803175, 0.04565579071640968, 0.04553910717368126]","[0.6186486482620239, 0.6131162643432617, 0.6143655180931091, 0.6168986558914185, 0.6186955571174622, 0.6229587197303772]","[0.06842690885696494, -1.5023694179379317, 0.06842690885696494, 0.06842690885696494, 0.06842690885696494, 0.06842690885696494]","[0.06842690885696494, -1.5023694179379317, 0.06842690885696494, 0.06842690885696494, 0.06842690885696494, 0.06842690885696494]",0.002,7,1
0,58,"[0.046942438930273056, -1.523848609333374, 0.04689389864076787, 0.04712621747937007, 0.04685943201184273, 0.04677282273769379]","[0.621658444404602, 0.6168931126594543, 0.6137049198150635, 0.616226315498352, 0.6202576160430908, 0.6242597699165344]","[0.0688570792278394, -1.5019392475670572, 0.0688570792278394, 0.0688570792278394, 0.0688570792278394, 0.0688570792278394]","[0.0688570792278394, -1.5019392475670572, 0.0688570792278394, 0.0688570792278394, 0.0688570792278394, 0.0688570792278394]",0.002,7,1
0,59,"[0.048212938010692596, -1.5226556298187752, 0.048154656087056935, 0.04829554140057368, 0.04814855381846428, 0.04801516234874725]","[0.6238348484039307, 0.6177237629890442, 0.6178773641586304, 0.6148204803466797, 0.6228417158126831, 0.6243735551834106]","[0.0692871408204801, -1.5015091859744165, 0.0692871408204801, 0.0692871408204801, 0.0692871408204801, 0.0692871408204801]","[0.0692871408204801, -1.5015091859744165, 0.0692871408204801, 0.0692871408204801, 0.0692871408204801, 0.0692871408204801]",0.002,7,1
0,60,"[0.04941984638571739, -1.521438942556717, 0.04933673540224248, 0.04954676210369868, 0.04934479296207428, 0.049258626997470856]","[0.6251164674758911, 0.6165611743927002, 0.6187182664871216, 0.6134546995162964, 0.6213741898536682, 0.6252359747886658]","[0.06971709295548933, -1.5010792338394072, 0.06971709295548933, 0.06971709295548933, 0.06971709295548933, 0.06971709295548933]","[0.06971709295548933, -1.5010792338394072, 0.06971709295548933, 0.06971709295548933, 0.06971709295548933, 0.06971709295548933]",0.002,7,1
0,61,"[0.0506814643740654, -1.520176400696375, 0.05058938661684209, 0.050737186069152784, 0.05054832249879837, 0.05053787678480148]","[0.6243628263473511, 0.6144576668739319, 0.6189512014389038, 0.6153648495674133, 0.6236952543258667, 0.6260514259338379]","[0.07014693495364233, -1.5006493918412542, 0.07014693495364233, 0.07014693495364233, 0.07014693495364233, 0.07014693495364233]","[0.07014693495364233, -1.5006493918412542, 0.07014693495364233, 0.07014693495364233, 0.07014693495364233, 0.07014693495364233]",0.002,7,1
0,62,"[0.05198001116514206, -1.5189743873528023, 0.05185920396913701, 0.0519140201755981, 0.05185115709900856, 0.051806699484586716]","[0.622363269329071, 0.6112693548202515, 0.616706907749176, 0.6170892715454102, 0.6252914071083069, 0.6262516379356384]","[0.07057666613588828, -1.5002196606590084, 0.07057666613588828, 0.07057666613588828, 0.07057666613588828, 0.07057666613588828]","[0.07057666613588828, -1.5002196606590084, 0.07057666613588828, 0.07057666613588828, 0.07057666613588828, 0.07057666613588828]",0.002,7,1
0,63,"[0.05320386216044426, -1.5177737486413498, 0.053070847188131154, 0.053172751063964796, 0.05310555920004845, 0.053106002509593964]","[0.6230372786521912, 0.6123377084732056, 0.6196472644805908, 0.6215643286705017, 0.6244350671768188, 0.6284515261650085]","[0.07100628582335153, -1.499790040971545, 0.07100628582335153, 0.07100628582335153, 0.07100628582335153, 0.07100628582335153]","[0.07100628582335153, -1.499790040971545, 0.07100628582335153, 0.07100628582335153, 0.07100628582335153, 0.07100628582335153]",0.002,7,1
0,64,"[0.054440099745988846, -1.5165081222406407, 0.054334465657369435, 0.054306431407592726, 0.05426713079214096, 0.05436223745346069]","[0.6228998303413391, 0.6090328693389893, 0.6179519295692444, 0.6224758625030518, 0.6243869662284851, 0.6243176460266113]","[0.07143579333733246, -1.4993605334575641, 0.07143579333733246, 0.07143579333733246, 0.07143579333733246, 0.07143579333733246]","[0.07143579333733246, -1.4993605334575641, 0.07143579333733246, 0.07143579333733246, 0.07143579333733246, 0.07143579333733246]",0.002,7,1
0,65,"[0.055705659091472626, -1.515270573352911, 0.055527512227193654, 0.055569692248962355, 0.05557233467698097, 0.05560026317834854]","[0.6237100958824158, 0.6053327322006226, 0.614472508430481, 0.6200428009033203, 0.6236414909362793, 0.6221824884414673]","[0.07186518799930869, -1.498931138795588, 0.07186518799930869, 0.07186518799930869, 0.07186518799930869, 0.07186518799930869]","[0.07186518799930869, -1.498931138795588, 0.07186518799930869, 0.07186518799930869, 0.07186518799930869, 0.07186518799930869]",0.002,7,1
0,66,"[0.05696253851056099, -1.5141111363521595, 0.056768242512838185, 0.056779785747192335, 0.056818291544914246, 0.05689312890172005]","[0.6227813363075256, 0.5990279316902161, 0.609521746635437, 0.6203438639640808, 0.6222976446151733, 0.6202933192253113]","[0.07229446913093615, -1.4985018576639604, 0.07229446913093615, 0.07229446913093615, 0.07229446913093615, 0.07229446913093615]","[0.07229446913093615, -1.4985018576639604, 0.07229446913093615, 0.07229446913093615, 0.07229446913093615, 0.07229446913093615]",0.002,7,1
0,67,"[0.05816786736249924, -1.5128884029439469, 0.057946030293599904, 0.05805663644757075, 0.05804099142551422, 0.05819593742489815]","[0.6204017400741577, 0.5968071818351746, 0.6101871132850647, 0.6194472312927246, 0.6194239854812622, 0.6176736950874329]","[0.07272363605405009, -1.4980726907408464, 0.07272363605405009, 0.07272363605405009, 0.07272363605405009, 0.07272363605405009]","[0.07272363605405009, -1.4980726907408464, 0.07272363605405009, 0.07272363605405009, 0.07272363605405009, 0.07272363605405009]",0.002,7,1
0,68,"[0.0594368502497673, -1.5117104326239605, 0.05915385881532842, 0.05922143041577144, 0.05938221514225006, 0.05936633050441742]","[0.618420422077179, 0.5967293381690979, 0.606930136680603, 0.6181979775428772, 0.6188238263130188, 0.6148754954338074]","[0.07315268809066618, -1.4976436387042305, 0.07315268809066618, 0.07315268809066618, 0.07315268809066618, 0.07315268809066618]","[0.07315268809066618, -1.4976436387042305, 0.07315268809066618, 0.07315268809066618, 0.07315268809066618, 0.07315268809066618]",0.002,7,1
0,69,"[0.060581281781196594, -1.5104636636427422, 0.06036121049989873, 0.06044618665661616, 0.06058306619524956, 0.06069328263401985]","[0.6173475384712219, 0.5946516990661621, 0.6049792766571045, 0.616927444934845, 0.614677906036377, 0.6127477884292603]","[0.07358162456298162, -1.4972147022319149, 0.07358162456298162, 0.07358162456298162, 0.07358162456298162, 0.07358162456298162]","[0.07358162456298162, -1.4972147022319149, 0.07358162456298162, 0.07358162456298162, 0.07358162456298162, 0.07358162456298162]",0.002,7,1
0,70,"[0.06184821575880051, -1.5093147356859227, 0.061577622090474904, 0.06162981569256587, 0.06183313578367233, 0.06189078837633133]","[0.6146660447120667, 0.5910463929176331, 0.6043090224266052, 0.6142048239707947, 0.6131747961044312, 0.6099585890769958]","[0.07401044479337612, -1.4967858820015205, 0.07401044479337612, 0.07401044479337612, 0.07401044479337612, 0.07401044479337612]","[0.07401044479337612, -1.4967858820015205, 0.07401044479337612, 0.07401044479337612, 0.07401044479337612, 0.07401044479337612]",0.002,7,1
0,71,"[0.06307423114776611, -1.5080789190581818, 0.06279260316957647, 0.06294230997051997, 0.063078373670578, 0.0631260871887207]","[0.6084312200546265, 0.5879155993461609, 0.6018350720405579, 0.6105867028236389, 0.6111487150192261, 0.6072227358818054]","[0.07443914810441309, -1.4963571786904835, 0.07443914810441309, 0.07443914810441309, 0.07443914810441309, 0.07443914810441309]","[0.07443914810441309, -1.4963571786904835, 0.07443914810441309, 0.07443914810441309, 0.07443914810441309, 0.07443914810441309]",0.002,7,1
0,72,"[0.06427861005067825, -1.506893367772438, 0.06405002275575811, 0.0640980440327148, 0.06426645070314407, 0.06433767080307007]","[0.6075263619422913, 0.5823056697845459, 0.5971461534500122, 0.6100038290023804, 0.6061578392982483, 0.6038731336593628]","[0.07486773381884058, -1.495928592976056, 0.07486773381884058, 0.07486773381884058, 0.07486773381884058, 0.07486773381884058]","[0.07486773381884058, -1.495928592976056, 0.07486773381884058, 0.07486773381884058, 0.07486773381884058, 0.07486773381884058]",0.002,7,1
0,73,"[0.06556975841522217, -1.505750761633255, 0.06523687044252569, 0.06535760938610835, 0.06554382294416428, 0.0655319094657898]","[0.6040513515472412, 0.5819044709205627, 0.5932421684265137, 0.6063043475151062, 0.6028282046318054, 0.5994423627853394]","[0.07529620125959248, -1.495500125535304, 0.07529620125959248, 0.07529620125959248, 0.07529620125959248, 0.07529620125959248]","[0.07529620125959248, -1.495500125535304, 0.07529620125959248, 0.07529620125959248, 0.07529620125959248, 0.07529620125959248]",0.002,7,1
0,74,"[0.06676696985960007, -1.5045351472548028, 0.06645805040468389, 0.06658832609143062, 0.06668597459793091, 0.06674761325120926]","[0.6005775332450867, 0.5818021297454834, 0.5899503827095032, 0.6013746857643127, 0.5988520979881287, 0.5942162871360779]","[0.07572454974978947, -1.4950717770451072, 0.07572454974978947, 0.07572454974978947, 0.07572454974978947, 0.07572454974978947]","[0.07572454974978947, -1.4950717770451072, 0.07572454974978947, 0.07572454974978947, 0.07572454974978947, 0.07572454974978947]",0.002,7,1
0,75,"[0.06791092455387115, -1.5033443880132218, 0.06759721437563115, 0.0677768427082519, 0.06789558380842209, 0.06788978725671768]","[0.5956571102142334, 0.5787684321403503, 0.5866453051567078, 0.5960623025894165, 0.5928958654403687, 0.5895448923110962]","[0.07615277861274017, -1.4946435481821565, 0.07615277861274017, 0.07615277861274017, 0.07615277861274017, 0.07615277861274017]","[0.07615277861274017, -1.4946435481821565, 0.07615277861274017, 0.07615277861274017, 0.07615277861274017, 0.07615277861274017]",0.002,7,1
0,76,"[0.06911665201187134, -1.5022172194770356, 0.0688555876361292, 0.06905345499005122, 0.0691266730427742, 0.06901298463344574]","[0.5884358882904053, 0.5766169428825378, 0.5823713541030884, 0.5926708579063416, 0.5885061025619507, 0.5863075256347656]","[0.07658088717194218, -1.4942154396229543, 0.07658088717194218, 0.07658088717194218, 0.07658088717194218, 0.07658088717194218]","[0.07658088717194218, -1.4942154396229543, 0.07658088717194218, 0.07658088717194218, 0.07658088717194218, 0.07658088717194218]",0.002,7,1
0,77,"[0.0703464150428772, -1.5009833735278626, 0.06997949281801397, 0.07017426073040767, 0.07026579231023788, 0.07022932916879654]","[0.5862194299697876, 0.5755696892738342, 0.5796293020248413, 0.584888756275177, 0.582897424697876, 0.5841744542121887]","[0.07700887475108316, -1.4937874520438135, 0.07700887475108316, 0.07700887475108316, 0.07700887475108316, 0.07700887475108316]","[0.07700887475108316, -1.4937874520438135, 0.07700887475108316, 0.07700887475108316, 0.07700887475108316, 0.07700887475108316]",0.002,7,1
0,78,"[0.07145359367132187, -1.4998693776181717, 0.0711591879474085, 0.07139257966961665, 0.07140935212373734, 0.07132817804813385]","[0.5820038914680481, 0.5746477842330933, 0.5762081146240234, 0.580373227596283, 0.5789082050323486, 0.5803586840629578]","[0.07743674067404187, -1.4933595861208546, 0.07743674067404187, 0.07743674067404187, 0.07743674067404187, 0.07743674067404187]","[0.07743674067404187, -1.4933595861208546, 0.07743674067404187, 0.07743674067404187, 0.07743674067404187, 0.07743674067404187]",0.002,7,1
0,79,"[0.0726252868771553, -1.4987116318992157, 0.07232314745058233, 0.07259516298260493, 0.07255497574806213, 0.07246988266706467]","[0.5767024755477905, 0.575495719909668, 0.571822464466095, 0.5743664503097534, 0.5740017890930176, 0.5769755840301514]","[0.07786448426488929, -1.4929318425300073, 0.07786448426488929, 0.07786448426488929, 0.07786448426488929, 0.07786448426488929]","[0.07786448426488929, -1.4929318425300073, 0.07786448426488929, 0.07786448426488929, 0.07786448426488929, 0.07786448426488929]",0.002,7,1
0,80,"[0.0737251415848732, -1.497588374917843, 0.07349902788271123, 0.07378594457592769, 0.073632150888443, 0.07360108941793442]","[0.5690213441848755, 0.5701720118522644, 0.5664852261543274, 0.5689705610275269, 0.5684988498687744, 0.5711753964424133]","[0.07829210484788961, -1.492504221947007, 0.07829210484788961, 0.07829210484788961, 0.07829210484788961, 0.07829210484788961]","[0.07829210484788961, -1.492504221947007, 0.07829210484788961, 0.07829210484788961, 0.07829210484788961, 0.07829210484788961]",0.002,7,1
0,81,"[0.07480368763208389, -1.496395432656147, 0.07461053529848272, 0.07491235315289302, 0.07474358379840851, 0.07473459094762802]","[0.5615392327308655, 0.5674218535423279, 0.5639672875404358, 0.5641515254974365, 0.5634012222290039, 0.5674083828926086]","[0.07871960174750138, -1.4920767250473952, 0.07871960174750138, 0.07871960174750138, 0.07871960174750138, 0.07871960174750138]","[0.07871960174750138, -1.4920767250473952, 0.07871960174750138, 0.07871960174750138, 0.07871960174750138, 0.07871960174750138]",0.002,7,1
0,82,"[0.07594498246908188, -1.495302216415741, 0.07573873201479131, 0.07604198038067622, 0.07585572451353073, 0.07580756396055222]","[0.5547263026237488, 0.5593780279159546, 0.5578967332839966, 0.557853102684021, 0.5590431094169617, 0.5629286170005798]","[0.07914697428837855, -1.491649352506518, 0.07914697428837855, 0.07914697428837855, 0.07914697428837855, 0.07914697428837855]","[0.07914697428837855, -1.491649352506518, 0.07914697428837855, 0.07914697428837855, 0.07914697428837855, 0.07914697428837855]",0.002,7,1
0,83,"[0.07707003504037857, -1.4941497606090088, 0.07684165636171514, 0.07711951314892573, 0.07698043435811996, 0.07688608765602112]","[0.5516047477722168, 0.5552611947059631, 0.5520983934402466, 0.5479540824890137, 0.5554397702217102, 0.5576229095458984]","[0.07957422179537149, -1.4912221049995251, 0.07957422179537149, 0.07957422179537149, 0.07957422179537149, 0.07957422179537149]","[0.07957422179537149, -1.4912221049995251, 0.07957422179537149, 0.07957422179537149, 0.07957422179537149, 0.07957422179537149]",0.002,7,1
0,84,"[0.07820442318916321, -1.4930310633829613, 0.07789785066713506, 0.07822029172863765, 0.0780986100435257, 0.07798131555318832]","[0.5471194982528687, 0.553048849105835, 0.5484934449195862, 0.5394357442855835, 0.5481023788452148, 0.5506913661956787]","[0.08000134359352813, -1.4907949832013685, 0.08000134359352813, 0.08000134359352813, 0.08000134359352813, 0.08000134359352813]","[0.08000134359352813, -1.4907949832013685, 0.08000134359352813, 0.08000134359352813, 0.08000134359352813, 0.08000134359352813]",0.002,7,1
0,85,"[0.0791742205619812, -1.491879054611065, 0.07902223268617803, 0.07934383928265376, 0.07907041907310486, 0.07902656495571136]","[0.5414309501647949, 0.5494552254676819, 0.5400968194007874, 0.5337442755699158, 0.5439045429229736, 0.5449056029319763]","[0.08042833900809497, -1.4903679877868017, 0.08042833900809497, 0.08042833900809497, 0.08042833900809497, 0.08042833900809497]","[0.08042833900809497, -1.4903679877868017, 0.08042833900809497, 0.08042833900809497, 0.08042833900809497, 0.08042833900809497]",0.002,7,1
0,86,"[0.0802333727478981, -1.4907927972129364, 0.08002835908998662, 0.08032493173565669, 0.08017771691083908, 0.0801694244146347]","[0.5327007174491882, 0.5423606634140015, 0.5331951975822449, 0.5273696780204773, 0.5357361435890198, 0.5387572646141052]","[0.08085520736451816, -1.4899411194303784, 0.08085520736451816, 0.08085520736451816, 0.08085520736451816, 0.08085520736451816]","[0.08085520736451816, -1.4899411194303784, 0.08085520736451816, 0.08085520736451816, 0.08085520736451816, 0.08085520736451816]",0.002,7,1
0,87,"[0.08129681646823883, -1.4897704136422654, 0.08108359972109014, 0.08131365358319087, 0.08124843239784241, 0.08125226199626923]","[0.5225623846054077, 0.5348299145698547, 0.5281239151954651, 0.5238845348358154, 0.5298371911048889, 0.5322177410125732]","[0.08128194798844461, -1.489514378806452, 0.08128194798844461, 0.08128194798844461, 0.08128194798844461, 0.08128194798844461]","[0.08128194798844461, -1.489514378806452, 0.08128194798844461, 0.08128194798844461, 0.08128194798844461, 0.08128194798844461]",0.002,7,1
0,88,"[0.0824214294552803, -1.4886985135129471, 0.08214408556093389, 0.08238117277111812, 0.0823812335729599, 0.08227173984050751]","[0.5186881422996521, 0.5285396575927734, 0.5227468013763428, 0.5190989971160889, 0.5237038731575012, 0.52640300989151]","[0.08170856020572298, -1.4890877665891735, 0.08170856020572298, 0.08170856020572298, 0.08170856020572298, 0.08170856020572298]","[0.08170856020572298, -1.4890877665891735, 0.08170856020572298, 0.08170856020572298, 0.08170856020572298, 0.08170856020572298]",0.002,7,1
0,89,"[0.08342136442661285, -1.4876009088805695, 0.08323604265321904, 0.08332376062359614, 0.08330520242452621, 0.0833464115858078]","[0.5117102861404419, 0.5216881036758423, 0.5152987241744995, 0.5117319226264954, 0.5177388191223145, 0.5187172293663025]","[0.0821350433424048, -1.4886612834524917, 0.0821350433424048, 0.0821350433424048, 0.0821350433424048, 0.0821350433424048]","[0.0821350433424048, -1.4886612834524917, 0.0821350433424048, 0.0821350433424048, 0.0821350433424048, 0.0821350433424048]",0.002,7,1
0,90,"[0.08441174030303955, -1.4865127888372918, 0.08419734636415654, 0.08429936944927974, 0.08433190733194351, 0.08440124243497849]","[0.5055539608001709, 0.5160436630249023, 0.5110528469085693, 0.504524290561676, 0.5120378732681274, 0.51126629114151]","[0.0825613967247455, -1.488234930070151, 0.0825613967247455, 0.0825613967247455, 0.0825613967247455, 0.0825613967247455]","[0.0825613967247455, -1.488234930070151, 0.0825613967247455, 0.0825613967247455, 0.0825613967247455, 0.0825613967247455]",0.002,7,1
0,91,"[0.08543811738491058, -1.4855070647648354, 0.08524972597231084, 0.0853472191044311, 0.08536943793296814, 0.0854278951883316]","[0.49893561005592346, 0.5087065696716309, 0.5052731037139893, 0.498925119638443, 0.503560483455658, 0.502154529094696]","[0.0829876196792055, -1.4878087071156911, 0.0829876196792055, 0.0829876196792055, 0.0829876196792055, 0.0829876196792055]","[0.0829876196792055, -1.4878087071156911, 0.0829876196792055, 0.0829876196792055, 0.0829876196792055, 0.0829876196792055]",0.002,7,1
0,92,"[0.08642151951789856, -1.4845326480320473, 0.08620912233461553, 0.0863075691410522, 0.0863601416349411, 0.08642668277025223]","[0.49161964654922485, 0.49923834204673767, 0.4948248863220215, 0.49437859654426575, 0.4979097247123718, 0.49480438232421875]","[0.08341371153245129, -1.4873826152624452, 0.08341371153245129, 0.08341371153245129, 0.08341371153245129, 0.08341371153245129]","[0.08341371153245129, -1.4873826152624452, 0.08341371153245129, 0.08341371153245129, 0.08341371153245129, 0.08341371153245129]",0.002,7,1
0,93,"[0.08737692981958389, -1.4835629028132935, 0.0872123877154749, 0.08726851522412105, 0.08733519911766052, 0.08742216229438782]","[0.4838164448738098, 0.4897313117980957, 0.4854257106781006, 0.4904325008392334, 0.4870338439941406, 0.4879249036312103]","[0.08383967161135646, -1.48695665518354, 0.08383967161135646, 0.08383967161135646, 0.08383967161135646, 0.08383967161135646]","[0.08383967161135646, -1.48695665518354, 0.08383967161135646, 0.08383967161135646, 0.08383967161135646, 0.08383967161135646]",0.002,7,1
0,94,"[0.08835124969482422, -1.4824614760330697, 0.08815986314882451, 0.08821372568096919, 0.08829387277364731, 0.08835883438587189]","[0.4764210283756256, 0.48108527064323425, 0.477290540933609, 0.48353785276412964, 0.47882843017578125, 0.4768596291542053]","[0.08426549924300272, -1.4865308275518938, 0.08426549924300272, 0.08426549924300272, 0.08426549924300272, 0.08426549924300272]","[0.08426549924300272, -1.4865308275518938, 0.08426549924300272, 0.08426549924300272, 0.08426549924300272, 0.08426549924300272]",0.002,7,1
0,95,"[0.08931849151849747, -1.4815278586796303, 0.08913547197450811, 0.08909563600506587, 0.08927718549966812, 0.08938024938106537]","[0.46986711025238037, 0.47580745816230774, 0.4719868302345276, 0.4757024049758911, 0.47278252243995667, 0.4678477942943573]","[0.0846911937546811, -1.4861051330402155, 0.0846911937546811, 0.0846911937546811, 0.0846911937546811, 0.0846911937546811]","[0.0846911937546811, -1.4861051330402155, 0.0846911937546811, 0.0846911937546811, 0.0846911937546811, 0.0846911937546811]",0.002,7,1
0,96,"[0.09018877893686295, -1.480575979953148, 0.09002477327455694, 0.09002844869580073, 0.09020250290632248, 0.09029274433851242]","[0.4636501371860504, 0.4653575122356415, 0.46338996291160583, 0.4660956859588623, 0.46378621459007263, 0.46139785647392273]","[0.08511675447389287, -1.4856795723210037, 0.08511675447389287, 0.08511675447389287, 0.08511675447389287, 0.08511675447389287]","[0.08511675447389287, -1.4856795723210037, 0.08511675447389287, 0.08511675447389287, 0.08511675447389287, 0.08511675447389287]",0.002,7,1
0,97,"[0.09110035002231598, -1.4796142962626, 0.09090882936586553, 0.09090177595104976, 0.09123038500547409, 0.09120841324329376]","[0.454829603433609, 0.45720168948173523, 0.4568933844566345, 0.45701664686203003, 0.4560011625289917, 0.45373526215553284]","[0.0855421807283507, -1.4852541460665458, 0.0855421807283507, 0.0855421807283507, 0.0855421807283507, 0.0855421807283507]","[0.0855421807283507, -1.4852541460665458, 0.0855421807283507, 0.0855421807283507, 0.0855421807283507, 0.0855421807283507]",0.002,7,1
0,98,"[0.09198848158121109, -1.4787430477193375, 0.09190589586366826, 0.09178869306530757, 0.09204483777284622, 0.09208054095506668]","[0.4448363482952118, 0.44816312193870544, 0.44678184390068054, 0.4508981704711914, 0.44799700379371643, 0.44443967938423157]","[0.08596747184597962, -1.484828854948917, 0.08596747184597962, 0.08596747184597962, 0.08596747184597962, 0.08596747184597962]","[0.08596747184597962, -1.484828854948917, 0.08596747184597962, 0.08596747184597962, 0.08596747184597962, 0.08596747184597962]",0.002,7,1
0,99,"[0.09284240752458572, -1.4777556297234078, 0.09280473390688115, 0.09275691091503901, 0.09297266602516174, 0.0929490402340889]","[0.43815016746520996, 0.4384816586971283, 0.4397874176502228, 0.4455951750278473, 0.43731436133384705, 0.4357382655143738]","[0.0863926271549182, -1.4844036996399783, 0.0863926271549182, 0.0863926271549182, 0.0863926271549182, 0.0863926271549182]","[0.0863926271549182, -1.4844036996399783, 0.0863926271549182, 0.0863926271549182, 0.0863926271549182, 0.0863926271549182]",0.002,7,1
0,100,"[0.09372568875551224, -1.4769934651306649, 0.09366065660585576, 0.09363321840252681, 0.0938376784324646, 0.09388776123523712]","[0.42850467562675476, 0.4304172396659851, 0.4320511817932129, 0.43623271584510803, 0.42938491702079773, 0.42891281843185425]","[0.08681764598351958, -1.483978680811377, 0.08681764598351958, 0.08681764598351958, 0.08681764598351958, 0.08681764598351958]","[0.08681764598351958, -1.483978680811377, 0.08681764598351958, 0.08681764598351958, 0.08681764598351958, 0.08681764598351958]",0.002,7,1
0,101,"[0.09458519518375397, -1.4761286091855546, 0.09447032610048467, 0.09444598733868403, 0.09469083696603775, 0.09467191994190216]","[0.42311522364616394, 0.42169851064682007, 0.4249136447906494, 0.42734694480895996, 0.420993834733963, 0.4203832149505615]","[0.08724252766035244, -1.4835537991345442, 0.08724252766035244, 0.08724252766035244, 0.08724252766035244, 0.08724252766035244]","[0.08724252766035244, -1.4835537991345442, 0.08724252766035244, 0.08724252766035244, 0.08724252766035244, 0.08724252766035244]",0.002,7,1
0,102,"[0.0953393429517746, -1.475200967197754, 0.09530097643007451, 0.09531418859448237, 0.09550356864929199, 0.09552045166492462]","[0.41472864151000977, 0.41330403089523315, 0.4144658148288727, 0.42024683952331543, 0.4128232002258301, 0.41236060857772827]","[0.08766727151420217, -1.4831290552806944, 0.08766727151420217, 0.08766727151420217, 0.08766727151420217, 0.08766727151420217]","[0.08766727151420217, -1.4831290552806944, 0.08766727151420217, 0.08766727151420217, 0.08766727151420217, 0.08766727151420217]",0.002,7,1
0,103,"[0.09614071995019913, -1.4744810101440926, 0.09613305727113897, 0.09615604459728999, 0.09626089036464691, 0.09630239754915237]","[0.40765827894210815, 0.4054628610610962, 0.406858891248703, 0.4089083671569824, 0.40371423959732056, 0.40268412232398987]","[0.08809187687407186, -1.4827044499208246, 0.08809187687407186, 0.08809187687407186, 0.08809187687407186, 0.08809187687407186]","[0.08809187687407186, -1.4827044499208246, 0.08809187687407186, 0.08809187687407186, 0.08809187687407186, 0.08809187687407186]",0.002,7,1
0,104,"[0.09693948179483414, -1.4736282688430329, 0.09696036974062139, 0.09700851022686763, 0.09708322584629059, 0.0971246212720871]","[0.3968721926212311, 0.3963104784488678, 0.3973222076892853, 0.4031754732131958, 0.39354944229125977, 0.39336636662483215]","[0.0885163430691834, -1.4822799837257132, 0.0885163430691834, 0.0885163430691834, 0.0885163430691834, 0.0885163430691834]","[0.0885163430691834, -1.4822799837257132, 0.0885163430691834, 0.0885163430691834, 0.0885163430691834, 0.0885163430691834]",0.002,7,1
0,105,"[0.09776445478200912, -1.472824977045395, 0.09773189226259404, 0.09775225698437495, 0.09786280989646912, 0.09779985249042511]","[0.3871864378452301, 0.3886559307575226, 0.3882845640182495, 0.3946918547153473, 0.3853065073490143, 0.3845089375972748]","[0.08894066942897857, -1.481855657365918, 0.08894066942897857, 0.08894066942897857, 0.08894066942897857, 0.08894066942897857]","[0.08894066942897857, -1.481855657365918, 0.08894066942897857, 0.08894066942897857, 0.08894066942897857, 0.08894066942897857]",0.002,7,1
0,106,"[0.09853397309780121, -1.4721240115216752, 0.09849101701845342, 0.09850744783367915, 0.09869031608104706, 0.09856779128313065]","[0.37987038493156433, 0.37878522276878357, 0.3809705376625061, 0.3835722804069519, 0.37805601954460144, 0.37605804204940796]","[0.08936485528312, -1.4814314715117765, 0.08936485528312, 0.08936485528312, 0.08936485528312, 0.08936485528312]","[0.08936485528312, -1.4814314715117765, 0.08936485528312, 0.08936485528312, 0.08936485528312, 0.08936485528312]",0.002,7,1
0,107,"[0.09929757565259933, -1.4712904182127495, 0.09932405153383428, 0.09928230821575923, 0.09931622445583344, 0.09924507886171341]","[0.36883723735809326, 0.37188518047332764, 0.3740833103656769, 0.3720987141132355, 0.3688890337944031, 0.36819297075271606]","[0.08978889996149231, -1.4810074268334041, 0.08978889996149231, 0.08978889996149231, 0.08978889996149231, 0.08978889996149231]","[0.08978889996149231, -1.4810074268334041, 0.08978889996149231, 0.08978889996149231, 0.08978889996149231, 0.08978889996149231]",0.002,7,1
0,108,"[0.10006146132946014, -1.470570170586445, 0.09998160997499639, 0.0999639469334106, 0.10006505250930786, 0.0999641865491867]","[0.3626236915588379, 0.363213449716568, 0.36219915747642517, 0.36043596267700195, 0.3605767786502838, 0.3608878552913666]","[0.09021280279420313, -1.4805835240006935, 0.09021280279420313, 0.09021280279420313, 0.09021280279420313, 0.09021280279420313]","[0.09021280279420313, -1.4805835240006935, 0.09021280279420313, 0.09021280279420313, 0.09021280279420313, 0.09021280279420313]",0.002,7,1
0,109,"[0.10076247900724411, -1.469876543884613, 0.10069686571230108, 0.10079292833294673, 0.10072226822376251, 0.10070928186178207]","[0.3547191917896271, 0.35284802317619324, 0.35381725430488586, 0.3534848093986511, 0.3517836332321167, 0.35182610154151917]","[0.09063656311158419, -1.4801597636833124, 0.09063656311158419, 0.09063656311158419, 0.09063656311158419, 0.09063656311158419]","[0.09063656311158419, -1.4801597636833124, 0.09063656311158419, 0.09063656311158419, 0.09063656311158419, 0.09063656311158419]",0.002,7,1
0,110,"[0.10140877217054367, -1.4692094188979645, 0.1014183203326624, 0.1014827924915771, 0.10141191631555557, 0.10141877830028534]","[0.34515297412872314, 0.34790143370628357, 0.34583404660224915, 0.3469943106174469, 0.3416106700897217, 0.344668447971344]","[0.09106018024419235, -1.4797361465507042, 0.09106018024419235, 0.09106018024419235, 0.09106018024419235, 0.09106018024419235]","[0.09106018024419235, -1.4797361465507042, 0.09106018024419235, 0.09106018024419235, 0.09106018024419235, 0.09106018024419235]",0.002,7,1
0,111,"[0.10214505344629288, -1.4685707178762932, 0.10202628770937139, 0.10220412790264888, 0.10209015011787415, 0.10205986350774765]","[0.3356291949748993, 0.3363862633705139, 0.33563217520713806, 0.33889585733413696, 0.3346027731895447, 0.33779624104499817]","[0.0914836535228107, -1.4793126732720858, 0.0914836535228107, 0.0914836535228107, 0.0914836535228107, 0.0914836535228107]","[0.0914836535228107, -1.4793126732720858, 0.0914836535228107, 0.0914836535228107, 0.0914836535228107, 0.0914836535228107]",0.002,7,1
0,112,"[0.10278856009244919, -1.4678986829570313, 0.10270530382265264, 0.10286919652905269, 0.10271734744310379, 0.10268701612949371]","[0.3275638520717621, 0.32959508895874023, 0.3293324112892151, 0.3273054361343384, 0.3256305754184723, 0.3291066884994507]","[0.09190698227844955, -1.478889344516447, 0.09190698227844955, 0.09190698227844955, 0.09190698227844955, 0.09190698227844955]","[0.09190698227844955, -1.478889344516447, 0.09190698227844955, 0.09190698227844955, 0.09190698227844955, 0.09190698227844955]",0.002,7,1
0,113,"[0.10344003140926361, -1.4672417056611557, 0.1034019629107874, 0.10345689832653804, 0.10335201770067215, 0.103326715528965]","[0.31639447808265686, 0.32047510147094727, 0.3212029039859772, 0.31651368737220764, 0.3177950382232666, 0.3206739127635956]","[0.09233016584234753, -1.4784661609525491, 0.09233016584234753, 0.09233016584234753, 0.09233016584234753, 0.09233016584234753]","[0.09233016584234753, -1.4784661609525491, 0.09233016584234753, 0.09233016584234753, 0.09233016584234753, 0.09233016584234753]",0.002,7,1
0,114,"[0.10405410081148148, -1.4666693595102807, 0.10401803651918584, 0.10410933076824946, 0.10400637984275818, 0.10389205068349838]","[0.31014546751976013, 0.3119506239891052, 0.3123360276222229, 0.3058968186378479, 0.31017881631851196, 0.31153127551078796]","[0.09275320354597265, -1.478043123248924, 0.09275320354597265, 0.09275320354597265, 0.09275320354597265, 0.09275320354597265]","[0.09275320354597265, -1.478043123248924, 0.09275320354597265, 0.09275320354597265, 0.09275320354597265, 0.09275320354597265]",0.002,7,1
0,115,"[0.10462538152933121, -1.466119111781456, 0.10456449190248662, 0.10473005353894038, 0.10458838939666748, 0.10451684892177582]","[0.30038687586784363, 0.3007485866546631, 0.3012966215610504, 0.2968219518661499, 0.30252552032470703, 0.30333343148231506]","[0.09317609472102331, -1.4776202320738732, 0.09317609472102331, 0.09317609472102331, 0.09317609472102331, 0.09317609472102331]","[0.09317609472102331, -1.4776202320738732, 0.09317609472102331, 0.09317609472102331, 0.09317609472102331, 0.09317609472102331]",0.002,7,1
0,116,"[0.10520824790000916, -1.465520740752556, 0.10522061983217412, 0.10531739770855708, 0.10517513751983643, 0.10509224981069565]","[0.2922127842903137, 0.2940133512020111, 0.2930859625339508, 0.29029157757759094, 0.2933793067932129, 0.29568204283714294]","[0.09359883869942948, -1.477197488095467, 0.09359883869942948, 0.09359883869942948, 0.09359883869942948, 0.09359883869942948]","[0.09359883869942948, -1.477197488095467, 0.09359883869942948, 0.09359883869942948, 0.09359883869942948, 0.09359883869942948]",0.002,7,1
0,117,"[0.10572686046361923, -1.4649797093919297, 0.10579950014223272, 0.10594062387432857, 0.10573326796293259, 0.10563081502914429]","[0.28260889649391174, 0.28612735867500305, 0.283679723739624, 0.2822456657886505, 0.2862294316291809, 0.289846807718277]","[0.09402143481335355, -1.476774891981543, 0.09402143481335355, 0.09402143481335355, 0.09402143481335355, 0.09402143481335355]","[0.09402143481335355, -1.476774891981543, 0.09402143481335355, 0.09402143481335355, 0.09402143481335355, 0.09402143481335355]",0.002,7,1
0,118,"[0.10624421387910843, -1.4644471791437645, 0.10630542436708623, 0.10642067968334956, 0.10625866055488586, 0.1061849519610405]","[0.27696317434310913, 0.2740655839443207, 0.2762080132961273, 0.27284249663352966, 0.27638405561447144, 0.28015637397766113]","[0.0944438823951916, -1.476352444399705, 0.0944438823951916, 0.0944438823951916, 0.0944438823951916, 0.0944438823951916]","[0.0944438823951916, -1.476352444399705, 0.0944438823951916, 0.0944438823951916, 0.0944438823951916, 0.0944438823951916]",0.002,7,1
0,119,"[0.10683242976665497, -1.4639281344464798, 0.10681516328920537, 0.10701517641033931, 0.10681839287281036, 0.10674545168876648]","[0.26886075735092163, 0.2683209776878357, 0.2692197263240814, 0.2637164890766144, 0.2675308883190155, 0.27187514305114746]","[0.09486618077757428, -1.4759301460173222, 0.09486618077757428, 0.09486618077757428, 0.09486618077757428, 0.09486618077757428]","[0.09486618077757428, -1.4759301460173222, 0.09486618077757428, 0.09486618077757428, 0.09486618077757428, 0.09486618077757428]",0.002,7,1
0,120,"[0.10735432058572769, -1.4634035167149086, 0.10737258592714483, 0.10752753793682857, 0.10732145607471466, 0.10719965398311615]","[0.2575981914997101, 0.26094377040863037, 0.2599352300167084, 0.2538113296031952, 0.26105618476867676, 0.2638815641403198]","[0.09528832929336797, -1.4755079975015286, 0.09528832929336797, 0.09528832929336797, 0.09528832929336797, 0.09528832929336797]","[0.09528832929336797, -1.4755079975015286, 0.09528832929336797, 0.09528832929336797, 0.09528832929336797, 0.09528832929336797]",0.002,7,1
0,121,"[0.10785772651433945, -1.4628835034421463, 0.10783178011049444, 0.10807768880810542, 0.10783209651708603, 0.1077573150396347]","[0.25005486607551575, 0.24987201392650604, 0.25227269530296326, 0.24569495022296906, 0.25192201137542725, 0.2554393410682678]","[0.09571032727567588, -1.4750859995192207, 0.09571032727567588, 0.09571032727567588, 0.09571032727567588, 0.09571032727567588]","[0.09571032727567588, -1.4750859995192207, 0.09571032727567588, 0.09571032727567588, 0.09571032727567588, 0.09571032727567588]",0.002,7,1
0,122,"[0.10840237140655518, -1.46247864634309, 0.10831910768617803, 0.10848621904339595, 0.10820306092500687, 0.10824443399906158]","[0.24379612505435944, 0.24153494834899902, 0.2417875975370407, 0.2386925369501114, 0.24332766234874725, 0.24763375520706177]","[0.09613217405783886, -1.4746641527370576, 0.09613217405783886, 0.09613217405783886, 0.09613217405783886, 0.09613217405783886]","[0.09613217405783886, -1.4746641527370576, 0.09613217405783886, 0.09613217405783886, 0.09613217405783886, 0.09613217405783886]",0.002,7,1
0,123,"[0.10880755633115768, -1.4619808954051514, 0.10882836977113897, 0.10893802225079341, 0.10874778777360916, 0.10871987789869308]","[0.23383022844791412, 0.23385405540466309, 0.23430031538009644, 0.2302924245595932, 0.23606044054031372, 0.23855246603488922]","[0.09655386897343679, -1.4742424578214597, 0.09655386897343679, 0.09655386897343679, 0.09655386897343679, 0.09655386897343679]","[0.09655386897343679, -1.4742424578214597, 0.09655386897343679, 0.09655386897343679, 0.09655386897343679, 0.09655386897343679]",0.002,7,1
0,124,"[0.10925877094268799, -1.461546280687191, 0.1092751661883753, 0.10937099039044185, 0.10917752981185913, 0.1091451644897461]","[0.22537732124328613, 0.22695082426071167, 0.22680556774139404, 0.220424085855484, 0.22954604029655457, 0.23048943281173706]","[0.09697541135628937, -1.4738209154386073, 0.09697541135628937, 0.09697541135628937, 0.09697541135628937, 0.09697541135628937]","[0.09697541135628937, -1.4738209154386073, 0.09697541135628937, 0.09697541135628937, 0.09697541135628937, 0.09697541135628937]",0.002,7,1
0,125,"[0.10973821580410004, -1.461114340727665, 0.10966235796083623, 0.10984556257214351, 0.10967886447906494, 0.10962150245904922]","[0.21784301102161407, 0.21781575679779053, 0.21956147253513336, 0.2126067876815796, 0.22125421464443207, 0.22268794476985931]","[0.0973968005404573, -1.4733995262544393, 0.0973968005404573, 0.0973968005404573, 0.0973968005404573, 0.0973968005404573]","[0.0973968005404573, -1.4733995262544393, 0.0973968005404573, 0.0973968005404573, 0.0973968005404573, 0.0973968005404573]",0.002,7,1
0,126,"[0.11016310751438141, -1.460727521484234, 0.11011058488954717, 0.11023776113476558, 0.11003967374563217, 0.11003407835960388]","[0.20848745107650757, 0.21008969843387604, 0.21136587858200073, 0.20494268834590912, 0.21238960325717926, 0.21501514315605164]","[0.09781803586024324, -1.4729782909346534, 0.09781803586024324, 0.09781803586024324, 0.09781803586024324, 0.09781803586024324]","[0.09781803586024324, -1.4729782909346534, 0.09781803586024324, 0.09781803586024324, 0.09781803586024324, 0.09781803586024324]",0.002,7,1
0,127,"[0.11052068322896957, -1.4603109148195763, 0.1104963461505335, 0.11067907392468257, 0.11047261208295822, 0.11048264801502228]","[0.20172102749347687, 0.20403370261192322, 0.2029007226228714, 0.19819994270801544, 0.20382069051265717, 0.20658476650714874]","[0.09823911665019303, -1.4725572101447035, 0.09823911665019303, 0.09823911665019303, 0.09823911665019303, 0.09823911665019303]","[0.09823911665019303, -1.4725572101447035, 0.09823911665019303, 0.09823911665019303, 0.09823911665019303, 0.09823911665019303]",0.002,7,1
0,128,"[0.11094867438077927, -1.4599780526808281, 0.11092502275575811, 0.11102621137585444, 0.1108119785785675, 0.11085677891969681]","[0.1947753131389618, 0.19450683891773224, 0.19825497269630432, 0.1913585662841797, 0.19628629088401794, 0.19763390719890594]","[0.09866004224509654, -1.4721362845498, 0.09866004224509654, 0.09866004224509654, 0.09866004224509654, 0.09866004224509654]","[0.09866004224509654, -1.4721362845498, 0.09866004224509654, 0.09866004224509654, 0.09866004224509654, 0.09866004224509654]",0.002,7,1
0,129,"[0.11135750263929367, -1.4595764812878151, 0.11125260988344365, 0.1113474804111938, 0.11116714775562286, 0.11120203137397766]","[0.18841028213500977, 0.18706899881362915, 0.18951983749866486, 0.1856565922498703, 0.18819426000118256, 0.18943306803703308]","[0.09908081197998884, -1.4717155148149077, 0.09908081197998884, 0.09908081197998884, 0.09908081197998884, 0.09908081197998884]","[0.09908081197998884, -1.4717155148149077, 0.09908081197998884, 0.09908081197998884, 0.09908081197998884, 0.09908081197998884]",0.002,7,1
0,130,"[0.11169158667325974, -1.4592075136354943, 0.11160070100893194, 0.11174993097271724, 0.11162316054105759, 0.11154769361019135]","[0.1808021515607834, 0.17999348044395447, 0.18056155741214752, 0.17918679118156433, 0.18145467340946198, 0.18253065645694733]","[0.09950142519015123, -1.4712949016047454, 0.09950142519015123, 0.09950142519015123, 0.09950142519015123, 0.09950142519015123]","[0.09950142519015123, -1.4712949016047454, 0.09950142519015123, 0.09950142519015123, 0.09950142519015123, 0.09950142519015123]",0.002,7,1
0,131,"[0.1120678037405014, -1.4589678433588524, 0.11196405092348272, 0.11200646936383052, 0.11189436167478561, 0.11196067929267883]","[0.17208507657051086, 0.17292825877666473, 0.1736583560705185, 0.1709842085838318, 0.1750529706478119, 0.1758018583059311]","[0.09992188121111227, -1.4708744455837843, 0.09992188121111227, 0.09992188121111227, 0.09992188121111227, 0.09992188121111227]","[0.09992188121111227, -1.4708744455837843, 0.09992188121111227, 0.09992188121111227, 0.09992188121111227, 0.09992188121111227]",0.002,7,1
0,132,"[0.11241088807582855, -1.4585540008595963, 0.11237746873964483, 0.11240868150677485, 0.11229951679706573, 0.11230017244815826]","[0.16543793678283691, 0.16662323474884033, 0.1684349924325943, 0.16329830884933472, 0.16804850101470947, 0.16688652336597443]","[0.10034217937864888, -1.4704541474162476, 0.10034217937864888, 0.10034217937864888, 0.10034217937864888, 0.10034217937864888]","[0.10034217937864888, -1.4704541474162476, 0.10034217937864888, 0.10034217937864888, 0.10034217937864888, 0.10034217937864888]",0.002,7,1
0,133,"[0.11275087296962738, -1.4582092699459572, 0.11259395280946904, 0.11266390859570308, 0.11257227510213852, 0.1126188114285469]","[0.15882006287574768, 0.15960949659347534, 0.15918372571468353, 0.15613692998886108, 0.16135291755199432, 0.16022108495235443]","[0.10076231902878728, -1.4700340077661094, 0.10076231902878728, 0.10076231902878728, 0.10076231902878728, 0.10076231902878728]","[0.10076231902878728, -1.4700340077661094, 0.10076231902878728, 0.10076231902878728, 0.10076231902878728, 0.10076231902878728]",0.002,7,1
0,134,"[0.11304949223995209, -1.4579347309521218, 0.11290580431093389, 0.11295251428570552, 0.11286859214305878, 0.11290431767702103]","[0.15314294397830963, 0.15291787683963776, 0.15250898897647858, 0.14935056865215302, 0.15355901420116425, 0.1540517956018448]","[0.10118229949780419, -1.4696140272970923, 0.10118229949780419, 0.10118229949780419, 0.10118229949780419, 0.10118229949780419]","[0.10118229949780419, -1.4696140272970923, 0.10118229949780419, 0.10118229949780419, 0.10118229949780419, 0.10118229949780419]",0.002,7,1
0,135,"[0.11334878951311111, -1.4575976070812722, 0.11318952242006475, 0.11324624597515864, 0.11318877339363098, 0.1132059246301651]","[0.14592419564723969, 0.14769844710826874, 0.14758490025997162, 0.1446196734905243, 0.1462731808423996, 0.1474241465330124]","[0.10160212012222773, -1.4691942066726689, 0.10160212012222773, 0.10160212012222773, 0.10160212012222773, 0.10160212012222773]","[0.10160212012222773, -1.4691942066726689, 0.10160212012222773, 0.10160212012222773, 0.10160212012222773, 0.10160212012222773]",0.002,7,1
0,136,"[0.11358750611543655, -1.4573803034475823, 0.11344033876527959, 0.11352686464276118, 0.11343878507614136, 0.11351866275072098]","[0.13880741596221924, 0.14398613572120667, 0.14115634560585022, 0.1364552080631256, 0.1381346881389618, 0.13981159031391144]","[0.10202178023883857, -1.468774546556058, 0.10202178023883857, 0.10202178023883857, 0.10202178023883857, 0.10202178023883857]","[0.10202178023883857, -1.468774546556058, 0.10202178023883857, 0.10202178023883857, 0.10202178023883857, 0.10202178023883857]",0.002,7,1
0,137,"[0.11387953907251358, -1.4571089533022423, 0.1137617270099085, 0.11376897870983882, 0.11370977014303207, 0.1137356385588646]","[0.131704643368721, 0.1322934627532959, 0.13289092481136322, 0.1326795369386673, 0.13315238058567047, 0.13456757366657257]","[0.10244127918467097, -1.4683550476102256, 0.10244127918467097, 0.10244127918467097, 0.10244127918467097, 0.10244127918467097]","[0.10244127918467097, -1.4683550476102256, 0.10244127918467097, 0.10244127918467097, 0.10244127918467097, 0.10244127918467097]",0.002,7,1
0,138,"[0.11415950953960419, -1.4568286475590249, 0.11400109926332647, 0.11402933179821773, 0.11400315165519714, 0.11405275762081146]","[0.12523028254508972, 0.1303149163722992, 0.13026799261569977, 0.12475065886974335, 0.12539561092853546, 0.1243981197476387]","[0.10286061629701376, -1.4679357104978827, 0.10286061629701376, 0.10286061629701376, 0.10286061629701376, 0.10286061629701376]","[0.10286061629701376, -1.4679357104978827, 0.10286061629701376, 0.10286061629701376, 0.10286061629701376, 0.10286061629701376]",0.002,7,1
0,139,"[0.11437417566776276, -1.4566097867539902, 0.11423236528505498, 0.11426715433087153, 0.11423224210739136, 0.11426657438278198]","[0.11842368543148041, 0.12216190993785858, 0.12195225805044174, 0.11859666556119919, 0.11924207955598831, 0.11979049444198608]","[0.10327979091341144, -1.4675165358814852, 0.10327979091341144, 0.10327979091341144, 0.10327979091341144, 0.10327979091341144]","[0.10327979091341144, -1.4675165358814852, 0.10327979091341144, 0.10327979091341144, 0.10327979091341144, 0.10327979091341144]",0.002,7,1
0,140,"[0.11458554118871689, -1.4563535165837784, 0.11451989809145147, 0.11444823324169917, 0.11441504210233688, 0.11447280645370483]","[0.11173950880765915, 0.1190919578075409, 0.11667091399431229, 0.11393748223781586, 0.11319424211978912, 0.11228741705417633]","[0.10369880237166522, -1.4670975244232314, 0.10369880237166522, 0.10369880237166522, 0.10369880237166522, 0.10369880237166522]","[0.10369880237166522, -1.4670975244232314, 0.10369880237166522, 0.10369880237166522, 0.10369880237166522, 0.10369880237166522]",0.002,7,1
0,141,"[0.11482962965965271, -1.4561720502427598, 0.11475736299623662, 0.11465279638256831, 0.11463511735200882, 0.11470440030097961]","[0.10349612683057785, 0.11182007193565369, 0.11137283593416214, 0.10888071358203888, 0.1069762334227562, 0.10632789134979248]","[0.10411765000983408, -1.4666786767850626, 0.10411765000983408, 0.10411765000983408, 0.10411765000983408, 0.10411765000983408]","[0.10411765000983408, -1.4666786767850626, 0.10411765000983408, 0.10411765000983408, 0.10411765000983408, 0.10411765000983408]",0.002,7,1
0,142,"[0.1150289848446846, -1.4559637245586892, 0.11494857469667608, 0.11489491044964595, 0.11484163254499435, 0.11491084098815918]","[0.09928243607282639, 0.10516775399446487, 0.10443507879972458, 0.10331534594297409, 0.10056184977293015, 0.10168372839689255]","[0.10453633316623578, -1.4662599936286607, 0.10453633316623578, 0.10453633316623578, 0.10453633316623578, 0.10453633316623578]","[0.10453633316623578, -1.4662599936286607, 0.10453633316623578, 0.10453633316623578, 0.10453633316623578, 0.10453633316623578]",0.002,7,1
0,143,"[0.11520114541053772, -1.455702782874443, 0.11511212984193975, 0.11508242666210933, 0.11504676938056946, 0.1150786280632019]","[0.09362760186195374, 0.10327858477830887, 0.09953524172306061, 0.09765578806400299, 0.09716130048036575, 0.09473534673452377]","[0.10495485117944792, -1.4658414756154485, 0.10495485117944792, 0.10495485117944792, 0.10495485117944792, 0.10495485117944792]","[0.10495485117944792, -1.4658414756154485, 0.10495485117944792, 0.10495485117944792, 0.10495485117944792, 0.10495485117944792]",0.002,7,1
0,144,"[0.1153360977768898, -1.4555634197643776, 0.11531192461122686, 0.11525361120190425, 0.11523380130529404, 0.11528325825929642]","[0.08844435960054398, 0.09543167799711227, 0.09255636483430862, 0.09159578382968903, 0.08891629427671432, 0.08886897563934326]","[0.10537320338830898, -1.4654231234065875, 0.10537320338830898, 0.10537320338830898, 0.10537320338830898, 0.10537320338830898]","[0.10537320338830898, -1.4654231234065875, 0.10537320338830898, 0.10537320338830898, 0.10537320338830898, 0.10537320338830898]",0.002,7,1
0,145,"[0.11555636674165726, -1.4553595718792458, 0.1155160109149378, 0.11539368211712642, 0.11539243161678314, 0.11544927954673767]","[0.0826132744550705, 0.09251801669597626, 0.09025677293539047, 0.08669380843639374, 0.08652510493993759, 0.08460789173841476]","[0.10579138913191942, -1.4650049376629772, 0.10579138913191942, 0.10579138913191942, 0.10579138913191942, 0.10579138913191942]","[0.10579138913191942, -1.4650049376629772, 0.10579138913191942, 0.10579138913191942, 0.10579138913191942, 0.10579138913191942]",0.002,7,1
0,146,"[0.11567498743534088, -1.4551916059902688, 0.11567145982851201, 0.11558775484051509, 0.11555264890193939, 0.11557459831237793]","[0.07746195793151855, 0.08538464456796646, 0.08290304243564606, 0.07853981107473373, 0.07952533662319183, 0.07915081083774567]","[0.10620940774964259, -1.464586919045254, 0.10620940774964259, 0.10620940774964259, 0.10620940774964259, 0.10620940774964259]","[0.10620940774964259, -1.464586919045254, 0.10620940774964259, 0.10620940774964259, 0.10620940774964259, 0.10620940774964259]",0.002,7,1
0,147,"[0.1158427745103836, -1.454998181467392, 0.11582690874208623, 0.11567704259838862, 0.11567376554012299, 0.11578869819641113]","[0.07229757308959961, 0.08009950071573257, 0.07844935357570648, 0.07632703334093094, 0.07439642399549484, 0.07352105528116226]","[0.10662725858110593, -1.4641690682137907, 0.10662725858110593, 0.10662725858110593, 0.10662725858110593, 0.10662725858110593]","[0.10662725858110593, -1.4641690682137907, 0.10662725858110593, 0.10662725858110593, 0.10662725858110593, 0.10662725858110593]",0.002,7,1
0,148,"[0.115970179438591, -1.4549022179893036, 0.11592084566225225, 0.11582438528027339, 0.11587151885032654, 0.11589480936527252]","[0.06728462129831314, 0.07444896548986435, 0.07346364110708237, 0.0700518935918808, 0.07003629952669144, 0.06845925003290176]","[0.10704494096620197, -1.4637513858286946, 0.10704494096620197, 0.10704494096620197, 0.10704494096620197, 0.10704494096620197]","[0.10704494096620197, -1.4637513858286946, 0.10704494096620197, 0.10704494096620197, 0.10704494096620197, 0.10704494096620197]",0.002,7,1
0,149,"[0.11608555912971497, -1.454786905353405, 0.11613589922060186, 0.11592332899060054, 0.11597771942615509, 0.1160309761762619]","[0.06266722828149796, 0.07036788761615753, 0.0683656632900238, 0.06529996544122696, 0.0652155801653862, 0.06277946382761002]","[0.10746245424508928, -1.4633338725498073, 0.10746245424508928, 0.10746245424508928, 0.10746245424508928, 0.10746245424508928]","[0.10746245424508928, -1.4633338725498073, 0.10746245424508928, 0.10746245424508928, 0.10746245424508928, 0.10746245424508928]",0.002,7,1
0,150,"[0.11625153571367264, -1.4546039041927834, 0.11626655260194951, 0.11608104288067622, 0.11615601181983948, 0.11617898941040039]","[0.05766955018043518, 0.06568052619695663, 0.06395723670721054, 0.061768367886543274, 0.06009642779827118, 0.05884202569723129]","[0.10787979775819356, -1.462916529036703, 0.10787979775819356, 0.10787979775819356, 0.10787979775819356, 0.10787979775819356]","[0.10787979775819356, -1.462916529036703, 0.10787979775819356, 0.10787979775819356, 0.10787979775819356, 0.10787979775819356]",0.002,7,1
0,151,"[0.11633418500423431, -1.4545048636249085, 0.11636573473085576, 0.11619846403088374, 0.11620965600013733, 0.1162826418876648]","[0.05574597418308258, 0.06115984544157982, 0.059964619576931, 0.05677422136068344, 0.05556923896074295, 0.05556352436542511]","[0.10829697084620879, -1.4624993559486879, 0.10829697084620879, 0.10829697084620879, 0.10829697084620879, 0.10829697084620879]","[0.10829697084620879, -1.4624993559486879, 0.10829697084620879, 0.10829697084620879, 0.10829697084620879, 0.10829697084620879]",0.002,7,1
0,152,"[0.11641377210617065, -1.454406203036644, 0.11641151109804326, 0.11627666532482905, 0.11627570539712906, 0.11638277769088745]","[0.04670538380742073, 0.057888615876436234, 0.05580088496208191, 0.051571134477853775, 0.05150080844759941, 0.04841502755880356]","[0.10871397285009808, -1.4620823539447985, 0.10871397285009808, 0.10871397285009808, 0.10871397285009808, 0.10871397285009808]","[0.10871397285009808, -1.4620823539447985, 0.10871397285009808, 0.10871397285009808, 0.10871397285009808, 0.10871397285009808]",0.002,7,1
0,153,"[0.11652597784996033, -1.4543027219227334, 0.1165536085711878, 0.1164054113575439, 0.1164492592215538, 0.11647367477416992]","[0.0451730452477932, 0.05384819582104683, 0.05129660665988922, 0.04749739542603493, 0.04767008498311043, 0.04466412216424942]","[0.10913080311109495, -1.4616655236838016, 0.10913080311109495, 0.10913080311109495, 0.10913080311109495, 0.10913080311109495]","[0.10913080311109495, -1.4616655236838016, 0.10913080311109495, 0.10913080311109495, 0.10913080311109495, 0.10913080311109495]",0.002,7,1
0,154,"[0.1166437417268753, -1.454205260877945, 0.11661988893617803, 0.11649434148754878, 0.11650022864341736, 0.11652731895446777]","[0.041313864290714264, 0.04951029643416405, 0.047052718698978424, 0.04370325803756714, 0.04233131930232048, 0.04148711636662483]","[0.10954746097070404, -1.4612488658241924, 0.10954746097070404, 0.10954746097070404, 0.10954746097070404, 0.10954746097070404]","[0.10954746097070404, -1.4612488658241924, 0.10954746097070404, 0.10954746097070404, 0.10954746097070404, 0.10954746097070404]",0.002,7,1
0,155,"[0.11666984856128693, -1.454118312602379, 0.11673242250551397, 0.11653272687878413, 0.11657638102769852, 0.11664137244224548]","[0.038473889231681824, 0.0459134466946125, 0.043100036680698395, 0.04028194397687912, 0.03926398977637291, 0.03921248018741608]","[0.10996394577070258, -1.4608323810241939, 0.10996394577070258, 0.10996394577070258, 0.10996394577070258, 0.10996394577070258]","[0.10996394577070258, -1.4608323810241939, 0.10996394577070258, 0.10996394577070258, 0.10996394577070258, 0.10996394577070258]",0.002,7,1
0,156,"[0.1167076826095581, -1.453954742555954, 0.11678439775575811, 0.11668567239727778, 0.11661534011363983, 0.11667568236589432]","[0.0346604622900486, 0.04293302819132805, 0.040549907833337784, 0.036454033106565475, 0.036200787872076035, 0.03523845598101616]","[0.11038025685314096, -1.4604160699417557, 0.11038025685314096, 0.11038025685314096, 0.11038025685314096, 0.11038025685314096]","[0.11038025685314096, -1.4604160699417557, 0.11038025685314096, 0.11038025685314096, 0.11038025685314096, 0.11038025685314096]",0.002,7,1
0,157,"[0.11683307588100433, -1.4539474335363884, 0.11686402956117803, 0.11664430677380366, 0.11672040820121765, 0.11675941199064255]","[0.02993539348244667, 0.03958224877715111, 0.03700904920697212, 0.03343435004353523, 0.03264749422669411, 0.02945895306766033]","[0.11079639356034415, -1.4599999332345523, 0.11079639356034415, 0.11079639356034415, 0.11079639356034415, 0.11079639356034415]","[0.11079639356034415, -1.4599999332345523, 0.11079639356034415, 0.11079639356034415, 0.11079639356034415, 0.11079639356034415]",0.002,7,1
0,158,"[0.1168471947312355, -1.4538873520544549, 0.11696988741029912, 0.11669461309399409, 0.11680839210748672, 0.11683282256126404]","[0.025892024859786034, 0.03606133535504341, 0.03336988762021065, 0.03050106391310692, 0.029213685542345047, 0.026677343994379044]","[0.11121235523491256, -1.459583971559984, 0.11121235523491256, 0.11121235523491256, 0.11121235523491256, 0.11121235523491256]","[0.11121235523491256, -1.459583971559984, 0.11121235523491256, 0.11121235523491256, 0.11121235523491256, 0.11121235523491256]",0.002,7,1
0,159,"[0.11692018061876297, -1.4537990626743813, 0.11702424684633428, 0.1168185907551269, 0.11681457608938217, 0.1168835237622261]","[0.02446669340133667, 0.033967938274145126, 0.030275318771600723, 0.028223007917404175, 0.025919077917933464, 0.025127677246928215]","[0.11162814121972311, -1.4591681855751735, 0.11162814121972311, 0.11162814121972311, 0.11162814121972311, 0.11162814121972311]","[0.11162814121972311, -1.4591681855751735, 0.11162814121972311, 0.11162814121972311, 0.11162814121972311, 0.11162814121972311]",0.002,7,1
