Arnibjarnst/BoxLift/logs/ur_rtde/trajectory_dur=10.0_delay=0.0_gain=100_lh=0.03_real.csv
arm_idx,step,actual_q,actual_qd,target_q,expected_q,loop_time,robot_mode,safety_mode
0,-1,"[0.06862983852624893, -1.5021074947765847, 0.06843787828554326, 0.06866650163616939, 0.06868269294500351, 0.06870842725038528]","[-0.04781326279044151, -0.04806560277938843, -0.048465926200151443, -0.04492407664656639, -0.043780501931905746, -0.045485105365514755]","[0.0, -1.5707963267948966, 0.0, 0.0, 0.0, 0.0]","[0.0, -1.5707963267948966, 0.0, 0.0, 0.0, 0.0]",0.002,7,1
0,-1,"[0.06771843880414963, -1.503078208570816, 0.06765872636903936, 0.06778995573010249, 0.0679369568824768, 0.06785675138235092]","[-0.06264591962099075, -0.06226815655827522, -0.06556232273578644, -0.06149505451321602, -0.0622599720954895, -0.06133579462766647]","[0.0, -1.5707963267948966, 0.0, 0.0, 0.0, 0.0]","[0.0, -1.5707963267948966, 0.0, 0.0, 0.0, 0.0]",0.002,7,1
0,-1,"[0.06718699634075165, -1.5035565060428162, 0.06710654893984014, 0.06730930387463374, 0.06728339940309525, 0.0673346221446991]","[-0.06993482261896133, -0.0702640488743782, -0.07021348178386688, -0.07171303033828735, -0.07209446281194687, -0.0706453025341034]","[0.0, -1.5707963267948966, 0.0, 0.0, 0.0, 0.0]","[0.0, -1.5707963267948966, 0.0, 0.0, 0.0, 0.0]",0.002,7,1
0,-1,"[0.0665239468216896, -1.504218542282917, 0.06644803682436162, 0.06665913640942378, 0.06674044579267502, 0.06669493019580841]","[-0.0774231031537056, -0.07817239314317703, -0.07977001368999481, -0.07797098159790039, -0.08061768859624863, -0.08062408119440079]","[0.0, -1.5707963267948966, 0.0, 0.0, 0.0, 0.0]","[0.0, -1.5707963267948966, 0.0, 0.0, 0.0, 0.0]",0.002,7,1
0,-1,"[0.06544490158557892, -1.5052155044725914, 0.06545621553529912, 0.06563369810070796, 0.06566707044839859, 0.06571760773658752]","[-0.09028545022010803, -0.08752048015594482, -0.08841019868850708, -0.092734694480896, -0.09148865193128586, -0.09105519205331802]","[0.0, -1.5707963267948966, 0.0, 0.0, 0.0, 0.0]","[0.0, -1.5707963267948966, 0.0, 0.0, 0.0, 0.0]",0.002,7,1
0,-1,"[0.06201412156224251, -1.508650143896677, 0.06191093126405889, 0.062140150661132765, 0.06210529804229736, 0.06212398037314415]","[-0.12035423517227173, -0.12162910401821136, -0.1197114810347557, -0.12240447849035263, -0.12120005488395691, -0.12261662632226944]","[0.0, -1.5707963267948966, 0.0, 0.0, 0.0, 0.0]","[0.0, -1.5707963267948966, 0.0, 0.0, 0.0, 0.0]",0.002,7,1
0,-1,"[0.06105762720108032, -1.5096933667412777, 0.060997788106099904, 0.06110350667919917, 0.06108534708619118, 0.06114394962787628]","[-0.12905171513557434, -0.12961305677890778, -0.1271543949842453, -0.12856559455394745, -0.13135012984275818, -0.12852218747138977]","[0.0, -1.5707963267948966, 0.0, 0.0, 0.0, 0.0]","[0.0, -1.5707963267948966, 0.0, 0.0, 0.0, 0.0]",0.002,7,1
0,-1,"[0.05918945372104645, -1.5116624024561425, 0.05908853212465459, 0.05919878065075679, 0.059121135622262955, 0.059185948222875595]","[-0.14310403168201447, -0.14186063408851624, -0.13851961493492126, -0.14126476645469666, -0.1445280909538269, -0.14316894114017487]","[0.0, -1.5707963267948966, 0.0, 0.0, 0.0, 0.0]","[0.0, -1.5707963267948966, 0.0, 0.0, 0.0, 0.0]",0.002,7,1
0,-1,"[0.057403940707445145, -1.5134309244206925, 0.057340447102681935, 0.05745474874462886, 0.05728713423013687, 0.05730592831969261]","[-0.15488681197166443, -0.15403242409229279, -0.15152986347675323, -0.15507502853870392, -0.1549186259508133, -0.15393364429473877]","[0.0, -1.5707963267948966, 0.0, 0.0, 0.0, 0.0]","[0.0, -1.5707963267948966, 0.0, 0.0, 0.0, 0.0]",0.002,7,1
0,-1,"[0.055410221219062805, -1.515364510273077, 0.0554731527911585, 0.055513425464294386, 0.05536188930273056, 0.05536013841629028]","[-0.16534915566444397, -0.1689010113477707, -0.16353444755077362, -0.16830813884735107, -0.16572128236293793, -0.16626784205436707]","[0.0, -1.5707963267948966, 0.0, 0.0, 0.0, 0.0]","[0.0, -1.5707963267948966, 0.0, 0.0, 0.0, 0.0]",0.002,7,1
0,-1,"[0.05214879289269447, -1.5185692955604573, 0.05224925676454717, 0.05237071096386714, 0.05216827616095543, 0.05213708430528641]","[-0.18616493046283722, -0.18165989220142365, -0.18452629446983337, -0.18843097984790802, -0.1847570687532425, -0.18327251076698303]","[0.0, -1.5707963267948966, 0.0, 0.0, 0.0, 0.0]","[0.0, -1.5707963267948966, 0.0, 0.0, 0.0, 0.0]",0.002,7,1
0,-1,"[0.049907930195331573, -1.52082139000807, 0.05004722276796514, 0.05003587781872554, 0.049945782870054245, 0.04981788247823715]","[-0.1974431276321411, -0.19611534476280212, -0.19842477142810822, -0.2017861157655716, -0.19660848379135132, -0.19497589766979218]","[0.0, -1.5707963267948966, 0.0, 0.0, 0.0, 0.0]","[0.0, -1.5707963267948966, 0.0, 0.0, 0.0, 0.0]",0.002,7,1
0,-1,"[0.04742775112390518, -1.523228046750166, 0.04756194749941045, 0.047572775478027296, 0.04750850051641464, 0.047354087233543396]","[-0.21088460087776184, -0.2076846808195114, -0.20991289615631104, -0.2150568813085556, -0.209495410323143, -0.20652927458286285]","[0.0, -1.5707963267948966, 0.0, 0.0, 0.0, 0.0]","[0.0, -1.5707963267948966, 0.0, 0.0, 0.0, 0.0]",0.002,7,1
0,-1,"[0.04346697777509689, -1.5272152994624157, 0.04362851778139287, 0.04356948911633296, 0.043600309640169144, 0.04352886602282524]","[-0.22686675190925598, -0.22790324687957764, -0.22936826944351196, -0.2284812033176422, -0.22700682282447815, -0.22725701332092285]","[0.0, -1.5707963267948966, 0.0, 0.0, 0.0, 0.0]","[0.0, -1.5707963267948966, 0.0, 0.0, 0.0, 0.0]",0.002,7,1
0,-1,"[0.03963364288210869, -1.530931932186224, 0.03982144991029912, 0.03966812669720454, 0.0397585891187191, 0.039735399186611176]","[-0.24579180777072906, -0.24566446244716644, -0.2462630718946457, -0.24620789289474487, -0.24886682629585266, -0.24857813119888306]","[0.0, -1.5707963267948966, 0.0, 0.0, 0.0, 0.0]","[0.0, -1.5707963267948966, 0.0, 0.0, 0.0, 0.0]",0.002,7,1
0,-1,"[0.037629514932632446, -1.5328771744719525, 0.03784495988954717, 0.03759007036175532, 0.037767160683870316, 0.03778984397649765]","[-0.2517436444759369, -0.2516593039035797, -0.2547629475593567, -0.25227898359298706, -0.2569657266139984, -0.25591278076171875]","[0.0, -1.5707963267948966, 0.0, 0.0, 0.0, 0.0]","[0.0, -1.5707963267948966, 0.0, 0.0, 0.0, 0.0]",0.002,7,1
0,-1,"[0.034501317888498306, -1.5359010000577946, 0.034624878560201466, 0.03441528856243892, 0.03458566218614578, 0.03461664915084839]","[-0.26465222239494324, -0.2645447850227356, -0.2659449875354767, -0.261478990316391, -0.2665775418281555, -0.2672136127948761]","[0.0, -1.5707963267948966, 0.0, 0.0, 0.0, 0.0]","[0.0, -1.5707963267948966, 0.0, 0.0, 0.0, 0.0]",0.002,7,1
0,-1,"[0.031825583428144455, -1.5384884525886555, 0.03207618394960576, 0.03184954702343745, 0.03199242427945137, 0.03209226578474045]","[-0.2574993371963501, -0.22758838534355164, -0.24453778564929962, -0.24632547795772552, -0.2524026036262512, -0.2519695460796356]","[0.0, -1.5707963267948966, 0.0, 0.0, 0.0, 0.0]","[0.0, -1.5707963267948966, 0.0, 0.0, 0.0, 0.0]",0.002,7,1
0,-1,"[0.027211138978600502, -1.5434860505959769, 0.02723724046816045, 0.027085109347961378, 0.027098646387457848, 0.0271868035197258]","[-0.23031800985336304, -0.23850460350513458, -0.22974467277526855, -0.229646235704422, -0.23287610709667206, -0.23327453434467316]","[0.0, -1.5707963267948966, 0.0, 0.0, 0.0, 0.0]","[0.0, -1.5707963267948966, 0.0, 0.0, 0.0, 0.0]",0.002,7,1
0,-1,"[0.024082781746983528, -1.5467740532806893, 0.024002854024068654, 0.024043961162231398, 0.0239656213670969, 0.023964587599039078]","[-0.2178293764591217, -0.22229842841625214, -0.21766191720962524, -0.2203759104013443, -0.21790972352027893, -0.21860046684741974]","[0.0, -1.5707963267948966, 0.0, 0.0, 0.0, 0.0]","[0.0, -1.5707963267948966, 0.0, 0.0, 0.0, 0.0]",0.002,7,1
0,-1,"[0.02153054066002369, -1.5493584026447316, 0.02144509950746709, 0.021541400546691847, 0.02136167138814926, 0.02140706032514572]","[-0.20855629444122314, -0.20618422329425812, -0.20798543095588684, -0.21066701412200928, -0.20586806535720825, -0.20661775767803192]","[0.0, -1.5707963267948966, 0.0, 0.0, 0.0, 0.0]","[0.0, -1.5707963267948966, 0.0, 0.0, 0.0, 0.0]",0.002,7,1
0,-1,"[0.019176121801137924, -1.5518909853747864, 0.019145790730611623, 0.0192224222370605, 0.01900085061788559, 0.019008127972483635]","[-0.19697272777557373, -0.1963745355606079, -0.19445767998695374, -0.20065456628799438, -0.19323468208312988, -0.19308723509311676]","[0.0, -1.5707963267948966, 0.0, 0.0, 0.0, 0.0]","[0.0, -1.5707963267948966, 0.0, 0.0, 0.0, 0.0]",0.002,7,1
0,-1,"[0.016832685098052025, -1.5540303115597744, 0.016903225575582326, 0.01688043653454585, 0.016801243647933006, 0.01672651804983616]","[-0.18535515666007996, -0.18162013590335846, -0.1830357015132904, -0.18802008032798767, -0.18352195620536804, -0.18308702111244202]","[0.0, -1.5707963267948966, 0.0, 0.0, 0.0, 0.0]","[0.0, -1.5707963267948966, 0.0, 0.0, 0.0, 0.0]",0.002,7,1
0,-1,"[0.014668198302388191, -1.5560702665573736, 0.014807049428121388, 0.014771981830261183, 0.0147471958771348, 0.014677716419100761]","[-0.17241612076759338, -0.16762183606624603, -0.17181776463985443, -0.17484073340892792, -0.1727886199951172, -0.17100046575069427]","[0.0, -1.5707963267948966, 0.0, 0.0, 0.0, 0.0]","[0.0, -1.5707963267948966, 0.0, 0.0, 0.0, 0.0]",0.002,7,1
0,-1,"[0.012610097415745258, -1.5579439413598557, 0.012852017079488576, 0.012700124377868605, 0.012666544876992702, 0.01272573322057724]","[-0.16046176850795746, -0.1583557277917862, -0.16182363033294678, -0.1634211391210556, -0.15898436307907104, -0.15897059440612793]","[0.0, -1.5707963267948966, 0.0, 0.0, 0.0, 0.0]","[0.0, -1.5707963267948966, 0.0, 0.0, 0.0, 0.0]",0.002,7,1
0,-1,"[0.010859008878469467, -1.5597346669859071, 0.010951821004049123, 0.010877771968505812, 0.010927362367510796, 0.010935704223811626]","[-0.14760220050811768, -0.14839385449886322, -0.14795085787773132, -0.1490105390548706, -0.15087752044200897, -0.14993861317634583]","[0.0, -1.5707963267948966, 0.0, 0.0, 0.0, 0.0]","[0.0, -1.5707963267948966, 0.0, 0.0, 0.0, 0.0]",0.002,7,1
0,-1,"[0.008334281854331493, -1.5622676427340885, 0.008397881184713185, 0.008335991496704054, 0.008431310765445232, 0.008412717841565609]","[-0.1311456859111786, -0.13168109953403473, -0.1326456367969513, -0.12838083505630493, -0.13169115781784058, -0.132221519947052]","[0.0, -1.5707963267948966, 0.0, 0.0, 0.0, 0.0]","[0.0, -1.5707963267948966, 0.0, 0.0, 0.0, 0.0]",0.002,7,1
0,-1,"[0.006862755864858627, -1.5638007244891305, 0.0068810621844690445, 0.006866140956542921, 0.006895237136632204, 0.006931639742106199]","[-0.11766202747821808, -0.12020371109247208, -0.12084389477968216, -0.11856365203857422, -0.11941231042146683, -0.12033578008413315]","[0.0, -1.5707963267948966, 0.0, 0.0, 0.0, 0.0]","[0.0, -1.5707963267948966, 0.0, 0.0, 0.0, 0.0]",0.002,7,1
0,-1,"[0.00489156786352396, -1.5657311946018417, 0.004872147236959279, 0.004784865970275831, 0.005015979055315256, 0.005008754786103964]","[-0.09925009310245514, -0.10523226857185364, -0.10243365168571472, -0.09695608913898468, -0.10137759894132614, -0.10315404832363129]","[0.0, -1.5707963267948966, 0.0, 0.0, 0.0, 0.0]","[0.0, -1.5707963267948966, 0.0, 0.0, 0.0, 0.0]",0.002,7,1
0,-1,"[0.0037471468094736338, -1.5668902590735634, 0.0038064161883752945, 0.0036914783665160655, 0.0038257937412708998, 0.0038738823495805264]","[-0.08791592717170715, -0.09138914942741394, -0.08873648941516876, -0.08772746473550797, -0.08742545545101166, -0.09074513614177704]","[0.0, -1.5707963267948966, 0.0, 0.0, 0.0, 0.0]","[0.0, -1.5707963267948966, 0.0, 0.0, 0.0, 0.0]",0.002,7,1
0,-1,"[0.0030675996094942093, -1.5676192618305613, 0.003079239522115529, 0.003083630199096632, 0.0031283290591090918, 0.0032187080942094326]","[-0.07916359603404999, -0.08179921656847, -0.0809173583984375, -0.07830839604139328, -0.08145437389612198, -0.07967347651720047]","[0.0, -1.5707963267948966, 0.0, 0.0, 0.0, 0.0]","[0.0, -1.5707963267948966, 0.0, 0.0, 0.0, 0.0]",0.002,7,1
0,-1,"[0.001788054360076785, -1.5689333096709852, 0.0017626921283167007, 0.0018808084675292491, 0.0018574962159618735, 0.0019160795491188765]","[-0.06111293286085129, -0.06688667833805084, -0.06318920105695724, -0.059344273060560226, -0.06477537751197815, -0.06082575023174286]","[0.0, -1.5707963267948966, 0.0, 0.0, 0.0, 0.0]","[0.0, -1.5707963267948966, 0.0, 0.0, 0.0, 0.0]",0.002,7,1
0,-1,"[0.0011457476066425443, -1.569665454361104, 0.0010989348040979507, 0.0011908250996093273, 0.0011963614961132407, 0.001256375340744853]","[-0.04865185171365738, -0.052892718464136124, -0.05175662413239479, -0.04826727136969566, -0.050856996327638626, -0.05090368911623955]","[0.0, -1.5707963267948966, 0.0, 0.0, 0.0, 0.0]","[0.0, -1.5707963267948966, 0.0, 0.0, 0.0, 0.0]",0.002,7,1
0,-1,"[0.00042128897621296346, -1.5704573427832038, 0.000317875538961232, 0.0004905897327880382, 0.0004691183567047119, 0.0004794263804797083]","[-0.031232744455337524, -0.03399378061294556, -0.0321655236184597, -0.03175939992070198, -0.03241538628935814, -0.032943129539489746]","[0.0, -1.5707963267948966, 0.0, 0.0, 0.0, 0.0]","[0.0, -1.5707963267948966, 0.0, 0.0, 0.0, 0.0]",0.002,7,1
0,-1,"[0.00014084053691476583, -1.5707065624049683, 4.6078358785450746e-05, 0.00017122804608149522, 0.0002422928810119629, 0.00019779682043008506]","[-0.018923625349998474, -0.020839864388108253, -0.02011803910136223, -0.019355008378624916, -0.02004285529255867, -0.019428983330726624]","[0.0, -1.5707963267948966, 0.0, 0.0, 0.0, 0.0]","[0.0, -1.5707963267948966, 0.0, 0.0, 0.0, 0.0]",0.002,7,1
0,-1,"[2.7891635909327306e-05, -1.5709554157652796, -8.724312647245824e-05, 1.2083644531202253e-05, 4.665851520258002e-05, 6.318092346191406e-05]","[0.00015462390729226172, 0.0019741642754524946, 0.004332538228482008, 0.004173600114881992, 0.002804080955684185, 0.003510343609377742]","[0.0, -1.5707963267948966, 0.0, 0.0, 0.0, 0.0]","[0.0, -1.5707963267948966, 0.0, 0.0, 0.0, 0.0]",0.002,7,1
0,-1,"[7.761215965729207e-05, -1.5709673366942347, -5.553960727411322e-05, 7.669507946772569e-05, 0.00011161518341396004, 7.049345731502399e-05]","[0.0019017778104171157, -0.002293747616931796, -1.693364538368769e-06, 7.340302943248389e-08, -0.0002494709624443203, 0.0005790623836219311]","[0.0, -1.5707963267948966, 0.0, 0.0, 0.0, 0.0]","[0.0, -1.5707963267948966, 0.0, 0.0, 0.0, 0.0]",0.002,7,1
0,-1,"[7.757013372611254e-05, -1.5708996258177699, -1.4781951904296875e-05, 5.571424450678819e-05, 0.00013527870760299265, 8.726119995117188e-05]","[0.0005266432417556643, 0.004505027551203966, 0.003779736813157797, 1.334064911491517e-12, -1.3215506911024022e-08, 0.00035200821002945304]","[0.0, -1.5707963267948966, 0.0, 0.0, 0.0, 0.0]","[0.0, -1.5707963267948966, 0.0, 0.0, 0.0, 0.0]",0.002,7,1
0,-1,"[3.263754479121417e-05, -1.5708080730833949, 1.6514454976856996e-05, 6.763517346186632e-05, 0.00012343590788077563, 9.188175317831337e-05]","[0.0002021862455876544, 0.0027422686107456684, 0.0019850870594382286, -0.0002868031442631036, -0.0007159742526710033, -0.00012324019917286932]","[0.0, -1.5707963267948966, 0.0, 0.0, 0.0, 0.0]","[0.0, -1.5707963267948966, 0.0, 0.0, 0.0, 0.0]",0.002,7,1
0,-1,"[6.685557309538126e-05, -1.5707095736327865, 4.0356312887013246e-05, 8.861600842280382e-05, 3.319406459922902e-05, 4.950046422891319e-05]","[6.357749743335361e-11, 0.0017719866009429097, 0.0005962749128229916, -0.00029800343327224255, -0.0008048792951740324, -0.0003584901860449463]","[0.0, -1.5707963267948966, 0.0, 0.0, 0.0, 0.0]","[0.0, -1.5707963267948966, 0.0, 0.0, 0.0, 0.0]",0.002,7,1
0,-1,"[0.00011064413411077112, -1.570782990224263, 2.7004872457325746e-05, -2.6983073730946217e-06, 7.073879532981664e-05, 7.510185241699219e-05]","[8.95352120007993e-28, 9.3264585302677e-05, 0.00027142674662172794, -0.0004559461085591465, -0.0009651081054471433, -0.0005681998445652425]","[0.0, -1.5707963267948966, 0.0, 0.0, 0.0, 0.0]","[0.0, -1.5707963267948966, 0.0, 0.0, 0.0, 0.0]",0.002,7,1
0,-1,"[0.0001284761674469337, -1.5708023510374964, 4.178682436162262e-05, -3.011644396977431e-05, 4.220008850097656e-05, 9.326433792011812e-05]","[9.402712695619523e-43, -0.001041196403093636, 0.00014646149065811187, -0.0006927994545549154, -0.0009974705753847957, -0.0007428314420394599]","[0.0, -1.5707963267948966, 0.0, 0.0, 0.0, 0.0]","[0.0, -1.5707963267948966, 0.0, 0.0, 0.0, 0.0]",0.002,7,1
0,-1,"[8.207905193557963e-05, -1.5708142719664515, 2.9865895406544496e-05, 1.542150463862413e-05, 3.473141259746626e-05, 4.673004150390625e-05]","[0.0, -0.0006852826336398721, 9.447160846320912e-05, -0.0010029338300228119, -0.0007788509246893227, -0.0008867392316460609]","[0.0, -1.5707963267948966, 0.0, 0.0, 0.0, 0.0]","[0.0, -1.5707963267948966, 0.0, 0.0, 0.0, 0.0]",0.002,7,1
0,-1,"[8.207013888750225e-05, -1.5707666704205003, -7.40015457267873e-06, 5.285322155756944e-05, 2.587738163128961e-05, 5.5778025853214785e-05]","[0.0, -0.00016044061339925975, 0.00010016170563176274, -0.0005532086943276227, -0.0008664665510877967, -0.0007715562242083251]","[0.0, -1.5707963267948966, 0.0, 0.0, 0.0, 0.0]","[0.0, -1.5707963267948966, 0.0, 0.0, 0.0, 0.0]",0.002,7,1
0,-1,"[5.354971654014662e-05, -1.5707545859771308, 2.9865895406544496e-05, 4.832326855463975e-05, 1.3899803889216855e-05, 1.805329338822048e-05]","[0.0, -1.832307092511365e-12, 8.657972648506984e-05, -0.00047344359336420894, -0.0006356038502417505, -0.0008731337729841471]","[0.0, -1.5707963267948966, 0.0, 0.0, 0.0, 0.0]","[0.0, -1.5707963267948966, 0.0, 0.0, 0.0, 0.0]",0.002,7,1
0,-1,"[7.019928307272494e-05, -1.5707457621177419, 4.178682436162262e-05, 5.738317456049913e-05, 4.6703116822754964e-05, 1.52587890625e-05]","[-4.2946561734424904e-05, 0.00041797090671025217, 2.200129529228434e-05, -0.0005121328285895288, -0.0004344043554738164, -0.0006104665226303041]","[0.0, -1.5707963267948966, 0.0, 0.0, 0.0, 0.0]","[0.0, -1.5707963267948966, 0.0, 0.0, 0.0, 0.0]",0.002,7,1
0,-1,"[0.00010752356320153922, -1.570803781548971, 1.1746083394825746e-05, 4.0932292602491316e-05, -2.175966371709137e-05, 1.9788742065429688e-05]","[-3.535348878358491e-05, 1.1523484317876864e-05, 3.606727477745153e-05, -0.0003813988296315074, -0.00023222618619911373, -0.00043945564539171755]","[0.0, -1.5707963267948966, 0.0, 0.0, 0.0, 0.0]","[0.0, -1.5707963267948966, 0.0, 0.0, 0.0, 0.0]",0.002,7,1
0,-1,"[5.793353921035305e-05, -1.5707980595030726, 1.3653432027638246e-05, -1.1758213378953997e-05, 1.990795681194868e-06, -5.547200338185121e-06]","[-4.096239717910066e-05, -0.00046998774632811546, 8.909899205754093e-17, -0.0003961540060117841, -0.00018278273637406528, -0.000276840350124985]","[0.0, -1.5707963267948966, 0.0, 0.0, 0.0, 0.0]","[0.0, -1.5707963267948966, 0.0, 0.0, 0.0, 0.0]",0.002,7,1
0,-1,"[5.799021164420992e-05, -1.5707578022523485, -4.078817437402904e-05, 2.9130572936963972e-05, -3.987947572881012e-05, 1.2554644854390062e-05]","[-0.00013657267845701426, -5.333523949957453e-05, 6.971063677099504e-30, -0.00029412281583063304, -0.00017738522728905082, -0.00025751921930350363]","[0.0, -1.5707963267948966, 0.0, 0.0, 0.0, 0.0]","[0.0, -1.5707963267948966, 0.0, 0.0, 0.0, 0.0]",0.002,7,1
0,-1,"[4.295401231502183e-05, -1.5706887642630427, 4.116688863575746e-06, 7.434482238721785e-06, -3.5587941304981996e-05, 7.967671990627423e-06]","[-0.0001952244492713362, -1.7279989288424003e-12, 2.2585417909406296e-37, -0.00024149284581653774, -0.00018522598838899285, -0.00025223707780241966]","[0.0, -1.5707963267948966, 0.0, 0.0, 0.0, 0.0]","[0.0, -1.5707963267948966, 0.0, 0.0, 0.0, 0.0]",0.002,7,1
0,-1,"[5.505059743882157e-05, -1.5706680167971463, -2.8435468266252428e-05, 6.215154614253038e-05, 6.469775689765811e-05, 3.351163832121529e-05]","[-0.0003754513163585216, 0.0005999502027407289, -0.0, -0.00018390889454167336, -0.00017436061170883477, -0.00022331875516101718]","[0.0, -1.5707963267948966, 0.0, 0.0, 0.0, 0.0]","[0.0, -1.5707963267948966, 0.0, 0.0, 0.0, 0.0]",0.002,7,1
0,-1,"[7.14031484676525e-05, -1.5706932868673285, 4.655519594365387e-05, 2.114355053706163e-05, 3.639743954408914e-05, 2.4385213691857643e-05]","[-0.00030018255347386, 0.0001638607500353828, -0.0, -0.00016421981854364276, -0.00015952945977915078, -0.00017573889635968953]","[0.0, -1.5707963267948966, 0.0, 0.0, 0.0, 0.0]","[0.0, -1.5707963267948966, 0.0, 0.0, 0.0, 0.0]",0.002,7,1
0,-1,"[5.943424184806645e-05, -1.5708362064757289, -4.533934406936169e-05, 1.8163318298292097e-05, 1.1074065696448088e-05, -2.9865895406544496e-05]","[-0.00027705758111551404, -0.0002410522138234228, -0.0, -0.00014528370229527354, -0.00014361899229697883, -0.00014435646880883723]","[0.0, -1.5707963267948966, 0.0, 0.0, 0.0, 0.0]","[0.0, -1.5707963267948966, 0.0, 0.0, 0.0, 0.0]",0.002,7,1
0,-1,"[6.242983363335952e-05, -1.5707829901724217, 3.892580141240387e-05, 4.2839641235303816e-05, 2.281665729242377e-05, 2.441837204969488e-05]","[-0.00023235070693772286, -0.000539710046723485, -0.0, -0.0001488720445195213, -0.00013059470802545547, -0.00012312566104810685]","[0.0, -1.5707963267948966, 0.0, 0.0, 0.0, 0.0]","[0.0, -1.5707963267948966, 0.0, 0.0, 0.0, 0.0]",0.002,7,1
0,-1,"[5.5041531595634297e-05, -1.5708114109435023, -7.382035164482659e-06, -1.3665562011766497e-05, 1.5496505511691794e-05, -2.080598940068512e-05]","[-0.0002082954888464883, -0.00039864369318820536, -0.0, -0.00013244120054878294, -0.00011777647159760818, -0.00010576206113910303]","[0.0, -1.5707963267948966, 0.0, 0.0, 0.0, 0.0]","[0.0, -1.5707963267948966, 0.0, 0.0, 0.0, 0.0]",0.002,7,1
0,-1,"[2.9591083148261532e-05, -1.5707772578137629, -2.3902535758679733e-05, -2.081811938481337e-05, 9.477006642555352e-06, 4.84804913867265e-05]","[-0.00046383545850403607, -7.596825889777392e-05, -0.0, -8.891747711459175e-05, -0.00010725010361056775, -9.269067959394306e-05]","[0.0, -1.5707963267948966, 0.0, 0.0, 0.0, 0.0]","[0.0, -1.5707963267948966, 0.0, 0.0, 0.0, 0.0]",0.002,7,1
0,-1,"[5.498502287082374e-05, -1.5707722829614177, -1.6469479305669665e-05, -2.081811938481337e-05, -1.5083943502247621e-05, -3.4634266988575746e-05]","[-0.0007809446542523801, -9.551925033482231e-17, -0.0, -3.132428691432487e-11, -9.457153646508232e-05, -9.279430378228426e-05]","[0.0, -1.5707963267948966, 0.0, 0.0, 0.0, 0.0]","[0.0, -1.5707963267948966, 0.0, 0.0, 0.0, 0.0]",0.002,7,1
0,-1,"[7.145044219214469e-05, -1.5707292791670007, 2.557436098271637e-05, -2.081811938481337e-05, 1.1064811587857548e-05, 7.946252480905969e-06]","[-6.775012195703312e-08, -1.3451833888482158e-33, -0.0, -6.755740673698369e-22, -8.457389048999175e-05, -8.114381489576772e-05]","[0.0, -1.5707963267948966, 0.0, 0.0, 0.0, 0.0]","[0.0, -1.5707963267948966, 0.0, 0.0, 0.0, 0.0]",0.002,7,1
0,-1,"[4.6110151743050665e-05, -1.5707533679927401, 4.178682436162262e-05, 9.222621581983503e-06, -1.0792409078419496e-05, 7.946252480905969e-06]","[-9.54115136128396e-25, -8.957558020483702e-05, -0.0, -1.457017607130945e-32, -5.650554246727779e-09, -7.1476970333606e-05]","[0.0, -1.5707963267948966, 0.0, 0.0, 0.0, 0.0]","[0.0, -1.5707963267948966, 0.0, 0.0, 0.0, 0.0]",0.002,7,1
0,-1,"[2.9608947443193756e-05, -1.5707918045394145, 8.885060445606996e-06, -4.367237426805559e-06, -3.5587941304981996e-05, 2.7179718017578125e-05]","[-7.464948413964607e-38, -6.644852692261338e-05, -0.0, -7.37097005219497e-41, -2.858586973600759e-17, -6.541587208630517e-05]","[0.0, -1.5707963267948966, 0.0, 0.0, 0.0, 0.0]","[0.0, -1.5707963267948966, 0.0, 0.0, 0.0, 0.0]",0.002,7,1
0,-1,"[1.4543533325195312e-05, -1.5707457532992812, 2.080598940068512e-05, -1.3546352722215715e-05, -3.892580141240387e-05, -8.885060445606996e-06]","[0.0, -2.564915848779492e-05, -0.0, -0.0, -9.442292175458278e-27, -5.9636466176016256e-05]","[0.0, -1.5707963267948966, 0.0, 0.0, 0.0, 0.0]","[0.0, -1.5707963267948966, 0.0, 0.0, 0.0, 0.0]",0.002,7,1
0,-1,"[-3.606477846318512e-05, -1.5707918132596497, 2.2236500875294496e-05, 7.434482238721785e-06, -4.116688863575746e-06, -3.892580141240387e-05]","[0.0, -4.242845472218526e-16, -0.0, -0.0, -4.776806687474234e-35, -3.016978214562954e-13]","[0.0, -1.5707963267948966, 0.0, 0.0, 0.0, 0.0]","[0.0, -1.5707963267948966, 0.0, 0.0, 0.0, 0.0]",0.002,7,1
0,-1,"[4.6074426791165024e-05, -1.5707501521577178, 1.6514454976856996e-05, -3.27390483398915e-05, -1.3176594869435121e-05, 3.351163832121529e-05]","[0.0, -5.975135865539584e-33, -0.0, -0.0, -1.401298464324817e-45, -6.506746810607725e-24]","[0.0, -1.5707963267948966, 0.0, 0.0, 0.0, 0.0]","[0.0, -1.5707963267948966, 0.0, 0.0, 0.0, 0.0]",0.002,7,1
0,-1,"[5.5023669119691476e-05, -1.5707741340450703, -1.9378636352485046e-05, 1.542150463862413e-05, -1.7468129293263246e-05, 6.132365342637058e-06]","[0.0, 0.0, -0.0, -0.0, -0.0, -1.4033172094205176e-34]","[0.0, -1.5707963267948966, 0.0, 0.0, 0.0, 0.0]","[0.0, -1.5707963267948966, 0.0, 0.0, 0.0, 0.0]",0.002,7,1
0,-1,"[3.8504600524902344e-05, -1.5707534656688331, -7.384923264908139e-06, -9.135609008836809e-06, -4.3217335836231996e-05, -4.369417299443512e-05]","[0.0, 0.0, -0.0, -0.0, -0.0, -1.0872674784696256e-41]","[0.0, -1.5707963267948966, 0.0, 0.0, 0.0, 0.0]","[0.0, -1.5707963267948966, 0.0, 0.0, 0.0, 0.0]",0.002,7,1
0,-1,"[2.2140198780107312e-05, -1.570762318733916, 5.418459047490387e-05, 4.692668579053816e-06, 4.383277700981125e-05, -1.794496645146637e-05]","[0.0, 0.0, -0.0, -0.0, -0.0, -0.0]","[0.0, -1.5707963267948966, 0.0, 0.0, 0.0, 0.0]","[0.0, -1.5707963267948966, 0.0, 0.0, 0.0, 0.0]",0.002,7,1
0,-1,"[3.107157681370154e-05, -1.5707862180518823, 6.024037496388246e-06, -3.27390483398915e-05, -3.415742983037262e-05, 4.086925400770269e-05]","[0.0, 0.0, -0.0, -0.0, -0.0, -0.0]","[0.0, -1.5707963267948966, 0.0, 0.0, 0.0, 0.0]","[0.0, -1.5707963267948966, 0.0, 0.0, 0.0, 0.0]",0.002,7,1
0,-1,"[8.0292702477891e-05, -1.570810934106344, -1.9333123418618925e-05, -4.465997729496962e-05, -1.732503072560121e-06, 2.9038923457846977e-05]","[0.0, 0.0, -0.0, -0.0, -0.0, -0.0]","[0.0, -1.5707963267948966, 0.0, 0.0, 0.0, 0.0]","[0.0, -1.5707963267948966, 0.0, 0.0, 0.0, 0.0]",0.002,7,1
0,-1,"[1.0073488738271408e-05, -1.570766643886902, 4.116688863575746e-06, -1.1758213378953997e-05, 1.9788735698966775e-06, 3.337860107421875e-06]","[0.0, 0.0, -0.0, -0.0, -0.0, -0.0]","[0.0, -1.5707963267948966, 0.0, 0.0, 0.0, 0.0]","[0.0, -1.5707963267948966, 0.0, 0.0, 0.0, 0.0]",0.002,7,1
0,-1,"[2.2152091332827695e-05, -1.5707248844012902, 5.895296205693512e-05, 6.668149914546007e-05, -5.6568776265919496e-05, 1.5222283764160238e-05]","[0.0, 0.0, -0.0, -0.0, -0.0, -0.0]","[0.0, -1.5707963267948966, 0.0, 0.0, 0.0, 0.0]","[0.0, -1.5707963267948966, 0.0, 0.0, 0.0, 0.0]",0.002,7,1
0,-1,"[4.610433097695932e-05, -1.570778564815857, -1.4781951904296875e-05, -5.848825488286025e-05, -3.987947572881012e-05, 2.4385213691857643e-05]","[0.0, 0.0, -0.0, -0.0, -0.0, -0.0]","[0.0, -1.5707963267948966, 0.0, 0.0, 0.0, 0.0]","[0.0, -1.5707963267948966, 0.0, 0.0, 0.0, 0.0]",0.002,7,1
0,1,"[2.6592559152049944e-05, -1.5707425636104126, -4.526421253103763e-05, 2.9249782226514753e-05, -2.175966371709137e-05, 7.946252480905969e-06]","[0.0, 0.0, -0.0, -0.0, -0.0, -0.0]","[0.0004387367163421333, -1.5703575900785545, 0.0004387367163421333, 0.0004387367163421333, 0.0004387367163421333, 0.0004387367163421333]","[0.0004387367163421333, -1.5703575900785545, 0.0004387367163421333, 0.0004387367163421333, 0.0004387367163421333, 0.0004387367163421333]",0.002,7,1
0,2,"[2.2143263777252287e-05, -1.570782972453646, 8.885060445606996e-06, -5.848825488286025e-05, 1.5566129150101915e-05, -7.788287561538709e-07]","[0.0, 0.0, -0.0, -0.0, -0.0, -0.0]","[0.0008774727395818924, -1.5699188540553146, 0.0008774727395818924, 0.0008774727395818924, 0.0008774727395818924, 0.0008774727395818924]","[0.0008774727395818924, -1.5699188540553146, 0.0008774727395818924, 0.0008774727395818924, 0.0008774727395818924, 0.0008774727395818924]",0.002,7,1
0,3,"[-2.271333803349762e-05, -1.5707666615729359, 5.895296205693512e-05, -5.848825488286025e-05, -4.7985707418263246e-05, -2.9865895406544496e-05]","[0.0, 0.0, -0.0, -0.0, -0.0, -0.0]","[0.0013162073766179979, -1.5694801194182786, 0.0013162073766179979, 0.0013162073766179979, 0.0013162073766179979, 0.0013162073766179979]","[0.0013162073766179979, -1.5694801194182786, 0.0013162073766179979, 0.0013162073766179979, 0.0013162073766179979, 0.0013162073766179979]",0.002,7,1
0,4,"[4.004794027423486e-05, -1.5707501311302003, 7.516542543584137e-05, 2.785319946241316e-06, 7.358742004726082e-05, -2.9865895406544496e-05]","[8.055774378590286e-05, 0.0015771925682201982, 4.296267093195638e-07, -0.0, -4.989738044969272e-07, -9.230881836685967e-09]","[0.0017549399343513602, -1.5690413868605453, 0.0017549399343513602, 0.0017549399343513602, 0.0017549399343513602, 0.0017549399343513602]","[0.0017549399343513602, -1.5690413868605453, 0.0017549399343513602, 0.0017549399343513602, 0.0017549399343513602, 0.0017549399343513602]",0.002,7,1
0,5,"[9.254443284589797e-05, -1.570762245064845, 2.7958546773731996e-05, 4.0932292602491316e-05, 1.8358230590820312e-05, 2.4409293473581783e-05]","[0.0016843462362885475, 0.0029969222377985716, 0.002942223334684968, 0.002409194130450487, 0.0016822329489514232, 0.001310579595156014]","[0.002193669719686175, -1.5686026570752103, 0.002193669719686175, 0.002193669719686175, 0.002193669719686175, 0.002193669719686175]","[0.002193669719686175, -1.5686026570752103, 0.002193669719686175, 0.002193669719686175, 0.002193669719686175, 0.002193669719686175]",0.002,7,1
0,6,"[2.503168798284605e-05, -1.5707829459918976, 3.606477846318512e-05, 2.4481410644483503e-05, 4.2217885493300855e-05, 7.931106665637344e-06]","[0.001604402088560164, 0.002633644500747323, 0.0031008319929242134, 0.001725943060591817, 0.0023750390391796827, 0.002177207265049219]","[0.0026323960395310173, -1.5681639307553656, 0.0026323960395310173, 0.0026323960395310173, 0.0026323960395310173, 0.0026323960395310173]","[0.0026323960395310173, -1.5681639307553656, 0.0026323960395310173, 0.0026323960395310173, 0.0026323960395310173, 0.0026323960395310173]",0.002,7,1
0,7,"[6.691217276966199e-05, -1.57070962179235, 2.366701234990387e-05, 1.0891551635694441e-05, 4.832127160625532e-05, 4.8465346480952576e-05]","[0.0018344559939578176, 0.001942049479112029, 0.0028449473902583122, 0.0016447205562144518, 0.0036850871983915567, 0.0026386133395135403]","[0.003071118200799937, -1.5677252085940967, 0.003071118200799937, 0.003071118200799937, 0.003071118200799937, 0.003071118200799937]","[0.003071118200799937, -1.5677252085940967, 0.003071118200799937, 0.003071118200799937, 0.003071118200799937, 0.003071118200799937]",0.002,7,1
0,8,"[5.3483723604585975e-05, -1.5707185275862976, 2.7958546773731996e-05, 4.3793315551710066e-05, 1.3887882232666016e-05, 4.395961877889931e-05]","[0.0023366448003798723, 0.001568230101838708, 0.002863821107894182, 0.002257737098261714, 0.0049564721994102, 0.002556948456913233]","[0.0035098355104135528, -1.567286491284483, 0.0035098355104135528, 0.0035098355104135528, 0.0035098355104135528, 0.0035098355104135528]","[0.0035098355104135528, -1.567286491284483, 0.0035098355104135528, 0.0035098355104135528, 0.0035098355104135528, 0.0035098355104135528]",0.002,7,1
0,9,"[5.79423904127907e-05, -1.570775538288519, 8.088747133427887e-05, 9.767591442866319e-05, 8.264157077064738e-05, 2.7198104362469167e-05]","[0.003269009292125702, 0.002020058920606971, 0.003408545395359397, 0.004185275640338659, 0.005535702686756849, 0.002463629236444831]","[0.00394854727530015, -1.5668477795195963, 0.00394854727530015, 0.00394854727530015, 0.00394854727530015, 0.00394854727530015]","[0.00394854727530015, -1.5668477795195963, 0.00394854727530015, 0.00394854727530015, 0.00394854727530015, 0.00394854727530015]",0.002,7,1
0,10,"[7.462501525878906e-05, -1.5707457621141039, 6.41981707971695e-05, 3.187238659663194e-05, 8.711814734851941e-05, 1.0747099622676615e-05]","[0.003891060594469309, 0.005645900499075651, 0.005801238119602203, 0.006080698687583208, 0.005651022307574749, 0.0031156938057392836]","[0.00438725280239677, -1.5664090739924998, 0.00438725280239677, 0.00438725280239677, 0.00438725280239677, 0.00438725280239677]","[0.00438725280239677, -1.5664090739924998, 0.00438725280239677, 0.00438725280239677, 0.00438725280239677, 0.00438725280239677]",0.002,7,1
0,11,"[8.656372665427625e-05, -1.5706932779615563, 8.994737734013825e-05, 6.477415051264757e-05, 5.718517422792502e-05, -1.4607106344044496e-05]","[0.004067220725119114, 0.00833223294466734, 0.007320265751332045, 0.006475651171058416, 0.006510622333735228, 0.005698874592781067]","[0.004825951398650312, -1.5659703753962462, 0.004825951398650312, 0.004825951398650312, 0.004825951398650312, 0.004825951398650312]","[0.004825951398650312, -1.5659703753962462, 0.004825951398650312, 0.004825951398650312, 0.004825951398650312, 0.004825951398650312]",0.002,7,1
0,12,"[0.0001525157131254673, -1.5707514580102107, 0.00010663667787724762, 7.669507946772569e-05, 0.00012056202831445262, 6.318092346191406e-05]","[0.005248234607279301, 0.009310347959399223, 0.00798256229609251, 0.006728951819241047, 0.0075600165873765945, 0.007495434023439884]","[0.005264642371018622, -1.565531684423878, 0.005264642371018622, 0.005264642371018622, 0.005264642371018622, 0.005264642371018622]","[0.005264642371018622, -1.565531684423878, 0.005264642371018622, 0.005264642371018622, 0.005264642371018622, 0.005264642371018622]",0.002,7,1
0,13,"[0.00011959023686358705, -1.5706528779304172, 0.000100437794820607, 0.00012962400402827257, 9.969425445888191e-05, 4.671177885029465e-05]","[0.006455749738961458, 0.009445643052458763, 0.010251402854919434, 0.007630873005837202, 0.009477022103965282, 0.008174545131623745]","[0.005703325026471591, -1.565093001768425, 0.005703325026471591, 0.005703325026471591, 0.005703325026471591, 0.005703325026471591]","[0.005703325026471591, -1.565093001768425, 0.005703325026471591, 0.005703325026471591, 0.005703325026471591, 0.005703325026471591]",0.002,7,1
0,14,"[0.00012696681369561702, -1.5706826013377686, 0.0001290480243127945, 0.00012509405102534288, 9.806155867408961e-05, 0.00012302398681640625]","[0.007506873458623886, 0.01064096949994564, 0.011774024926126003, 0.009516280144453049, 0.011010241694748402, 0.00975521095097065]","[0.006141998671992247, -1.5646543281229044, 0.006141998671992247, 0.006141998671992247, 0.006141998671992247, 0.006141998671992247]","[0.006141998671992247, -1.5646543281229044, 0.006141998671992247, 0.006141998671992247, 0.006141998671992247, 0.006141998671992247]",0.002,7,1
0,15,"[0.00020504802523646504, -1.5706091826471784, 0.0001710096942346695, 0.00015322744335932725, 0.00013408964150585234, 0.00016352799138985574]","[0.008788530714809895, 0.013780016452074051, 0.014197866432368755, 0.011970952153205872, 0.011986943893134594, 0.011474021710455418]","[0.006580662614577854, -1.5642156641803187, 0.006580662614577854, 0.006580662614577854, 0.006580662614577854, 0.006580662614577854]","[0.006580662614577854, -1.5642156641803187, 0.006580662614577854, 0.006580662614577854, 0.006580662614577854, 0.006580662614577854]",0.002,7,1
0,16,"[0.0001509547291789204, -1.5706377585050468, 0.00019818941225224762, 0.00018231451000971788, 0.0001671490608714521, 0.00011387348058633506]","[0.010780583135783672, 0.014231356792151928, 0.01528717391192913, 0.012829452753067017, 0.013580216094851494, 0.012999441474676132]","[0.0070193161612410035, -1.5637770106336555, 0.0070193161612410035, 0.0070193161612410035, 0.0070193161612410035, 0.0070193161612410035]","[0.0070193161612410035, -1.5637770106336555, 0.0070193161612410035, 0.0070193161612410035, 0.0070193161612410035, 0.0070193161612410035]",0.002,7,1
0,17,"[0.000194549560546875, -1.5706346792033692, 0.0002549330340784195, 0.00010470926251215928, 0.00021661471691913903, 0.00016355796833522618]","[0.012194599024951458, 0.016507886350154877, 0.01774875447154045, 0.015361732803285122, 0.01458756159991026, 0.015426332131028175]","[0.0074579586190107105, -1.563338368175886, 0.0074579586190107105, 0.0074579586190107105, 0.0074579586190107105, 0.0074579586190107105]","[0.0074579586190107105, -1.563338368175886, 0.0074579586190107105, 0.0074579586190107105, 0.0074579586190107105, 0.0074579586190107105]",0.002,7,1
0,18,"[0.00021851062774658203, -1.5706150417430145, 0.0002320448504846695, 0.00021664678540034288, 0.0002558584092184901, 0.00021595254656858742]","[0.013779746368527412, 0.01647946797311306, 0.01914065331220627, 0.01592961698770523, 0.016243353486061096, 0.01642032153904438]","[0.007896589294933507, -1.5628997374999631, 0.007896589294933507, 0.007896589294933507, 0.007896589294933507, 0.007896589294933507]","[0.007896589294933507, -1.5628997374999631, 0.007896589294933507, 0.007896589294933507, 0.007896589294933507, 0.007896589294933507]",0.002,7,1
0,19,"[0.0002110806672135368, -1.5706044398578634, 0.000306431447164357, 0.0002330976673583507, 0.00021789694437757134, 0.00021910667419433594]","[0.01468788180500269, 0.017628030851483345, 0.018986722454428673, 0.016239304095506668, 0.01626100018620491, 0.016072334721684456]","[0.008335207496074538, -1.562461119298822, 0.008335207496074538, 0.008335207496074538, 0.008335207496074538, 0.008335207496074538]","[0.008335207496074538, -1.562461119298822, 0.008335207496074538, 0.008335207496074538, 0.008335207496074538, 0.008335207496074538]",0.002,7,1
0,20,"[0.0002996141847688705, -1.5705506366542359, 0.0002973715411584976, 0.0002717214771728038, 0.0003155231534037739, 0.000292630196781829]","[0.015705395489931107, 0.018789585679769516, 0.019688118249177933, 0.016438104212284088, 0.016522696241736412, 0.01751297526061535]","[0.008773812529518655, -1.5620225142653779, 0.008773812529518655, 0.008773812529518655, 0.008773812529518655, 0.008773812529518655]","[0.008773812529518655, -1.5620225142653779, 0.008773812529518655, 0.008773812529518655, 0.008773812529518655, 0.008773812529518655]",0.002,7,1
0,21,"[0.00027720379875972867, -1.570462151288968, 0.0003622213946741226, 0.0003170210072021007, 0.00032809036201797426, 0.00030031116330064833]","[0.017524845898151398, 0.019792824983596802, 0.021549077704548836, 0.017720850184559822, 0.016807373613119125, 0.018498962745070457]","[0.009212403702371514, -1.561583923092525, 0.009212403702371514, 0.009212403702371514, 0.009212403702371514, 0.009212403702371514]","[0.009212403702371514, -1.561583923092525, 0.009212403702371514, 0.009212403702371514, 0.009212403702371514, 0.009212403702371514]",0.002,7,1
0,22,"[0.00033867359161376953, -1.5704052243421138, 0.0004304091082971695, 0.00035278379406733507, 0.0003653315070550889, 0.0003197826154064387]","[0.01873343624174595, 0.021409854292869568, 0.022629285231232643, 0.018848199397325516, 0.017211342230439186, 0.01908082701265812]","[0.009650980321760663, -1.561145346473136, 0.009650980321760663, 0.009650980321760663, 0.009650980321760663, 0.009650980321760663]","[0.009650980321760663, -1.561145346473136, 0.009650980321760663, 0.009650980321760663, 0.009650980321760663, 0.009650980321760663]",0.002,7,1
0,23,"[0.0003790021000895649, -1.5703901488780794, 0.000470463429586232, 0.0003556448170165538, 0.00035021925577893853, 0.0003842070000246167]","[0.018775902688503265, 0.02315044403076172, 0.023322399705648422, 0.018723800778388977, 0.018697580322623253, 0.019449684768915176]","[0.010089541694836647, -1.56070678510006, 0.010089541694836647, 0.010089541694836647, 0.010089541694836647, 0.010089541694836647]","[0.010089541694836647, -1.56070678510006, 0.010089541694836647, 0.010089541694836647, 0.010089541694836647, 0.010089541694836647]",0.002,7,1
0,24,"[0.0004105567932128906, -1.5703346294215699, 0.000489536915914357, 0.000396414394042921, 0.00039997653220780194, 0.00040824493044056]","[0.021262966096401215, 0.024522947147488594, 0.02450621873140335, 0.020028576254844666, 0.020596515387296677, 0.020268350839614868]","[0.010528087128774092, -1.5602682396661225, 0.010528087128774092, 0.010528087128774092, 0.010528087128774092, 0.010528087128774092]","[0.010528087128774092, -1.5602682396661225, 0.010528087128774092, 0.010528087128774092, 0.010528087128774092, 0.010528087128774092]",0.002,7,1
0,25,"[0.00042575018596835434, -1.5702777640875247, 0.0005586783038538101, 0.0004986959644774913, 0.0004556747153401375, 0.0004156120994593948]","[0.023638736456632614, 0.026388579979538918, 0.0258635226637125, 0.021413298323750496, 0.02109145186841488, 0.02185141295194626]","[0.010966615930772807, -1.5598297108641237, 0.010966615930772807, 0.010966615930772807, 0.010966615930772807, 0.010966615930772807]","[0.010966615930772807, -1.5598297108641237, 0.010966615930772807, 0.010966615930772807, 0.010966615930772807, 0.010966615930772807]",0.002,7,1
0,26,"[0.0005276974989101291, -1.5702463338132766, 0.0006349722491663101, 0.0005388694950561046, 0.0004584399866871536, 0.0004963603569194674]","[0.024177363142371178, 0.027396414428949356, 0.02749309502542019, 0.02247259020805359, 0.02332623116672039, 0.023707522079348564]","[0.01140512740805887, -1.5593911993868377, 0.01140512740805887, 0.01140512740805887, 0.01140512740805887, 0.01140512740805887]","[0.01140512740805887, -1.5593911993868377, 0.01140512740805887, 0.01140512740805887, 0.01140512740805887, 0.01140512740805887]",0.002,7,1
0,27,"[0.000575488549657166, -1.5701743048596946, 0.0006712118731897476, 0.0005115705677489757, 0.0005520458216778934, 0.0005428791046142578]","[0.02570263482630253, 0.028510484844446182, 0.02925337478518486, 0.024503812193870544, 0.02513236552476883, 0.025839002802968025]","[0.011843620867885736, -1.5589527059270107, 0.011843620867885736, 0.011843620867885736, 0.011843620867885736, 0.011843620867885736]","[0.011843620867885736, -1.5589527059270107, 0.011843620867885736, 0.011843620867885736, 0.011843620867885736, 0.011843620867885736]",0.002,7,1
0,28,"[0.0006085478817112744, -1.5701127146933977, 0.0007389227496545914, 0.0005637842365722179, 0.0005548596382141113, 0.0006093888077884912]","[0.026984356343746185, 0.03158985823392868, 0.0313030481338501, 0.026637954637408257, 0.027063384652137756, 0.02763960137963295]","[0.01228209561753532, -1.5585142311773612, 0.01228209561753532, 0.01228209561753532, 0.01228209561753532, 0.01228209561753532]","[0.01228209561753532, -1.5585142311773612, 0.01228209561753532, 0.01228209561753532, 0.01228209561753532, 0.01228209561753532]",0.002,7,1
0,29,"[0.000656479096505791, -1.5700498182889824, 0.000836674367086232, 0.0006403166004638194, 0.0006100960308685899, 0.0007023421349003911]","[0.028331374749541283, 0.034037478268146515, 0.03171519190073013, 0.02891356311738491, 0.028768843039870262, 0.02886372245848179]","[0.012720550964319092, -1.5580757758305774, 0.012720550964319092, 0.012720550964319092, 0.012720550964319092, 0.012720550964319092]","[0.012720550964319092, -1.5580757758305774, 0.012720550964319092, 0.012720550964319092, 0.012720550964319092, 0.012720550964319092]",0.002,7,1
0,30,"[0.0006702780956402421, -1.5699569077445013, 0.0009329954730432632, 0.000716848964355421, 0.0006689662695862353, 0.0007243156433105469]","[0.03134610131382942, 0.03460512310266495, 0.03478723391890526, 0.031059827655553818, 0.030820243060588837, 0.03199062868952751]","[0.01315898621557918, -1.5576373405793174, 0.01315898621557918, 0.01315898621557918, 0.01315898621557918, 0.01315898621557918]","[0.01315898621557918, -1.5576373405793174, 0.01315898621557918, 0.01315898621557918, 0.01315898621557918, 0.01315898621557918]",0.002,7,1
0,31,"[0.0007555452757515013, -1.5698476421860796, 0.0009840170489709976, 0.0007936197468261241, 0.0007456655730493367, 0.0007540183141827583]","[0.033689260482788086, 0.0376119464635849, 0.037124741822481155, 0.03268543258309364, 0.032957110553979874, 0.0346829853951931]","[0.013597400678689451, -1.5571989261162071, 0.013597400678689451, 0.013597400678689451, 0.013597400678689451, 0.013597400678689451]","[0.013597400678689451, -1.5571989261162071, 0.013597400678689451, 0.013597400678689451, 0.013597400678689451, 0.013597400678689451]",0.002,7,1
0,32,"[0.0008275744621641934, -1.569838370054942, 0.0010688940631311539, 0.0008291441151122569, 0.0008115768432617188, 0.0008306503295898438]","[0.03506559133529663, 0.041456542909145355, 0.03792746737599373, 0.03596087545156479, 0.03503120318055153, 0.03526463732123375]","[0.014035793661056617, -1.5567605331338399, 0.014035793661056617, 0.014035793661056617, 0.014035793661056617, 0.014035793661056617]","[0.014035793661056617, -1.5567605331338399, 0.014035793661056617, 0.014035793661056617, 0.014035793661056617, 0.014035793661056617]",0.002,7,1
0,33,"[0.0008921645930968225, -1.569730206309334, 0.0011127630816858414, 0.0008756357380370616, 0.0008927345043048263, 0.000916625838726759]","[0.03662412613630295, 0.04066978767514229, 0.040925391018390656, 0.03834408149123192, 0.037681665271520615, 0.036061275750398636]","[0.014474164470121325, -1.5563221623247752, 0.014474164470121325, 0.014474164470121325, 0.014474164470121325, 0.014474164470121325]","[0.014474164470121325, -1.5563221623247752, 0.014474164470121325, 0.014474164470121325, 0.014474164470121325, 0.014474164470121325]",0.002,7,1
0,34,"[0.0010284121381118894, -1.569595633806177, 0.0011504332171838882, 0.0009595590778808116, 0.0009978710440918803, 0.0009791969787329435]","[0.03932910040020943, 0.043659333139657974, 0.04406003654003143, 0.03841394558548927, 0.040582865476608276, 0.03990764543414116]","[0.014912512413359249, -1.5558838143815372, 0.014912512413359249, 0.014912512413359249, 0.014912512413359249, 0.014912512413359249]","[0.014912512413359249, -1.5558838143815372, 0.014912512413359249, 0.014912512413359249, 0.014912512413359249, 0.014912512413359249]",0.002,7,1
0,35,"[0.0011213921243324876, -1.569532662663125, 0.0012882391559045914, 0.0010024744221190929, 0.0010673378128558397, 0.001110091689042747]","[0.04146759957075119, 0.04687943309545517, 0.04405224323272705, 0.04164084047079086, 0.04306448623538017, 0.04293254017829895]","[0.015350836798282188, -1.5554454899966144, 0.015350836798282188, 0.015350836798282188, 0.015350836798282188, 0.015350836798282188]","[0.015350836798282188, -1.5554454899966144, 0.015350836798282188, 0.015350836798282188, 0.015350836798282188, 0.015350836798282188]",0.002,7,1
0,36,"[0.0011486195726320148, -1.5694411155166854, 0.001313511525289357, 0.0011463600346068858, 0.0011588626075536013, 0.0011442973045632243]","[0.04337247088551521, 0.049642741680145264, 0.046338874846696854, 0.04434875398874283, 0.045766670256853104, 0.04526945576071739]","[0.01578913693243915, -1.5550071898624573, 0.01578913693243915, 0.01578913693243915, 0.01578913693243915, 0.01578913693243915]","[0.01578913693243915, -1.5550071898624573, 0.01578913693243915, 0.01578913693243915, 0.01578913693243915, 0.01578913693243915]",0.002,7,1
0,37,"[0.001240136451087892, -1.5693810342675825, 0.0014475027667444351, 0.001258535976074171, 0.0012548561207950115, 0.0012595473090186715]","[0.04638703912496567, 0.05179991573095322, 0.04916255921125412, 0.048853978514671326, 0.04844482243061066, 0.04767511412501335]","[0.016227412123417467, -1.5545689146714792, 0.016227412123417467, 0.016227412123417467, 0.016227412123417467, 0.016227412123417467]","[0.016227412123417467, -1.5545689146714792, 0.016227412123417467, 0.016227412123417467, 0.016227412123417467, 0.016227412123417467]",0.002,7,1
0,38,"[0.001359972171485424, -1.5692774557140474, 0.0016115347491663101, 0.0013469892689208507, 0.0013483514776453376, 0.0013270287308841944]","[0.04856720566749573, 0.05102919042110443, 0.053556837141513824, 0.05165660008788109, 0.05126061290502548, 0.05085374787449837]","[0.01666566167884386, -1.5541306651160527, 0.01666566167884386, 0.01666566167884386, 0.01666566167884386, 0.01666566167884386]","[0.01666566167884386, -1.5541306651160527, 0.01666566167884386, 0.01666566167884386, 0.01666566167884386, 0.01666566167884386]",0.002,7,1
0,39,"[0.0014771213755011559, -1.5691277812332665, 0.0017359892474573257, 0.001375122661254835, 0.001405256800353527, 0.0014683627523481846]","[0.05095404013991356, 0.05615507438778877, 0.05334393307566643, 0.051605548709630966, 0.053988367319107056, 0.05398625507950783]","[0.017103884906385567, -1.553692441888511, 0.017103884906385567, 0.017103884906385567, 0.017103884906385567, 0.017103884906385567]","[0.017103884906385567, -1.553692441888511, 0.017103884906385567, 0.017103884906385567, 0.017103884906385567, 0.017103884906385567]",0.002,7,1
0,40,"[0.0015894994139671326, -1.5690778720057388, 0.0017264525042932632, 0.0015038686939696788, 0.0015028469497337937, 0.0015641524223610759]","[0.054215382784605026, 0.058504775166511536, 0.054824355989694595, 0.05484648048877716, 0.056610655039548874, 0.05597270280122757]","[0.017542081113751395, -1.5532542456811451, 0.017542081113751395, 0.017542081113751395, 0.017542081113751395, 0.017542081113751395]","[0.017542081113751395, -1.5532542456811451, 0.017542081113751395, 0.017542081113751395, 0.017542081113751395, 0.017542081113751395]",0.002,7,1
0,41,"[0.00164815376047045, -1.5689579804059868, 0.0019643942462366226, 0.0016735035130004405, 0.0016475385054945946, 0.00169599789660424]","[0.056589338928461075, 0.05985501408576965, 0.05935038626194, 0.058076631277799606, 0.05965958908200264, 0.060491595417261124]","[0.017980249608692853, -1.5528160771862036, 0.017980249608692853, 0.017980249608692853, 0.017980249608692853, 0.017980249608692853]","[0.017980249608692853, -1.5528160771862036, 0.017980249608692853, 0.017980249608692853, 0.017980249608692853, 0.017980249608692853]",0.002,7,1
0,42,"[0.0017814264865592122, -1.5688423354043444, 0.0019715468036096695, 0.0017693477817992687, 0.001771747600287199, 0.0017920901300385594]","[0.059204112738370895, 0.06253834813833237, 0.060962893068790436, 0.061146270483732224, 0.06360563635826111, 0.06167204678058624]","[0.018418389699005232, -1.5523779370958912, 0.018418389699005232, 0.018418389699005232, 0.018418389699005232, 0.018418389699005232]","[0.018418389699005232, -1.5523779370958912, 0.018418389699005232, 0.018418389699005232, 0.018418389699005232, 0.018418389699005232]",0.002,7,1
0,43,"[0.0019166369456797838, -1.5686838722652574, 0.0021126906024377945, 0.0018963056751708507, 0.0019040699116885662, 0.001961669186130166]","[0.061755433678627014, 0.0649096891283989, 0.0629800483584404, 0.06369180232286453, 0.0642927885055542, 0.06292564421892166]","[0.01885650069252868, -1.5519398261023678, 0.01885650069252868, 0.01885650069252868, 0.01885650069252868, 0.01885650069252868]","[0.01885650069252868, -1.5519398261023678, 0.01885650069252868, 0.01885650069252868, 0.01885650069252868, 0.01885650069252868]",0.002,7,1
0,44,"[0.002051564631983638, -1.568597968235128, 0.00225240388979131, 0.0019711691090087413, 0.0020527446176856756, 0.002098053926602006]","[0.06442326307296753, 0.06696359068155289, 0.06545849144458771, 0.06695062667131424, 0.06648070365190506, 0.06659850478172302]","[0.01929458189714932, -1.5515017448977473, 0.01929458189714932, 0.01929458189714932, 0.01929458189714932, 0.01929458189714932]","[0.01929458189714932, -1.5515017448977473, 0.01929458189714932, 0.01929458189714932, 0.01929458189714932, 0.01929458189714932]",0.002,7,1
0,45,"[0.002226789016276598, -1.5684211168302973, 0.0024359861956995132, 0.002195401782653761, 0.0021594432182610035, 0.0022087639663368464]","[0.0661710649728775, 0.07033659517765045, 0.06813802570104599, 0.06902958452701569, 0.07153888046741486, 0.07006078958511353]","[0.01973263262080034, -1.5510636941740963, 0.01973263262080034, 0.01973263262080034, 0.01973263262080034, 0.01973263262080034]","[0.01973263262080034, -1.5510636941740963, 0.01973263262080034, 0.01973263262080034, 0.01973263262080034, 0.01973263262080034]",0.002,7,1
0,46,"[0.0023424425162374973, -1.5683010730757196, 0.0025394598590295914, 0.002327247256896925, 0.0023549108300358057, 0.0023502553813159466]","[0.0726335272192955, 0.07317036390304565, 0.07081146538257599, 0.0719362422823906, 0.07404215633869171, 0.07064774632453918]","[0.020170652171463074, -1.5506256746234335, 0.020170652171463074, 0.020170652171463074, 0.020170652171463074, 0.020170652171463074]","[0.020170652171463074, -1.5506256746234335, 0.020170652171463074, 0.020170652171463074, 0.020170652171463074, 0.020170652171463074]",0.002,7,1
0,47,"[0.002510364167392254, -1.568128708317392, 0.0027001539813440445, 0.0024828153797606944, 0.00253208726644516, 0.002522347727790475]","[0.0706428810954094, 0.07499207556247711, 0.0738263726234436, 0.07516289502382278, 0.07568744570016861, 0.07441885024309158]","[0.0206086398571681, -1.5501876869377285, 0.0206086398571681, 0.0206086398571681, 0.0206086398571681, 0.0206086398571681]","[0.0206086398571681, -1.5501876869377285, 0.0206086398571681, 0.0206086398571681, 0.0206086398571681, 0.0206086398571681]",0.002,7,1
0,48,"[0.0026558847166597843, -1.5679802168491115, 0.0028231779681604507, 0.0026342111774901866, 0.002634292235597968, 0.002595853293314576]","[0.0753767192363739, 0.076580710709095, 0.07553256303071976, 0.07872618734836578, 0.07914109528064728, 0.07786662131547928]","[0.02104659498599634, -1.5497497318089002, 0.02104659498599634, 0.02104659498599634, 0.02104659498599634, 0.02104659498599634]","[0.02104659498599634, -1.5497497318089002, 0.02104659498599634, 0.02104659498599634, 0.02104659498599634, 0.02104659498599634]",0.002,7,1
0,49,"[0.0027985372580587864, -1.5678199802390118, 0.0030425230609338882, 0.00277356683697505, 0.0027983016334474087, 0.0028129257261753082]","[0.0834353119134903, 0.08218462765216827, 0.08102358132600784, 0.08238540589809418, 0.08216376602649689, 0.08101040124893188]","[0.021484516866080144, -1.5493118099288163, 0.021484516866080144, 0.021484516866080144, 0.021484516866080144, 0.021484516866080144]","[0.021484516866080144, -1.5493118099288163, 0.021484516866080144, 0.021484516866080144, 0.021484516866080144, 0.021484516866080144]",0.002,7,1
0,50,"[0.0029859410133212805, -1.5676355106155206, 0.0032046476947229507, 0.002978964442871046, 0.0029170431662350893, 0.002990224864333868]","[0.08210238069295883, 0.08116291463375092, 0.08066990971565247, 0.08537545800209045, 0.0853300541639328, 0.08386103063821793]","[0.0219224048056044, -1.5488739219892922, 0.0219224048056044, 0.0219224048056044, 0.0219224048056044, 0.0219224048056044]","[0.0219224048056044, -1.5488739219892922, 0.0219224048056044, 0.0219224048056044, 0.0219224048056044, 0.0219224048056044]",0.002,7,1
0,51,"[0.0031254668720066547, -1.5674512016451736, 0.0033648649798792007, 0.00316421567883296, 0.0031726828310638666, 0.003179143415763974]","[0.08618809282779694, 0.08513499051332474, 0.08459834009408951, 0.08774378895759583, 0.08975458890199661, 0.08708176016807556]","[0.02236025811280759, -1.548436068682089, 0.02236025811280759, 0.02236025811280759, 0.02236025811280759, 0.02236025811280759]","[0.02236025811280759, -1.548436068682089, 0.02236025811280759, 0.02236025811280759, 0.02236025811280759, 0.02236025811280759]",0.002,7,1
0,52,"[0.0032934327609837055, -1.5673487722272803, 0.0035079161273401382, 0.0033673483082274913, 0.003282242687419057, 0.003342769807204604]","[0.09033651649951935, 0.08881150931119919, 0.08863995224237442, 0.09254568070173264, 0.08948735892772675, 0.09023977071046829]","[0.022798076095982937, -1.5479982506989136, 0.022798076095982937, 0.022798076095982937, 0.022798076095982937, 0.022798076095982937]","[0.022798076095982937, -1.5479982506989136, 0.022798076095982937, 0.022798076095982937, 0.022798076095982937, 0.022798076095982937]",0.002,7,1
0,53,"[0.003506476990878582, -1.5671481166831036, 0.0036838690387170914, 0.003509684199951124, 0.0034685516729950905, 0.003510616486892104]","[0.09368825703859329, 0.09098908305168152, 0.0913495272397995, 0.09398277848958969, 0.09430492669343948, 0.09392502903938293]","[0.023235858063479446, -1.547560468731417, 0.023235858063479446, 0.023235858063479446, 0.023235858063479446, 0.023235858063479446]","[0.023235858063479446, -1.547560468731417, 0.023235858063479446, 0.023235858063479446, 0.023235858063479446, 0.023235858063479446]",0.002,7,1
0,54,"[0.003735876642167568, -1.5669275033618142, 0.003919426594869435, 0.003675861949584913, 0.0036758219357579947, 0.0037476285360753536]","[0.09624967724084854, 0.09496366232633591, 0.094434954226017, 0.0973859578371048, 0.09715688973665237, 0.09727051854133606]","[0.023673603323703017, -1.5471227234711935, 0.023673603323703017, 0.023673603323703017, 0.023673603323703017, 0.023673603323703017]","[0.023673603323703017, -1.5471227234711935, 0.023673603323703017, 0.023673603323703017, 0.023673603323703017, 0.023673603323703017]",0.002,7,1
0,55,"[0.003906968981027603, -1.5667848175256331, 0.00406057039369756, 0.003930373782775831, 0.0038983121048659086, 0.003984502516686916]","[0.09962167590856552, 0.09761486202478409, 0.09738057851791382, 0.10226407647132874, 0.10121939331293106, 0.09998811781406403]","[0.02411131118511755, -1.5466850156097791, 0.02411131118511755, 0.02411131118511755, 0.02411131118511755, 0.02411131118511755]","[0.02411131118511755, -1.5466850156097791, 0.02411131118511755, 0.02411131118511755, 0.02411131118511755, 0.02411131118511755]",0.002,7,1
0,56,"[0.0041723791509866714, -1.5665392068079491, 0.004315678273336232, 0.0041498380848388194, 0.004150989465415478, 0.004105981905013323]","[0.10161988437175751, 0.1005106195807457, 0.10004012286663055, 0.10425606369972229, 0.10591521114110947, 0.10334700345993042]","[0.02454898095624604, -1.5462473458386505, 0.02454898095624604, 0.02454898095624604, 0.02454898095624604, 0.02454898095624604]","[0.02454898095624604, -1.5462473458386505, 0.02454898095624604, 0.02454898095624604, 0.02454898095624604, 0.02454898095624604]",0.002,7,1
0,57,"[0.004350860137492418, -1.5664218145287414, 0.004440609608785451, 0.004402800197265577, 0.004342843312770128, 0.004330852534621954]","[0.10718300938606262, 0.10423731058835983, 0.10275755077600479, 0.10751530528068542, 0.10744285583496094, 0.10526224970817566]","[0.024986611945671616, -1.545809714849225, 0.024986611945671616, 0.024986611945671616, 0.024986611945671616, 0.024986611945671616]","[0.024986611945671616, -1.545809714849225, 0.024986611945671616, 0.024986611945671616, 0.024986611945671616, 0.024986611945671616]",0.002,7,1
0,58,"[0.004587865434587002, -1.5661058768494804, 0.004715267811910451, 0.0046070057102660655, 0.004601506050676107, 0.004572231322526932]","[0.10745787620544434, 0.10696029663085938, 0.10677275061607361, 0.11033685505390167, 0.11086979508399963, 0.11266139894723892]","[0.025424203462038705, -1.545372123332858, 0.025424203462038705, 0.025424203462038705, 0.025424203462038705, 0.025424203462038705]","[0.025424203462038705, -1.545372123332858, 0.025424203462038705, 0.025424203462038705, 0.025424203462038705, 0.025424203462038705]",0.002,7,1
0,59,"[0.00481164176017046, -1.5659225785969575, 0.0049737135516565445, 0.00487629949536128, 0.004786426667124033, 0.004786479286849499]","[0.11376349627971649, 0.10889329016208649, 0.10989217460155487, 0.11322907358407974, 0.1145709976553917, 0.11420796066522598]","[0.025861754814054082, -1.5449345719808425, 0.025861754814054082, 0.025861754814054082, 0.025861754814054082, 0.025861754814054082]","[0.025861754814054082, -1.5449345719808425, 0.025861754814054082, 0.025861754814054082, 0.025861754814054082, 0.025861754814054082]",0.002,7,1
0,60,"[0.005059171002358198, -1.5656574576026578, 0.005206886922017873, 0.005082412356994581, 0.005054025910794735, 0.005005489103496075]","[0.11547409743070602, 0.11582156270742416, 0.11190655082464218, 0.11885926127433777, 0.11807103455066681, 0.12045806646347046]","[0.026299265310487988, -1.5444970614844085, 0.026299265310487988, 0.026299265310487988, 0.026299265310487988, 0.026299265310487988]","[0.026299265310487988, -1.5444970614844085, 0.026299265310487988, 0.026299265310487988, 0.026299265310487988, 0.026299265310487988]",0.002,7,1
0,61,"[0.0052794492803514, -1.5654966191253443, 0.005409065877095998, 0.005335732097289991, 0.005264122039079666, 0.005290320608764887]","[0.11971121281385422, 0.11507689952850342, 0.11666415631771088, 0.11812680959701538, 0.12232069671154022, 0.1218474805355072]","[0.02673673426017517, -1.5440595925347214, 0.02673673426017517, 0.02673673426017517, 0.02673673426017517, 0.02673673426017517]","[0.02673673426017517, -1.5440595925347214, 0.02673673426017517, 0.02673673426017517, 0.02673673426017517, 0.02673673426017517]",0.002,7,1
0,62,"[0.005561537574976683, -1.5652354916422446, 0.005626503621236623, 0.005558415050170851, 0.005570762325078249, 0.005534718278795481]","[0.1225435882806778, 0.122611403465271, 0.11987139284610748, 0.12349949032068253, 0.12460768222808838, 0.12493285536766052]","[0.027174160972016047, -1.5436221658228806, 0.027174160972016047, 0.027174160972016047, 0.027174160972016047, 0.027174160972016047]","[0.027174160972016047, -1.5436221658228806, 0.027174160972016047, 0.027174160972016047, 0.027174160972016047, 0.027174160972016047]",0.002,7,1
0,63,"[0.005776200909167528, -1.5649780265851696, 0.005951706563131154, 0.005822105998657179, 0.005769181996583939, 0.005789551883935928]","[0.12551890313625336, 0.12390517443418503, 0.12316136062145233, 0.12657806277275085, 0.12604065239429474, 0.12924723327159882]","[0.027611544754977735, -1.5431847820399187, 0.027611544754977735, 0.027611544754977735, 0.027611544754977735, 0.027611544754977735]","[0.027611544754977735, -1.5431847820399187, 0.027611544754977735, 0.027611544754977735, 0.027611544754977735, 0.027611544754977735]",0.002,7,1
0,64,"[0.006077806930989027, -1.5647590041956683, 0.006149117146627248, 0.006091161365173292, 0.006004936061799526, 0.0060750567354261875]","[0.1299612820148468, 0.12881366908550262, 0.1272280216217041, 0.128827765583992, 0.1317867934703827, 0.129723459482193]","[0.028048884918095193, -1.5427474418768015, 0.028048884918095193, 0.028048884918095193, 0.028048884918095193, 0.028048884918095193]","[0.028048884918095193, -1.5427474418768015, 0.028048884918095193, 0.028048884918095193, 0.028048884918095193, 0.028048884918095193]",0.002,7,1
0,65,"[0.006313116289675236, -1.5645113375834008, 0.006479565297262013, 0.006321712131164503, 0.006298322696238756, 0.006284861359745264]","[0.13245540857315063, 0.13136668503284454, 0.13095572590827942, 0.13189949095249176, 0.13475146889686584, 0.1357605904340744]","[0.028486180770472276, -1.5423101460244242, 0.028486180770472276, 0.028486180770472276, 0.028486180770472276, 0.028486180770472276]","[0.028486180770472276, -1.5423101460244242, 0.028486180770472276, 0.028486180770472276, 0.028486180770472276, 0.028486180770472276]",0.002,7,1
0,66,"[0.006601125933229923, -1.5642607456869264, 0.006719891224996388, 0.006616516704223585, 0.006583524867892265, 0.00657360116019845]","[0.13622157275676727, 0.13513290882110596, 0.13450603187084198, 0.13606877624988556, 0.13848263025283813, 0.13728001713752747]","[0.02892343162128283, -1.5418728951736138, 0.02892343162128283, 0.02892343162128283, 0.02892343162128283, 0.02892343162128283]","[0.02892343162128283, -1.5418728951736138, 0.02892343162128283, 0.02892343162128283, 0.02892343162128283, 0.02892343162128283]",0.002,7,1
0,67,"[0.0068847439251840115, -1.5639251836440344, 0.006987396870748341, 0.00690571844067378, 0.006886051967740059, 0.006892910227179527]","[0.13867774605751038, 0.1373092085123062, 0.13827550411224365, 0.13950678706169128, 0.14036810398101807, 0.14043784141540527]","[0.029360636779771816, -1.5414356900151247, 0.029360636779771816, 0.029360636779771816, 0.029360636779771816, 0.029360636779771816]","[0.029360636779771816, -1.5414356900151247, 0.029360636779771816, 0.029360636779771816, 0.029360636779771816, 0.029360636779771816]",0.002,7,1
0,68,"[0.007148639298975468, -1.563691026331373, 0.007221047078267873, 0.007188959712646437, 0.007136813830584288, 0.0071538640186190605]","[0.14548879861831665, 0.14145511388778687, 0.1412164568901062, 0.1423569917678833, 0.14267848432064056, 0.1450788825750351]","[0.029797795555256364, -1.5409985312396401, 0.029797795555256364, 0.029797795555256364, 0.029797795555256364, 0.029797795555256364]","[0.029797795555256364, -1.5409985312396401, 0.029797795555256364, 0.029797795555256364, 0.029797795555256364, 0.029797795555256364]",0.002,7,1
0,69,"[0.007498233113437891, -1.5633613320863624, 0.0075333754168909195, 0.00751750051464839, 0.007475506979972124, 0.007461772300302982]","[0.14602185785770416, 0.1470659375190735, 0.14507229626178741, 0.14537230134010315, 0.1480400413274765, 0.14823684096336365]","[0.030234907257126884, -1.5405614195377697, 0.030234907257126884, 0.030234907257126884, 0.030234907257126884, 0.030234907257126884]","[0.030234907257126884, -1.5405614195377697, 0.030234907257126884, 0.030234907257126884, 0.030234907257126884, 0.030234907257126884]",0.002,7,1
0,70,"[0.007723324000835419, -1.5630822412534435, 0.007839981709615529, 0.007791324252746534, 0.007714115548878908, 0.007716288790106773]","[0.1493232548236847, 0.14876742660999298, 0.14996954798698425, 0.14994488656520844, 0.15203268826007843, 0.15141740441322327]","[0.030671971194848137, -1.5401243556000483, 0.030671971194848137, 0.030671971194848137, 0.030671971194848137, 0.030671971194848137]","[0.030671971194848137, -1.5401243556000483, 0.030671971194848137, 0.030671971194848137, 0.030671971194848137, 0.030671971194848137]",0.002,7,1
0,71,"[0.008081621490418911, -1.5627538424781342, 0.00813609758485967, 0.008129282588622999, 0.008076542057096958, 0.008072716183960438]","[0.15241995453834534, 0.1520501673221588, 0.15246419608592987, 0.15423226356506348, 0.15385355055332184, 0.15431717038154602]","[0.031108986677960353, -1.5396873401169362, 0.031108986677960353, 0.031108986677960353, 0.031108986677960353, 0.031108986677960353]","[0.031108986677960353, -1.5396873401169362, 0.031108986677960353, 0.031108986677960353, 0.031108986677960353, 0.031108986677960353]",0.002,7,1
0,72,"[0.008348916657269001, -1.5625360182351251, 0.008442227040426076, 0.008477969760559034, 0.008410563692450523, 0.008381538093090057]","[0.15741458535194397, 0.15638287365436554, 0.1554192304611206, 0.15520615875720978, 0.15849298238754272, 0.15806542336940765]","[0.03154595301608032, -1.5392503737788163, 0.03154595301608032, 0.03154595301608032, 0.03154595301608032, 0.03154595301608032]","[0.03154595301608032, -1.5392503737788163, 0.03154595301608032, 0.03154595301608032, 0.03154595301608032, 0.03154595301608032]",0.002,7,1
0,73,"[0.008672784082591534, -1.562186987405159, 0.008739296589986623, 0.008768959636352491, 0.008706286549568176, 0.008726371452212334]","[0.15834753215312958, 0.16019509732723236, 0.15959946811199188, 0.15926465392112732, 0.16239507496356964, 0.16235104203224182]","[0.031982869518902446, -1.5388134572759942, 0.031982869518902446, 0.031982869518902446, 0.031982869518902446, 0.031982869518902446]","[0.031982869518902446, -1.5388134572759942, 0.031982869518902446, 0.031982869518902446, 0.031982869518902446, 0.031982869518902446]",0.002,7,1
0,74,"[0.009014714509248734, -1.5618288258886714, 0.009077850972310841, 0.00914101182904048, 0.009026109240949154, 0.009013291448354721]","[0.16266481578350067, 0.16337747871875763, 0.16176635026931763, 0.16155339777469635, 0.16650338470935822, 0.16486148536205292]","[0.03241973549619986, -1.5383765912986966, 0.03241973549619986, 0.03241973549619986, 0.03241973549619986, 0.03241973549619986]","[0.03241973549619986, -1.5383765912986966, 0.03241973549619986, 0.03241973549619986, 0.03241973549619986, 0.03241973549619986]",0.002,7,1
0,75,"[0.00935849454253912, -1.561522657317557, 0.009466473256246388, 0.009461804027221632, 0.009381829760968685, 0.009358150884509087]","[0.16684497892856598, 0.17023003101348877, 0.1669132560491562, 0.16516965627670288, 0.16779884696006775, 0.16974329948425293]","[0.03285655025782554, -1.537939776537071, 0.03285655025782554, 0.03285655025782554, 0.03285655025782554, 0.03285655025782554]","[0.03285655025782554, -1.537939776537071, 0.03285655025782554, 0.03285655025782554, 0.03285655025782554, 0.03285655025782554]",0.002,7,1
0,76,"[0.00969442818313837, -1.5611821322566648, 0.009787861500875294, 0.009796543712280226, 0.009793120436370373, 0.009701753966510296]","[0.17063209414482117, 0.16931824386119843, 0.16691629588603973, 0.1689395159482956, 0.17140641808509827, 0.17247600853443146]","[0.03329331311371334, -1.5375030136811831, 0.03329331311371334, 0.03329331311371334, 0.03329331311371334, 0.03329331311371334]","[0.03329331311371334, -1.5375030136811831, 0.03329331311371334, 0.03329331311371334, 0.03329331311371334, 0.03329331311371334]",0.002,7,1
0,77,"[0.010045439936220646, -1.5608494228548189, 0.01004201570619756, 0.010185046786926222, 0.010068235918879509, 0.0099796736612916]","[0.17386716604232788, 0.17291563749313354, 0.17085003852844238, 0.17150136828422546, 0.17701278626918793, 0.17698654532432556]","[0.03373002337387915, -1.5370663034210175, 0.03373002337387915, 0.03373002337387915, 0.03373002337387915, 0.03373002337387915]","[0.03373002337387915, -1.5370663034210175, 0.03373002337387915, 0.03373002337387915, 0.03373002337387915, 0.03373002337387915]",0.002,7,1
0,78,"[0.010341023094952106, -1.560505961333849, 0.010442558919088185, 0.010477944011352491, 0.010414485819637775, 0.01036032009869814]","[0.17725372314453125, 0.17699147760868073, 0.1753087043762207, 0.17581629753112793, 0.18047770857810974, 0.18020950257778168]","[0.03416668034842189, -1.5366296464464746, 0.03416668034842189, 0.03416668034842189, 0.03416668034842189, 0.03416668034842189]","[0.03416668034842189, -1.5366296464464746, 0.03416668034842189, 0.03416668034842189, 0.03416668034842189, 0.03416668034842189]",0.002,7,1
0,79,"[0.010759303346276283, -1.5601711583188553, 0.010852638875142873, 0.01088051378216548, 0.010821625590324402, 0.01074143871665001]","[0.1795627921819687, 0.18087229132652283, 0.17811578512191772, 0.17974141240119934, 0.18003946542739868, 0.1818721741437912]","[0.03460328334752473, -1.5361930434473718, 0.03460328334752473, 0.03460328334752473, 0.03460328334752473, 0.03460328334752473]","[0.03460328334752473, -1.5361930434473718, 0.03460328334752473, 0.03460328334752473, 0.03460328334752473, 0.03460328334752473]",0.002,7,1
0,80,"[0.011140292510390282, -1.559715869171061, 0.011167828236715138, 0.011235042209289503, 0.011153004132211208, 0.011110092513263226]","[0.1832929104566574, 0.18478341400623322, 0.1796369105577469, 0.18334528803825378, 0.18314920365810394, 0.18514995276927948]","[0.035039831681456066, -1.5357564951134406, 0.035039831681456066, 0.035039831681456066, 0.035039831681456066, 0.035039831681456066]","[0.035039831681456066, -1.5357564951134406, 0.035039831681456066, 0.035039831681456066, 0.035039831681456066, 0.035039831681456066]",0.002,7,1
0,81,"[0.011494305916130543, -1.559405270298459, 0.011608425770894826, 0.011584325427673292, 0.011537674814462662, 0.011411277577280998]","[0.18721240758895874, 0.18884609639644623, 0.18677528202533722, 0.1870145946741104, 0.1881297081708908, 0.18962693214416504]","[0.03547632466057065, -1.5353200021343258, 0.03547632466057065, 0.03547632466057065, 0.03547632466057065, 0.03547632466057065]","[0.03547632466057065, -1.5353200021343258, 0.03547632466057065, 0.03547632466057065, 0.03547632466057065, 0.03547632466057065]",0.002,7,1
0,82,"[0.011911297217011452, -1.5589871027371665, 0.011962238942281544, 0.011975808734558058, 0.011900080367922783, 0.011894188821315765]","[0.1910710483789444, 0.1901087462902069, 0.1907564252614975, 0.19143643975257874, 0.19246114790439606, 0.19384264945983887]","[0.035912761595310705, -1.5348835651995858, 0.035912761595310705, 0.035912761595310705, 0.035912761595310705, 0.035912761595310705]","[0.035912761595310705, -1.5348835651995858, 0.035912761595310705, 0.035912761595310705, 0.035912761595310705, 0.035912761595310705]",0.002,7,1
0,83,"[0.012295270338654518, -1.5586777732572337, 0.012320343648092091, 0.012370391482971144, 0.012235083617269993, 0.012221429497003555]","[0.19480763375759125, 0.19410641491413116, 0.1923953890800476, 0.19309347867965698, 0.19638250768184662, 0.19744901359081268]","[0.03634914179620697, -1.5344471849986896, 0.03634914179620697, 0.03634914179620697, 0.03634914179620697, 0.03634914179620697]","[0.03634914179620697, -1.5344471849986896, 0.03634914179620697, 0.03634914179620697, 0.03634914179620697, 0.03634914179620697]",0.002,7,1
0,84,"[0.0126466890797019, -1.5582694348743935, 0.012737576161519826, 0.012790127391479444, 0.01265188492834568, 0.012657110579311848]","[0.19859439134597778, 0.19943825900554657, 0.19564805924892426, 0.19606545567512512, 0.19924791157245636, 0.20049671828746796]","[0.03678546457387983, -1.5340108622210167, 0.03678546457387983, 0.03678546457387983, 0.03678546457387983, 0.03678546457387983]","[0.03678546457387983, -1.5340108622210167, 0.03678546457387983, 0.03678546457387983, 0.03678546457387983, 0.03678546457387983]",0.002,7,1
0,85,"[0.013103991746902466, -1.557906152015068, 0.013117615376607716, 0.013157411212585401, 0.013147660531103611, 0.013046135194599628]","[0.20168434083461761, 0.20327350497245789, 0.19927430152893066, 0.19837400317192078, 0.2028268277645111, 0.20338158309459686]","[0.037221729239040366, -1.5335745975558561, 0.037221729239040366, 0.037221729239040366, 0.037221729239040366, 0.037221729239040366]","[0.037221729239040366, -1.5335745975558561, 0.037221729239040366, 0.037221729239040366, 0.037221729239040366, 0.037221729239040366]",0.002,7,1
0,86,"[0.013514628633856773, -1.5574444404667993, 0.013513867055074513, 0.013640208835266066, 0.013494285754859447, 0.013460819609463215]","[0.20411564409732819, 0.2067164182662964, 0.20174385607242584, 0.20096848905086517, 0.20629487931728363, 0.2087191939353943]","[0.03765793510249147, -1.533138391692405, 0.03765793510249147, 0.03765793510249147, 0.03765793510249147, 0.03765793510249147]","[0.03765793510249147, -1.533138391692405, 0.03765793510249147, 0.03765793510249147, 0.03765793510249147, 0.03765793510249147]",0.002,7,1
0,87,"[0.013943679630756378, -1.5570441449857135, 0.013914410267965138, 0.014037056560180616, 0.01389782503247261, 0.013869290240108967]","[0.2081456333398819, 0.20913484692573547, 0.20591500401496887, 0.2054131031036377, 0.20918138325214386, 0.21181291341781616]","[0.03809408147512893, -1.5327022453197676, 0.03809408147512893, 0.03809408147512893, 0.03809408147512893, 0.03809408147512893]","[0.03809408147512893, -1.5327022453197676, 0.03809408147512893, 0.03809408147512893, 0.03809408147512893, 0.03809408147512893]",0.002,7,1
0,88,"[0.014375650323927402, -1.5565463884598394, 0.014325920735494435, 0.014456077212951612, 0.01432648953050375, 0.014306182973086834]","[0.2123706340789795, 0.2131447046995163, 0.21123278141021729, 0.20971721410751343, 0.2128095030784607, 0.21423007547855377]","[0.03853016766794253, -1.532266159126954, 0.03853016766794253, 0.03853016766794253, 0.03853016766794253, 0.03853016766794253]","[0.03853016766794253, -1.532266159126954, 0.03853016766794253, 0.03853016766794253, 0.03853016766794253, 0.03853016766794253]",0.002,7,1
0,89,"[0.01478822622448206, -1.556175779817142, 0.014809910451070607, 0.014901800746581984, 0.014757187105715275, 0.014704419299960136]","[0.2151559442281723, 0.21752706170082092, 0.21400043368339539, 0.21315212547779083, 0.21528533101081848, 0.21778504550457]","[0.03896619299201709, -1.5318301338028795, 0.03896619299201709, 0.03896619299201709, 0.03896619299201709, 0.03896619299201709]","[0.03896619299201709, -1.5318301338028795, 0.03896619299201709, 0.03896619299201709, 0.03896619299201709, 0.03896619299201709]",0.002,7,1
0,90,"[0.01524415798485279, -1.5557933061248441, 0.015099350606099904, 0.015306993121765089, 0.015179220587015152, 0.015181370079517365]","[0.2199988216161728, 0.2200319766998291, 0.21693934500217438, 0.21543502807617188, 0.21897363662719727, 0.21972253918647766]","[0.03940215675853362, -1.531394170036363, 0.03940215675853362, 0.03940215675853362, 0.03940215675853362, 0.03940215675853362]","[0.03940215675853362, -1.531394170036363, 0.03940215675853362, 0.03940215675853362, 0.03940215675853362, 0.03940215675853362]",0.002,7,1
0,91,"[0.015667257830500603, -1.555283299913146, 0.0156024138080042, 0.015762611026428175, 0.015600556507706642, 0.015646396204829216]","[0.22208988666534424, 0.22338859736919403, 0.22175469994544983, 0.21960672736167908, 0.2230321168899536, 0.22508426010608673]","[0.03983805827877034, -1.5309582685161263, 0.03983805827877034, 0.03983805827877034, 0.03983805827877034, 0.03983805827877034]","[0.03983805827877034, -1.5309582685161263, 0.03983805827877034, 0.03983805827877034, 0.03983805827877034, 0.03983805827877034]",0.002,7,1
0,92,"[0.01613226719200611, -1.5548590787551184, 0.016018215809957326, 0.01622561990704341, 0.01611117646098137, 0.016111046075820923]","[0.22511661052703857, 0.22761119902133942, 0.22526580095291138, 0.22258047759532928, 0.22694748640060425, 0.22899070382118225]","[0.04027389686410387, -1.5305224299307927, 0.04027389686410387, 0.04027389686410387, 0.04027389686410387, 0.04027389686410387]","[0.04027389686410387, -1.5305224299307927, 0.04027389686410387, 0.04027389686410387, 0.04027389686410387, 0.04027389686410387]",0.002,7,1
0,93,"[0.016576366499066353, -1.5544087675264855, 0.01651651064027959, 0.016612811679504347, 0.016576293855905533, 0.016566477715969086]","[0.2282351851463318, 0.23002474009990692, 0.2277330458164215, 0.22526848316192627, 0.23022910952568054, 0.23175007104873657]","[0.04070967182601018, -1.5300866549688863, 0.04070967182601018, 0.04070967182601018, 0.04070967182601018, 0.04070967182601018]","[0.04070967182601018, -1.5300866549688863, 0.04070967182601018, 0.04070967182601018, 0.04070967182601018, 0.04070967182601018]",0.002,7,1
0,94,"[0.01705646701157093, -1.553919955422618, 0.016977612172262013, 0.017122073764465284, 0.01699945330619812, 0.017063690349459648]","[0.23231929540634155, 0.23322303593158722, 0.2317037731409073, 0.22763653099536896, 0.23356282711029053, 0.23523128032684326]","[0.041145382476065785, -1.5296509443188309, 0.041145382476065785, 0.041145382476065785, 0.041145382476065785, 0.041145382476065785]","[0.041145382476065785, -1.5296509443188309, 0.041145382476065785, 0.041145382476065785, 0.041145382476065785, 0.041145382476065785]",0.002,7,1
0,95,"[0.01747542805969715, -1.5534626816264172, 0.017408672963277638, 0.017613812083862257, 0.01749323680996895, 0.017468925565481186]","[0.2349022924900055, 0.23587976396083832, 0.2330879122018814, 0.23326139152050018, 0.23657213151454926, 0.2380833923816681]","[0.0415810281259488, -1.5292152986689478, 0.0415810281259488, 0.0415810281259488, 0.0415810281259488, 0.0415810281259488]","[0.0415810281259488, -1.5292152986689478, 0.0415810281259488, 0.0415810281259488, 0.0415810281259488, 0.0415810281259488]",0.002,7,1
0,96,"[0.017992909997701645, -1.5530573812178154, 0.017899815236226857, 0.01803533613171382, 0.017946211621165276, 0.017949234694242477]","[0.23839490115642548, 0.2368154078722, 0.23857636749744415, 0.2375001758337021, 0.23919138312339783, 0.24091090261936188]","[0.04201660808744002, -1.5287797187074565, 0.04201660808744002, 0.04201660808744002, 0.04201660808744002, 0.04201660808744002]","[0.04201660808744002, -1.5287797187074565, 0.04201660808744002, 0.04201660808744002, 0.04201660808744002, 0.04201660808744002]",0.002,7,1
0,97,"[0.01845191791653633, -1.5525448762676497, 0.01838094392885381, 0.018472118968627882, 0.01843966729938984, 0.018445469439029694]","[0.23914691805839539, 0.24134863913059235, 0.24167147278785706, 0.240703284740448, 0.24202989041805267, 0.2432275265455246]","[0.042452121672424015, -1.5283442051224725, 0.042452121672424015, 0.042452121672424015, 0.042452121672424015, 0.042452121672424015]","[0.042452121672424015, -1.5283442051224725, 0.042452121672424015, 0.042452121672424015, 0.042452121672424015, 0.042452121672424015]",0.002,7,1
0,98,"[0.018928058445453644, -1.5520439700088282, 0.01881581941713506, 0.018937988872192335, 0.018917866051197052, 0.018928099423646927]","[0.24561047554016113, 0.24760502576828003, 0.2430642694234848, 0.24421556293964386, 0.2471904307603836, 0.24614053964614868]","[0.042887568192890205, -1.5279087586020064, 0.042887568192890205, 0.042887568192890205, 0.042887568192890205, 0.042887568192890205]","[0.042887568192890205, -1.5279087586020064, 0.042887568192890205, 0.042887568192890205, 0.042887568192890205, 0.042887568192890205]",0.002,7,1
0,99,"[0.01948060654103756, -1.5515321933529158, 0.019307438527242482, 0.019416733379028273, 0.019470784813165665, 0.019469548016786575]","[0.25011563301086426, 0.24895568192005157, 0.24807344377040863, 0.24759235978126526, 0.25026825070381165, 0.2501579821109772]","[0.043322946960933965, -1.5274733798339626, 0.043322946960933965, 0.043322946960933965, 0.043322946960933965, 0.043322946960933965]","[0.043322946960933965, -1.5274733798339626, 0.043322946960933965, 0.043322946960933965, 0.043322946960933965, 0.043322946960933965]",0.002,7,1
0,100,"[0.01996251754462719, -1.551068903212883, 0.01989156404604131, 0.01995174467053218, 0.019906917586922646, 0.019928311929106712]","[0.25138571858406067, 0.25200918316841125, 0.25117987394332886, 0.2517642080783844, 0.253884881734848, 0.2538147568702698]","[0.04375825728875771, -1.5270380695061387, 0.04375825728875771, 0.04375825728875771, 0.04375825728875771, 0.04375825728875771]","[0.04375825728875771, -1.5270380695061387, 0.04375825728875771, 0.04375825728875771, 0.04375825728875771, 0.04375825728875771]",0.002,7,1
0,101,"[0.02044888585805893, -1.550532442783453, 0.020372692738668263, 0.020430250758789015, 0.020401768386363983, 0.02047005109488964]","[0.2540215849876404, 0.2551650106906891, 0.2541707754135132, 0.2570442259311676, 0.2552345097064972, 0.2559185326099396]","[0.04419349848867195, -1.5266028283062245, 0.04419349848867195, 0.04419349848867195, 0.04419349848867195, 0.04419349848867195]","[0.04419349848867195, -1.5266028283062245, 0.04419349848867195, 0.04419349848867195, 0.04419349848867195, 0.04419349848867195]",0.002,7,1
0,102,"[0.021005980670452118, -1.5500702385655423, 0.020876232777730763, 0.02094356595959468, 0.020963028073310852, 0.020983334630727768]","[0.25555962324142456, 0.2590147852897644, 0.25770971179008484, 0.25949427485466003, 0.2592135965824127, 0.25983527302742004]","[0.04462866987309642, -1.5261676569218001, 0.04462866987309642, 0.04462866987309642, 0.04462866987309642, 0.04462866987309642]","[0.04462866987309642, -1.5261676569218001, 0.04462866987309642, 0.04462866987309642, 0.04462866987309642, 0.04462866987309642]",0.002,7,1
0,103,"[0.021532490849494934, -1.5494229693761845, 0.021394077931539357, 0.021448536510131788, 0.021491775289177895, 0.021487221121788025]","[0.26034650206565857, 0.26062464714050293, 0.2604382336139679, 0.2621905207633972, 0.26142483949661255, 0.2620500922203064]","[0.04506377075456115, -1.5257325560403354, 0.04506377075456115, 0.04506377075456115, 0.04506377075456115, 0.04506377075456115]","[0.04506377075456115, -1.5257325560403354, 0.04506377075456115, 0.04506377075456115, 0.04506377075456115, 0.04506377075456115]",0.002,7,1
0,104,"[0.022010112181305885, -1.5489649095437308, 0.021903816853658498, 0.021916194553039503, 0.02202007733285427, 0.022097626700997353]","[0.26383572816848755, 0.2654094398021698, 0.2630354166030884, 0.2667035162448883, 0.2636190950870514, 0.2640295624732971]","[0.04549880044570755, -1.525297526349189, 0.04549880044570755, 0.04549880044570755, 0.04549880044570755, 0.04549880044570755]","[0.04549880044570755, -1.525297526349189, 0.04549880044570755, 0.04549880044570755, 0.04549880044570755, 0.04549880044570755]",0.002,7,1
0,105,"[0.022586576640605927, -1.5483714000186701, 0.022370640431539357, 0.022479816074035597, 0.022582469508051872, 0.022566862404346466]","[0.2659308910369873, 0.2662850022315979, 0.2668629586696625, 0.2689514458179474, 0.26615628600120544, 0.26742953062057495]","[0.04593375825928948, -1.524862568535607, 0.04593375825928948, 0.04593375825928948, 0.04593375825928948, 0.04593375825928948]","[0.04593375825928948, -1.524862568535607, 0.04593375825928948, 0.04593375825928948, 0.04593375825928948, 0.04593375825928948]",0.002,7,1
0,106,"[0.023096838966012, -1.5478391547552128, 0.022905651723043263, 0.022993846530578566, 0.02307654358446598, 0.023169903084635735]","[0.27007800340652466, 0.26747408509254456, 0.2687685787677765, 0.2723879814147949, 0.2709639370441437, 0.2692158818244934]","[0.04636864350817435, -1.5244276832867223, 0.04636864350817435, 0.04636864350817435, 0.04636864350817435, 0.04636864350817435]","[0.04636864350817435, -1.5244276832867223, 0.04636864350817435, 0.04636864350817435, 0.04636864350817435, 0.04636864350817435]",0.002,7,1
0,107,"[0.023623889312148094, -1.5472761311433096, 0.0234759489642542, 0.02352242052044673, 0.023608751595020294, 0.023689089342951775]","[0.27405911684036255, 0.27139878273010254, 0.26985666155815125, 0.2758937180042267, 0.2734580338001251, 0.27197617292404175]","[0.04680345550534421, -1.5239928712895523, 0.04680345550534421, 0.04680345550534421, 0.04680345550534421, 0.04680345550534421]","[0.04680345550534421, -1.5239928712895523, 0.04680345550534421, 0.04680345550534421, 0.04680345550534421, 0.04680345550534421]",0.002,7,1
0,108,"[0.024189315736293793, -1.5467601933381339, 0.024020973836080373, 0.02406410753216548, 0.02421559765934944, 0.024205751717090607]","[0.27506783604621887, 0.2721303701400757, 0.2727120816707611, 0.27790209650993347, 0.27679094672203064, 0.2740353047847748]","[0.04723819356389685, -1.5235581332309998, 0.04723819356389685, 0.04723819356389685, 0.04723819356389685, 0.04723819356389685]","[0.04723819356389685, -1.5235581332309998, 0.04723819356389685, 0.04723819356389685, 0.04723819356389685, 0.04723819356389685]",0.002,7,1
0,109,"[0.024745123460888863, -1.5461591959795733, 0.02461129823793584, 0.024588509196899366, 0.02478719688951969, 0.024783315137028694]","[0.2780664563179016, 0.27590930461883545, 0.2769356667995453, 0.28060752153396606, 0.2775998115539551, 0.2769111096858978]","[0.04767285699704684, -1.5231234697978497, 0.04767285699704684, 0.04767285699704684, 0.04767285699704684, 0.04767285699704684]","[0.04767285699704684, -1.5231234697978497, 0.04767285699704684, 0.04767285699704684, 0.04767285699704684, 0.04767285699704684]",0.002,7,1
0,110,"[0.025347355753183365, -1.5455293406597157, 0.02520305315126592, 0.025164766902587843, 0.025320153683423996, 0.025383956730365753]","[0.28200048208236694, 0.2785928547382355, 0.27957579493522644, 0.2847684919834137, 0.2810460925102234, 0.2781694531440735]","[0.04810744511812663, -1.5226888816767699, 0.04810744511812663, 0.04810744511812663, 0.04810744511812663, 0.04810744511812663]","[0.04810744511812663, -1.5226888816767699, 0.04810744511812663, 0.04810744511812663, 0.04810744511812663, 0.04810744511812663]",0.002,7,1
0,111,"[0.02585785649716854, -1.5450028714588662, 0.025656048451558888, 0.02574269353833003, 0.02587752975523472, 0.025990484282374382]","[0.28271743655204773, 0.2814999520778656, 0.28119832277297974, 0.28813666105270386, 0.2849162817001343, 0.28023481369018555]","[0.048541957240587706, -1.522254369554309, 0.048541957240587706, 0.048541957240587706, 0.048541957240587706, 0.048541957240587706]","[0.048541957240587706, -1.522254369554309, 0.048541957240587706, 0.048541957240587706, 0.048541957240587706, 0.048541957240587706]",0.002,7,1
0,112,"[0.026449130848050117, -1.5444309071502467, 0.026319328938619435, 0.02631322919812007, 0.026462072506546974, 0.02649780362844467]","[0.2861543893814087, 0.28352683782577515, 0.285800039768219, 0.28919780254364014, 0.28715625405311584, 0.2826787531375885]","[0.048976392678001544, -1.521819934116895, 0.048976392678001544, 0.048976392678001544, 0.048976392678001544, 0.048976392678001544]","[0.048976392678001544, -1.521819934116895, 0.048976392678001544, 0.048976392678001544, 0.048976392678001544, 0.048976392678001544]",0.002,7,1
0,113,"[0.026999834924936295, -1.5438547984561701, 0.026911560689107716, 0.026898069972656202, 0.027081947773694992, 0.0270950086414814]","[0.28914040327072144, 0.28600746393203735, 0.28922784328460693, 0.29381006956100464, 0.28853538632392883, 0.2862708270549774]","[0.049410750744060795, -1.5213855760508357, 0.049410750744060795, 0.049410750744060795, 0.049410750744060795, 0.049410750744060795]","[0.049410750744060795, -1.5213855760508357, 0.049410750744060795, 0.049410750744060795, 0.049410750744060795, 0.049410750744060795]",0.002,7,1
0,114,"[0.027549488469958305, -1.5432595697096367, 0.027487103139058888, 0.02742735921826167, 0.027644405141472816, 0.02775801159441471]","[0.2902557849884033, 0.2906280755996704, 0.2912237048149109, 0.2952248752117157, 0.28951260447502136, 0.2898031175136566]","[0.04984503075258035, -1.5209512960423162, 0.04984503075258035, 0.04984503075258035, 0.04984503075258035, 0.04984503075258035]","[0.04984503075258035, -1.5209512960423162, 0.04984503075258035, 0.04984503075258035, 0.04984503075258035, 0.04984503075258035]",0.002,7,1
0,115,"[0.02814621850848198, -1.5426345628551026, 0.02804261842836553, 0.028057737941406202, 0.028298500925302505, 0.02825821377336979]","[0.2940598726272583, 0.2931470274925232, 0.29384857416152954, 0.29751262068748474, 0.2926236689090729, 0.29209741950035095]","[0.050279232017498385, -1.5205170947773983, 0.050279232017498385, 0.050279232017498385, 0.050279232017498385, 0.050279232017498385]","[0.050279232017498385, -1.5205170947773983, 0.050279232017498385, 0.050279232017498385, 0.050279232017498385, 0.050279232017498385]",0.002,7,1
0,116,"[0.028687264770269394, -1.542059826930501, 0.02867585817445928, 0.028652949924133253, 0.028882931917905807, 0.028855452314019203]","[0.295406311750412, 0.29556503891944885, 0.2966592311859131, 0.29955947399139404, 0.2967928647994995, 0.29433974623680115]","[0.0507133538528775, -1.520082972942019, 0.0507133538528775, 0.0507133538528775, 0.0507133538528775, 0.0507133538528775]","[0.0507133538528775, -1.520082972942019, 0.0507133538528775, 0.0507133538528775, 0.0507133538528775, 0.0507133538528775]",0.002,7,1
0,117,"[0.029303759336471558, -1.5414686885527153, 0.029279057179586232, 0.029264851207397413, 0.029499385505914688, 0.02946697734296322]","[0.30023249983787537, 0.2977229058742523, 0.3004991412162781, 0.30427083373069763, 0.29830583930015564, 0.2955497205257416]","[0.05114739557290577, -1.5196489312219907, 0.05114739557290577, 0.05114739557290577, 0.05114739557290577, 0.05114739557290577]","[0.05114739557290577, -1.5196489312219907, 0.05114739557290577, 0.05114739557290577, 0.05114739557290577, 0.05114739557290577]",0.002,7,1
0,118,"[0.02986621856689453, -1.5408105862191697, 0.0299151579486292, 0.029869838351867628, 0.0300742220133543, 0.03007124923169613]","[0.3023240566253662, 0.2985794246196747, 0.30433812737464905, 0.30717068910598755, 0.30057939887046814, 0.2974652349948883]","[0.05158135649189781, -1.5192149703029987, 0.05158135649189781, 0.05158135649189781, 0.05158135649189781, 0.05158135649189781]","[0.05158135649189781, -1.5192149703029987, 0.05158135649189781, 0.05158135649189781, 0.05158135649189781, 0.05158135649189781]",0.002,7,1
0,119,"[0.030502133071422577, -1.5401871309480448, 0.03051454225649053, 0.030460043544433546, 0.030679382383823395, 0.03066164068877697]","[0.3049898147583008, 0.3028303384780884, 0.3059798777103424, 0.30763280391693115, 0.3030984401702881, 0.30072349309921265]","[0.05201523592429592, -1.5187810908706005, 0.05201523592429592, 0.05201523592429592, 0.05201523592429592, 0.05201523592429592]","[0.05201523592429592, -1.5187810908706005, 0.05201523592429592, 0.05201523592429592, 0.05201523592429592, 0.05201523592429592]",0.002,7,1
0,120,"[0.0311297420412302, -1.5395772711238642, 0.031081978474752248, 0.031088753337524366, 0.03129733353853226, 0.03125904127955437]","[0.3060741424560547, 0.30263832211494446, 0.3065532147884369, 0.31023192405700684, 0.3039502501487732, 0.3025466501712799]","[0.05244903318467109, -1.5183472936102254, 0.05244903318467109, 0.05244903318467109, 0.05244903318467109, 0.05244903318467109]","[0.05244903318467109, -1.5183472936102254, 0.05244903318467109, 0.05244903318467109, 0.05244903318467109, 0.05244903318467109]",0.002,7,1
0,121,"[0.03171646222472191, -1.5389744651368638, 0.03175193468202764, 0.031686587924621534, 0.03192314878106117, 0.03187314420938492]","[0.3092067539691925, 0.30680227279663086, 0.30700623989105225, 0.31280216574668884, 0.3049461841583252, 0.30539464950561523]","[0.05288274758772415, -1.5179135792071725, 0.05288274758772415, 0.05288274758772415, 0.05288274758772415, 0.05288274758772415]","[0.05288274758772415, -1.5179135792071725, 0.05288274758772415, 0.05288274758772415, 0.05288274758772415, 0.05288274758772415]",0.002,7,1
0,122,"[0.032306235283613205, -1.5382702399841328, 0.03233844438661748, 0.03237752496685786, 0.03256078064441681, 0.03248470649123192]","[0.3143955171108246, 0.30721160769462585, 0.3110751807689667, 0.3143107295036316, 0.3097864091396332, 0.3064337372779846]","[0.05331637844828681, -1.5174799483466097, 0.05331637844828681, 0.05331637844828681, 0.05331637844828681, 0.05331637844828681]","[0.05331637844828681, -1.5174799483466097, 0.05331637844828681, 0.05331637844828681, 0.05331637844828681, 0.05331637844828681]",0.002,7,1
0,123,"[0.03292158618569374, -1.537707806830742, 0.033007446919576466, 0.033035560245178175, 0.03312218189239502, 0.03311818465590477]","[0.3124513328075409, 0.30728253722190857, 0.3113771677017212, 0.31762638688087463, 0.31127840280532837, 0.3092740476131439]","[0.053749925081322765, -1.5170464017135739, 0.053749925081322765, 0.053749925081322765, 0.053749925081322765, 0.053749925081322765]","[0.053749925081322765, -1.5170464017135739, 0.053749925081322765, 0.053749925081322765, 0.053749925081322765, 0.053749925081322765]",0.002,7,1
0,124,"[0.03354865312576294, -1.5370433566025277, 0.03365499178041631, 0.0336722570606689, 0.03379726782441139, 0.03371771425008774]","[0.314908891916275, 0.31138595938682556, 0.31418901681900024, 0.3173213601112366, 0.3114860951900482, 0.31098616123199463]","[0.05418338680192879, -1.5166129399929678, 0.05418338680192879, 0.05418338680192879, 0.05418338680192879, 0.05418338680192879]","[0.05418338680192879, -1.5166129399929678, 0.05418338680192879, 0.05418338680192879, 0.05418338680192879, 0.05418338680192879]",0.002,7,1
0,125,"[0.03422384709119797, -1.536469430928566, 0.034284416829244435, 0.03434900819744868, 0.034358348697423935, 0.034393440932035446]","[0.3157171607017517, 0.31177884340286255, 0.3162810206413269, 0.3176574409008026, 0.3137095868587494, 0.3121735155582428]","[0.05461676292533576, -1.5161795638695608, 0.05461676292533576, 0.05461676292533576, 0.05461676292533576, 0.05461676292533576]","[0.05461676292533576, -1.5161795638695608, 0.05461676292533576, 0.05461676292533576, 0.05461676292533576, 0.05461676292533576]",0.002,7,1
0,126,"[0.0348256416618824, -1.5358136233738442, 0.03494865099062139, 0.035054250354431105, 0.0350375734269619, 0.03498426824808121]","[0.3186750113964081, 0.3152158856391907, 0.3166844844818115, 0.31985965371131897, 0.3127759099006653, 0.3146224915981293]","[0.0550500527669098, -1.5157462740279868, 0.0550500527669098, 0.0550500527669098, 0.0550500527669098, 0.0550500527669098]","[0.0550500527669098, -1.5157462740279868, 0.0550500527669098, 0.0550500527669098, 0.0550500527669098, 0.0550500527669098]",0.002,7,1
0,127,"[0.03553033247590065, -1.535141946082451, 0.035628620778219044, 0.03567425786938472, 0.035764895379543304, 0.035636305809020996]","[0.32038021087646484, 0.3186209797859192, 0.3198770582675934, 0.32039088010787964, 0.3181443512439728, 0.3172543942928314]","[0.05548325564215335, -1.5153130711527432, 0.05548325564215335, 0.05548325564215335, 0.05548325564215335, 0.05548325564215335]","[0.05548325564215335, -1.5153130711527432, 0.05548325564215335, 0.05548325564215335, 0.05548325564215335, 0.05548325564215335]",0.002,7,1
0,128,"[0.036188170313835144, -1.534479585742094, 0.03624898592104131, 0.0362364488789062, 0.036309294402599335, 0.036307595670223236]","[0.3208993971347809, 0.32010871171951294, 0.32247602939605713, 0.32080626487731934, 0.3203561305999756, 0.3181985914707184]","[0.05591637086670621, -1.5148799559281902, 0.05591637086670621, 0.05591637086670621, 0.05591637086670621, 0.05591637086670621]","[0.05591637086670621, -1.5148799559281902, 0.05591637086670621, 0.05591637086670621, 0.05591637086670621, 0.05591637086670621]",0.002,7,1
0,129,"[0.0368352085351944, -1.5338323649815102, 0.03690082231630498, 0.03693644582714839, 0.03694983199238777, 0.036905013024806976]","[0.32437863945961, 0.3220791816711426, 0.3236966133117676, 0.32191604375839233, 0.32018962502479553, 0.32115134596824646]","[0.05634939775634666, -1.5144469290385498, 0.05634939775634666, 0.05634939775634666, 0.05634939775634666, 0.05634939775634666]","[0.05634939775634666, -1.5144469290385498, 0.05634939775634666, 0.05634939775634666, 0.05634939775634666, 0.05634939775634666]",0.002,7,1
0,130,"[0.03745171055197716, -1.5332683597556134, 0.037587944661275685, 0.03754429399456782, 0.037579864263534546, 0.037569377571344376]","[0.32809528708457947, 0.3242461085319519, 0.3235055208206177, 0.32403191924095154, 0.3236144781112671, 0.32661089301109314]","[0.05678233562699254, -1.514013991167904, 0.05678233562699254, 0.05678233562699254, 0.05678233562699254, 0.05678233562699254]","[0.05678233562699254, -1.514013991167904, 0.05678233562699254, 0.05678233562699254, 0.05678233562699254, 0.05678233562699254]",0.002,7,1
0,131,"[0.03813980519771576, -1.5325508576682587, 0.038190666829244435, 0.038302822703979444, 0.03825955092906952, 0.038171641528606415]","[0.326784610748291, 0.32536670565605164, 0.3271338641643524, 0.3259621560573578, 0.32481107115745544, 0.32515838742256165]","[0.057215183794702286, -1.5135811430001942, 0.057215183794702286, 0.057215183794702286, 0.057215183794702286, 0.057215183794702286]","[0.057215183794702286, -1.5135811430001942, 0.057215183794702286, 0.057215183794702286, 0.057215183794702286, 0.057215183794702286]",0.002,7,1
0,132,"[0.038773130625486374, -1.5319065389088173, 0.03885871568788701, 0.03896085798229976, 0.038944635540246964, 0.03878191113471985]","[0.32901880145072937, 0.3286764621734619, 0.3279212415218353, 0.3281989097595215, 0.3249529004096985, 0.32713228464126587]","[0.05764794157567609, -1.5131483852192205, 0.05764794157567609, 0.05764794157567609, 0.05764794157567609, 0.05764794157567609]","[0.05764794157567609, -1.5131483852192205, 0.05764794157567609, 0.05764794157567609, 0.05764794157567609, 0.05764794157567609]",0.002,7,1
0,133,"[0.03943207859992981, -1.5312767152539273, 0.03952628770937139, 0.03967706739392085, 0.03953168913722038, 0.039500556886196136]","[0.33113765716552734, 0.32815536856651306, 0.3298327326774597, 0.32912275195121765, 0.3296528160572052, 0.3305961787700653]","[0.058080608286256906, -1.5127157185086397, 0.058080608286256906, 0.058080608286256906, 0.058080608286256906, 0.058080608286256906]","[0.058080608286256906, -1.5127157185086397, 0.058080608286256906, 0.058080608286256906, 0.058080608286256906, 0.058080608286256906]",0.002,7,1
0,134,"[0.04008662328124046, -1.5306075190058728, 0.04023868242372686, 0.04029624044384761, 0.040133748203516006, 0.04012259095907211]","[0.3327598571777344, 0.331627756357193, 0.33014070987701416, 0.32922080159187317, 0.33042287826538086, 0.3321821391582489]","[0.058513183242931546, -1.512283143551965, 0.058513183242931546, 0.058513183242931546, 0.058513183242931546, 0.058513183242931546]","[0.058513183242931546, -1.512283143551965, 0.058513183242931546, 0.058513183242931546, 0.058513183242931546, 0.058513183242931546]",0.002,7,1
0,135,"[0.0408310703933239, -1.529960573916771, 0.040853325520650685, 0.04097382604565425, 0.04086953029036522, 0.04077467694878578]","[0.3341139853000641, 0.33268705010414124, 0.3319084644317627, 0.3305293619632721, 0.332446813583374, 0.3336341381072998]","[0.05894566576233181, -1.5118506610325648, 0.05894566576233181, 0.05894566576233181, 0.05894566576233181, 0.05894566576233181]","[0.05894566576233181, -1.5118506610325648, 0.05894566576233181, 0.05894566576233181, 0.05894566576233181, 0.05894566576233181]",0.002,7,1
0,136,"[0.04146439582109451, -1.5293086890927334, 0.04146892229189092, 0.04165451108898921, 0.04143697768449783, 0.04141310602426529]","[0.3329583406448364, 0.3339601159095764, 0.33496642112731934, 0.32967182993888855, 0.3317141830921173, 0.3355106711387634]","[0.0593780551612355, -1.511418271633661, 0.0593780551612355, 0.0593780551612355, 0.0593780551612355, 0.0593780551612355]","[0.0593780551612355, -1.511418271633661, 0.0593780551612355, 0.0593780551612355, 0.0593780551612355, 0.0593780551612355]",0.002,7,1
