Arnibjarnst/BoxLift/logs/ur_rtde/trajectory_dur=10.0_delay=0.0_gain=100_lh=0.05_real.csv
arm_idx,step,actual_q,actual_qd,target_q,expected_q,applied_torque,loop_time,robot_mode,safety_mode
0,-1,"[-1.4130269185841371e-05, -1.5691707891276856, 0.007380310689107716, 6.175004946976461, -0.00230580965151006, 0.0013977050548419356]","[0.0, 0.0, -0.0, -0.04112803563475609, 0.0, -0.0]","[0.0, -1.5707963267948966, 0.0, 0.0, 0.0, 0.0]","[0.0, -1.5707963267948966, 0.0, 0.0, 0.0, 0.0]","[0.003443874754416374, -2.093824353598212, -2.0187861774793108, -2.051702690180764, 0.5644423657616323, -0.005268019388266135]",0.002,7,1
0,-1,"[4.758584327646531e-05, -1.5691708253328507, 0.007416550313131154, 6.174206125527181, -0.00230580965151006, 0.0014139802660793066]","[0.0, 0.0, -0.0, -0.05732056125998497, 0.0, -0.0]","[0.0, -1.5707963267948966, 0.0, 0.0, 0.0, 0.0]","[0.0, -1.5707963267948966, 0.0, 0.0, 0.0, 0.0]","[0.003517283916972057, -2.0907214690688956, -2.017049046584602, -2.0515546640723423, 0.5643954275858264, -0.00526801866141667]",0.002,7,1
0,-1,"[-4.7032033101856996e-05, -1.5691496371622016, 0.00737935701479131, 6.17369698265151, -0.00229818025697881, 0.0014183521270751953]","[0.0, 0.0, -0.0, -0.0654778704047203, 0.0, -0.0]","[0.0, -1.5707963267948966, 0.0, 0.0, 0.0, 0.0]","[0.0, -1.5707963267948966, 0.0, 0.0, 0.0, 0.0]","[0.003560038575698221, -2.0931001650095906, -2.017823375396914, -2.0514793072797266, 0.5643722733967562, -0.005268018769468256]",0.002,7,1
0,-1,"[-2.3190175191700746e-05, -1.569166333796904, 0.007392708455220998, 6.173008668213644, -0.0022886435138147476, 0.0014139891136437654]","[0.0, 0.0, -0.0, -0.07643263041973114, 0.0, -0.0]","[0.0, -1.5707963267948966, 0.0, 0.0, 0.0, 0.0]","[0.0, -1.5707963267948966, 0.0, 0.0, 0.0, 0.0]","[0.0036218914578873508, -2.0968454839382984, -2.0194685972233364, -2.0513669346161443, 0.564337740978907, -0.005268018924747946]",0.002,7,1
0,-1,"[5.468099516292568e-06, -1.569151424253807, 0.007396999989644826, 6.171830880432882, -0.0023387114154260757, 0.001479776343330741]","[0.0, 0.0, -0.0, -0.08984250575304031, 0.0, -0.0]","[0.0, -1.5707963267948966, 0.0, 0.0, 0.0, 0.0]","[0.0, -1.5707963267948966, 0.0, 0.0, 0.0, 0.0]","[0.003731382511481364, -2.0927228616009312, -2.0167512352769954, -2.051130899857239, 0.5642648828148897, -0.0052680190377187575]",0.002,7,1
0,-1,"[7.188778454292333e-06, -1.5691423638821398, 0.00742513338197881, 6.170873987465658, -0.002248112355367482, 0.001430255244486034]","[0.0, 0.0, -0.0, -0.09997878968715668, 0.0, -0.0]","[0.0, -1.5707963267948966, 0.0, 0.0, 0.0, 0.0]","[0.0, -1.5707963267948966, 0.0, 0.0, 0.0, 0.0]","[0.003814685820284071, -2.095340946015095, -2.0185359014841575, -2.0509732504813583, 0.5642151612368451, -0.005268018442639293]",0.002,7,1
0,-1,"[-6.500874654591371e-06, -1.569097090196312, 0.007420841847554982, 6.169520485192098, -0.0022853056537073257, 0.0014183521270751953]","[0.0, 0.0, -0.0, -0.11142981797456741, 0.0, -0.0]","[0.0, -1.5707963267948966, 0.0, 0.0, 0.0, 0.0]","[0.0, -1.5707963267948966, 0.0, 0.0, 0.0, 0.0]","[0.003934109263836044, -2.096798373854353, -2.0184249738221975, -2.050711683740553, 0.5641344099290133, -0.005268018558583975]",0.002,7,1
0,-1,"[-1.8421803609669496e-05, -1.5691210874686767, 0.007392708455220998, 6.167977678566732, -0.002297226582662404, 0.0014677841681987047]","[0.0, 0.0, -0.0, -0.12062089890241623, 0.0, -0.0]","[0.0, -1.5707963267948966, 0.0, 0.0, 0.0, 0.0]","[0.0, -1.5707963267948966, 0.0, 0.0, 0.0, 0.0]","[0.0040632319277139435, -2.0936024411395486, -2.0176350079600742, -2.050440767865991, 0.5640514898178199, -0.005268019109900386]",0.002,7,1
0,-1,"[9.96828111965442e-06, -1.56911366948437, 0.007359806691304982, 6.166465389519491, -0.0023224989520471695, 0.001447208458557725]","[0.0, 0.0, -0.0, -0.13018710911273956, 0.0, -0.0]","[0.0, -1.5707963267948966, 0.0, 0.0, 0.0, 0.0]","[0.0, -1.5707963267948966, 0.0, 0.0, 0.0, 0.0]","[0.004205979645399703, -2.095126313652148, -2.0186017199603183, -2.0501339786981987, 0.5639565304466992, -0.005268019072718055]",0.002,7,1
0,-1,"[-6.500874654591371e-06, -1.5691377946971734, 0.00742513338197881, 6.164733159333029, -0.0023310820208948257, 0.0014426708221435547]","[0.0, 0.0, -0.0, -0.1438392549753189, 0.0, -0.0]","[0.0, -1.5707963267948966, 0.0, 0.0, 0.0, 0.0]","[0.0, -1.5707963267948966, 0.0, 0.0, 0.0, 0.0]","[0.004360374131335745, -2.0944772051332796, -2.0179257062390916, -2.0498032244835502, 0.5638540147103591, -0.005268018945622037]",0.002,7,1
0,-1,"[-1.0792409078419496e-05, -1.5691423546853294, 0.007458035145894826, 6.162576663285055, -0.0023182074176233414, 0.0014064311981201172]","[0.0, 0.0, -0.0, -0.15476161241531372, 0.0, -0.0]","[0.0, -1.5707963267948966, 0.0, 0.0, 0.0, 0.0]","[0.0, -1.5707963267948966, 0.0, 0.0, 0.0, 0.0]","[0.004558850845099871, -2.093798357267039, -2.017293164625196, -2.04936178677226, 0.5637174351070359, -0.00526801891371101]",0.002,7,1
0,-1,"[7.194961199274985e-06, -1.569179846356139, 0.007375542317525685, 6.160870539933004, -0.002309624348775685, 0.0014183521270751953]","[0.0, 0.0, -0.0, -0.16564130783081055, 0.0, -0.0]","[0.0, -1.5707963267948966, 0.0, 0.0, 0.0, 0.0]","[0.0, -1.5707963267948966, 0.0, 0.0, 0.0, 0.0]","[0.0047056632241981875, -2.0985584998388163, -2.0190622869216273, -2.0490556243878855, 0.5636223667937527, -0.005268018687835626]",0.002,7,1
0,-1,"[3.112875856459141e-05, -1.5691917434199532, 0.007371250783101857, 6.159440505295553, -0.0022605101214807632, 0.0014589078491553664]","[0.0, 0.0, -0.0, -0.17285864055156708, 0.0, -0.0]","[0.0, -1.5707963267948966, 0.0, 0.0, 0.0, 0.0]","[0.0, -1.5707963267948966, 0.0, 0.0, 0.0, 0.0]","[0.0048328127550931665, -2.0999908212943863, -2.019166507738584, -2.04877141934584, 0.5635349223906172, -0.005268018941367986]",0.002,7,1
0,-1,"[1.906156467157416e-05, -1.5691287134871637, 0.00742513338197881, 6.1577151892478845, -0.002305332814351857, 0.001414015656337142]","[0.0, 0.0, -0.0, -0.18626825511455536, 0.0, -0.0]","[0.0, -1.5707963267948966, 0.0, 0.0, 0.0, 0.0]","[0.0, -1.5707963267948966, 0.0, 0.0, 0.0, 0.0]","[0.005000571814830941, -2.0976674507250945, -2.019150451487829, -2.0483874262594233, 0.5634166593170619, -0.005268019202178926]",0.002,7,1
0,-1,"[1.4525286132993642e-05, -1.5691468280604859, 0.007375542317525685, 6.155390369683065, -0.0022733847247522476, 0.001430308329872787]","[0.0, 0.0, -0.0, -0.19513151049613953, 0.0, -0.0]","[0.0, -1.5707963267948966, 0.0, 0.0, 0.0, 0.0]","[0.0, -1.5707963267948966, 0.0, 0.0, 0.0, 0.0]","[0.005209236719739499, -2.100662977719742, -2.019162686978076, -2.0479213853899174, 0.5632713024449761, -0.005268018490345776]",0.002,7,1
0,-1,"[-1.8421803609669496e-05, -1.5691872042701398, 0.00737935701479131, 6.152683007508077, -0.002343002949849904, 0.001438999199308455]","[0.0, 0.0, -0.0, -0.21052460372447968, 0.0, -0.0]","[0.0, -1.5707963267948966, 0.0, 0.0, 0.0, 0.0]","[0.0, -1.5707963267948966, 0.0, 0.0, 0.0, 0.0]","[0.005471754677531516, -2.09977995663472, -2.018672143189914, -2.0473092624496507, 0.5630840054822743, -0.005268019541039583]",0.002,7,1
0,-1,"[3.115602885372937e-05, -1.5691617318992321, 0.007392708455220998, 6.150035607605734, -0.0023301283465784195, 0.0014140009880065918]","[0.0, 0.0, -0.0, -0.22848686575889587, 0.0, -0.0]","[0.0, -1.5707963267948966, 0.0, 0.0, 0.0, 0.0]","[0.0, -1.5707963267948966, 0.0, 0.0, 0.0, 0.0]","[0.00571004507414856, -2.1003061551288367, -2.0187617222270613, -2.0467416840826527, 0.5629071484019186, -0.005268018777866367]",0.002,7,1
0,-1,"[-1.4130269185841371e-05, -1.569142321972624, 0.007396999989644826, 6.1473203776176355, -0.0023182074176233414, 0.0014257354196161032]","[0.0, 0.0, -0.0, -0.24665458500385284, 0.0, -0.0]","[0.0, -1.5707963267948966, 0.0, 0.0, 0.0, 0.0]","[0.0, -1.5707963267948966, 0.0, 0.0, 0.0, 0.0]","[0.005962047132812604, -2.099424580313617, -2.017843891191341, -2.0461241932531324, 0.5627165389714797, -0.005268018900677181]",0.002,7,1
0,-1,"[2.6226043701171875e-06, -1.56916324320294, 0.00742513338197881, 6.144345152169027, -0.0023463408099573257, 0.0014302730560302734]","[0.0, 0.0, -0.0, -0.2601284086704254, 0.0, -0.0]","[0.0, -1.5707963267948966, 0.0, 0.0, 0.0, 0.0]","[0.0, -1.5707963267948966, 0.0, 0.0, 0.0, 0.0]","[0.0062278871791196025, -2.0977239496732762, -2.017190138265156, -2.0454516668478067, 0.5625083979597754, -0.005268018738246685]",0.002,7,1
0,-1,"[2.6589286790112965e-06, -1.5691136453863983, 0.007375542317525685, 6.141243207245626, -0.0023182074176233414, 0.0014257305301725864]","[0.0, 0.0, -0.0, -0.2684646546840668, 0.0, -0.0]","[0.0, -1.5707963267948966, 0.0, 0.0, 0.0, 0.0]","[0.0, -1.5707963267948966, 0.0, 0.0, 0.0, 0.0]","[0.006510089385176281, -2.1009032896364137, -2.01827333663876, -2.0447018877117813, 0.5622775658249546, -0.005268019159942342]",0.002,7,1
0,-1,"[-1.0792409078419496e-05, -1.569158748989441, 0.007443253193990529, 6.137875187187948, -0.0022853056537073257, 0.0014589547645300627]","[0.0, 0.0, -0.0, -0.2791644036769867, 7.369297236436978e-06, -0.0]","[0.0, -1.5707963267948966, 0.0, 0.0, 0.0, 0.0]","[0.0, -1.5707963267948966, 0.0, 0.0, 0.0, 0.0]","[0.006801684648674086, -2.1038060763450637, -2.018675059894768, -2.0439261383049896, 0.5620380773577777, -0.005268019239862042]",0.002,7,1
0,-1,"[5.4077663662610576e-06, -1.5691300725196307, 0.007408920918599904, 6.13436638095931, -0.0023463408099573257, 0.0013977050548419356]","[0.0, 0.0, -0.0, -0.28664591908454895, 0.00010510583524592221, -0.0]","[0.0, -1.5707963267948966, 0.0, 0.0, 0.0, 0.0]","[0.0, -1.5707963267948966, 0.0, 0.0, 0.0, 0.0]","[0.007109148684654663, -2.1053120530820006, -2.0193841970990625, -2.043069417916458, 0.5617734851113585, -0.005268019258876461]",0.002,7,1
0,-1,"[2.586109985713847e-06, -1.5691662949141865, 0.007454697285787404, 6.130755293160238, -0.0022810141192834976, 0.0014346360694617033]","[0.0, 0.0, -0.0, -0.29580214619636536, 0.00011062224075431004, -0.0]","[0.0, -1.5707963267948966, 0.0, 0.0, 0.0, 0.0]","[0.0, -1.5707963267948966, 0.0, 0.0, 0.0, 0.0]","[0.007431883185165032, -2.10420315589697, -2.0183029278407285, -2.042132936836056, 0.5614860043885086, -0.005268020056841535]",0.002,7,1
0,-1,"[-1.5560780660450746e-05, -1.5691468280604859, 0.007406059895650685, 6.127108323365011, -0.0022648016559045914, 0.0014433622127398849]","[0.0, 0.0, -0.0, -0.3065336048603058, 0.00011493293277453631, -0.0]","[0.0, -1.5707963267948966, 0.0, 0.0, 0.0, 0.0]","[0.0, -1.5707963267948966, 0.0, 0.0, 0.0, 0.0]","[0.007761775134765169, -2.1055582828632784, -2.0186137167801315, -2.0411813054444363, 0.5611912779637589, -0.005268019664489236]",0.002,7,1
0,-1,"[6.867097545182332e-05, -1.5691091753872861, 0.007408920918599904, 6.123385059624471, -0.002335373555318654, 0.0014515714719891548]","[0.0, 0.0, -5.936442093457117e-08, -0.3190239667892456, 0.00011826468835351989, -0.0]","[0.0, -1.5707963267948966, 0.0, 0.0, 0.0, 0.0]","[0.0, -1.5707963267948966, 0.0, 0.0, 0.0, 0.0]","[0.008102300887643396, -2.106064000342746, -2.0180477222800146, -2.040184518523062, 0.5608819249728694, -0.005268018966845374]",0.002,7,1
0,-1,"[4.7549649025313556e-05, -1.5691541978488495, 0.007438484822408498, 6.119544493943014, -0.0022733847247522476, 0.0014183521270751953]","[0.0, 0.0, -3.4619437000147222e-19, -0.3314812183380127, 0.00010776129784062505, -0.0]","[0.0, -1.5707963267948966, 0.0, 0.0, 0.0, 0.0]","[0.0, -1.5707963267948966, 0.0, 0.0, 0.0, 0.0]","[0.008453093622544651, -2.1093776952722236, -2.018768742980733, -2.039146144567953, 0.5605622079280873, -0.005268019353682413]",0.002,7,1
0,-1,"[-2.3190175191700746e-05, -1.5691391629264508, 0.007347408925191701, 6.11481665351943, -0.0023101011859338882, 0.0013977050548419356]","[0.0, 0.0, -2.7086093479952395e-32, -0.35211268067359924, 0.00012190511915832758, -0.0]","[0.0, -1.5707963267948966, 0.0, 0.0, 0.0, 0.0]","[0.0, -1.5707963267948966, 0.0, 0.0, 0.0, 0.0]","[0.008880781832620654, -2.1086382968966686, -2.0182958996564975, -2.037823682657926, 0.5601531295229585, -0.005268019006609709]",0.002,7,1
0,-1,"[5.9607784351101145e-05, -1.5691423338469868, 0.00742513338197881, 6.110572087555685, -0.002347294484273732, 0.001438999199308455]","[0.0, 0.0, -1.5834672646870433e-43, -0.3656209409236908, 0.00014138221740722656, -0.0]","[0.0, -1.5707963267948966, 0.0, 0.0, 0.0, 0.0]","[0.0, -1.5707963267948966, 0.0, 0.0, 0.0, 0.0]","[0.00926284136608558, -2.107439660785118, -2.017096024438246, -2.0365943712341528, 0.5597749213455939, -0.005268019524609208]",0.002,7,1
0,-1,"[7.777041901135817e-05, -1.5691346687129517, 0.007450405751363576, 6.106831300049581, -0.002240959797994435, 0.0014515714719891548]","[0.0, 0.0, -0.0, -0.37268972396850586, 0.00015026651090011, -0.0]","[0.0, -1.5707963267948966, 0.0, 0.0, 0.0, 0.0]","[0.0, -1.5707963267948966, 0.0, 0.0, 0.0, 0.0]","[0.009593428844396413, -2.112124632391518, -2.018741118982599, -2.0354835129517017, 0.5594322834824693, -0.005268019607588516]",0.002,7,1
0,-1,"[-6.500874654591371e-06, -1.5691423338469868, 0.007375542317525685, 6.1013675806816, -0.0022690931903284195, 0.0014183521270751953]","[0.0, 0.0, -0.00014234808622859418, -0.38395756483078003, 0.0001884869852801785, -8.334797894349322e-05]","[0.0, -1.5707963267948966, 0.0, 0.0, 0.0, 0.0]","[0.0, -1.5707963267948966, 0.0, 0.0, 0.0, 0.0]","[0.010073137062508132, -2.1088125017227357, -2.01605168022924, -2.0338068104009404, 0.5589149842263162, -0.005268019654937641]",0.002,7,1
0,-1,"[3.114688297500834e-05, -1.5691468280604859, 0.007408920918599904, 6.0965624926383875, -0.0022776762591760757, 0.0014183521270751953]","[0.0, 0.0, -0.00016716646496206522, -0.38998252153396606, 0.00017292537086177617, -9.001300350064412e-05]","[0.0, -1.5707963267948966, 0.0, 0.0, 0.0, 0.0]","[0.0, -1.5707963267948966, 0.0, 0.0, 0.0, 0.0]","[0.010494705534772497, -2.1118883997633295, -2.016287865499412, -2.0323069822043514, 0.5584510186224247, -0.005268019209546105]",0.002,7,1
0,-1,"[-7.707277406865387e-05, -1.5691844065771257, 0.007401291524068654, 6.091828572541036, -0.0022566954242151382, 0.0013931675348430872]","[0.0, 0.0, -0.00016508784028701484, -0.404100626707077, 0.0001505213149357587, -0.00010887347889365628]","[0.0, -1.5707963267948966, 0.0, 0.0, 0.0, 0.0]","[0.0, -1.5707963267948966, 0.0, 0.0, 0.0, 0.0]","[0.010924683710953386, -2.1118707102440495, -2.015221499266045, -2.0307636189785416, 0.5579773096336068, -0.005268020119705497]",0.002,7,1
0,-1,"[-6.500874654591371e-06, -1.5691844065771257, 0.007404629384176076, 6.087024080544271, -0.0023101011859338882, 0.0014227151405066252]","[0.0, 0.0, -0.0002514308434911072, -0.4216906726360321, 0.0001504418469266966, -0.00019100970530416816]","[0.0, -1.5707963267948966, 0.0, 0.0, 0.0, 0.0]","[0.0, -1.5707963267948966, 0.0, 0.0, 0.0, 0.0]","[0.011363961679759274, -2.1110510476621918, -2.014747244222041, -2.029160768280846, 0.5574817703654579, -0.005268019734889758]",0.002,7,1
0,-1,"[-4.4171010152638246e-05, -1.5691632582205166, 0.007417980824605763, 6.081996428757467, -0.002281967793599904, 0.0014302730560302734]","[0.0, 0.0, -0.0002611861564218998, -0.43770089745521545, 0.0001503859384683892, -0.0001827081578085199]","[0.0, -1.5707963267948966, 0.0, 0.0, 0.0, 0.0]","[0.0, -1.5707963267948966, 0.0, 0.0, 0.0, 0.0]","[0.011817373251078797, -2.109598794901088, -2.0128673385748757, -2.027441320668065, 0.5569512193022241, -0.0052680196810202225]",0.002,7,1
0,-1,"[-1.4130269185841371e-05, -1.5691632582205166, 0.007368866597310841, 6.076678621559896, -0.0022738615619104507, 0.0014559344854205847]","[0.0, 0.0, -0.0002553955127950758, -0.44875389337539673, 0.00012603415234480053, -0.0001770859962562099]","[0.0, -1.5707963267948966, 0.0, 0.0, 0.0, 0.0]","[0.0, -1.5707963267948966, 0.0, 0.0, 0.0, 0.0]","[0.01228199899249356, -2.113604017706779, -2.014050787542974, -2.0256339688879343, 0.5563944828360434, -0.00526801992724636]",0.002,7,1
0,-1,"[2.6407294626551447e-06, -1.5691514121466135, 0.00736409822572881, 6.0709935305412195, -0.0022648016559045914, 0.0014257354196161032]","[0.0, 0.0, -0.00030031532514840364, -0.4569648206233978, 0.00010714076779549941, -0.00017042279068846256]","[0.0, -1.5707963267948966, 0.0, 0.0, 0.0, 0.0]","[0.0, -1.5707963267948966, 0.0, 0.0, 0.0, 0.0]","[0.01276780673865093, -2.112949879505026, -2.0123781366367, -2.023605908541954, 0.5557692853966101, -0.005268020013976366]",0.002,7,1
0,-1,"[5.462288754642941e-06, -1.5691046362374728, 0.007380310689107716, 6.065413939743795, -0.00230580965151006, 0.0014426708221435547]","[0.0, 0.0, -0.0003718116204254329, -0.4640476405620575, 0.00013123617100063711, -0.0001684541057329625]","[0.0, -1.5707963267948966, 0.0, 0.0, 0.0, 0.0]","[0.0, -1.5707963267948966, 0.0, 0.0, 0.0, 0.0]","[0.013262389320597664, -2.1097288551066655, -2.010736176650044, -2.021504951846643, 0.5551233353683598, -0.0052680206209583915]",0.002,7,1
0,-1,"[-3.797212709599762e-05, -1.5691678272890677, 0.007382218037740529, 6.059777366905966, -0.00230580965151006, 0.0014064311981201172]","[0.0, 0.0, -0.0005166002665646374, -0.4739663898944855, 0.00024209239927586168, -0.00016433581185992807]","[0.0, -1.5707963267948966, 0.0, 0.0, 0.0, 0.0]","[0.0, -1.5707963267948966, 0.0, 0.0, 0.0, 0.0]","[0.01376335297469656, -2.11274435412054, -2.010023443475999, -2.019356711033044, 0.5544576577709112, -0.005268019595577606]",0.002,7,1
0,-1,"[-3.034273256474762e-05, -1.5691798074734216, 0.007365051900045216, 6.053183781891622, -0.0023101011859338882, 0.0013725204626098275]","[0.0, 0.0, -0.000656694348435849, -0.4965181350708008, 0.0005264375940896571, -0.00015875270764809102]","[0.0, -1.5707963267948966, 0.0, 0.0, 0.0, 0.0]","[0.0, -1.5707963267948966, 0.0, 0.0, 0.0, 0.0]","[0.014357290104024617, -2.1132756592722184, -2.009082112886857, -2.0167790422822067, 0.5536644842413984, -0.005268020087854116]",0.002,7,1
0,-1,"[7.185817594290711e-06, -1.5691513788518314, 0.0073731581317346695, 6.048191892891683, -0.0022299925433557632, 0.0014064311981201172]","[0.0, 0.0, -0.0007440695189870894, -0.5042756795883179, 0.00041962374234572053, -0.0001416002050973475]","[0.0, -1.5707963267948966, 0.0, 0.0, 0.0, 0.0]","[0.0, -1.5707963267948966, 0.0, 0.0, 0.0, 0.0]","[0.007439421537943713, -2.05462031940358, -1.965822188683439, -1.7812048208472626, 0.5472861981860951, -1.1097546846834242e-09]",0.002,7,1
0,-1,"[2.2038406314095482e-05, -1.5691843523275857, 0.007393662129537404, 6.040977704315939, -0.0022652784930627945, 0.0014107736060395837]","[0.0, 0.0, -0.0007589301676489413, -0.500920295715332, 0.0003176009631715715, -0.00013982807286083698]","[0.0, -1.5707963267948966, 0.0, 0.0, 0.0, 0.0]","[0.0, -1.5707963267948966, 0.0, 0.0, 0.0, 0.0]","[0.0074271946846147735, -2.0501982260745084, -1.9629878554097495, -1.7782768387649153, 0.5463858619471951, -1.0835199123063843e-09]",0.002,7,1
0,-1,"[1.9058674297411926e-05, -1.5691378036611532, 0.00734121004213506, 6.035889136582174, -0.002282444630758107, 0.001394510269165039]","[0.0, 0.0, -0.0009322873665951192, -0.49838578701019287, 0.00032761538750492036, -0.0001274522510357201]","[0.0, -1.5707963267948966, 0.0, 0.0, 0.0, 0.0]","[0.0, -1.5707963267948966, 0.0, 0.0, 0.0, 0.0]","[0.007417809233917557, -2.043445774507121, -1.9585621664848425, -1.77602804723681, 0.5456924661238488, -1.0877063929118728e-09]",0.002,7,1
0,-1,"[-1.4130269185841371e-05, -1.5691377404476334, 0.0073578993426721695, 6.028890716820516, -0.0022495428668420914, 0.0014183521270751953]","[0.0, 0.0, -0.001104523311369121, -0.4933905601501465, 0.0004151430039200932, -0.0001190159164252691]","[0.0, -1.5707963267948966, 0.0, 0.0, 0.0, 0.0]","[0.0, -1.5707963267948966, 0.0, 0.0, 0.0, 0.0]","[0.007405089187184051, -2.041444036005135, -1.9553502534751899, -1.7729792496949761, 0.5447508420698632, -1.1118678516869872e-09]",0.002,7,1
0,-1,"[-1.4130269185841371e-05, -1.5691423429273819, 0.007338349019185841, 6.024098861008444, -0.0022047201739709976, 0.0013857841258868575]","[0.0, 0.0, -0.0012884499737992883, -0.49677520990371704, 0.00039725154056213796, -0.00012613761646207422]","[0.0, -1.5707963267948966, 0.0, 0.0, 0.0, 0.0]","[0.0, -1.5707963267948966, 0.0, 0.0, 0.0, 0.0]","[0.00739605268088674, -2.0378045092650527, -1.9524120939083778, -1.7708146851629518, 0.5440843592010323, -1.105602970609698e-09]",0.002,7,1
0,-1,"[2.657458753674291e-05, -1.5691378037775685, 0.007284466420308888, 6.017180192261495, -0.0022047201739709976, 0.001410794211551547]","[0.0, 0.0, -0.0015384990256279707, -0.5055311322212219, 0.00028835510602220893, -0.00013536868209484965]","[0.0, -1.5707963267948966, 0.0, 0.0, 0.0, 0.0]","[0.0, -1.5707963267948966, 0.0, 0.0, 0.0, 0.0]","[0.007383043784813045, -2.0339368792926384, -1.9492652331806792, -1.767698577827961, 0.5431248672100827, -1.0979468265035543e-09]",0.002,7,1
0,-1,"[3.5683115129359066e-05, -1.5691423156861966, 0.0072930494891565445, 6.011058914452352, -0.0022581259356897476, 0.0013901472557336092]","[0.0, 0.0, -0.0011275489814579487, -0.5042819380760193, 0.00021917842968832701, -0.00012900761794298887]","[0.0, -1.5707963267948966, 0.0, 0.0, 0.0, 0.0]","[0.0, -1.5707963267948966, 0.0, 0.0, 0.0, 0.0]","[0.007371238062242182, -2.0324379619914796, -1.9467391330010029, -1.7648704254069814, 0.5422536595875785, -1.0960958514688477e-09]",0.002,7,1
0,-1,"[1.1755134437407833e-05, -1.569157216730975, 0.007297817860738576, 6.004904973297872, -0.002278153096334279, 0.001394510269165039]","[0.0, 0.0, -0.001433604396879673, -0.49886900186538696, 0.00023626913025509566, -0.00017858383944258094]","[0.0, -1.5707963267948966, 0.0, 0.0, 0.0, 0.0]","[0.0, -1.5707963267948966, 0.0, 0.0, 0.0, 0.0]","[0.007359174858535111, -2.0327824143970656, -1.9442641260201525, -1.761980269290519, 0.5413628614600441, -1.1000510728871957e-09]",0.002,7,1
0,-1,"[2.206564022344537e-05, -1.5691378006343548, 0.007215325032369435, 5.998924839287557, -0.002225701008931935, 0.0014433622127398849]","[0.0, 0.0, -0.001251962035894394, -0.4950534403324127, 0.0002208279474871233, -0.000149377912748605]","[0.0, -1.5707963267948966, 0.0, 0.0, 0.0, 0.0]","[0.0, -1.5707963267948966, 0.0, 0.0, 0.0, 0.0]","[0.007346586423130793, -2.0260167853267377, -1.9401954625542215, -1.758964301148195, 0.540433318995307, -1.104238722325606e-09]",0.002,7,1
0,-1,"[9.986526492866687e-06, -1.5691707800472905, 0.007240597401754201, 5.9931185124214075, -0.0022652784930627945, 0.0014196076663210988]","[0.0, 0.0, -0.001291278749704361, -0.4956105053424835, 0.0001868492254288867, -0.00014946525334380567]","[0.0, -1.5707963267948966, 0.0, 0.0, 0.0, 0.0]","[0.0, -1.5707963267948966, 0.0, 0.0, 0.0, 0.0]","[0.007334234722397991, -2.022558863257463, -1.9369575330831248, -1.756007842368841, 0.5395263447936559, -1.0659238232689181e-09]",0.002,7,1
0,-1,"[4.299536158214323e-05, -1.569172339663357, 0.0072243849383752945, 5.987215745240011, -0.0022004286395471695, 0.0013616166543215513]","[0.0, 0.0, -0.0013146349228918552, -0.5008788704872131, 0.00015802234702277929, -0.00014944789290893823]","[0.0, -1.5707963267948966, 0.0, 0.0, 0.0, 0.0]","[0.0, -1.5707963267948966, 0.0, 0.0, 0.0, 0.0]","[0.007321957467250718, -2.0211530589373226, -1.9335402133238409, -1.7530640164854805, 0.5386153866308162, -1.107736036944763e-09]",0.002,7,1
0,-1,"[2.6226043701171875e-06, -1.5691798735973244, 0.007197205220357716, 5.981145608216085, -0.0022500197040002945, 0.0013823509216308594]","[0.0, 0.0, -0.0012632689904421568, -0.503218948841095, 0.00015635388263035566, -0.000144026183988899]","[0.0, -1.5707963267948966, 0.0, 0.0, 0.0, 0.0]","[0.0, -1.5707963267948966, 0.0, 0.0, 0.0, 0.0]","[0.007308867210680409, -2.017927114329922, -1.931588938229845, -1.7499300545544856, 0.5376528574065731, -1.080336781074128e-09]",0.002,7,1
0,-1,"[-1.732503072560121e-06, -1.5691617887099092, 0.007212464009420216, 5.974909889488973, -0.0022385756122034195, 0.0014064311981201172]","[0.0, 0.0, -0.00036636507138609886, -0.49982622265815735, 0.00015560710744466633, -0.0001289848005399108]","[0.0, -1.5707963267948966, 0.0, 0.0, 0.0, 0.0]","[0.0, -1.5707963267948966, 0.0, 0.0, 0.0, 0.0]","[0.007295066487187365, -2.0128226664910955, -1.9271356810336924, -1.7466212106618793, 0.5366293640203366, -1.1221501188055316e-09]",0.002,7,1
0,-1,"[-2.3190175191700746e-05, -1.5691497247065236, 0.0072663466082971695, 5.967889296799459, -0.0022500197040002945, 0.001394510269165039]","[0.0, 0.0, -0.0002288169926032424, -0.4952548146247864, 0.00026839307975023985, -0.0001394749851897359]","[0.0, -1.5707963267948966, 0.0, 0.0, 0.0, 0.0]","[0.0, -1.5707963267948966, 0.0, 0.0, 0.0, 0.0]","[0.007279096951720918, -2.0136386192296514, -1.9248818986703127, -1.742798541159533, 0.5354562536189212, -1.082209700082561e-09]",0.002,7,1
0,-1,"[-3.225008119756012e-05, -1.5691753131435071, 0.007270638142720998, 5.96015630939559, -0.002232853566304982, 0.0013616166543215513]","[0.0, -7.122549141058698e-05, -0.00014062014815863222, -0.49863848090171814, 0.0001920262147905305, -0.0001437110622646287]","[0.0, -1.5707963267948966, 0.0, 0.0, 0.0, 0.0]","[0.0, -1.5707963267948966, 0.0, 0.0, 0.0, 0.0]","[0.007260800040528539, -2.0030989554579994, -1.9176880952563122, -1.7384147804120509, 0.5341049193642293, -1.0940638176622843e-09]",0.002,7,1
0,-1,"[2.6538038582657464e-05, -1.5691287614502762, 0.007179562245504201, 5.955203163414755, -0.002271000538961232, 0.0013660669792443514]","[0.0, -7.920256757643074e-05, -0.00018222603830508888, -0.5037633776664734, 0.00016303487063851207, -0.0001311746018473059]","[0.0, -1.5707963267948966, 0.0, 0.0, 0.0, 0.0]","[0.0, -1.5707963267948966, 0.0, 0.0, 0.0, 0.0]","[0.007249391722068082, -2.0015904728226954, -1.9160224443825928, -1.7356820063126486, 0.5332633483215332, -1.0940692342147969e-09]",0.002,7,1
0,-1,"[-1.4130269185841371e-05, -1.5691631916309525, 0.0072167555438440445, 5.947073685913839, -0.0022500197040002945, 0.0013572535244747996]","[0.0, -8.269947284134105e-05, -0.0003062899340875447, -0.5023800134658813, 0.00015320134116336703, -0.00015776445798110217]","[0.0, -1.5707963267948966, 0.0, 0.0, 0.0, 0.0]","[0.0, -1.5707963267948966, 0.0, 0.0, 0.0, 0.0]","[0.007229762619619379, -1.9968350222145104, -1.9106409670096423, -1.7309792810067348, 0.5318140188119772, -1.104297984347099e-09]",0.002,7,1
0,-1,"[-5.609193910771637e-05, -1.5691707710833107, 0.007143322621480763, 5.929139363556661, -0.0021966139422815445, 0.0013453325955197215]","[0.0, -0.00019345110922586173, -0.0005781264044344425, -0.4999573230743408, 0.000122238474432379, -0.00021455649402923882]","[0.0, -1.5707963267948966, 0.0, 0.0, 0.0, 0.0]","[0.0, -1.5707963267948966, 0.0, 0.0, 0.0, 0.0]","[0.007184590844041122, -1.9848218060208511, -1.8997973318135997, -1.7201616720336244, 0.5284870876990884, -1.0708714518295201e-09]",0.002,7,1
0,-1,"[1.6357873391825706e-05, -1.5691827100566407, 0.007143322621480763, 5.9202144024665735, -0.0022009054767053726, 0.0013989605940878391]","[0.0, -0.0002878446539398283, -0.0007431163103319705, -0.5041080117225647, 0.00013544029206968844, -0.00021070743969175965]","[0.0, -1.5707963267948966, 0.0, 0.0, 0.0, 0.0]","[0.0, -1.5707963267948966, 0.0, 0.0, 0.0, 0.0]","[0.0071615908518747875, -1.979231485196016, -1.8937063298617556, -1.7146512265534528, 0.5267886346872592, -1.086443156287613e-09]",0.002,7,1
0,-1,"[-1.4130269185841371e-05, -1.5691947683556755, 0.0071328322040002945, 5.9039203999336145, -0.002217594777242482, 0.0013704299926757812]","[0.0, -0.00017069894238375127, -0.000761487171985209, -0.49485087394714355, 0.00023602982400916517, -0.00015652639558538795]","[0.0, -1.5707963267948966, 0.0, 0.0, 0.0, 0.0]","[0.0, -1.5707963267948966, 0.0, 0.0, 0.0, 0.0]","[0.0071177091978645015, -1.9691588064574654, -1.8835609896041832, -1.7041429503565912, 0.5235573831292806, -1.056497338740308e-09]",0.002,7,1
0,-1,"[-4.2263661519825746e-05, -1.569173637927026, 0.007120434437887013, 5.893230187683859, -0.0021894613849084976, 0.001391077064909041]","[0.0, -0.00018864937010221183, -0.0009305551648139954, -0.5044782161712646, 0.0002352697920287028, -0.00013850201503373682]","[0.0, -1.5707963267948966, 0.0, 0.0, 0.0, 0.0]","[0.0, -1.5707963267948966, 0.0, 0.0, 0.0, 0.0]","[0.007087565281810995, -1.9568816577525079, -1.8744069608587581, -1.6969226892741351, 0.5213345559618645, -1.0583668686085603e-09]",0.002,7,1
0,-1,"[3.564095459296368e-05, -1.569190238169842, 0.007108513508931935, 5.888182866364279, -0.002217594777242482, 0.0013497829204425216]","[0.0, -0.00019030383555218577, -0.0009748607990331948, -0.5064277648925781, 0.00025276350788772106, -0.00012478571443352848]","[0.0, -1.5707963267948966, 0.0, 0.0, 0.0, 0.0]","[0.0, -1.5707963267948966, 0.0, 0.0, 0.0, 0.0]","[0.007073339912344771, -1.955330631612912, -1.8714065313304, -1.6935138238365097, 0.520282833507145, -1.0764898675677977e-09]",0.002,7,1
0,-1,"[-3.9402638570606996e-05, -1.5691812228509043, 0.007170025502340138, 5.883023488312521, -0.0021808783160608414, 0.0013867139350622892]","[0.0, -0.0002949714253190905, -0.0009375426452606916, -0.5019975900650024, 0.00025674677453935146, -0.00012976069410797209]","[0.0, -1.5707963267948966, 0.0, 0.0, 0.0, 0.0]","[0.0, -1.5707963267948966, 0.0, 0.0, 0.0, 0.0]","[0.007058342457915157, -1.9503403189894912, -1.866267671913557, -1.6899203652559844, 0.5191747899785703, -1.0906644923986534e-09]",0.002,7,1
0,-1,"[7.176762210292509e-06, -1.5691826918958505, 0.007104221974508107, 5.875975835114279, -0.002202335988179982, 0.001403323607519269]","[0.0, -0.00021040863066446036, -0.0008937823586165905, -0.4984455704689026, 0.00024903949815779924, -0.00011904403800144792]","[0.0, -1.5707963267948966, 0.0, 0.0, 0.0, 0.0]","[0.0, -1.5707963267948966, 0.0, 0.0, 0.0, 0.0]","[0.007037469225533693, -1.9440273739418106, -1.8613752854499248, -1.6849231994523974, 0.5176401483755564, -1.0648887902293195e-09]",0.002,7,1
0,-1,"[-2.3190175191700746e-05, -1.5692141327638929, 0.007030789052144826, 5.8602484343345544, -0.0022051970111292007, 0.0013747930061072111]","[0.0, -0.00019243216956965625, -0.0013456204906105995, -0.505872905254364, 0.00016019305621739477, -0.00013382073666434735]","[0.0, -1.5707963267948966, 0.0, 0.0, 0.0, 0.0]","[0.0, -1.5707963267948966, 0.0, 0.0, 0.0, 0.0]","[0.006990427853701021, -1.9364705072460568, -1.851016196564259, -1.6736557308887228, 0.5141716158804296, -1.0688538549381682e-09]",0.002,7,1
0,-1,"[4.302263187128119e-05, -1.5691992893446987, 0.0070527235614221695, 5.852066623955526, -0.0022304693805139664, 0.0013422251213341951]","[0.0, -0.00014337972970679402, -0.0011320242192596197, -0.5014745593070984, 0.00019614426128100604, -0.00016521474753972143]","[0.0, -1.5707963267948966, 0.0, 0.0, 0.0, 0.0]","[0.0, -1.5707963267948966, 0.0, 0.0, 0.0, 0.0]","[0.0069646660480348534, -1.9227716370466552, -1.8418677230340619, -1.6674854679530275, 0.512272581004881, -1.0688624525147957e-09]",0.002,7,1
0,-1,"[2.3582739231642336e-05, -1.5691857168315728, 0.007015530263082326, 5.846957552223959, -0.0021575132953088882, 0.0013409695820882916]","[0.0, -0.00012367656745482236, -0.0010548721766099334, -0.4975045919418335, 0.00023096484073903412, -0.00019354136020410806]","[0.0, -1.5707963267948966, 0.0, 0.0, 0.0, 0.0]","[0.0, -1.5707963267948966, 0.0, 0.0, 0.0, 0.0]","[0.00694928673054223, -1.9237301334037447, -1.8405036095492495, -1.6638027497726025, 0.5111403696665228, -1.0607373606982205e-09]",0.002,7,1
0,-1,"[4.018304025521502e-05, -1.5692353296656911, 0.007028881703512013, 5.839037287026205, -0.0021937529193323257, 0.0013998904032632709]","[0.0, -0.00010138500510947779, -0.0011717830784618855, -0.49502071738243103, 0.00022906700905878097, -0.00017893333279062063]","[0.0, -1.5707963267948966, 0.0, 0.0, 0.0, 0.0]","[0.0, -1.5707963267948966, 0.0, 0.0, 0.0, 0.0]","[0.0069236986223278705, -1.9171978435134276, -1.8332912617201667, -1.6576745399435688, 0.5092549535303471, -1.0570288544928663e-09]",0.002,7,1
0,-1,"[3.566491432138719e-05, -1.5692022961196308, 0.007016960774556935, 5.823086130409994, -0.0021236578570764664, 0.0012930474476888776]","[0.0, -0.00010433037095936015, -0.0003650334838312119, -0.5049062967300415, 0.0001649716286920011, -0.00018329560407437384]","[0.0, -1.5707963267948966, 0.0, 0.0, 0.0, 0.0]","[0.0, -1.5707963267948966, 0.0, 0.0, 0.0, 0.0]","[0.006872210056423248, -1.907921119211368, -1.8219106127908065, -1.6453418719722523, 0.5054585090299075, -1.064942687073253e-09]",0.002,7,1
0,-1,"[1.9031565898330882e-05, -1.569218711262085, 0.007049862538472951, 5.815958249359884, -0.00216085115541631, 0.0013585090637207031]","[0.0, -9.349257015855983e-05, -0.00039087291224859655, -0.4971732199192047, 0.00013127870624884963, -0.0001740354928188026]","[0.0, -1.5707963267948966, 0.0, 0.0, 0.0, 0.0]","[0.0, -1.5707963267948966, 0.0, 0.0, 0.0, 0.0]","[0.0068481190951550745, -1.8996238157679004, -1.815229184644835, -1.6395705274651171, 0.5036803529357032, -1.0786554132872382e-09]",0.002,7,1
0,-1,"[-2.3190175191700746e-05, -1.5692187202260648, 0.007016960774556935, 5.809962498932638, -0.0022223631488245132, 0.0013585090637207031]","[0.0, -8.584873285144567e-05, -0.00037792790681123734, -0.494539350271225, 0.00013406579091679305, -0.000162659227498807]","[0.0, -1.5707963267948966, 0.0, 0.0, 0.0, 0.0]","[0.0, -1.5707963267948966, 0.0, 0.0, 0.0, 0.0]","[0.006827721233828383, -1.8941389238505157, -1.8104820515714446, -1.6346859584943083, 0.5021784616909459, -1.0709956581107278e-09]",0.002,7,1
0,-1,"[1.4543533325195312e-05, -1.5692231783508142, 0.007012669240133107, 5.803132283478536, -0.00220662752260381, 0.0013136945199221373]","[0.0, -7.228831964312121e-05, -0.00046319933608174324, -0.500031054019928, 0.00013325194595381618, -0.00017998921975959092]","[0.0, -1.5707963267948966, 0.0, 0.0, 0.0, 0.0]","[0.0, -1.5707963267948966, 0.0, 0.0, 0.0, 0.0]","[0.006804155844708474, -1.887348901497621, -1.8037534598366083, -1.629044105197974, 0.5004455511159887, -1.0512570269570738e-09]",0.002,7,1
0,-1,"[-6.500874654591371e-06, -1.5692352784429495, 0.007004563008443654, 5.791102874069967, -0.0021651426898401382, 0.001346588134765625]","[0.0, -8.461529068881646e-05, -0.0004790815874002874, -0.5045127272605896, 0.00013727998884860426, -0.00015428446931764483]","[0.0, -1.5707963267948966, 0.0, 0.0, 0.0, 0.0]","[0.0, -1.5707963267948966, 0.0, 0.0, 0.0, 0.0]","[0.00676201114066718, -1.8754687119466498, -1.7930343525086667, -1.6189495613070526, 0.49733816224384114, -1.05916702257056e-09]",0.002,7,1
0,-1,"[-2.557436098271637e-05, -1.5692022961196308, 0.007017914448873341, 5.786949860840597, -0.002198521290914357, 0.0013344287872314453]","[0.0, -8.030126628000289e-05, -0.00048514126683585346, -0.501074492931366, 0.0001573056069901213, -0.00014210527297109365]","[0.0, -1.5707963267948966, 0.0, 0.0, 0.0, 0.0]","[0.0, -1.5707963267948966, 0.0, 0.0, 0.0, 0.0]","[0.0067474073223533, -1.871852361692344, -1.7888973504254342, -1.6154521865178568, 0.4962623857919565, -1.0570802916494375e-09]",0.002,7,1
0,-1,"[4.302263187128119e-05, -1.5691691376599302, 0.00696736971010381, 5.778949725418844, -0.002202335988179982, 0.0013585090637207031]","[0.0, -8.328094554599375e-05, -0.0005119424313306808, -0.494278222322464, 0.0002931325579993427, -0.0001227278698934242]","[0.0, -1.5707963267948966, 0.0, 0.0, 0.0, 0.0]","[0.0, -1.5707963267948966, 0.0, 0.0, 0.0, 0.0]","[0.006718676203488185, -1.8651729554439151, -1.7828519228455544, -1.6085738032044359, 0.4941499827177097, -1.033392860556754e-09]",0.002,7,1
0,-1,"[-2.1282826558888246e-05, -1.569221673100703, 0.0069688002215784195, 5.773073541909017, -0.00220662752260381, 0.0013836064608767629]","[0.0, -0.00017050901078619063, -0.0005832549650222063, -0.49912402033805847, 0.00025274345534853637, -0.00010798752919072285]","[0.0, -1.5707963267948966, 0.0, 0.0, 0.0, 0.0]","[0.0, -1.5707963267948966, 0.0, 0.0, 0.0, 0.0]","[0.006697115800371607, -1.860677673390499, -1.7773613542772146, -1.603405603840612, 0.49255305374157377, -1.0733551973707376e-09]",0.002,7,1
0,-1,"[-2.3190175191700746e-05, -1.5692097018803288, 0.006948296223775685, 5.768120753556051, -0.0021780172931116226, 0.001362872077152133]","[0.0, -0.00017476387438364327, -0.0005915170186199248, -0.5019062757492065, 0.00020505907014012337, -9.6418138127774e-05]","[0.0, -1.5707963267948966, 0.0, 0.0, 0.0, 0.0]","[0.0, -1.5707963267948966, 0.0, 0.0, 0.0, 0.0]","[0.006679267320420142, -1.8560646040520405, -1.77291199510692, -1.5991311762917455, 0.4912382453837004, -1.0712691525815375e-09]",0.002,7,1
0,-1,"[3.5640900023281574e-05, -1.5692141721122717, 0.006940189992086232, 5.762193548470297, -0.0021694342242639664, 0.0012974104611203074]","[0.0, -0.00017123068391811103, -0.0005499018589034677, -0.5048994421958923, 0.00019483634969219565, -8.543449803255498e-05]","[0.0, -1.5707963267948966, 0.0, 0.0, 0.0, 0.0]","[0.0, -1.5707963267948966, 0.0, 0.0, 0.0, 0.0]","[0.006656863559669281, -1.8484377422055218, -1.7674552586315966, -1.5937650886858847, 0.48958653557421067, -1.0752242494550152e-09]",0.002,7,1
0,-1,"[-1.0792409078419496e-05, -1.5692729432233428, 0.006935898457662404, 5.753897535591879, -0.002194229756490529, 0.0013716855319216847]","[0.0, -0.0001438603358110413, -0.0006398339755833149, -0.49720683693885803, 0.00022738279949408025, -8.900320972315967e-05]","[0.0, -1.5707963267948966, 0.0, 0.0, 0.0, 0.0]","[0.0, -1.5707963267948966, 0.0, 0.0, 0.0, 0.0]","[0.006625698663418446, -1.8407131942692423, -1.7585737688795553, -1.5863071353646674, 0.48730073738082563, -1.025285319997667e-09]",0.002,7,1
0,-1,"[1.1703848940669559e-05, -1.5692307514003296, 0.006874863301412404, 5.737115967064657, -0.0021575132953088882, 0.0013998904032632709]","[0.0, -0.00013160964590497315, -0.0008455084753222764, -0.5003935098648071, 0.0002486130688339472, -9.269713336834684e-05]","[0.0, -1.5707963267948966, 0.0, 0.0, 0.0, 0.0]","[0.0, -1.5707963267948966, 0.0, 0.0, 0.0, 0.0]","[0.006561203947293083, -1.8250874428727137, -1.7429899557495523, -1.5708591890625607, 0.4825452565536055, -1.0417949081827573e-09]",0.002,7,1
0,-1,"[2.631658844620688e-06, -1.5692141721122717, 0.006961647664205373, 5.729064571648397, -0.0021212736712854507, 0.0013387918006628752]","[0.0, -0.00011016021016985178, -0.0007946280529722571, -0.5024449825286865, 0.00018469500355422497, -0.00010850876424228773]","[0.0, -1.5707963267948966, 0.0, 0.0, 0.0, 0.0]","[0.0, -1.5707963267948966, 0.0, 0.0, 0.0, 0.0]","[0.006529884989783053, -1.8182880746824672, -1.735713864901197, -1.5633574096066383, 0.48023564945181296, -1.0513271895796833e-09]",0.002,7,1
0,-1,"[-6.500874654591371e-06, -1.5692443237970402, 0.006928269063131154, 5.724981057434835, -0.0021365324603479507, 0.001351038459688425]","[0.0, -0.0001018494731397368, -0.0007349117076955736, -0.5001590251922607, 0.00018951139645650983, -0.00011720637121470645]","[0.0, -1.5707963267948966, 0.0, 0.0, 0.0, 0.0]","[0.0, -1.5707963267948966, 0.0, 0.0, 0.0, 0.0]","[0.006513538709312885, -1.8152696351808062, -1.7320612613394364, -1.5594426291982049, 0.4790313081599069, -1.051330972606579e-09]",0.002,7,1
0,-1,"[1.4543533325195312e-05, -1.5692758309054007, 0.006957832966939748, 5.716955411225118, -0.002080265675679982, 0.0013597646029666066]","[0.0, -0.00010324606409994885, -0.0009019203134812415, -0.4941152334213257, 0.00022326683392748237, -0.00025741211720742285]","[0.0, -1.5707963267948966, 0.0, 0.0, 0.0, 0.0]","[0.0, -1.5707963267948966, 0.0, 0.0, 0.0, 0.0]","[0.006481050095281401, -1.8062726860404845, -1.72351950365551, -1.5516641631263215, 0.4766416911205215, -1.033682076410549e-09]",0.002,7,1
0,-1,"[7.185816684796009e-06, -1.5692307514003296, 0.006859604512349904, 5.711108553200521, -0.0021703878985803726, 0.0012984275817871094]","[0.0, -0.0001239475968759507, -0.001113894977606833, -0.4999685287475586, 0.0004225316224619746, -0.00022995770268607885]","[0.0, -1.5707963267948966, 0.0, 0.0, 0.0, 0.0]","[0.0, -1.5707963267948966, 0.0, 0.0, 0.0, 0.0]","[0.0064573185910387155, -1.7995851314292646, -1.7171990573250595, -1.5459774415044256, 0.4748873913074903, -1.0597072488158163e-09]",0.002,7,1
0,-1,"[-6.500874654591371e-06, -1.56920513001781, 0.0068696180926721695, 5.702238786011495, -0.0021536985980432632, 0.001310586929321289]","[0.0, -0.00014674931298941374, -0.0010967878624796867, -0.5035554766654968, 0.00027472476358525455, -0.00019394142145756632]","[0.0, -1.5707963267948966, 0.0, 0.0, 0.0, 0.0]","[0.0, -1.5707963267948966, 0.0, 0.0, 0.0, 0.0]","[0.006420958690735662, -1.7895305242478707, -1.707735161755062, -1.5372717915942857, 0.4722124635281047, -1.0432203793441015e-09]",0.002,7,1
0,-1,"[3.3941389119718224e-05, -1.569221673100703, 0.006823364888326466, 5.68688856342391, -0.0021041075335901382, 0.0013387918006628752]","[0.0, -0.00010875150474021211, -0.0006631576688960195, -0.4956433176994324, 0.00019896026060450822, -0.00013443412899505347]","[0.0, -1.5707963267948966, 0.0, 0.0, 0.0, 0.0]","[0.0, -1.5707963267948966, 0.0, 0.0, 0.0, 0.0]","[0.006357049511381272, -1.7750354792629146, -1.692535250069514, -1.5219703138263598, 0.467511313267252, -1.0137284394493802e-09]",0.002,7,1
0,-1,"[-1.5560780660450746e-05, -1.569233594029658, 0.006810967122213185, 5.680039512902059, -0.0021465460406702164, 0.001326870871707797]","[0.0, -0.0001721009030006826, -0.0005383770330809057, -0.49690595269203186, 0.0004679432022385299, -0.00013341853627935052]","[0.0, -1.5707963267948966, 0.0, 0.0, 0.0, 0.0]","[0.0, -1.5707963267948966, 0.0, 0.0, 0.0, 0.0]","[0.006327494089134665, -1.7620633243030799, -1.6839270291160533, -1.5148890470589884, 0.4653283361266401, -1.0378964375506342e-09]",0.002,7,1
0,-1,"[5.210387462284416e-05, -1.569278847109974, 0.006810967122213185, 5.6742233512695215, -0.0021093527423303726, 0.001319400267675519]","[0.0, -0.0003646264085546136, -0.0007219697581604123, -0.5026498436927795, 0.0003456595877651125, -0.00013555832265410572]","[0.0, -1.5707963267948966, 0.0, 0.0, 0.0, 0.0]","[0.0, -1.5707963267948966, 0.0, 0.0, 0.0, 0.0]","[0.006302389475418786, -1.758289317949738, -1.6778003976667148, -1.5088792980188817, 0.46348331374469026, -1.0200121412672656e-09]",0.002,7,1
0,-1,"[8.507742313668132e-05, -1.569233594029658, 0.006865326558248341, 5.6681439755256555, -0.002125565205709279, 0.0013018607860431075]","[0.0, -0.00029439484933391213, -0.0005537642282433808, -0.503282368183136, 0.00024971700622700155, -0.0001891256688395515]","[0.0, -1.5707963267948966, 0.0, 0.0, 0.0, 0.0]","[0.0, -1.5707963267948966, 0.0, 0.0, 0.0, 0.0]","[0.006276631193189346, -1.7554032690287555, -1.6729249090855631, -1.502709052508739, 0.46158305096431, -1.0316336835455043e-09]",0.002,7,1
0,-1,"[-1.4130269185841371e-05, -1.5692097199247037, 0.006824318562642873, 5.660927462368765, -0.002129856740133107, 0.0013313211966305971]","[0.0, -0.0002130748616764322, -0.0006464110920205712, -0.4966471493244171, 0.00018864062440115958, -0.0001811584079405293]","[0.0, -1.5707963267948966, 0.0, 0.0, 0.0, 0.0]","[0.0, -1.5707963267948966, 0.0, 0.0, 0.0, 0.0]","[0.006245363831095769, -1.7460208596551472, -1.6653616972848588, -1.4952229442355218, 0.4592831859505957, -1.017932155904535e-09]",0.002,7,1
0,-1,"[1.4543533325195312e-05, -1.5692833772958075, 0.006761852894918263, 5.653950440674581, -0.0021212736712854507, 0.0013225078582763672]","[0.0, -0.00021306838607415557, -0.0005167331546545029, -0.4934113323688507, 0.00017639440193306655, -0.00017083482816815376]","[0.0, -1.5707963267948966, 0.0, 0.0, 0.0, 0.0]","[0.0, -1.5707963267948966, 0.0, 0.0, 0.0, 0.0]","[0.006213926718783245, -1.7357065038112198, -1.6560115267131617, -1.4876885132785609, 0.45695705881479665, -1.0599904518940113e-09]",0.002,7,1
0,-1,"[2.206564022344537e-05, -1.56925038274888, 0.006825749074117482, 5.639207768231191, -0.0020931402789514664, 0.001231948845088482]","[0.0, -0.00046328839380294085, -0.0005737146129831672, -0.5062625408172607, 0.00014221576566342264, -0.00015225965762510896]","[0.0, -1.5707963267948966, 0.0, 0.0, 0.0, 0.0]","[0.0, -1.5707963267948966, 0.0, 0.0, 0.0, 0.0]","[0.006147963747519318, -1.7191479359686699, -1.6399276738202424, -1.4718997850947266, 0.45211284673420987, -1.0019188837484764e-09]",0.002,7,1
0,-1,"[-1.8421803609669496e-05, -1.5692758218250056, 0.006788555775777638, 5.627967405110159, -0.0021536985980432632, 0.0012852511135861278]","[0.0, -0.00023833062732592225, -0.00048109167255461216, -0.4999328851699829, 0.00011922312842216343, -0.00013313723320607096]","[0.0, -1.5707963267948966, 0.0, 0.0, 0.0, 0.0]","[0.0, -1.5707963267948966, 0.0, 0.0, 0.0, 0.0]","[0.006097070154137523, -1.7078137866067857, -1.6278589703228739, -1.4597084277999177, 0.4483581040227849, -1.0258586801634254e-09]",0.002,7,1
0,-1,"[-6.500874654591371e-06, -1.569283331893832, 0.006800476704732716, 5.62289725521163, -0.0020559469806116226, 0.0012939772568643093]","[0.0, -0.00019524279923643917, -0.0005003514233976603, -0.49397140741348267, 0.00037236762000247836, -0.00013795065751764923]","[0.0, -1.5707963267948966, 0.0, 0.0, 0.0, 0.0]","[0.0, -1.5707963267948966, 0.0, 0.0, 0.0, 0.0]","[0.006073599480324064, -1.7007978201556255, -1.6221445612819898, -1.454085381681096, 0.4466251974162294, -1.041894275270034e-09]",0.002,7,1
0,-1,"[2.3624777895747684e-05, -1.5692952078864728, 0.006800476704732716, 5.617065179138937, -0.0021126906024377945, 0.0012745857238769531]","[0.0, -0.0001870498526841402, -0.000774429936427623, -0.4978286325931549, 0.0003141334746032953, -0.00012219708878546953]","[0.0, -1.5707963267948966, 0.0, 0.0, 0.0, 0.0]","[0.0, -1.5707963267948966, 0.0, 0.0, 0.0, 0.0]","[0.006046569056722967, -1.6972943283314152, -1.6164742827180114, -1.4476145029935945, 0.4446384316473531, -1.0258674758546363e-09]",0.002,7,1
0,-1,"[7.185816684796009e-06, -1.5693282022005697, 0.006764237080709279, 5.612179803639211, -0.002072159443990529, 0.0012939772568643093]","[0.0, -0.00018623223877511919, -0.0007614507339894772, -0.5022742748260498, 0.0002711391425691545, -0.00012703258835244924]","[0.0, -1.5707963267948966, 0.0, 0.0, 0.0, 0.0]","[0.0, -1.5707963267948966, 0.0, 0.0, 0.0, 0.0]","[0.006023328957389218, -1.689059358957574, -1.6101037035736256, -1.4420522242961218, 0.4429324470832302, -1.0040312474728163e-09]",0.002,7,1
0,-1,"[-9.361897603810121e-06, -1.5692742714057495, 0.006750885640279591, 5.603169250279226, -0.002117935811178029, 0.0012821436394006014]","[0.0, -0.0001510762085672468, -0.000611822004429996, -0.5046865940093994, 0.00020180435967631638, -0.00010982948151649907]","[0.0, -1.5707963267948966, 0.0, 0.0, 0.0, 0.0]","[0.0, -1.5707963267948966, 0.0, 0.0, 0.0, 0.0]","[0.005981123575191233, -1.6777513481174005, -1.5992795796122448, -1.4319370687078246, 0.43980968735217324, -1.0577097219318611e-09]",0.002,7,1
0,-1,"[-1.4130269185841371e-05, -1.5692639099764456, 0.0067361036883752945, 5.59902052858428, -0.0020850340472620132, 0.001310586929321289]","[0.0, -0.00013937805488239974, -0.0005573442322202027, -0.49936455488204956, 0.0002024152927333489, -0.00010351352830184624]","[0.0, -1.5707963267948966, 0.0, 0.0, 0.0, 0.0]","[0.0, -1.5707963267948966, 0.0, 0.0, 0.0, 0.0]","[0.005961334035655505, -1.6715254437614715, -1.5939666738753322, -1.4272059253834397, 0.4383664527443734, -1.0040413575708551e-09]",0.002,7,1
0,-1,"[-6.500874654591371e-06, -1.5692413490363215, 0.006748024617330373, 5.590995299607076, -0.002076450978414357, 0.0012984275817871094]","[0.0, -0.00012068799696862698, -0.0005874193157069385, -0.49567973613739014, 0.00034300246625207365, -8.621515735285357e-05]","[0.0, -1.5707963267948966, 0.0, 0.0, 0.0, 0.0]","[0.0, -1.5707963267948966, 0.0, 0.0, 0.0, 0.0]","[0.005922849701441108, -1.6653559458530907, -1.5853517458020145, -1.4179883732805714, 0.4355294003527548, -1.01403839456629e-09]",0.002,7,1
0,-1,"[2.6135207917832304e-06, -1.5692502742498, 0.006737534199849904, 5.58117042759017, -0.002117935811178029, 0.0012776933144778013]","[0.0, -0.0004586793074849993, -0.0007106625707820058, -0.5022467970848083, 0.00024211029813159257, -9.940247400663793e-05]","[0.0, -1.5707963267948966, 0.0, 0.0, 0.0, 0.0]","[0.0, -1.5707963267948966, 0.0, 0.0, 0.0, 0.0]","[0.0058750509598334225, -1.6503497544391117, -1.572712069631719, -1.4065438697831354, 0.4320128172139479, -1.000337330952609e-09]",0.002,7,1
0,-1,"[-6.500874654591371e-06, -1.5692531802090635, 0.006684128438131154, 5.572073924332418, -0.002080742512838185, 0.0013237633975222707]","[0.0, -0.0002406611602054909, -0.0004566314455587417, -0.5037824511528015, 0.000201243266928941, -0.00010110245057148859]","[0.0, -1.5707963267948966, 0.0, 0.0, 0.0, 0.0]","[0.0, -1.5707963267948966, 0.0, 0.0, 0.0, 0.0]","[0.005831003085663381, -1.6379729445207185, -1.561254392171417, -1.3959915516173753, 0.4287616484351009, -1.026367290482275e-09]",0.002,7,1
0,-1,"[-1.4130269185841371e-05, -1.5692742895665397, 0.006699864064351857, 5.557965266495504, -0.0020406881915491226, 0.001261382014490664]","[0.0, -0.0001376183790853247, -0.0003841912548523396, -0.4931239187717438, 0.00015760121459607035, -0.00013252913777250797]","[0.0, -1.5707963267948966, 0.0, 0.0, 0.0, 0.0]","[0.0, -1.5707963267948966, 0.0, 0.0, 0.0, 0.0]","[0.005760547422045058, -1.6261361753669872, -1.545992309770604, -1.379123025461973, 0.4235795259318418, -1.00244556490949e-09]",0.002,7,1
0,-1,"[-2.3190175191700746e-05, -1.5692982595977192, 0.0067017714129846695, 5.548151123314657, -0.002073113118306935, 0.0012821436394006014]","[0.0, -0.00016615075583104044, -0.0006261724629439414, -0.5035701990127563, 0.00016012933338060975, -0.0001412831770721823]","[0.0, -1.5707963267948966, 0.0, 0.0, 0.0, 0.0]","[0.0, -1.5707963267948966, 0.0, 0.0, 0.0, 0.0]","[0.005711073154524264, -1.608587562053167, -1.5321816554228977, -1.3672709426146596, 0.4199282066848585, -1.0301029788229646e-09]",0.002,7,1
0,-1,"[-1.4130269185841371e-05, -1.5692577432240178, 0.006724182759420216, 5.538079547673025, -0.0020850340472620132, 0.0012952327961102128]","[0.0, -0.00010247125464957207, -0.0004963125102221966, -0.5031453967094421, 0.00023363137734122574, -0.0001514535106252879]","[0.0, -1.5707963267948966, 0.0, 0.0, 0.0, 0.0]","[0.0, -1.5707963267948966, 0.0, 0.0, 0.0, 0.0]","[0.00565944081448563, -1.595799752500262, -1.5193401805153426, -1.3549102756321585, 0.4161326558476523, -1.0061776180525179e-09]",0.002,7,1
0,-1,"[1.1703848940669559e-05, -1.5693236601403733, 0.006688419972554982, 5.528875517636099, -0.0021551291095178726, 0.0012702227104455233]","[0.0, -8.504248398821801e-05, -0.0005157863488420844, -0.49293825030326843, 0.00028566832770593464, -0.00013950518041383475]","[0.0, -1.5707963267948966, 0.0, 0.0, 0.0, 0.0]","[0.0, -1.5707963267948966, 0.0, 0.0, 0.0, 0.0]","[0.00561210871349946, -1.5842901656502621, -1.5079527082913375, -1.3435752874436568, 0.41264644294446867, -1.0082753592339817e-09]",0.002,7,1
0,-1,"[3.566491432138719e-05, -1.569286168585979, 0.006680313740865529, 5.523997413903036, -0.002114597951070607, 0.001307153725065291]","[0.0, -0.00010870824917219579, -0.0007307035848498344, -0.4944777488708496, 0.0003118952736258507, -0.00012354590580798686]","[0.0, -1.5707963267948966, 0.0, 0.0, 0.0, 0.0]","[0.0, -1.5707963267948966, 0.0, 0.0, 0.0, 0.0]","[0.005586258349913953, -1.575157549437643, -1.5006242361465068, -1.3373919821844849, 0.41075546926795825, -9.648274709275594e-10]",0.002,7,1
0,-1,"[-1.4130269185841371e-05, -1.569265274247602, 0.0066598097430627945, 5.519099283009329, -0.002061192189351857, 0.0012745857238769531]","[0.0, -0.00021634000586345792, -0.0007265731110237539, -0.4998019337654114, 0.0002857327344827354, -0.00011086300946772099]","[0.0, -1.5707963267948966, 0.0, 0.0, 0.0, 0.0]","[0.0, -1.5707963267948966, 0.0, 0.0, 0.0, 0.0]","[0.0055616597084976035, -1.5729245817855144, -1.4962217247263614, -1.331498487250481, 0.408938911554115, -9.824900526615572e-10]",0.002,7,1
0,-1,"[2.362477607675828e-05, -1.5693476691706856, 0.006647888814107716, 5.513161527901449, -0.0020859877215784195, 0.0012821139534935355]","[0.0, -0.0002363269159104675, -0.0008852258324623108, -0.5048912763595581, 0.00026976203662343323, -0.0001151548494817689]","[0.0, -1.5707963267948966, 0.0, 0.0, 0.0, 0.0]","[0.0, -1.5707963267948966, 0.0, 0.0, 0.0, 0.0]","[0.005530295974083512, -1.5629025943537875, -1.487273611970833, -1.3239836036640635, 0.4066217459508432, -1.0082863007386217e-09]",0.002,7,1
0,-1,"[1.4534479305439163e-05, -1.5692951690037553, 0.006664101277486623, 5.507052051811971, -0.0020526091205042007, 0.0012745857238769531]","[0.0, -0.0001974538608919829, -0.000746275472920388, -0.5023325681686401, 0.00019842194160446525, -0.00010377399303251877]","[0.0, -1.5707963267948966, 0.0, 0.0, 0.0, 0.0]","[0.0, -1.5707963267948966, 0.0, 0.0, 0.0, 0.0]","[0.005498566497941747, -1.5589925446746857, -1.4815876295284984, -1.3163843292490096, 0.4042833633226272, -1.0145642507973587e-09]",0.002,7,1
0,-1,"[5.210387826082297e-05, -1.5693191660432895, 0.006668392811910451, 5.500880527287283, -0.0020449797259729507, 0.0013225078582763672]","[0.0, -0.00022695855295751244, -0.0006639894563704729, -0.49886247515678406, 0.00018773198826238513, -0.00010793115507112816]","[0.0, -1.5707963267948966, 0.0, 0.0, 0.0, 0.0]","[0.0, -1.5707963267948966, 0.0, 0.0, 0.0, 0.0]","[0.0054656842433891024, -1.5516092223457179, -1.4733003593186274, -1.3085091199350376, 0.4018603005623401, -1.0201452573525746e-09]",0.002,7,1
0,-1,"[9.98032101051649e-06, -1.5693146747401734, 0.006628338490621388, 5.492048609047689, -0.0020816961871545914, 0.0012996831210330129]","[0.0, -0.0002460772229824215, -0.0010787994833663106, -0.4959102272987366, 0.00019107654225081205, -9.239455539500341e-05]","[0.0, -1.5707963267948966, 0.0, 0.0, 0.0, 0.0]","[0.0, -1.5707963267948966, 0.0, 0.0, 0.0, 0.0]","[0.005417669055623772, -1.5347083218014548, -1.45925235207437, -1.2970166354914134, 0.39833464783674893, -9.866906256327123e-10]",0.002,7,1
0,-1,"[7.1858153205539566e-06, -1.5692937113675107, 0.006599728261129201, 5.485256957798757, -0.0020249525653284195, 0.0012996831210330129]","[0.0, -0.00029157675453461707, -0.0012038365239277482, -0.5014181137084961, 0.00014833717432338744, -0.00011309256660751998]","[0.0, -1.5707963267948966, 0.0, 0.0, 0.0, 0.0]","[0.0, -1.5707963267948966, 0.0, 0.0, 0.0, 0.0]","[0.005380288713544369, -1.5246605284792436, -1.4494201157468845, -1.2880663032764752, 0.3955839766707825, -9.806535632724748e-10]",0.002,7,1
0,-1,"[-4.4171010152638246e-05, -1.5692861866303538, 0.006613079701558888, 5.480202841549673, -0.0020740667926233414, 0.0012776933144778013]","[0.0, -0.00022958831686992198, -0.0010569815058261156, -0.5049115419387817, 0.00015258048370014876, -0.00011881705722771585]","[0.0, -1.5707963267948966, 0.0, 0.0, 0.0, 0.0]","[0.0, -1.5707963267948966, 0.0, 0.0, 0.0, 0.0]","[0.005353402919702707, -1.5184197435994922, -1.4441190132822237, -1.2816263108511297, 0.3936011485889275, -9.908809506525064e-10]",0.002,7,1
0,-1,"[1.4543533325195312e-05, -1.5693073020414268, 0.006592098866597951, 5.470996367722311, -0.0020859877215784195, 0.0012702227104455233]","[0.0, -0.00016604826669208705, -0.0007201977423392236, -0.5016028881072998, 0.00024548365036025643, -0.00024605050566606224]","[0.0, -1.5707963267948966, 0.0, 0.0, 0.0, 0.0]","[0.0, -1.5707963267948966, 0.0, 0.0, 0.0, 0.0]","[0.005303090176727162, -1.5072882880084655, -1.431568649315068, -1.2695791427313945, 0.3898982847434232, -9.848452163648636e-10]",0.002,7,1
0,-1,"[3.114688297500834e-05, -1.5692816803096612, 0.006559197102681935, 5.465992021351614, -0.0020163694964807632, 0.0013027905952185392]","[0.0, -0.00014391998411156237, -0.0005810054717585444, -0.4961405098438263, 0.00021136991563253105, -0.0002353180607315153]","[0.0, -1.5707963267948966, 0.0, 0.0, 0.0, 0.0]","[0.0, -1.5707963267948966, 0.0, 0.0, 0.0, 0.0]","[0.0052754453875272275, -1.5014924433220538, -1.4246685302362276, -1.262959887017368, 0.38786401466500053, -9.806656917934944e-10]",0.002,7,1
0,-1,"[-1.8421803609669496e-05, -1.5693357242601742, 0.006563965474263966, 5.458122777729788, -0.0020249525653284195, 0.001278948737308383]","[0.0, -0.00015816953964531422, -0.0007915607420727611, -0.5013405680656433, 0.00018435459060128778, -0.0002458835660945624]","[0.0, -1.5707963267948966, 0.0, 0.0, 0.0, 0.0]","[0.0, -1.5707963267948966, 0.0, 0.0, 0.0, 0.0]","[0.005232378106157207, -1.4923616854366177, -1.4147783727666248, -1.2526443394221192, 0.3846885485904165, -9.946128733180478e-10]",0.002,7,1
0,-1,"[2.6135207917832304e-06, -1.5693312689293926, 0.006584469472066701, 5.440965044289388, -0.002012077962056935, 0.0012505054473876953]","[0.0, -0.00011083228309871629, -0.0005077403038740158, -0.5007898211479187, 0.000155533169163391, -0.0001847866951720789]","[0.0, -1.5707963267948966, 0.0, 0.0, 0.0, 0.0]","[0.0, -1.5707963267948966, 0.0, 0.0, 0.0, 0.0]","[0.005136390066062987, -1.466006951301096, -1.3912146388846025, -1.2296546631614098, 0.3776138404268939, -1.0166991676353243e-09]",0.002,7,1
0,-1,"[-3.511110414677887e-05, -1.5693521274118503, 0.006543938313619435, 5.433942603855886, -0.002050224934713185, 0.0012460551224648952]","[0.0, -9.690927981864661e-05, -0.0007069755811244249, -0.4942449927330017, 0.00014437625941354781, -0.0001495776668889448]","[0.0, -1.5707963267948966, 0.0, 0.0, 0.0, 0.0]","[0.0, -1.5707963267948966, 0.0, 0.0, 0.0, 0.0]","[0.005096034747451976, -1.4555674809577597, -1.380761639993281, -1.2199938016321872, 0.3746474613660343, -1.0009019682771912e-09]",0.002,7,1
0,-1,"[-3.9402638570606996e-05, -1.5693643944435571, 0.0065110365497034195, 5.428105580597677, -0.002053562794820607, 0.001262664794921875]","[0.0, -0.00011607017950154841, -0.0006374588119797409, -0.4960941672325134, 0.00016058138862717897, -0.00011951939086429775]","[0.0, -1.5707963267948966, 0.0, 0.0, 0.0, 0.0]","[0.0, -1.5707963267948966, 0.0, 0.0, 0.0, 0.0]","[0.0050629198529603524, -1.4482186155148165, -1.3725649261809496, -1.2120672249124367, 0.37221502018519653, -9.827799924305438e-10]",0.002,7,1
0,-1,"[5.210387826082297e-05, -1.5693521541873743, 0.006499115620748341, 5.423146593361654, -0.002012077962056935, 0.0012416921090334654]","[0.0, -0.00016173644689843059, -0.0005985781317576766, -0.5008810758590698, 0.0002608572831377387, -0.00012660553329624236]","[0.0, -1.5707963267948966, 0.0, 0.0, 0.0, 0.0]","[0.0, -1.5707963267948966, 0.0, 0.0, 0.0, 0.0]","[0.005034650719681973, -1.4392816968699957, -1.365252907444099, -1.2052956752550175, 0.37012980391038364, -9.946342120078464e-10]",0.002,7,1
0,-1,"[4.7534813347738236e-05, -1.5693312329570581, 0.006530586873189748, 5.4191943285758875, -0.001988236104146779, 0.001267115119844675]","[0.0, -0.00016850921383593231, -0.0006522319163195789, -0.502216637134552, 0.00023405269894283265, -0.00011575266398722306]","[0.0, -1.5707963267948966, 0.0, 0.0, 0.0, 0.0]","[0.0, -1.5707963267948966, 0.0, 0.0, 0.0, 0.0]","[0.00501136616385626, -1.4309282678601858, -1.3587022356688063, -1.1997191250927717, 0.36841405004119926, -9.988194372768656e-10]",0.002,7,1
0,-1,"[4.758584327646531e-05, -1.5692861654427652, 0.006494824086324513, 5.413004207402029, -0.00199300447572881, 0.0012385845184326172]","[0.0, -0.0001452061114832759, -0.0005343587254174054, -0.502861499786377, 0.00023226605844683945, -0.00011965480371145532]","[0.0, -1.5707963267948966, 0.0, 0.0, 0.0, 0.0]","[0.0, -1.5707963267948966, 0.0, 0.0, 0.0, 0.0]","[0.0049767939020609305, -1.427457611028527, -1.3524023988572444, -1.1914442226931672, 0.36587548733919406, -9.774439367938809e-10]",0.002,7,1
0,-1,"[-1.4130269185841371e-05, -1.5693191120265801, 0.006474796925679982, 5.406917738705435, -0.0020664373980920914, 0.001278948737308383]","[0.0, -0.00012756502837873995, -0.00046639106585644186, -0.4986717402935028, 0.00019029226677957922, -0.0001227588945766911]","[0.0, -1.5707963267948966, 0.0, 0.0, 0.0, 0.0]","[0.0, -1.5707963267948966, 0.0, 0.0, 0.0, 0.0]","[0.004940690990015656, -1.4157597518154408, -1.3417855661630806, -1.1827972032397442, 0.3632142514899268, -9.86975113941232e-10]",0.002,7,1
0,-1,"[-1.4130269185841371e-05, -1.5693222714219992, 0.006560150776998341, 5.4029074786003015, -0.002065483723775685, 0.0012548684608191252]","[0.0, -0.00011800734500866383, -0.000499882735311985, -0.4952167570590973, 0.00016977800987660885, -0.00014389617717824876]","[0.0, -1.5707963267948966, 0.0, 0.0, 0.0, 0.0]","[0.0, -1.5707963267948966, 0.0, 0.0, 0.0, 0.0]","[0.0049174403829930656, -1.408831618674654, -1.3363462226487903, -1.177224495827746, 0.36149334864215416, -1.0146308926200649e-09]",0.002,7,1
0,-1,"[-1.732503072560121e-06, -1.5693553792410349, 0.0064957777606409195, 5.395086812763967, -0.0020859877215784195, 0.0012460551224648952]","[0.0, -0.00014273994020186365, -0.0006000769790261984, -0.4996391236782074, 0.00015296520723495632, -0.00013761251466348767]","[0.0, -1.5707963267948966, 0.0, 0.0, 0.0, 0.0]","[0.0, -1.5707963267948966, 0.0, 0.0, 0.0, 0.0]","[0.004871263961160355, -1.3972786657207357, -1.3245401525561482, -1.1661724564798917, 0.35810329705846333, -9.84890362372951e-10]",0.002,7,1
0,-1,"[-2.3190175191700746e-05, -1.5693146656597783, 0.006479565297262013, 5.388214874058523, -0.001988712941304982, 0.0012505054473876953]","[0.0, -0.00016352624516002834, -0.0005662805051542819, -0.5041794180870056, 0.00019443867495283484, -0.000136242902954109]","[0.0, -1.5707963267948966, 0.0, 0.0, 0.0, 0.0]","[0.0, -1.5707963267948966, 0.0, 0.0, 0.0, 0.0]","[0.0048303398559288386, -1.3882390017895248, -1.3143669408701608, -1.1563715484850612, 0.3550881772605295, -9.911686005524844e-10]",0.002,7,1
0,-1,"[-4.4171010152638246e-05, -1.5693553610802446, 0.006520096455709279, 5.37902061918334, -0.0020330587970178726, 0.0012091241078451276]","[0.0, -0.0001325594785157591, -0.0005612937966361642, -0.501391589641571, 0.00015852192882448435, -0.00013033783761784434]","[0.0, -1.5707963267948966, 0.0, 0.0, 0.0, 0.0]","[0.0, -1.5707963267948966, 0.0, 0.0, 0.0, 0.0]","[0.004775968133196799, -1.3740644710726282, -1.3011987827840472, -1.1433598418058815, 0.35109971953214136, -9.472525931740675e-10]",0.002,7,1
0,-1,"[2.8097932954551652e-05, -1.569343138984852, 0.0064881483661096695, 5.365132081299581, -0.002057854329244435, 0.0012134871212765574]","[0.0, -0.00013418956950772554, -0.000787720549851656, -0.4983014166355133, 0.0001540169323561713, -0.0001523573591839522]","[0.0, -1.5707963267948966, 0.0, 0.0, 0.0, 0.0]","[0.0, -1.5707963267948966, 0.0, 0.0, 0.0, 0.0]","[0.004692357443967523, -1.3529642409407039, -1.2801995535878243, -1.123328326318556, 0.3449260638994427, -1.0009414872372636e-09]",0.002,7,1
0,-1,"[-6.500874654591371e-06, -1.5693837656038632, 0.006443802510396779, 5.358242380409994, -0.002041641865865529, 0.0012505054473876953]","[0.0, -0.00015768401499371976, -0.0009250580915249884, -0.5027937293052673, 0.00015462408191524446, -0.0001537314528832212]","[0.0, -1.5707963267948966, 0.0, 0.0, 0.0, 0.0]","[0.0, -1.5707963267948966, 0.0, 0.0, 0.0, 0.0]","[0.004651120141338365, -1.3391806304708755, -1.2695618846897514, -1.1134596808519996, 0.34190083459696147, -9.691077239269233e-10]",0.002,7,1
0,-1,"[-6.024037496388246e-06, -1.569331241921038, 0.006448094044820607, 5.352109837322988, -0.001988712941304982, 0.0012090761447325349]","[0.0, -0.00013709573249798268, -0.0007316484698094428, -0.5044563412666321, 0.00015468262427020818, -0.0001729662180878222]","[0.0, -1.5707963267948966, 0.0, 0.0, 0.0, 0.0]","[0.0, -1.5707963267948966, 0.0, 0.0, 0.0, 0.0]","[0.00461373424461701, -1.3309942070606005, -1.2601785643393124, -1.1045038688687334, 0.3391423486798059, -9.870049389106018e-10]",0.002,7,1
0,-1,"[1.906156467157416e-05, -1.5693056653584172, 0.006431404744283498, 5.34395312049941, -0.0019758383380334976, 0.0012385845184326172]","[0.0, -0.00011676791473291814, -0.0009141244809143245, -0.49786797165870667, 0.00016606497229076922, -0.00015874284144956619]","[0.0, -1.5707963267948966, 0.0, 0.0, 0.0, 0.0]","[0.0, -1.5707963267948966, 0.0, 0.0, 0.0, 0.0]","[0.0045638246931532, -1.3205891634703246, -1.2491562626588164, -1.0925563575291573, 0.33547470763976955, -9.672557826939298e-10]",0.002,7,1
0,-1,"[-1.732503072560121e-06, -1.569322139290609, 0.0064614454852502945, 5.327219593315878, -0.0019324461566370132, 0.0012592315906658769]","[0.0, -0.00018674065358936787, -0.0008399172220379114, -0.5036097168922424, 0.00014418968930840492, -0.00014108899631537497]","[0.0, -1.5707963267948966, 0.0, 0.0, 0.0, 0.0]","[0.0, -1.5707963267948966, 0.0, 0.0, 0.0, 0.0]","[0.00446044354027162, -1.2928479344039796, -1.2225464428442012, -1.0677942514166436, 0.3278519999859939, -1.0014259581258806e-09]",0.002,7,1
0,-1,"[-6.500874654591371e-06, -1.5693927837167685, 0.00640279451479131, 5.317017900734701, -0.0020054022418420914, 0.0012635946040973067]","[0.0, -0.000148284831084311, -0.0004679494013544172, -0.5039280652999878, 0.00013288458285387605, -0.00011804351379396394]","[0.0, -1.5707963267948966, 0.0, 0.0, 0.0, 0.0]","[0.0, -1.5707963267948966, 0.0, 0.0, 0.0, 0.0]","[0.004398330659002703, -1.2810928211716157, -1.2093448507663522, -1.0529258542344901, 0.3232882772580585, -9.756348965727537e-10]",0.002,7,1
0,-1,"[2.6226043701171875e-06, -1.5693340639448543, 0.006425205861226857, 5.311967777996816, -0.002037827168599904, 0.0012517609866335988]","[0.0, -0.00013444083742797375, -0.0005195144331082702, -0.498301237821579, 0.0001385477662552148, -0.00012251141015440226]","[0.0, -1.5707963267948966, 0.0, 0.0, 0.0, 0.0]","[0.0, -1.5707963267948966, 0.0, 0.0, 0.0, 0.0]","[0.004366108813001259, -1.27108030985693, -1.2003471268003896, -1.0452125640411078, 0.3209205668784654, -9.630878680377645e-10]",0.002,7,1
0,-1,"[-3.9402638570606996e-05, -1.5693762344638635, 0.006371323262349904, 5.306000399380483, -0.001984421406881154, 0.0012517609866335988]","[0.0, -0.00012089651136193424, -0.0005781398504041135, -0.49697837233543396, 0.0001601408439455554, -0.00012823642464354634]","[0.0, -1.5707963267948966, 0.0, 0.0, 0.0, 0.0]","[0.0, -1.5707963267948966, 0.0, 0.0, 0.0, 0.0]","[0.0043285393380233465, -1.2608409656669493, -1.1902051547979562, -1.0362162965720971, 0.3181548115732525, -9.630905919072177e-10]",0.002,7,1
0,-1,"[2.658367156982422e-05, -1.5694032443319266, 0.006399933491842091, 5.3011289713676355, -0.001992527638570607, 0.001226663589477539]","[0.0, -0.00015043499297462404, -0.0006815672968514264, -0.49925416707992554, 0.0002367818815400824, -0.0001324949407717213]","[0.0, -1.5707963267948966, 0.0, 0.0, 0.0, 0.0]","[0.0, -1.5707963267948966, 0.0, 0.0, 0.0, 0.0]","[0.004297254130838379, -1.2531284051706835, -1.1832524866086422, -1.02872714780114, 0.31585580152531034, -9.51472884200924e-10]",0.002,7,1
0,-1,"[-4.2263661519825746e-05, -1.5693373304423694, 0.006330792103902638, 5.292146074562826, -0.001984421406881154, 0.0012223005760461092]","[0.0, -0.00016040574701037258, -0.000677887408528477, -0.5041419267654419, 0.0002261271874886006, -0.0001687586773186922]","[0.0, -1.5707963267948966, 0.0, 0.0, 0.0, 0.0]","[0.0, -1.5707963267948966, 0.0, 0.0, 0.0, 0.0]","[0.004240891668968026, -1.2401695475527479, -1.1695077889892544, -1.0152300266339518, 0.3117052373902294, -9.554275586976814e-10]",0.002,7,1
0,-1,"[-1.0792409078419496e-05, -1.5693582039424037, 0.006363693867818654, 5.276944207936086, -0.0020011107074182632, 0.0012592315906658769]","[0.0, -0.00012022828741464764, -0.0005638395668938756, -0.4937136769294739, 0.0001778087898856029, -0.0001523604878457263]","[0.0, -1.5707963267948966, 0.0, 0.0, 0.0, 0.0]","[0.0, -1.5707963267948966, 0.0, 0.0, 0.0, 0.0]","[0.004144405171974235, -1.2175621823839264, -1.146527256434443, -0.9921245276251575, 0.3046001428508958, -9.61708849687771e-10]",0.002,7,1
0,-1,"[2.6226043701171875e-06, -1.5694001687555392, 0.006372753773824513, 5.269087123661794, -0.0019534269915979507, 0.0012060165172442794]","[0.0, -0.00017181811563204974, -0.0006493987748399377, -0.500486433506012, 0.0001621178671484813, -0.00014590733917430043]","[0.0, -1.5707963267948966, 0.0, 0.0, 0.0, 0.0]","[0.0, -1.5707963267948966, 0.0, 0.0, 0.0, 0.0]","[0.004093078719268314, -1.201859934926266, -1.1329476320874314, -0.9798372921487258, 0.3008273997758429, -9.461411485809882e-10]",0.002,7,1
0,-1,"[-2.3190175191700746e-05, -1.5693671983065833, 0.006331268941060841, 5.251945662289419, -0.0019324461566370132, 0.0011805935064330697]","[0.0, -0.000202420269488357, -0.0005245073116384447, -0.5014728903770447, 0.00012522368342615664, -0.0001522464444860816]","[0.0, -1.5707963267948966, 0.0, 0.0, 0.0, 0.0]","[0.0, -1.5707963267948966, 0.0, 0.0, 0.0, 0.0]","[0.003982534861781332, -1.1748305364364076, -1.1062065887713501, -0.9533630356896411, 0.2926827643095629, -9.659023782932327e-10]",0.002,7,1
0,-1,"[4.758584327646531e-05, -1.5693581890412425, 0.006330792103902638, 5.242053258209982, -0.001962010060445607, 0.0012680449290201068]","[0.0, -0.00019217659428250045, -0.0009052932728081942, -0.4945341944694519, 0.00011938302486669272, -0.00018478631682228297]","[0.0, -1.5707963267948966, 0.0, 0.0, 0.0, 0.0]","[0.0, -1.5707963267948966, 0.0, 0.0, 0.0, 0.0]","[0.003917286796902815, -1.1592423158181735, -1.089795983432118, -0.937739924075704, 0.2878811445578995, -9.619553745971064e-10]",0.002,7,1
0,-1,"[1.9061566490563564e-05, -1.5694257901380588, 0.00631124178041631, 5.237137186318197, -0.0019534269915979507, 0.001210379647091031]","[0.0, -0.00015677187184337527, -0.0007314623799175024, -0.502605676651001, 0.00011024324339814484, -0.0001641446870053187]","[0.0, -1.5707963267948966, 0.0, 0.0, 0.0, 0.0]","[0.0, -1.5707963267948966, 0.0, 0.0, 0.0, 0.0]","[0.0038844745758681606, -1.1471920738458634, -1.0802577919430718, -0.9298820984756241, 0.2854643280810286, -9.65908219359791e-10]",0.002,7,1
0,-1,"[5.666708602802828e-05, -1.569350804118887, 0.00631124178041631, 5.232188808708944, -0.001981560383931935, 0.0011818490456789732]","[0.0, -0.00015978128067217767, -0.0008211100939661264, -0.5018958449363708, 8.353365410584956e-05, -0.00013882257917430252]","[0.0, -1.5707963267948966, 0.0, 0.0, 0.0, 0.0]","[0.0, -1.5707963267948966, 0.0, 0.0, 0.0, 0.0]","[0.003852617400379045, -1.1437807259973536, -1.0743154774878827, -0.9222526212933788, 0.28311721573337034, -9.714878597349745e-10]",0.002,7,1
0,-1,"[4.302263187128119e-05, -1.5693462919774284, 0.006287399922506154, 5.224066185742178, -0.001957718526021779, 0.001231026602908969]","[0.0, -0.00012919811706524342, -0.0005608886131085455, -0.5044986009597778, 0.00010157631913898513, -0.00013361040328163654]","[0.0, -1.5707963267948966, 0.0, 0.0, 0.0, 0.0]","[0.0, -1.5707963267948966, 0.0, 0.0, 0.0, 0.0]","[0.003799286786101748, -1.1310345508149888, -1.061589075753127, -0.9094872985855451, 0.2792001785490281, -9.480175225949168e-10]",0.002,7,1
0,-1,"[5.666708602802828e-05, -1.569328249348775, 0.006307903920308888, 5.218992519169607, -0.00197774568666631, 0.0011774859158322215]","[0.0, -0.00011539387196535245, -0.00040478218579664826, -0.4979458451271057, 0.00010776784620247781, -0.00011890019959537312]","[0.0, -1.5707963267948966, 0.0, 0.0, 0.0, 0.0]","[0.0, -1.5707963267948966, 0.0, 0.0, 0.0, 0.0]","[0.003765047052856988, -1.121719461201817, -1.0524812051885228, -0.9012884491800199, 0.2766797059126231, -9.482517675634733e-10]",0.002,7,1
0,-1,"[2.6226043701171875e-06, -1.5693821501084422, 0.006279770527974904, 5.210094707995214, -0.0019820372210901382, 0.0011731229024007916]","[0.0, -0.00012896416592411697, -0.0007519120117649436, -0.4980769753456116, 0.00023869900905992836, -0.00011577209079405293]","[0.0, -1.5707963267948966, 0.0, 0.0, 0.0, 0.0]","[0.0, -1.5707963267948966, 0.0, 0.0, 0.0, 0.0]","[0.003705493866518076, -1.1075446545499996, -1.0384612142856553, -0.8870249696988108, 0.2722901247002259, -9.64058858842725e-10]",0.002,7,1
0,-1,"[2.658367156982422e-05, -1.5694107574275513, 0.006263558064595998, 5.201239156513967, -0.001969162617818654, 0.0011568388435989618]","[0.0, -0.0001458787446608767, -0.0007018754258751869, -0.5035768747329712, 0.00018055624968837947, -0.00011353509762557223]","[0.0, -1.5707963267948966, 0.0, 0.0, 0.0, 0.0]","[0.0, -1.5707963267948966, 0.0, 0.0, 0.0, 0.0]","[0.0036459496445031977, -1.0901953848980868, -1.0229420063502284, -0.8727745011190124, 0.2679205393944593, -9.282704136077789e-10]",0.002,7,1
0,-1,"[2.3624777895747684e-05, -1.5693731677350407, 0.006239239369527638, 5.187019812851705, -0.001969162617818654, 0.0012060165172442794]","[0.0, -8.266179065685719e-05, -0.000507659453433007, -0.4991194009780884, 0.00014120107516646385, -9.749729360919446e-05]","[0.0, -1.5707963267948966, 0.0, 0.0, 0.0, 0.0]","[0.0, -1.5707963267948966, 0.0, 0.0, 0.0, 0.0]","[0.003550226161575164, -1.0665032949351694, -0.998814049458157, -0.849846662906543, 0.2608626266263176, -9.598832562648281e-10]",0.002,7,1
0,-1,"[-1.8421803609669496e-05, -1.5694076996627082, 0.006206337605611623, 5.178990769177236, -0.00203115144838506, 0.0012179374461993575]","[0.0, -9.067724749911577e-05, -0.0008055609650909901, -0.49449238181114197, 0.00015801293193362653, -0.00010995050251949579]","[0.0, -1.5707963267948966, 0.0, 0.0, 0.0, 0.0]","[0.0, -1.5707963267948966, 0.0, 0.0, 0.0, 0.0]","[0.003496484542217404, -1.052079952958414, -0.9862720156568561, -0.8369797836801421, 0.2569097418633775, -9.522160984071207e-10]",0.002,7,1
0,-1,"[-1.8421803609669496e-05, -1.5693612468060856, 0.006215397511617482, 5.1721814451511285, -0.0019496122943323257, 0.001214742660522461]","[0.0, -7.586884021293372e-05, -0.0008797465707175434, -0.49985700845718384, 0.00023153911752160639, -0.00017147754260804504]","[0.0, -1.5707963267948966, 0.0, 0.0, 0.0, 0.0]","[0.0, -1.5707963267948966, 0.0, 0.0, 0.0, 0.0]","[0.0034499401470635895, -1.0427510219802831, -0.9753226205995587, -0.8258316897742406, 0.253478439567443, -9.661631829744486e-10]",0.002,7,1
0,-1,"[-1.8421803609669496e-05, -1.5693941902466868, 0.006215397511617482, 5.168130147248068, -0.0019496122943323257, 0.0011981208808720112]","[0.0, -9.738350490806624e-05, -0.0008933614008128643, -0.5042546987533569, 0.00019201582472305745, -0.00017757101159077138]","[0.0, -1.5707963267948966, 0.0, 0.0, 0.0, 0.0]","[0.0, -1.5707963267948966, 0.0, 0.0, 0.0, 0.0]","[0.0034224977936032274, -1.0330342568400337, -0.9679115764657564, -0.8192635284772589, 0.25146372444325, -9.52451852811872e-10]",0.002,7,1
0,-1,"[-3.225008119756012e-05, -1.569386668070667, 0.006215397511617482, 5.162063169270315, -0.0019367376910608414, 0.0011731229024007916]","[0.0, -8.005815470824018e-05, -0.0007966379052959383, -0.504301905632019, 0.00016786003834567964, -0.00017382895748596638]","[0.0, -1.5707963267948966, 0.0, 0.0, 0.0, 0.0]","[0.0, -1.5707963267948966, 0.0, 0.0, 0.0, 0.0]","[0.0033800402754058717, -1.0237983227959904, -0.9567377116005218, -0.8090983949892474, 0.2483409881823069, -9.461784357339024e-10]",0.002,7,1
0,-1,"[4.0228129364550114e-05, -1.5693657468403508, 0.006198708211080373, 5.155943202763357, -0.0020030180560510757, 0.0012069463264197111]","[0.0, -6.796623347327113e-05, -0.00046841686707921326, -0.4960034489631653, 0.00017119687981903553, -0.00017046583525370806]","[0.0, -1.5707963267948966, 0.0, 0.0, 0.0, 0.0]","[0.0, -1.5707963267948966, 0.0, 0.0, 0.0, 0.0]","[0.0033383216748482008, -1.012930855707324, -0.9469764986065059, -0.7991088580690584, 0.24527026251573714, -9.461801903722507e-10]",0.002,7,1
0,-1,"[-3.9402638570606996e-05, -1.5693911474994202, 0.0061791578875940445, 5.149966019182958, -0.001957718526021779, 0.0011743784416466951]","[0.0, -5.90479357924778e-05, -0.0007203423301689327, -0.49514180421829224, 0.00017420579388272017, -0.00018380988331045955]","[0.0, -1.5707963267948966, 0.0, 0.0, 0.0, 0.0]","[0.0, -1.5707963267948966, 0.0, 0.0, 0.0, 0.0]","[0.003297872865327703, -1.0047296819806961, -0.9378842619108475, -0.7894233812989669, 0.24229301632127667, -9.461818492591292e-10]",0.002,7,1
0,-1,"[-1.732503072560121e-06, -1.569440688156039, 0.00621205965151006, 5.144059943943777, -0.0019090811358850601, 0.0011743784416466951]","[0.0, -8.699644968146458e-05, -0.0007676625973545015, -0.49987298250198364, 0.00020038204092998058, -0.00017715123249217868]","[0.0, -1.5707963267948966, 0.0, 0.0, 0.0, 0.0]","[0.0, -1.5707963267948966, 0.0, 0.0, 0.0, 0.0]","[0.003256686688908158, -0.9934395825295295, -0.92701260100798, -0.7795635224844957, 0.23926537122732316, -9.361894608249372e-10]",0.002,7,1
0,-1,"[1.1703848031174857e-05, -1.569403217323572, 0.006187740956441701, 5.138127702265539, -0.0019171873675745132, 0.0011906623840332031]","[0.0, -0.0001219845944433473, -0.0007279736455529928, -0.5015910863876343, 0.0001927100820466876, -0.00017268332885578275]","[0.0, -1.5707963267948966, 0.0, 0.0, 0.0, 0.0]","[0.0, -1.5707963267948966, 0.0, 0.0, 0.0, 0.0]","[0.003216159361400214, -0.9844886586086441, -0.9172968894671188, -0.769856183775033, 0.23627689925113443, -9.503686360645313e-10]",0.002,7,1
0,-1,"[1.906156467157416e-05, -1.5693986992449318, 0.006195370350972951, 5.132064777403631, -0.001962010060445607, 0.0011862993706017733]","[0.0, -0.00010491983266547322, -0.0005219326703809202, -0.503940761089325, 0.00025046165683306754, -0.00016945370589382946]","[0.0, -1.5707963267948966, 0.0, 0.0, 0.0, 0.0]","[0.0, -1.5707963267948966, 0.0, 0.0, 0.0, 0.0]","[0.003174042466915155, -0.9730205167754503, -0.9068076922659688, -0.7597769915960805, 0.23318702310623696, -9.24339121353978e-10]",0.002,7,1
0,-1,"[-3.225008119756012e-05, -1.5694152394174417, 0.006146256123678029, 5.12295617440299, -0.0019291082965295914, 0.0011818490456789732]","[0.0, -8.67222115630284e-05, -0.0005073513020761311, -0.49699968099594116, 0.00023352190328296274, -0.0001470459101255983]","[0.0, -1.5707963267948966, 0.0, 0.0, 0.0, 0.0]","[0.0, -1.5707963267948966, 0.0, 0.0, 0.0, 0.0]","[0.0031106381651342494, -0.9596087144973887, -0.8923848907219633, -0.7445953543826772, 0.2285210856849266, -9.222495550039232e-10]",0.002,7,1
0,-1,"[4.0219019865617156e-05, -1.5694152844701712, 0.00620443025697881, 5.109188753157415, -0.0019171873675745132, 0.0011449179146438837]","[0.0, -0.0001361905742669478, -0.0006658007623627782, -0.500514805316925, 0.00018539650773163885, -0.00011841158993775025]","[0.0, -1.5707963267948966, 0.0, 0.0, 0.0, 0.0]","[0.0, -1.5707963267948966, 0.0, 0.0, 0.0, 0.0]","[0.003007178705444476, -0.9318193098420023, -0.8669125129406253, -0.7198194243303857, 0.22090140045011628, -9.345714100140407e-10]",0.002,7,1
0,-1,"[-1.0792409078419496e-05, -1.569434718494751, 0.006135288869039357, 5.101115363627233, -0.0018842856036584976, 0.0011743784416466951]","[0.0, -0.00011267039371887222, -0.0005249045207165182, -0.50311678647995, 0.00019924438674934208, -0.00010265396849717945]","[0.0, -1.5707963267948966, 0.0, 0.0, 0.0, 0.0]","[0.0, -1.5707963267948966, 0.0, 0.0, 0.0, 0.0]","[0.0029568684635893866, -0.9185403807568026, -0.8533927869933937, -0.707776170466079, 0.2172045983241526, -9.190006095936052e-10]",0.002,7,1
0,-1,"[-1.0792409078419496e-05, -1.5694032443319266, 0.006119553242818654, 5.094956028252401, -0.0018885771380823257, 0.0012113094562664628]","[0.0, -9.79550532065332e-05, -0.0005062012351118028, -0.49874618649482727, 0.0002255243598483503, -0.00010750135697890073]","[0.0, -1.5707963267948966, 0.0, 0.0, 0.0, 0.0]","[0.0, -1.5707963267948966, 0.0, 0.0, 0.0, 0.0]","[0.0029137094624018165, -0.9060925045091199, -0.8424794049646931, -0.6974340034379763, 0.2140141114488102, -9.543304537392742e-10]",0.002,7,1
0,-1,"[9.98032101051649e-06, -1.569434718494751, 0.006156746541158498, 5.088903027563848, -0.0018799940692346695, 0.001178741455078125]","[0.0, -8.663933112984523e-05, -0.000534876948222518, -0.49496081471443176, 0.00021245669631753117, -9.751717880135402e-05]","[0.0, -1.5707963267948966, 0.0, 0.0, 0.0, 0.0]","[0.0, -1.5707963267948966, 0.0, 0.0, 0.0, 0.0]","[0.0028713377675529017, -0.8985559441549267, -0.8333174992837824, -0.6872921075345544, 0.21090247237110604, -9.366674533995937e-10]",0.002,7,1
0,-1,"[3.120451219729148e-05, -1.5694437278765072, 0.006102387105123341, 5.083095150976934, -0.0018842856036584976, 0.0011862993706017733]","[0.0, -9.319796663476154e-05, -0.0007038649055175483, -0.49777641892433167, 0.0001781433093128726, -8.923003770178184e-05]","[0.0, -1.5707963267948966, 0.0, 0.0, 0.0, 0.0]","[0.0, -1.5707963267948966, 0.0, 0.0, 0.0, 0.0]","[0.0028294555688402937, -0.888094038711272, -0.8229644525690055, -0.6772683834233909, 0.2078285679928915, -9.148206408891757e-10]",0.002,7,1
0,-1,"[3.1119703635340557e-05, -1.5693987172893067, 0.006130997334615529, 5.075251209526815, -0.0019214789019983414, 0.0011743784416466951]","[0.0, -9.554252756061032e-05, -0.0007666518795304, -0.5035572052001953, 0.0001871225977083668, -9.15984419407323e-05]","[0.0, -1.5707963267948966, 0.0, 0.0, 0.0, 0.0]","[0.0, -1.5707963267948966, 0.0, 0.0, 0.0, 0.0]","[0.00277369064334907, -0.8739237824937491, -0.8096240702322047, -0.663919164592382, 0.20373055741193094, -8.990171183397092e-10]",0.002,7,1
0,-1,"[5.215800410951488e-05, -1.5694558851285656, 0.006139580403463185, 5.05897809842185, -0.0018962065326135757, 0.001178741455078125]","[0.0, -7.688656478421763e-05, -0.0005678781890310347, -0.4951965808868408, 0.0001849249383667484, -6.59968500258401e-05]","[0.0, -1.5707963267948966, 0.0, 0.0, 0.0, 0.0]","[0.0, -1.5707963267948966, 0.0, 0.0, 0.0, 0.0]","[0.0026576033947620123, -0.8454208501912562, -0.7813544122981856, -0.636117972475386, 0.19517867259236, -9.190087167748375e-10]",0.002,7,1
0,-1,"[2.6226043701171875e-06, -1.5694166547949244, 0.006111447011129201, 5.051045584469595, -0.0019257704364221695, 0.0012113094562664628]","[0.0, -8.796135807642713e-05, -0.0007415259024128318, -0.49772655963897705, 0.0002549542405176908, -7.087989069987088e-05]","[0.0, -1.5707963267948966, 0.0, 0.0, 0.0, 0.0]","[0.0, -1.5707963267948966, 0.0, 0.0, 0.0, 0.0]","[0.0026010342397449916, -0.8302773427670215, -0.7669175612948754, -0.6225767319239826, 0.19102244262683912, -9.011130020515961e-10]",0.002,7,1
0,-1,"[3.111337355221622e-05, -1.5694017480457951, 0.006079498921529591, 5.045179742365637, -0.001897160206929982, 0.001195025397464633]","[0.0, -9.859856072580442e-05, -0.0009291946771554649, -0.5009321570396423, 0.00023201982548926026, -7.665628800168633e-05]","[0.0, -1.5707963267948966, 0.0, 0.0, 0.0, 0.0]","[0.0, -1.5707963267948966, 0.0, 0.0, 0.0, 0.0]","[0.0025582067335358644, -0.8166455286110933, -0.7549541233886207, -0.61231649762364, 0.18786090258202032, -9.24821707186505e-10]",0.002,7,1
0,-1,"[-9.361897603810121e-06, -1.5694301763181393, 0.006058994923726857, 5.037082153349676, -0.0018766562091272476, 0.0011546259047463536]","[0.0, -0.00010014802683144808, -0.000610901159234345, -0.5051009058952332, 0.00020501839753706008, -0.0001554180635139346]","[0.0, -1.5707963267948966, 0.0, 0.0, 0.0, 0.0]","[0.0, -1.5707963267948966, 0.0, 0.0, 0.0, 0.0]","[0.0025005741242795465, -0.8061470293485763, -0.7418726764091316, -0.5985151732315647, 0.1836167345457339, -9.310985475977001e-10]",0.002,7,1
0,-1,"[-3.511110414677887e-05, -1.569464822216407, 0.006047073994771779, 5.0279495296771906, -0.0018928686725061539, 0.0011993885273113847]","[0.0, -7.788024231558666e-05, -0.0007800150779075921, -0.49527469277381897, 0.00020355544984340668, -0.00016040563059505075]","[0.0, -1.5707963267948966, 0.0, 0.0, 0.0, 0.0]","[0.0, -1.5707963267948966, 0.0, 0.0, 0.0, 0.0]","[0.002434149226236713, -0.7911261482174383, -0.7270244773604642, -0.5826132342635966, 0.17873376071673513, -9.169216105074896e-10]",0.002,7,1
0,-1,"[1.9061566490563564e-05, -1.5694557618447398, 0.006055657063619435, 5.0229603228862665, -0.0019143263446252945, 0.0011292381677776575]","[0.0, -8.382491796510294e-05, -0.001019311835989356, -0.4977443814277649, 0.0001998158113565296, -0.00014711832045577466]","[0.0, -1.5707963267948966, 0.0, 0.0, 0.0, 0.0]","[0.0, -1.5707963267948966, 0.0, 0.0, 0.0, 0.0]","[0.002398095597710198, -0.7807564243337909, -0.7166854605743965, -0.5739858176613851, 0.1760900247932582, -8.929818502963098e-10]",0.002,7,1
0,-1,"[-2.748170961552887e-05, -1.5694633258138602, 0.006021801625387013, 5.019114690810003, -0.0018447081195276382, 0.0011993885273113847]","[0.0, -0.00015766969590913504, -0.0008767133112996817, -0.49660784006118774, 0.00017731795378495008, -0.000153765402501449]","[0.0, -1.5707963267948966, 0.0, 0.0, 0.0, 0.0]","[0.0, -1.5707963267948966, 0.0, 0.0, 0.0, 0.0]","[0.0023695320906565497, -0.7714523350979728, -0.7095666127430075, -0.5671386826592347, 0.17397409994697438, -9.269173459370041e-10]",0.002,7,1
0,-1,"[9.98032101051649e-06, -1.569434718494751, 0.006055657063619435, 5.01317189910964, -0.0018723646747034195, 0.0011634986149147153]","[0.0, -0.0001799159508664161, -0.0006804825970903039, -0.5015814900398254, 0.00017335689335595816, -0.00017620511061977595]","[0.0, -1.5707963267948966, 0.0, 0.0, 0.0, 0.0]","[0.0, -1.5707963267948966, 0.0, 0.0, 0.0, 0.0]","[0.002327218719446372, -0.7610833521705437, -0.6991204676362289, -0.5570097120735223, 0.17086489584265707, -9.148316185367985e-10]",0.002,7,1
0,-1,"[-1.8421803609669496e-05, -1.5694271605792274, 0.006079498921529591, 5.006114053517141, -0.0019176642047327164, 0.0011380515061318874]","[0.0, -0.000282377382973209, -0.0006060512969270349, -0.5055563449859619, 0.00014836175250820816, -0.00016508408589288592]","[0.0, -1.5707963267948966, 0.0, 0.0, 0.0, 0.0]","[0.0, -1.5707963267948966, 0.0, 0.0, 0.0, 0.0]","[0.0022761504170058892, -0.7497412456528639, -0.6875387301687483, -0.5447779370955245, 0.16709985346574124, -9.311027223027029e-10]",0.002,7,1
0,-1,"[-6.324449648076325e-05, -1.5694152844701712, 0.006048504506246388, 4.9979930994804285, -0.0019214789019983414, 0.0012038388522341847]","[0.0, -0.00018799459212459624, -0.0006324492278508842, -0.49713850021362305, 0.0001216841337736696, -0.00015526774222962558]","[0.0, -1.5707963267948966, 0.0, 0.0, 0.0, 0.0]","[0.0, -1.5707963267948966, 0.0, 0.0, 0.0, 0.0]","[0.0022165544513514583, -0.7368627227998669, -0.6727672205765308, -0.5305111433386589, 0.16271944211472317, -9.173900872970536e-10]",0.002,7,1
0,-1,"[-1.4130269185841371e-05, -1.5695098326871921, 0.005979363118306935, 4.983174043684759, -0.0018690268145959976, 0.001162457512691617]","[0.0, -0.00018491264199838042, -0.0007541151717305183, -0.49938103556632996, 0.00013843381020706147, -0.00012967269867658615]","[0.0, -1.5707963267948966, 0.0, 0.0, 0.0, 0.0]","[0.0, -1.5707963267948966, 0.0, 0.0, 0.0, 0.0]","[0.0021070738921548076, -0.7054455300651239, -0.6445545482081404, -0.5043036232768673, 0.15467462416921784, -8.871750604376525e-10]",0.002,7,1
0,-1,"[4.756771886604838e-05, -1.5694181722686444, 0.00603658357729131, 4.973066049605169, -0.0018447081195276382, 0.001187554793432355]","[0.0, -0.00011332803114783019, -0.0006067946087568998, -0.5048667788505554, 0.00017166939505841583, -0.00014987790200393647]","[0.0, -1.5707963267948966, 0.0, 0.0, 0.0, 0.0]","[0.0, -1.5707963267948966, 0.0, 0.0, 0.0, 0.0]","[0.0020336537707511997, -0.6889999460520154, -0.6276142983944016, -0.48671530000608865, 0.1492565556351148, -9.232032522229119e-10]",0.002,7,1
0,-1,"[-2.3190175191700746e-05, -1.569434718494751, 0.005991284047262013, 4.963022577553549, -0.0018489996539514664, 0.0011292381677776575]","[0.0, -9.052920358953997e-05, -0.0005319733172655106, -0.49492061138153076, 0.0001729751384118572, -0.00023384990345221013]","[0.0, -1.5707963267948966, 0.0, 0.0, 0.0, 0.0]","[0.0, -1.5707963267948966, 0.0, 0.0, 0.0, 0.0]","[0.001958849317419481, -0.6687226362979953, -0.6084008756753296, -0.4688080041825973, 0.14375879799149854, -9.053064506891888e-10]",0.002,7,1
0,-1,"[9.96828111965442e-06, -1.569458771530055, 0.006004635487691701, 4.948275494366445, -0.0018079916583459976, 0.0011634745169430971]","[0.0, -0.0001680440764175728, -0.0007017164025455713, -0.5051534175872803, 0.00022494605218525976, -0.0001840226468630135]","[0.0, -1.5707963267948966, 0.0, 0.0, 0.0, 0.0]","[0.0, -1.5707963267948966, 0.0, 0.0, 0.0, 0.0]","[0.0018491582085579975, -0.6400084659838485, -0.5807774880183181, -0.44254609502285774, 0.13569142594256267, -8.929881332483863e-10]",0.002,7,1
0,-1,"[5.666716242558323e-05, -1.5694002347630267, 0.005934540425435841, 4.938024940877714, -0.0018938223468225601, 0.001187554793432355]","[0.0, -0.00014952161291148514, -0.00043426689808256924, -0.5002917051315308, 0.0002597876882646233, -0.0001642697025090456]","[0.0, -1.5707963267948966, 0.0, 0.0, 0.0, 0.0]","[0.0, -1.5707963267948966, 0.0, 0.0, 0.0, 0.0]","[0.0017738685779550584, -0.6234498471171613, -0.563611590901363, -0.4245170785955431, 0.13014811533066875, -8.992643488506723e-10]",0.002,7,1
0,-1,"[-2.3190175191700746e-05, -1.5694633710994204, 0.005997006093160451, 4.932955029397764, -0.001828495656148732, 0.0011350312270224094]","[0.0, -0.00013312922965269536, -0.00041810848051682115, -0.49799588322639465, 0.00024546156055293977, -0.0001667134347371757]","[0.0, -1.5707963267948966, 0.0, 0.0, 0.0, 0.0]","[0.0, -1.5707963267948966, 0.0, 0.0, 0.0, 0.0]","[0.001737461011233722, -0.620419698227114, -0.5564505871313463, -0.4157961869729567, 0.12746283992928326, -9.136756545748788e-10]",0.002,7,1
0,-1,"[7.77522218413651e-05, -1.5694513128003855, 0.005917851124898732, 4.927966984897413, -0.0018532911883752945, 0.0011800841894000769]","[0.0, -0.00010679971455829218, -0.0005361298681236804, -0.4941021502017975, 0.00020543714344967157, -0.0001680739369476214]","[0.0, -1.5707963267948966, 0.0, 0.0, 0.0, 0.0]","[0.0, -1.5707963267948966, 0.0, 0.0, 0.0, 0.0]","[0.0016987480103470237, -0.6048323894858006, -0.5449420751976273, -0.40652442430546054, 0.1246099315667263, -9.232057814688692e-10]",0.002,7,1
0,-1,"[2.206564022344537e-05, -1.5694707286641751, 0.005940262471334279, 4.922137918859281, -0.0018447081195276382, 0.0011350312270224094]","[0.0, -0.00016945635434240103, -0.0006501933676190674, -0.4980597496032715, 0.00019636251090560108, -0.00014519206888508052]","[0.0, -1.5707963267948966, 0.0, 0.0, 0.0, 0.0]","[0.0, -1.5707963267948966, 0.0, 0.0, 0.0, 0.0]","[0.001655181365427638, -0.5915528407004104, -0.5331378326219111, -0.39610057663008647, 0.12141773783276487, -8.897348175550623e-10]",0.002,7,1
0,-1,"[-9.361897603810121e-06, -1.5694872868810599, 0.005935494099752248, 4.913129243045606, -0.0018489996539514664, 0.0011393942404538393]","[0.0, -0.00018157031445298344, -0.0005486474256031215, -0.5061323046684265, 0.0001576618815306574, -0.0001374281564494595]","[0.0, -1.5707963267948966, 0.0, 0.0, 0.0, 0.0]","[0.0, -1.5707963267948966, 0.0, 0.0, 0.0, 0.0]","[0.0015883667575753806, -0.5772533199281173, -0.517337696952193, -0.3801009960373987, 0.1164983926216108, -8.955459023182072e-10]",0.002,7,1
0,-1,"[1.9100811186945066e-05, -1.569478352470771, 0.005955044423238576, 4.898979949742117, -0.0018532911883752945, 0.0011217346182093024]","[0.0, -0.0001162347398349084, -0.00047115207416936755, -0.49695053696632385, 0.0001015632224152796, -0.00010996124910889193]","[0.0, -1.5707963267948966, 0.0, 0.0, 0.0, 0.0]","[0.0, -1.5707963267948966, 0.0, 0.0, 0.0, 0.0]","[0.001482652994915963, -0.552432731599781, -0.4926018180953066, -0.35478686343674737, 0.1087156132715519, -9.034488768589038e-10]",0.002,7,1
0,-1,"[-1.5560780660450746e-05, -1.5695203115795557, 0.0059235731707971695, 4.889120536833563, -0.0018327871905725601, 0.001163516310043633]","[0.0, -0.0005227109650149941, -0.0007109242724254727, -0.49946123361587524, 9.943356417352334e-05, -0.00010604052658891305]","[0.0, -1.5707963267948966, 0.0, 0.0, 0.0, 0.0]","[0.0, -1.5707963267948966, 0.0, 0.0, 0.0, 0.0]","[0.0014080875341371836, -0.5337941913504418, -0.474098433289133, -0.3369375364202545, 0.10323675928811264, -8.834589330057699e-10]",0.002,7,1
0,-1,"[5.205847992328927e-05, -1.5694408159800624, 0.005887810383931935, 4.883193167835035, -0.0018447081195276382, 0.0011305809020996094]","[0.0, -0.00037174878525547683, -0.0006776382797397673, -0.5048630833625793, 0.00010446429223520681, -0.00011067373998230323]","[0.0, -1.5707963267948966, 0.0, 0.0, 0.0, 0.0]","[0.0, -1.5707963267948966, 0.0, 0.0, 0.0, 0.0]","[0.0013633872521125957, -0.5213689152772967, -0.46234947779134905, -0.32623160466838147, 0.09994224905536749, -8.955457085038039e-10]",0.002,7,1
0,-1,"[9.953104381565936e-06, -1.5694917692201962, 0.0058549086200159195, 4.878016489535131, -0.0018084684955042007, 0.0011425018310546875]","[0.0, -0.00027654573204927146, -0.0006545707583427429, -0.5029078722000122, 0.00017033315089065582, -0.00010173761984333396]","[0.0, -1.5707963267948966, 0.0, 0.0, 0.0, 0.0]","[0.0, -1.5707963267948966, 0.0, 0.0, 0.0, 0.0]","[0.0013249950155014782, -0.5112478228342157, -0.45300621809313324, -0.3170455362727205, 0.09712872631087113, -8.676526985628442e-10]",0.002,7,1
0,-1,"[-2.3190175191700746e-05, -1.569446704499871, 0.005837265645162404, 4.868995088129797, -0.001820866261617482, 0.0011305809020996094]","[0.0, -0.00018929337966255844, -0.0008267389493994415, -0.49529558420181274, 0.00042754068272188306, -0.00010151716560358182]","[0.0, -1.5707963267948966, 0.0, 0.0, 0.0, 0.0]","[0.0, -1.5707963267948966, 0.0, 0.0, 0.0, 0.0]","[0.0012566839579516295, -0.49266534471076767, -0.4358458556117494, -0.30068348784207366, 0.09209188238267844, -8.913613502327633e-10]",0.002,7,1
0,-1,"[1.908887134050019e-05, -1.569545571143255, 0.005838696156637013, 4.855240779906072, -0.0018041769610803726, 0.0011393942404538393]","[0.0, -0.00015410901687573642, -0.000817658903542906, -0.502571702003479, 0.0002568089694250375, -9.71530971582979e-05]","[0.0, -1.5707963267948966, 0.0, 0.0, 0.0, 0.0]","[0.0, -1.5707963267948966, 0.0, 0.0, 0.0, 0.0]","[0.0011528458040264062, -0.4689475723986735, -0.41109354098779455, -0.2758184653487454, 0.08444714982439072, -8.997286324908116e-10]",0.002,7,1
0,-1,"[-1.4130269185841371e-05, -1.5694332222086196, 0.005826775227681935, 4.845019998937406, -0.0018413702594202164, 0.0011634745169430971]","[0.0, -0.00011989408085355535, -0.0005819381913170218, -0.49993687868118286, 0.00018243325757794082, -0.00010978147474816069]","[0.0, -1.5707963267948966, 0.0, 0.0, 0.0, 0.0]","[0.0, -1.5707963267948966, 0.0, 0.0, 0.0, 0.0]","[0.001075753475292248, -0.44835065383751116, -0.39193276848421504, -0.25736755635229114, 0.07878846881694519, -8.65791521170434e-10]",0.002,7,1
0,-1,"[9.959112503565848e-06, -1.5694963053432112, 0.005831066762105763, 4.834983396321096, -0.0017631689654749039, 0.0011305809020996094]","[0.0, -0.00011380931391613558, -0.0006231913575902581, -0.49611592292785645, 0.0001616750523680821, -0.00018811962218023837]","[0.0, -1.5707963267948966, 0.0, 0.0, 0.0, 0.0]","[0.0, -1.5707963267948966, 0.0, 0.0, 0.0, 0.0]","[0.0009993259171403035, -0.4281162375111867, -0.3722691185635431, -0.2390645143690802, 0.07315865082281879, -8.795048998793262e-10]",0.002,7,1
0,-1,"[-1.4130269185841371e-05, -1.5694482338479538, 0.005785767232076466, 4.827209251910009, -0.0018127600299280289, 0.0011021376121789217]","[0.0, -0.0001401269546477124, -0.0008492502965964377, -0.4997243881225586, 0.00011915044888155535, -0.0003135763108730316]","[0.0, -1.5707963267948966, 0.0, 0.0, 0.0, 0.0]","[0.0, -1.5707963267948966, 0.0, 0.0, 0.0, 0.0]","[0.0009399086842056765, -0.41133155986850695, -0.3570022381971861, -0.22483852609224342, 0.06878785031487825, -8.760176413984685e-10]",0.002,7,1
0,-1,"[-3.034273256474762e-05, -1.5694707197001954, 0.005841080342428029, 4.81918382921771, -0.0017927328692834976, 0.0010976872872561216]","[0.0, -0.00013465249503497034, -0.0005607134662568569, -0.5063844919204712, 0.00013505197421181947, -0.0002517581742722541]","[0.0, -1.5707963267948966, 0.0, 0.0, 0.0, 0.0]","[0.0, -1.5707963267948966, 0.0, 0.0, 0.0, 0.0]","[0.0008798452334097798, -0.4004516478432852, -0.3431216167484319, -0.2104589295643242, 0.0643714907125801, -8.678814466739485e-10]",0.002,7,1
0,-1,"[5.468173185363412e-06, -1.5695140458741044, 0.0058243910418909195, 4.81401305922822, -0.0017884413348596695, 0.00109332415740937]","[0.0, -0.00011972552601946518, -0.0004920830251649022, -0.5015485286712646, 0.0002463095006532967, -0.00020982729620300233]","[0.0, -1.5707963267948966, 0.0, 0.0, 0.0, 0.0]","[0.0, -1.5707963267948966, 0.0, 0.0, 0.0, 0.0]","[0.0008413630690882628, -0.3902187299487513, -0.334410122509554, -0.20124285985916868, 0.0615363270195661, -8.760164731265913e-10]",0.002,7,1
0,-1,"[-1.4130269185841371e-05, -1.5694797051003953, 0.005835358296529591, 4.808916847198763, -0.0017955938922327164, 0.001069569610990584]","[0.0, -0.00010777769784908742, -0.0004216003289911896, -0.4994094669818878, 0.00023199226416181773, -0.00020556629169732332]","[0.0, -1.5707963267948966, 0.0, 0.0, 0.0, 0.0]","[0.0, -1.5707963267948966, 0.0, 0.0, 0.0, 0.0]","[0.0008030630659283211, -0.38344046802877446, -0.3263666201539229, -0.19206707527421216, 0.05870866278874292, -8.980980791317454e-10]",0.002,7,1
0,-1,"[-1.4130269185841371e-05, -1.5694692412256082, 0.005811039601461232, 4.802961538522997, -0.0017803351031702164, 0.0011227845679968596]","[0.0, -9.625132952351123e-05, -0.0006071130046620965, -0.49486687779426575, 0.00021530466619879007, -0.00017550044867675751]","[0.0, -1.5707963267948966, 0.0, 0.0, 0.0, 0.0]","[0.0, -1.5707963267948966, 0.0, 0.0, 0.0, 0.0]","[0.0007566129130084841, -0.3695700482612168, -0.31398212558184824, -0.18094811621413925, 0.05529595908548004, -8.855455116134872e-10]",0.002,7,1
0,-1,"[-1.6514454976856996e-05, -1.5694737505730991, 0.005828682576314748, 4.786091770022669, -0.001756016408101857, 0.0011556782992556691]","[0.0, -0.0001056800756487064, -0.0005199632723815739, -0.504295289516449, 0.00020029133884236217, -9.809144103201106e-05]","[0.0, -1.5707963267948966, 0.0, 0.0, 0.0, 0.0]","[0.0, -1.5707963267948966, 0.0, 0.0, 0.0, 0.0]","[0.000629054793560145, -0.33959295897110026, -0.28309995372157565, -0.15040954657101324, 0.045916311174144374, -8.699698419896498e-10]",0.002,7,1
0,-1,"[-1.4130269185841371e-05, -1.5695036392756556, 0.005800549183980763, 4.775992589979925, -0.0018127600299280289, 0.0010945796966552734]","[0.0, -8.398456702707335e-05, -0.0005002714460715652, -0.4966369569301605, 0.00022561887453775853, -9.494365804130211e-05]","[0.0, -1.5707963267948966, 0.0, 0.0, 0.0, 0.0]","[0.0, -1.5707963267948966, 0.0, 0.0, 0.0, 0.0]","[0.0005441172230543679, -0.317018745116886, -0.26216779841691773, -0.1300689882391187, 0.03966048506900823, -8.836825766651915e-10]",0.002,7,1
0,-1,"[-1.0792409078419496e-05, -1.5694707465921347, 0.005750958119527638, 4.7699986947472475, -0.0017932097064417007, 0.0011556782992556691]","[0.0, -9.038482676260173e-05, -0.0007137525826692581, -0.4954075515270233, 0.00021646427921950817, -8.727143722353503e-05]","[0.0, -1.5707963267948966, 0.0, 0.0, 0.0, 0.0]","[0.0, -1.5707963267948966, 0.0, 0.0, 0.0, 0.0]","[0.0005060377793680625, -0.3104157970518795, -0.25343764134369284, -0.12095596063793725, 0.036866683802380236, -8.643890255170276e-10]",0.002,7,1
0,-1,"[-1.8421803609669496e-05, -1.5695231032189731, 0.005718533192769826, 4.765137701272526, -0.0017731825457971695, 0.0011644044425338507]","[0.0, -0.00011158834968227893, -0.0008205072372220457, -0.4981476366519928, 0.0002383938553975895, -9.408782352693379e-05]","[0.0, -1.5707963267948966, 0.0, 0.0, 0.0, 0.0]","[0.0, -1.5707963267948966, 0.0, 0.0, 0.0, 0.0]","[0.0004682524104820261, -0.2992305197807327, -0.24284187434086843, -0.11190973255755453, 0.03408811157915426, -8.602043130842342e-10]",0.002,7,1
0,-1,"[-6.500874654591371e-06, -1.5695532549037416, 0.005780998860494435, 4.756215586304226, -0.001805607472554982, 0.0010902166832238436]","[0.0, -0.0001452126889489591, -0.0007352381362579763, -0.5066657662391663, 0.00019128255371470004, -8.303028153022751e-05]","[0.0, -1.5707963267948966, 0.0, 0.0, 0.0, 0.0]","[0.0, -1.5707963267948966, 0.0, 0.0, 0.0, 0.0]","[0.0004003470259109505, -0.28094535538633103, -0.22665392384329633, -0.09565115253897227, 0.029092358863533153, -8.581109623346424e-10]",0.002,7,1
0,-1,"[7.207025646494003e-06, -1.5695157302873959, 0.005743328724996388, 4.741940102517166, -0.0017774740802209976, 0.0011481203837320209]","[0.0, -0.00012237532064318657, -0.0006741225370205939, -0.49431824684143066, 0.00014392386947292835, -8.011062163859606e-05]","[0.0, -1.5707963267948966, 0.0, 0.0, 0.0, 0.0]","[0.0, -1.5707963267948966, 0.0, 0.0, 0.0, 0.0]","[0.0002921572356104231, -0.25581651143645495, -0.20038403224972628, -0.06974500772607199, 0.021128881272450432, -8.643846474400715e-10]",0.002,7,1
0,-1,"[2.6408515623188578e-06, -1.5694901867867266, 0.005681816731588185, 4.734077048465171, -0.0017645994769495132, 0.0010976542253047228]","[0.0, -0.00021285074763000011, -0.0005960611160844564, -0.49751436710357666, 0.00015814873040653765, -8.035199425648898e-05]","[0.0, -1.5707963267948966, 0.0, 0.0, 0.0, 0.0]","[0.0, -1.5707963267948966, 0.0, 0.0, 0.0, 0.0]","[0.00023125000251162276, -0.23934689067121956, -0.18456876758725776, -0.05515879040594168, 0.016642297630365382, -8.760054864749544e-10]",0.002,7,1
