Arnibjarnst/BoxLift/logs/ur_rtde/trajectory_dur=7.5_delay=0.2_gain=100_lh=0.05_real.csv
arm_idx,step,actual_q,actual_qd,target_q,expected_q,loop_time,robot_mode,safety_mode
0,-1,"[0.03252167999744415, -1.5383121532252808, 0.032561604176656544, 0.03257994234051509, 0.03266170993447304, 0.03256860375404358]","[-0.04732584208250046, -0.04895282909274101, -0.047617923468351364, -0.04528791457414627, -0.045582596212625504, -0.045564666390419006]","[0.0, -1.5707963267948966, 0.0, 0.0, 0.0, 0.0]","[0.0, -1.5707963267948966, 0.0, 0.0, 0.0, 0.0]",0.002,7,1
0,-1,"[0.03168349713087082, -1.5392850835672398, 0.03165561357607061, 0.03171972810711665, 0.0317167304456234, 0.031745631247758865]","[-0.06423652917146683, -0.06493786722421646, -0.0619313083589077, -0.06142229214310646, -0.062265560030937195, -0.061937831342220306]","[0.0, -1.5707963267948966, 0.0, 0.0, 0.0, 0.0]","[0.0, -1.5707963267948966, 0.0, 0.0, 0.0, 0.0]",0.002,7,1
0,-1,"[0.030680129304528236, -1.5402696275017043, 0.030638996754781544, 0.030726833934448194, 0.030775463208556175, 0.03077409230172634]","[-0.07677935808897018, -0.07840149849653244, -0.0726899653673172, -0.07664190232753754, -0.07597697526216507, -0.07518008351325989]","[0.0, -1.5707963267948966, 0.0, 0.0, 0.0, 0.0]","[0.0, -1.5707963267948966, 0.0, 0.0, 0.0, 0.0]",0.002,7,1
0,-1,"[0.030042026191949844, -1.540893118163087, 0.030031506215230763, 0.030142350787780714, 0.030177926644682884, 0.030129268765449524]","[-0.08557531237602234, -0.0823112279176712, -0.08175080269575119, -0.0835404098033905, -0.08523315191268921, -0.08364617079496384]","[0.0, -1.5707963267948966, 0.0, 0.0, 0.0, 0.0]","[0.0, -1.5707963267948966, 0.0, 0.0, 0.0, 0.0]",0.002,7,1
0,-1,"[0.029135337099432945, -1.5418258302709837, 0.029138867055074513, 0.02920202791180415, 0.029241235926747322, 0.02918141894042492]","[-0.09582707285881042, -0.09124781936407089, -0.0923922210931778, -0.09480404853820801, -0.09731809049844742, -0.0982227697968483]","[0.0, -1.5707963267948966, 0.0, 0.0, 0.0, 0.0]","[0.0, -1.5707963267948966, 0.0, 0.0, 0.0, 0.0]",0.002,7,1
0,-1,"[0.02831273339688778, -1.54260276563976, 0.02834636369814092, 0.028424544925353956, 0.028363628312945366, 0.02834203466773033]","[-0.10237308591604233, -0.09690521657466888, -0.10005718469619751, -0.10273827612400055, -0.1071765348315239, -0.10396440327167511]","[0.0, -1.5707963267948966, 0.0, 0.0, 0.0, 0.0]","[0.0, -1.5707963267948966, 0.0, 0.0, 0.0, 0.0]",0.002,7,1
0,-1,"[0.02653110772371292, -1.544350142856576, 0.026606384907857716, 0.02659873544659419, 0.026541676372289658, 0.026517901569604874]","[-0.1183788850903511, -0.11307483166456223, -0.11907146871089935, -0.11889378726482391, -0.11660825461149216, -0.11779531091451645]","[0.0, -1.5707963267948966, 0.0, 0.0, 0.0, 0.0]","[0.0, -1.5707963267948966, 0.0, 0.0, 0.0, 0.0]",0.002,7,1
0,-1,"[0.025106806308031082, -1.5457976044020434, 0.0250781218158167, 0.025079889888427687, 0.02502487041056156, 0.025011982768774033]","[-0.13328677415847778, -0.12636451423168182, -0.12952400743961334, -0.1310117244720459, -0.12994958460330963, -0.13251063227653503]","[0.0, -1.5707963267948966, 0.0, 0.0, 0.0, 0.0]","[0.0, -1.5707963267948966, 0.0, 0.0, 0.0, 0.0]",0.002,7,1
0,-1,"[0.02342161349952221, -1.5474742960980912, 0.023505989705220998, 0.023503108615539503, 0.02335452102124691, 0.023353690281510353]","[-0.14301609992980957, -0.13793371617794037, -0.14085280895233154, -0.14431405067443848, -0.14029793441295624, -0.14048689603805542]","[0.0, -1.5707963267948966, 0.0, 0.0, 0.0, 0.0]","[0.0, -1.5707963267948966, 0.0, 0.0, 0.0, 0.0]",0.002,7,1
0,-1,"[0.021351518109440804, -1.5495710906437417, 0.021442238484517873, 0.021431728000305128, 0.021249299868941307, 0.02125474438071251]","[-0.1577993631362915, -0.15262572467327118, -0.156222864985466, -0.15989847481250763, -0.1554204225540161, -0.15606826543807983]","[0.0, -1.5707963267948966, 0.0, 0.0, 0.0, 0.0]","[0.0, -1.5707963267948966, 0.0, 0.0, 0.0, 0.0]",0.002,7,1
0,-1,"[0.01868404820561409, -1.5522245944342394, 0.018693272267476857, 0.018806739444396925, 0.018653059378266335, 0.018664220348000526]","[-0.17248423397541046, -0.17016009986400604, -0.1720447987318039, -0.17617526650428772, -0.1715364009141922, -0.17128749191761017]","[0.0, -1.5707963267948966, 0.0, 0.0, 0.0, 0.0]","[0.0, -1.5707963267948966, 0.0, 0.0, 0.0, 0.0]",0.002,7,1
0,-1,"[0.017206458374857903, -1.553646470685937, 0.017381970082418263, 0.01736716806378169, 0.017288625240325928, 0.017234358936548233]","[-0.18138913810253143, -0.1744537204504013, -0.179702490568161, -0.18571880459785461, -0.18066905438899994, -0.17941854894161224]","[0.0, -1.5707963267948966, 0.0, 0.0, 0.0, 0.0]","[0.0, -1.5707963267948966, 0.0, 0.0, 0.0, 0.0]",0.002,7,1
0,-1,"[0.01503173541277647, -1.5555795228904863, 0.0152514616595667, 0.015180869693420362, 0.01514725387096405, 0.015062374994158745]","[-0.17855864763259888, -0.13400264084339142, -0.15849356353282928, -0.17280961573123932, -0.17198391258716583, -0.1698145717382431]","[0.0, -1.5707963267948966, 0.0, 0.0, 0.0, 0.0]","[0.0, -1.5707963267948966, 0.0, 0.0, 0.0, 0.0]",0.002,7,1
0,-1,"[0.012019183486700058, -1.5584594479626794, 0.012373749409810841, 0.01216702043499751, 0.012250932864844799, 0.012151272036135197]","[-0.1555342674255371, -0.15771570801734924, -0.16026727855205536, -0.15618449449539185, -0.15606538951396942, -0.15667416155338287]","[0.0, -1.5707963267948966, 0.0, 0.0, 0.0, 0.0]","[0.0, -1.5707963267948966, 0.0, 0.0, 0.0, 0.0]",0.002,7,1
0,-1,"[0.010297245346009731, -1.560144987223186, 0.010518376027242482, 0.010336681003234816, 0.010387388989329338, 0.010426563210785389]","[-0.1433916985988617, -0.14374391734600067, -0.14573511481285095, -0.1457158774137497, -0.14856675267219543, -0.14514067769050598]","[0.0, -1.5707963267948966, 0.0, 0.0, 0.0, 0.0]","[0.0, -1.5707963267948966, 0.0, 0.0, 0.0, 0.0]",0.002,7,1
0,-1,"[0.007877630181610584, -1.5624831479838868, 0.008093182240621388, 0.007926269168518019, 0.008057725615799427, 0.008065005764365196]","[-0.12577258050441742, -0.12824228405952454, -0.12786191701889038, -0.12591689825057983, -0.12736766040325165, -0.12877289950847626]","[0.0, -1.5707963267948966, 0.0, 0.0, 0.0, 0.0]","[0.0, -1.5707963267948966, 0.0, 0.0, 0.0, 0.0]",0.002,7,1
0,-1,"[0.005969657097011805, -1.5644645265168329, 0.006180111561910451, 0.0059955555149535655, 0.00616001570597291, 0.006120926234871149]","[-0.10958141833543777, -0.1144494041800499, -0.11179839819669724, -0.1101214662194252, -0.10830017179250717, -0.11380400508642197]","[0.0, -1.5707963267948966, 0.0, 0.0, 0.0, 0.0]","[0.0, -1.5707963267948966, 0.0, 0.0, 0.0, 0.0]",0.002,7,1
0,-1,"[0.003281580051407218, -1.567234592312463, 0.0033896605121057632, 0.0033269363590697765, 0.00338912894949317, 0.003413818310946226]","[-0.08142146468162537, -0.08799400925636292, -0.0873299315571785, -0.08295278996229172, -0.08220517635345459, -0.08416609466075897]","[0.0, -1.5707963267948966, 0.0, 0.0, 0.0, 0.0]","[0.0, -1.5707963267948966, 0.0, 0.0, 0.0, 0.0]",0.002,7,1
0,-1,"[0.002567492425441742, -1.5681150602507223, 0.0025981108294885757, 0.002543492908142042, 0.0026362754870206118, 0.0026642822194844484]","[-0.0698414072394371, -0.07934605330228806, -0.073647141456604, -0.07030506432056427, -0.07265162467956543, -0.07323023676872253]","[0.0, -1.5707963267948966, 0.0, 0.0, 0.0, 0.0]","[0.0, -1.5707963267948966, 0.0, 0.0, 0.0, 0.0]",0.002,7,1
0,-1,"[0.001730407471768558, -1.5689819269212713, 0.0017731825457971695, 0.001793189639709425, 0.0017979840049520135, 0.00181404163595289]","[-0.060036394745111465, -0.0681154876947403, -0.062133632600307465, -0.058906782418489456, -0.06231173500418663, -0.060822173953056335]","[0.0, -1.5707963267948966, 0.0, 0.0, 0.0, 0.0]","[0.0, -1.5707963267948966, 0.0, 0.0, 0.0, 0.0]",0.002,7,1
0,-1,"[0.0011665821075439453, -1.5697093867095937, 0.0010765234576624039, 0.001128836269042921, 0.0011756302556023002, 0.0011679818853735924]","[-0.048176344484090805, -0.05279288813471794, -0.04960249364376068, -0.04771276190876961, -0.048611488193273544, -0.05000458285212517]","[0.0, -1.5707963267948966, 0.0, 0.0, 0.0, 0.0]","[0.0, -1.5707963267948966, 0.0, 0.0, 0.0, 0.0]",0.002,7,1
0,-1,"[0.0005965285236015916, -1.5702191099156444, 0.0006096998797815445, 0.000630183810852003, 0.0006947053479962051, 0.0007015993469394743]","[-0.035927850753068924, -0.03882008418440819, -0.03718720003962517, -0.037962619215250015, -0.0366949662566185, -0.03562023863196373]","[0.0, -1.5707963267948966, 0.0, 0.0, 0.0, 0.0]","[0.0, -1.5707963267948966, 0.0, 0.0, 0.0, 0.0]",0.002,7,1
0,-1,"[0.00036843609996140003, -1.5704906094218423, 0.0003584066974084976, 0.0004009443470458507, 0.00035555195063352585, 0.00040027403156273067]","[-0.026466993615031242, -0.029780637472867966, -0.028477897867560387, -0.028642108663916588, -0.028640059754252434, -0.029382245615124702]","[0.0, -1.5707963267948966, 0.0, 0.0, 0.0, 0.0]","[0.0, -1.5707963267948966, 0.0, 0.0, 0.0, 0.0]",0.002,7,1
0,-1,"[0.00014961027773097157, -1.570732028947834, 0.00013047853578740387, 0.00013522684063715928, 0.00016260147094726562, 0.00020694732666015625]","[-0.018800875172019005, -0.019543539732694626, -0.018727490678429604, -0.018376966938376427, -0.01849748007953167, -0.01901308447122574]","[0.0, -1.5707963267948966, 0.0, 0.0, 0.0, 0.0]","[0.0, -1.5707963267948966, 0.0, 0.0, 0.0, 0.0]",0.002,7,1
0,-1,"[1.9037723177461885e-05, -1.5708862743773402, -9.452462109038606e-06, 4.9515361450147566e-05, 2.7331829187460244e-05, 0.0001122865651268512]","[-0.005208147224038839, -0.006017697975039482, -0.005186467431485653, -0.00555935874581337, -0.005906427279114723, -0.005186180584132671]","[0.0, -1.5707963267948966, 0.0, 0.0, 0.0, 0.0]","[0.0, -1.5707963267948966, 0.0, 0.0, 0.0, 0.0]",0.002,7,1
0,-1,"[0.00011972856736974791, -1.570869585076803, -5.940319169894792e-06, 7.645666088862413e-05, 3.6588193324860185e-05, 0.00013604163541458547]","[0.00520029291510582, -0.014114066027104855, -0.0009860560530796647, 0.0035449874121695757, 0.0037249592132866383, 0.003332743188366294]","[0.0, -1.5707963267948966, 0.0, 0.0, 0.0, 0.0]","[0.0, -1.5707963267948966, 0.0, 0.0, 0.0, 0.0]",0.002,7,1
0,-1,"[9.104013588512316e-05, -1.5708323917784632, 8.885060445606996e-06, 8.956968273921007e-05, 2.8915645089000463e-05, 7.067585102049634e-05]","[0.00017416183254681528, 0.012199723161756992, 0.0025509505067020655, -0.00025917007587850094, 0.00042503466829657555, 0.0006867338670417666]","[0.0, -1.5707963267948966, 0.0, 0.0, 0.0, 0.0]","[0.0, -1.5707963267948966, 0.0, 0.0, 0.0, 0.0]",0.002,7,1
0,-1,"[8.370327850570902e-05, -1.570778564815857, -8.58306884765625e-06, 7.553691528272566e-06, 7.82012939453125e-05, 7.858276512706652e-05]","[0.00025194312911480665, 0.0042265839874744415, 0.00034085442894138396, -0.002501513808965683, -0.00013072935689706355, 0.00012435186363290995]","[0.0, -1.5707963267948966, 0.0, 0.0, 0.0, 0.0]","[0.0, -1.5707963267948966, 0.0, 0.0, 0.0, 0.0]",0.002,7,1
0,-1,"[9.862230945145711e-05, -1.5707621526347175, 2.080598940068512e-05, 7.323801007075303e-05, 1.2595894077094272e-05, 9.168720134766772e-05]","[1.4692520212416398e-15, 0.0014954105718061328, 0.0010159319499507546, 6.92271839852765e-07, -0.000539320579264313, 3.77565312348338e-09]","[0.0, -1.5707963267948966, 0.0, 0.0, 0.0, 0.0]","[0.0, -1.5707963267948966, 0.0, 0.0, 0.0, 0.0]",0.002,7,1
0,-1,"[8.370327850570902e-05, -1.5707516268306172, 6.133714784795075e-05, 4.403173413081163e-05, 0.00010397147707408294, 7.221698615467176e-05]","[8.568210410942086e-27, 0.001150936004705727, 0.0005173885147087276, 5.3637829448187693e-14, -0.0006417627446353436, -0.0002211822138633579]","[0.0, -1.5707963267948966, 0.0, 0.0, 0.0, 0.0]","[0.0, -1.5707963267948966, 0.0, 0.0, 0.0, 0.0]",0.002,7,1
0,-1,"[3.694542101584375e-05, -1.5707591428802807, 2.843538393193512e-05, 3.962099041743272e-05, 3.4677981602726504e-05, 5.8841706049861386e-05]","[4.996704101499803e-38, 0.00018150055257137865, 0.0003285012498963624, -0.0003848588094115257, -0.001037933281622827, -0.0005804359680041671]","[0.0, -1.5707963267948966, 0.0, 0.0, 0.0, 0.0]","[0.0, -1.5707963267948966, 0.0, 0.0, 0.0, 0.0]",0.002,7,1
0,-1,"[0.00012881278234999627, -1.5707830200311328, 6.6105519429982e-05, 4.069387402338975e-05, -1.1269246236622621e-05, 3.4999848139705136e-05]","[0.0, 7.042383169675315e-12, 0.00020054540073033422, -0.00044100123341195285, -0.0007845740183256567, -0.0005988336051814258]","[0.0, -1.5707963267948966, 0.0, 0.0, 0.0, 0.0]","[0.0, -1.5707963267948966, 0.0, 0.0, 0.0, 0.0]",0.002,7,1
0,-1,"[6.246566772460938e-05, -1.570778564815857, 8.231798280888825e-05, 5.7025546691846785e-05, 7.067919068504125e-05, 3.933906555175781e-05]","[0.0, 4.106892860747817e-23, 0.0001582324766786769, -0.00044505888945423067, -0.0008239546441473067, -0.0008013871847651899]","[0.0, -1.5707963267948966, 0.0, 0.0, 0.0, 0.0]","[0.0, -1.5707963267948966, 0.0, 0.0, 0.0, 0.0]",0.002,7,1
0,-1,"[7.146846473915502e-05, -1.5707739382927066, 2.080598940068512e-05, -1.306951556401259e-05, 3.77132892026566e-05, 6.493569344456773e-06]","[0.0, -0.00014872349856887013, 0.00013066477549728006, -0.00046733260387554765, -0.0006860402645543218, -0.000701679615303874]","[0.0, -1.5707963267948966, 0.0, 0.0, 0.0, 0.0]","[0.0, -1.5707963267948966, 0.0, 0.0, 0.0, 0.0]",0.002,7,1
0,-1,"[7.458878826582804e-05, -1.570778564815857, 5.8476124898731996e-05, 2.3408527038526472e-05, 3.907680365955457e-05, 3.066063072765246e-05]","[0.0, -4.160159439159372e-10, 0.00011127805191790685, -0.0006281561800278723, -0.0005644703633151948, -0.0009384337463416159]","[0.0, -1.5707963267948966, 0.0, 0.0, 0.0, 0.0]","[0.0, -1.5707963267948966, 0.0, 0.0, 0.0, 0.0]",0.002,7,1
0,-1,"[9.562420746078715e-05, -1.570709483440016, 7.802644838506012e-05, 7.553691528272566e-06, -4.4171010152638246e-05, 3.169774936395697e-05]","[0.0, 0.0007695441599935293, 9.690058504929766e-05, -0.0006506001227535307, -0.0005351397558115423, -0.0006926794303581119]","[0.0, -1.5707963267948966, 0.0, 0.0, 0.0, 0.0]","[0.0, -1.5707963267948966, 0.0, 0.0, 0.0, 0.0]",0.002,7,1
0,-1,"[6.695985939586535e-05, -1.5707094050706765, 4.083315004521637e-05, -1.1485866089344654e-06, -6.500874654591371e-06, 1.0919571650447324e-05]","[0.0, 0.0004616045334842056, 0.00010297619155608118, -0.0004990031011402607, -0.0003999611362814903, -0.0006916308775544167]","[0.0, -1.5707963267948966, 0.0, 0.0, 0.0, 0.0]","[0.0, -1.5707963267948966, 0.0, 0.0, 0.0, 0.0]",0.002,7,1
0,-1,"[7.011890556896105e-05, -1.5707711950565972, 7.468858827763825e-05, -3.679216418461806e-05, -2.209340230763246e-06, -4.274049867802887e-05]","[0.0, -0.00015038650599308312, 7.32431435608305e-05, -0.00037268121377564967, -0.00031080367625690997, -0.00033870668266899884]","[0.0, -1.5707963267948966, 0.0, 0.0, 0.0, 0.0]","[0.0, -1.5707963267948966, 0.0, 0.0, 0.0, 0.0]",0.002,7,1
0,-1,"[7.46434016036801e-05, -1.5708114109435023, 2.080598940068512e-05, -2.0460491516161028e-05, -4.9893056051075746e-05, -5.070363179981996e-06]","[0.0, -0.0006264357944019139, 5.338153277989477e-05, -0.0002987561165355146, -0.00027301922091282904, -0.0002799523645080626]","[0.0, -1.5707963267948966, 0.0, 0.0, 0.0, 0.0]","[0.0, -1.5707963267948966, 0.0, 0.0, 0.0, 0.0]",0.002,7,1
0,-1,"[6.0998409026069567e-05, -1.5707951621887624, 4.941621889287262e-05, 2.507745709223741e-05, 2.5894862119457684e-05, 6.56347256153822e-05]","[0.0, -0.0005459945532493293, 3.6765246477443725e-05, -0.00026168374461121857, -0.00022319676645565778, -0.0002491030900273472]","[0.0, -1.5707963267948966, 0.0, 0.0, 0.0, 0.0]","[0.0, -1.5707963267948966, 0.0, 0.0, 0.0, 0.0]",0.002,7,1
0,-1,"[0.00010317364649381489, -1.5707951500283635, 4.178682436162262e-05, 6.155549969477647e-05, 2.000076165131759e-06, 2.845001290552318e-05]","[0.0, -7.653676584595814e-05, 4.47523889306467e-05, -0.00023169178166426718, -0.0001427657261956483, -0.0001950979931280017]","[0.0, -1.5707963267948966, 0.0, 0.0, 0.0, 0.0]","[0.0, -1.5707963267948966, 0.0, 0.0, 0.0, 0.0]",0.002,7,1
0,-1,"[5.054473876953125e-05, -1.5706930259514884, 3.701845277959137e-05, 2.0785922668409285e-05, 2.035751094808802e-06, 3.15189354296308e-05]","[-0.00018993797129951417, -2.333781090472012e-14, 4.164799247519113e-05, -0.00016780955775175244, -0.0001662983268033713, -0.00016452484123874456]","[0.0, -1.5707963267948966, 0.0, 0.0, 0.0, 0.0]","[0.0, -1.5707963267948966, 0.0, 0.0, 0.0, 0.0]",0.002,7,1
0,-1,"[7.920308416942134e-05, -1.5707425636104126, 0.00011474290956670075, 1.649438824458116e-05, 3.173985533067025e-05, 3.337860107421875e-06]","[-0.0002096982643706724, 0.0005218727746978402, 9.97265669866465e-06, -0.00010866143566090614, -0.0001640555856283754, -0.00016237780801020563]","[0.0, -1.5707963267948966, 0.0, 0.0, 0.0, 0.0]","[0.0, -1.5707963267948966, 0.0, 0.0, 0.0, 0.0]",0.002,7,1
0,-1,"[3.399250635993667e-05, -1.570718528539448, 5.3707753316700746e-05, 1.649438824458116e-05, -8.885060445606996e-06, -8.885060445606996e-06]","[-0.00028792544617317617, 0.00017080090765375644, 1.205844045452896e-21, -5.208976654103026e-05, -0.00013708739425055683, -0.00013510300777852535]","[0.0, -1.5707963267948966, 0.0, 0.0, 0.0, 0.0]","[0.0, -1.5707963267948966, 0.0, 0.0, 0.0, 0.0]",0.002,7,1
0,-1,"[5.7869434385793284e-05, -1.5707740377241244, -7.226924481074093e-06, 2.4481410644483503e-05, 3.910064697265625e-05, 3.337860107421875e-06]","[-0.00021813507191836834, -0.00023381375649478287, 7.032097406786783e-33, -3.866020415443927e-05, -0.00012303204857744277, -0.0001214316944242455]","[0.0, -1.5707963267948966, 0.0, 0.0, 0.0, 0.0]","[0.0, -1.5707963267948966, 0.0, 0.0, 0.0, 0.0]",0.002,7,1
0,-1,"[6.861137808300555e-05, -1.5708395443358363, 3.0199159795074593e-07, 4.573459289503035e-06, 8.108853944577277e-05, 1.0919571650447324e-05]","[-0.0002265970833832398, -0.0003983757342211902, 0.0, -2.972170477733016e-05, -0.00010988810390699655, -0.00010860927432077006]","[0.0, -1.5707963267948966, 0.0, 0.0, 0.0, 0.0]","[0.0, -1.5707963267948966, 0.0, 0.0, 0.0, 0.0]",0.002,7,1
0,-1,"[5.9614139900077134e-05, -1.5707876253357718, 4.941621889287262e-05, 4.069387402338975e-05, -1.3176594869435121e-05, 7.763863322907127e-06]","[-0.00019594344485085458, -0.00022168603027239442, -0.0, -5.0988477596547455e-05, -0.00010209669562755153, -0.00010099223436554894]","[0.0, -1.5707963267948966, 0.0, 0.0, 0.0, 0.0]","[0.0, -1.5707963267948966, 0.0, 0.0, 0.0, 0.0]",0.002,7,1
0,-1,"[2.947127904917579e-05, -1.5706795165136391, 3.2726918355763246e-05, 1.2083644531202253e-05, -1.732503072560121e-06, -3.8448964254200746e-05]","[-0.0006863494636490941, 0.0001100581866921857, -0.0, -4.3602794903563336e-05, -9.409137419424951e-05, -9.315244824392721e-05]","[0.0, -1.5707963267948966, 0.0, 0.0, 0.0, 0.0]","[0.0, -1.5707963267948966, 0.0, 0.0, 0.0, 0.0]",0.002,7,1
0,-1,"[5.206799687584862e-05, -1.5707380425813717, 6.705919374638825e-05, -2.4990444519090715e-05, -2.209340230763246e-06, -2.080598940068512e-05]","[-0.0005215986748225987, 0.00015640306810382754, -0.0, -3.8069360016379505e-05, -8.725025691092014e-05, -5.996304389555007e-05]","[0.0, -1.5707963267948966, 0.0, 0.0, 0.0, 0.0]","[0.0, -1.5707963267948966, 0.0, 0.0, 0.0, 0.0]",0.002,7,1
0,-1,"[-6.024037496388246e-06, -1.5707830590057092, 2.080598940068512e-05, -3.238142047123915e-05, -1.0792409078419496e-05, 2.8450011086533777e-05]","[-0.00020476494682952762, 5.3897019824944437e-05, -0.0, -4.796779830940068e-05, -5.193356173549546e-06, -5.351846994017251e-05]","[0.0, -1.5707963267948966, 0.0, 0.0, 0.0, 0.0]","[0.0, -1.5707963267948966, 0.0, 0.0, 0.0, 0.0]",0.002,7,1
0,-1,"[5.054473876953125e-05, -1.5707395527645822, 7.039705385381012e-05, -2.0460491516161028e-05, -1.5083943502247621e-05, -1.7468129293263246e-05]","[-0.0001305220794165507, 1.018327368572687e-23, -0.0, -5.431317913462408e-05, -7.313171624391547e-18, -3.533458858839822e-09]","[0.0, -1.5707963267948966, 0.0, 0.0, 0.0, 0.0]","[0.0, -1.5707963267948966, 0.0, 0.0, 0.0, 0.0]",0.002,7,1
0,-1,"[7.602905679959804e-05, -1.5708157024779261, 6.133714784795075e-05, -5.7534580566454e-05, -1.3176594869435121e-05, -1.7468129293263246e-05]","[-0.00010117554484168068, 1.0689218191045315e-38, -0.0, -6.652165757259354e-05, -2.415638269869517e-27, -1.1671483287947187e-18]","[0.0, -1.5707963267948966, 0.0, 0.0, 0.0, 0.0]","[0.0, -1.5707963267948966, 0.0, 0.0, 0.0, 0.0]",0.002,7,1
0,-1,"[5.049044921179302e-05, -1.5707756981067469, 3.2726918355763246e-05, -2.7970676757860247e-05, 2.276897430419922e-05, -1.3176594869435121e-05]","[-2.4192218916141428e-05, -8.364286770898277e-16, -0.0, -5.796241748612374e-05, -3.4016478182531005e-39, -1.643552691432706e-30]","[0.0, -1.5707963267948966, 0.0, 0.0, 0.0, 0.0]","[0.0, -1.5707963267948966, 0.0, 0.0, 0.0, 0.0]",0.002,7,1
0,-1,"[5.054473876953125e-05, -1.570689995173172, 4.5124684469044496e-05, -2.0460491516161028e-05, -7.468858827763825e-05, -1.7468129293263246e-05]","[-2.0832269001402892e-05, -4.877784666408075e-27, -0.0, -5.380430957302451e-05, -0.0, -1.2734390598692263e-37]","[0.0, -1.5707963267948966, 0.0, 0.0, 0.0, 0.0]","[0.0, -1.5707963267948966, 0.0, 0.0, 0.0, 0.0]",0.002,7,1
0,-1,"[6.246566772460938e-05, -1.5707591580215485, 2.5097523824513246e-05, -2.940118823246962e-05, 1.098538632504642e-05, -7.788287561538709e-07]","[-1.9066921595367603e-05, -1.5803444775613203e-34, -0.0, -5.134852108312771e-05, -0.0, -2.3149450630645978e-42]","[0.0, -1.5707963267948966, 0.0, 0.0, 0.0, 0.0]","[0.0, -1.5707963267948966, 0.0, 0.0, 0.0, 0.0]",0.002,7,1
0,-1,"[2.658367156982422e-05, -1.5707621886725356, 8.885060445606996e-06, 4.454249999952253e-06, 1.9872833945555612e-05, -2.5097523824513246e-05]","[-1.7240676243091002e-05, -6.866362475191604e-44, -0.0, -2.116613870839501e-07, -0.0, -0.0]","[0.0, -1.5707963267948966, 0.0, 0.0, 0.0, 0.0]","[0.0, -1.5707963267948966, 0.0, 0.0, 0.0, 0.0]",0.002,7,1
0,-1,"[5.486250302055851e-06, -1.5707830861150178, 3.701845277959137e-05, -1.1758213378953997e-05, -2.652803529912262e-05, -3.415742983037262e-05]","[-1.5463376257685013e-05, -8.290049299830571e-05, -0.0, -1.6399711517717415e-14, -0.0, -0.0]","[0.0, -1.5707963267948966, 0.0, 0.0, 0.0, 0.0]","[0.0, -1.5707963267948966, 0.0, 0.0, 0.0, 0.0]",0.002,7,1
0,-1,"[5.2067993237869814e-05, -1.570790568917193, 7.039705385381012e-05, -4.430234942631728e-05, -1.9375477926075746e-05, 1.955393781827297e-05]","[-1.4018261936143972e-05, -6.495185516541824e-05, -0.0, -1.2706641275679569e-21, -0.0, -0.0]","[0.0, -1.5707963267948966, 0.0, 0.0, 0.0, 0.0]","[0.0, -1.5707963267948966, 0.0, 0.0, 0.0, 0.0]",0.002,7,1
0,-1,"[1.7526388546684757e-05, -1.5707335094233095, 0.0, -2.4990444519090715e-05, -2.175966371709137e-05, 1.52587890625e-05]","[-1.2294781299715396e-05, -4.902895670966245e-05, -0.0, -2.7404543715797784e-32, -0.0, -0.0]","[0.0, -1.5707963267948966, 0.0, 0.0, 0.0, 0.0]","[0.0, -1.5707963267948966, 0.0, 0.0, 0.0, 0.0]",0.002,7,1
0,-1,"[9.350778782390989e-07, -1.5707740467590448, -1.1704877579177264e-05, -1.1758213378953997e-05, 2.384185791015625e-06, -1.7468129293263246e-05]","[-2.272679193993099e-05, -2.1916237528785132e-05, -0.0, -2.1233273071574293e-39, -1.8172900684287896e-10, -0.0]","[0.0, -1.5707963267948966, 0.0, 0.0, 0.0, 0.0]","[0.0, -1.5707963267948966, 0.0, 0.0, 0.0, 0.0]",0.002,7,1
0,-1,"[9.350787877338007e-07, -1.570778564815857, 7.325807680302887e-05, -5.7415371276903215e-05, -2.652803529912262e-05, -2.9865895406544496e-05]","[-3.0206050723791122e-05, -1.742756285239011e-05, -0.0, -0.0, -3.919368746486993e-21, -0.0]","[0.0, -1.5707963267948966, 0.0, 0.0, 0.0, 0.0]","[0.0, -1.5707963267948966, 0.0, 0.0, 0.0, 0.0]",0.002,7,1
0,-1,"[3.395342719159089e-05, -1.5707785468878974, 2.080598940068512e-05, 1.2083644531202253e-05, 4.809856181964278e-05, 1.5241432265611365e-05]","[-1.4987839308267794e-15, -2.203175245085731e-05, -0.0, -0.0, -1.2946193244928104e-30, -0.0]","[0.0, -1.5707963267948966, 0.0, 0.0, 0.0, 0.0]","[0.0, -1.5707963267948966, 0.0, 0.0, 0.0, 0.0]",0.002,7,1
0,-1,"[5.502070052898489e-05, -1.5707740377223054, 2.5097523824513246e-05, 6.155549969477647e-05, -3.415742983037262e-05, -1.3176594869435121e-05]","[-4.855883158097148e-23, -2.0066812794539146e-05, -0.0, -0.0, -2.352909211457979e-35, -0.0]","[0.0, -1.5707963267948966, 0.0, 0.0, 0.0, 0.0]","[0.0, -1.5707963267948966, 0.0, 0.0, 0.0, 0.0]",0.002,7,1
0,-1,"[3.8504600524902344e-05, -1.5707712012120574, 2.080598940068512e-05, 1.6271557612412835e-07, 9.533895536151249e-06, -7.788287561538709e-07]","[-6.150544504635036e-05, -1.805414467526134e-05, -0.0, -0.0, -2.792087190167198e-41, -0.0]","[0.0, -1.5707963267948966, 0.0, 0.0, 0.0, 0.0]","[0.0, -1.5707963267948966, 0.0, 0.0, 0.0, 0.0]",0.002,7,1
0,1,"[3.564095459296368e-05, -1.570773989388119, 7.468858827763825e-05, -1.306951556401259e-05, -3.8448964254200746e-05, 2.4024218873819336e-05]","[-8.542195428162813e-05, -1.4319824913400225e-05, -0.0, -0.0, -0.0, -0.0]","[0.05879002119914294, -1.5120063055957536, 0.05879002119914294, 0.05879002119914294, 0.05879002119914294, 0.05879002119914294]","[0.05879002119914294, -1.5120063055957536, 0.05879002119914294, 0.05879002119914294, 0.05879002119914294, 0.05879002119914294]",0.002,7,1
0,2,"[7.173774974944536e-06, -1.5707740256842335, 8.885060445606996e-06, 4.454249999952253e-06, -2.652803529912262e-05, 7.767126589897089e-06]","[9.498729923507199e-06, 0.0003199496422894299, 0.00016110247815959156, -0.0, 7.706222822889686e-05, -0.0]","[0.05936660287344685, -1.5114297239214498, 0.05936660287344685, 0.05936660287344685, 0.05936660287344685, 0.05936660287344685]","[0.05936660287344685, -1.5114297239214498, 0.05936660287344685, 0.05936660287344685, 0.05936660287344685, 0.05936660287344685]",0.002,7,1
0,3,"[1.750242881826125e-05, -1.5706104219028312, 6.467500795537262e-05, 7.776796307368272e-05, 7.513946911785752e-05, 8.809352584648877e-05]","[0.024344725534319878, 0.12023351341485977, 0.08132313936948776, 0.041661884635686874, 0.03617214784026146, 0.036373913288116455]","[0.05994301779578886, -1.5108533089991076, 0.05994301779578886, 0.05994301779578886, 0.05994301779578886, 0.05994301779578886]","[0.05994301779578886, -1.5108533089991076, 0.05994301779578886, 0.05994301779578886, 0.05994301779578886, 0.05994301779578886]",0.002,7,1
0,4,"[0.00012135696306359023, -1.5704138115146016, 0.0002320448504846695, 0.00020234167065424913, 0.00022533177980221808, 0.00021361875406000763]","[0.03230609372258186, 0.1432199627161026, 0.09798841923475266, 0.06593921780586243, 0.057350706309080124, 0.0581417977809906]","[0.06051926434710513, -1.5102770624477915, 0.06051926434710513, 0.06051926434710513, 0.06051926434710513, 0.06051926434710513]","[0.06051926434710513, -1.5102770624477915, 0.06051926434710513, 0.06051926434710513, 0.06051926434710513, 0.06051926434710513]",0.002,7,1
0,5,"[0.00019630920724011958, -1.5702339497841713, 0.0004003683673303726, 0.0002979475208739757, 0.0003377461398486048, 0.0003129614342469722]","[0.037077512592077255, 0.1374460607767105, 0.09668462723493576, 0.06769616156816483, 0.06529375165700912, 0.06262975931167603]","[0.06109534090880478, -1.5097009858860917, 0.06109534090880478, 0.06109534090880478, 0.06109534090880478, 0.06109534090880478]","[0.06109534090880478, -1.5097009858860917, 0.06109534090880478, 0.06109534090880478, 0.06109534090880478, 0.06109534090880478]",0.002,7,1
0,6,"[0.0002710699918679893, -1.57002697585661, 0.0005629698382776382, 0.00036565839733881944, 0.00048672675620764494, 0.00042534113163128495]","[0.05133553594350815, 0.1355479657649994, 0.09818176180124283, 0.0668756365776062, 0.07194679230451584, 0.06813713908195496]","[0.061671245862774365, -1.5091250809321222, 0.061671245862774365, 0.061671245862774365, 0.061671245862774365, 0.061671245862774365]","[0.061671245862774365, -1.5091250809321222, 0.061671245862774365, 0.061671245862774365, 0.061671245862774365, 0.061671245862774365]",0.002,7,1
0,7,"[0.0005189293879084289, -1.5696833656732743, 0.000939671193258107, 0.0004766422459105968, 0.0005904698045924306, 0.0005656227585859597]","[0.06625647097826004, 0.13980722427368164, 0.1094408854842186, 0.07395439594984055, 0.07683435827493668, 0.07369190454483032]","[0.06224697759138249, -1.508549349203514, 0.06224697759138249, 0.06224697759138249, 0.06224697759138249, 0.06224697759138249]","[0.06224697759138249, -1.508549349203514, 0.06224697759138249, 0.06224697759138249, 0.06224697759138249, 0.06224697759138249]",0.002,7,1
0,8,"[0.0006374139920808375, -1.569407351580896, 0.0011580626117151382, 0.0007232862659911632, 0.0007270605419762433, 0.0007785785128362477]","[0.08589307218790054, 0.1442141979932785, 0.1191776841878891, 0.08464930951595306, 0.08488285541534424, 0.0851229578256607]","[0.06282253447748433, -1.5079737923174121, 0.06282253447748433, 0.06282253447748433, 0.06282253447748433, 0.06282253447748433]","[0.06282253447748433, -1.5079737923174121, 0.06282253447748433, 0.06282253447748433, 0.06282253447748433, 0.06282253447748433]",0.002,7,1
0,9,"[0.0008924538851715624, -1.5691570845995848, 0.0014031569110315445, 0.0009463268467406749, 0.0009074473055079579, 0.0009212798904627562]","[0.10102932900190353, 0.13032028079032898, 0.11055876314640045, 0.10034868866205215, 0.09599565714597702, 0.0968809723854065]","[0.06339791490442616, -1.5073984118904704, 0.06339791490442616, 0.06339791490442616, 0.06339791490442616, 0.06339791490442616]","[0.06339791490442616, -1.5073984118904704, 0.06339791490442616, 0.06339791490442616, 0.06339791490442616, 0.06339791490442616]",0.002,7,1
0,10,"[0.0011354050366207957, -1.5689199589290475, 0.0015443007098596695, 0.0011944013782958507, 0.0010636114748194814, 0.0011458437656983733]","[0.11755532771348953, 0.09749805182218552, 0.10220903158187866, 0.1099829152226448, 0.10669760406017303, 0.10736552625894547]","[0.06397311725604987, -1.5068232095388467, 0.06397311725604987, 0.06397311725604987, 0.06397311725604987, 0.06397311725604987]","[0.06397311725604987, -1.5068232095388467, 0.06397311725604987, 0.06397311725604987, 0.06397311725604987, 0.06397311725604987]",0.002,7,1
0,11,"[0.0013516395119950175, -1.5687911780881514, 0.0018394629107874039, 0.0013401943394164562, 0.0013054251903668046, 0.001357412664219737]","[0.12605232000350952, 0.09302686154842377, 0.11824057996273041, 0.1250370442867279, 0.11928865313529968, 0.1195966899394989]","[0.0645481399166976, -1.506248186878199, 0.0645481399166976, 0.0645481399166976, 0.0645481399166976, 0.0645481399166976]","[0.0645481399166976, -1.506248186878199, 0.0645481399166976, 0.0645481399166976, 0.0645481399166976, 0.0645481399166976]",0.002,7,1
0,12,"[0.0015749535523355007, -1.5686066330275317, 0.0020063559161584976, 0.0016583639332274913, 0.0016194796189665794, 0.0016059753252193332]","[0.13397440314292908, 0.12603916227817535, 0.13402961194515228, 0.13184963166713715, 0.1313902586698532, 0.13006903231143951]","[0.06512298127121614, -1.5056733455236804, 0.06512298127121614, 0.06512298127121614, 0.06512298127121614, 0.06512298127121614]","[0.06512298127121614, -1.5056733455236804, 0.06512298127121614, 0.06512298127121614, 0.06512298127121614, 0.06512298127121614]",0.002,7,1
0,13,"[0.0018359741661697626, -1.5683815924315532, 0.002243820820943654, 0.001907034511230421, 0.0018914295360445976, 0.0018867510370910168]","[0.1430356353521347, 0.13858090341091156, 0.1387825906276703, 0.1395881175994873, 0.14630401134490967, 0.14216679334640503]","[0.06569763970496163, -1.505098687089935, 0.06569763970496163, 0.06569763970496163, 0.06569763970496163, 0.06569763970496163]","[0.06569763970496163, -1.505098687089935, 0.06569763970496163, 0.06569763970496163, 0.06569763970496163, 0.06569763970496163]",0.002,7,1
0,14,"[0.002078925259411335, -1.5681387365660449, 0.00248128572572881, 0.002183361644409132, 0.0021677850745618343, 0.0022440003231167793]","[0.15191824734210968, 0.1448749154806137, 0.14092671871185303, 0.14733223617076874, 0.15427666902542114, 0.15456798672676086]","[0.06627211360380393, -1.5045242131910925, 0.06627211360380393, 0.06627211360380393, 0.06627211360380393, 0.06627211360380393]","[0.06627211360380393, -1.5045242131910925, 0.06627211360380393, 0.06627211360380393, 0.06627211360380393, 0.06627211360380393]",0.002,7,1
0,15,"[0.002506825840100646, -1.5678490712637831, 0.0027645269977014664, 0.002499981517456007, 0.0025671625044196844, 0.0025557910557836294]","[0.16361775994300842, 0.1475362479686737, 0.15279291570186615, 0.1567569226026535, 0.16634954512119293, 0.16333205997943878]","[0.06684640135413125, -1.5039499254407653, 0.06684640135413125, 0.06684640135413125, 0.06684640135413125, 0.06684640135413125]","[0.06684640135413125, -1.5039499254407653, 0.06684640135413125, 0.06684640135413125, 0.06684640135413125, 0.06684640135413125]",0.002,7,1
0,16,"[0.0029090314637869596, -1.5675519234831263, 0.0031493345843713882, 0.0028269725986938, 0.002902706153690815, 0.0028502598870545626]","[0.1757032573223114, 0.15946972370147705, 0.16646552085876465, 0.17044875025749207, 0.17863143980503082, 0.17483928799629211]","[0.06742050134285471, -1.503375825452042, 0.06742050134285471, 0.06742050134285471, 0.06742050134285471, 0.06742050134285471]","[0.06742050134285471, -1.503375825452042, 0.06742050134285471, 0.06742050134285471, 0.06742050134285471, 0.06742050134285471]",0.002,7,1
0,17,"[0.0032492426689714193, -1.5672297922759135, 0.003567997609273732, 0.0032779413410644054, 0.0032695168629288673, 0.0032308795489370823]","[0.1896236538887024, 0.17050427198410034, 0.18031556904315948, 0.1842130869626999, 0.1900293380022049, 0.18583115935325623]","[0.06799441195741276, -1.5028019148374838, 0.06799441195741276, 0.06799441195741276, 0.06799441195741276, 0.06799441195741276]","[0.06799441195741276, -1.5028019148374838, 0.06799441195741276, 0.06799441195741276, 0.06799441195741276, 0.06799441195741276]",0.002,7,1
0,18,"[0.003716008272022009, -1.5669040850228448, 0.003980461751119435, 0.0036673980900268077, 0.0035671310033649206, 0.0036560101434588432]","[0.2030741274356842, 0.17996251583099365, 0.1939597725868225, 0.19993296265602112, 0.1971861720085144, 0.197719007730484]","[0.06856813158577582, -1.5022281952091208, 0.06856813158577582, 0.06856813158577582, 0.06856813158577582, 0.06856813158577582]","[0.06856813158577582, -1.5022281952091208, 0.06856813158577582, 0.06856813158577582, 0.06856813158577582, 0.06856813158577582]",0.002,7,1
0,19,"[0.004194649402052164, -1.5665051711587985, 0.0043366591082971695, 0.004120154971740675, 0.004013580270111561, 0.004087461624294519]","[0.21339310705661774, 0.18804268538951874, 0.20107504725456238, 0.2142799347639084, 0.20672883093357086, 0.20904193818569183]","[0.06914165861645073, -1.5016546681784457, 0.06914165861645073, 0.06914165861645073, 0.06914165861645073, 0.06914165861645073]","[0.06914165861645073, -1.5016546681784457, 0.06914165861645073, 0.06914165861645073, 0.06914165861645073, 0.06914165861645073]",0.002,7,1
0,20,"[0.004643358290195465, -1.5661886742203315, 0.004753891621724904, 0.004535480136535597, 0.004504661541432142, 0.004506450612097979]","[0.22263723611831665, 0.1975441575050354, 0.20934291183948517, 0.22211380302906036, 0.2196655124425888, 0.21805283427238464]","[0.06971499143848532, -1.5010813353564112, 0.06971499143848532, 0.06971499143848532, 0.06971499143848532, 0.06971499143848532]","[0.06971499143848532, -1.5010813353564112, 0.06971499143848532, 0.06971499143848532, 0.06971499143848532, 0.06971499143848532]",0.002,7,1
0,21,"[0.005012051668018103, -1.5657070733471592, 0.005117718373433888, 0.0048979955860595226, 0.004980701487511396, 0.004921649117022753]","[0.2309587448835373, 0.20557156205177307, 0.21763817965984344, 0.2280149608850479, 0.23261111974716187, 0.23018208146095276]","[0.07028812844147295, -1.5005081983534236, 0.07028812844147295, 0.07028812844147295, 0.07028812844147295, 0.07028812844147295]","[0.07028812844147295, -1.5005081983534236, 0.07028812844147295, 0.07028812844147295, 0.07028812844147295, 0.07028812844147295]",0.002,7,1
0,22,"[0.005513268522918224, -1.5653668244234105, 0.005615536366597951, 0.0053345400043944835, 0.0055276681669056416, 0.005472551565617323]","[0.24144503474235535, 0.2174961119890213, 0.22911670804023743, 0.23484531044960022, 0.2471553385257721, 0.24180449545383453]","[0.07086106801555694, -1.4999352587793395, 0.07086106801555694, 0.07086106801555694, 0.07086106801555694, 0.07086106801555694]","[0.07086106801555694, -1.4999352587793395, 0.07086106801555694, 0.07086106801555694, 0.07086106801555694, 0.07086106801555694]",0.002,7,1
0,23,"[0.0060309749096632, -1.5648612750558932, 0.0060914198504846695, 0.005961700076721144, 0.006059770472347736, 0.005914137698709965]","[0.2506486177444458, 0.22924675047397614, 0.23831424117088318, 0.24469749629497528, 0.2569805383682251, 0.2531545162200928]","[0.07143380855143525, -1.4993625182434613, 0.07143380855143525, 0.07143380855143525, 0.07143380855143525, 0.07143380855143525]","[0.07143380855143525, -1.4993625182434613, 0.07143380855143525, 0.07143380855143525, 0.07143380855143525, 0.07143380855143525]",0.002,7,1
0,24,"[0.006558907683938742, -1.5644457948258896, 0.006654087697164357, 0.006451411838195753, 0.006561539601534605, 0.006482612807303667]","[0.2613712549209595, 0.239181250333786, 0.2520281672477722, 0.25810351967811584, 0.266532301902771, 0.26283806562423706]","[0.07200634844036483, -1.4987899783545318, 0.07200634844036483, 0.07200634844036483, 0.07200634844036483, 0.07200634844036483]","[0.07200634844036483, -1.4987899783545318, 0.07200634844036483, 0.07200634844036483, 0.07200634844036483, 0.07200634844036483]",0.002,7,1
0,25,"[0.007175656035542488, -1.5639540728046377, 0.007215801869527638, 0.0071329313465575694, 0.007057828828692436, 0.007050490006804466]","[0.2726944088935852, 0.2489083707332611, 0.2635018229484558, 0.2751151919364929, 0.2726125419139862, 0.2734926640987396]","[0.07257868607416625, -1.4982176407207304, 0.07257868607416625, 0.07257868607416625, 0.07257868607416625, 0.07257868607416625]","[0.07257868607416625, -1.4982176407207304, 0.07257868607416625, 0.07257868607416625, 0.07257868607416625, 0.07257868607416625]",0.002,7,1
0,26,"[0.0076853809878230095, -1.5634122679806133, 0.007793251668111623, 0.0076750951954345226, 0.007573691662400961, 0.0076024290174245834]","[0.2845408320426941, 0.26348352432250977, 0.27768710255622864, 0.2898341119289398, 0.27943119406700134, 0.2854323089122772]","[0.07315081984522818, -1.4976455069496684, 0.07315081984522818, 0.07315081984522818, 0.07315081984522818, 0.07315081984522818]","[0.07315081984522818, -1.4976455069496684, 0.07315081984522818, 0.07315081984522818, 0.07315081984522818, 0.07315081984522818]",0.002,7,1
0,27,"[0.008258605375885963, -1.5628149540028353, 0.008258644734517873, 0.00825004159893794, 0.008162256330251694, 0.00817030668258667]","[0.2932240068912506, 0.27498504519462585, 0.2854510545730591, 0.30065879225730896, 0.29132840037345886, 0.29514279961586]","[0.07372274814651193, -1.4970735786483846, 0.07372274814651193, 0.07372274814651193, 0.07372274814651193, 0.07372274814651193]","[0.07372274814651193, -1.4970735786483846, 0.07372274814651193, 0.07372274814651193, 0.07372274814651193, 0.07372274814651193]",0.002,7,1
0,28,"[0.008893396705389023, -1.5622877118042489, 0.008814636860982716, 0.008878274554870558, 0.00884739775210619, 0.008737576194107533]","[0.3023218512535095, 0.28616902232170105, 0.2955281138420105, 0.3037137985229492, 0.3033299744129181, 0.30428817868232727]","[0.0742944693715559, -1.4965018574233406, 0.0742944693715559, 0.0742944693715559, 0.0742944693715559, 0.0742944693715559]","[0.0742944693715559, -1.4965018574233406, 0.0742944693715559, 0.0742944693715559, 0.0742944693715559, 0.0742944693715559]",0.002,7,1
0,29,"[0.009493332356214523, -1.5616547160646697, 0.009482685719625294, 0.009491844768188429, 0.009446854703128338, 0.009393632411956787]","[0.31136593222618103, 0.2960519790649414, 0.3029942512512207, 0.3079123795032501, 0.3152954876422882, 0.3153168559074402]","[0.07486598191448017, -1.4959303448804164, 0.07486598191448017, 0.07486598191448017, 0.07486598191448017, 0.07486598191448017]","[0.07486598191448017, -1.4959303448804164, 0.07486598191448017, 0.07486598191448017, 0.07486598191448017, 0.07486598191448017]",0.002,7,1
0,30,"[0.010112875141203403, -1.5610743335312982, 0.010090176259176076, 0.010173841113708448, 0.010090867057442665, 0.010035580955445766]","[0.3206223249435425, 0.3067680299282074, 0.31186002492904663, 0.31603482365608215, 0.3254416882991791, 0.3251532316207886]","[0.07543728416999097, -1.4953590426249055, 0.07543728416999097, 0.07543728416999097, 0.07543728416999097, 0.07543728416999097]","[0.07543728416999097, -1.4953590426249055, 0.07543728416999097, 0.07543728416999097, 0.07543728416999097, 0.07543728416999097]",0.002,7,1
0,31,"[0.010779104195535183, -1.5603949569961806, 0.010769192372457326, 0.010859532947204542, 0.010756723582744598, 0.010678502731025219]","[0.32904911041259766, 0.31772881746292114, 0.3225763142108917, 0.3284570574760437, 0.3339560925960541, 0.3325611650943756]","[0.07600837453338521, -1.4947879522615113, 0.07600837453338521, 0.07600837453338521, 0.07600837453338521, 0.07600837453338521]","[0.07600837453338521, -1.4947879522615113, 0.07600837453338521, 0.07600837453338521, 0.07600837453338521, 0.07600837453338521]",0.002,7,1
0,32,"[0.011470603756606579, -1.5597288713655253, 0.011404339467183888, 0.011551781291625929, 0.011412683874368668, 0.011429192498326302]","[0.34067243337631226, 0.32879287004470825, 0.3332314193248749, 0.34134402871131897, 0.33957597613334656, 0.34338483214378357]","[0.07657925140055495, -1.4942170753943416, 0.07657925140055495, 0.07657925140055495, 0.07657925140055495, 0.07657925140055495]","[0.07657925140055495, -1.4942170753943416, 0.07657925140055495, 0.07657925140055495, 0.07657925140055495, 0.07657925140055495]",0.002,7,1
0,33,"[0.012192396447062492, -1.5590750717422743, 0.012105766926900685, 0.012274785632751417, 0.012130359187722206, 0.012067960575222969]","[0.3491878807544708, 0.3401130437850952, 0.3440064787864685, 0.35092929005622864, 0.351346492767334, 0.3538891673088074]","[0.07714991316799193, -1.4936464136269045, 0.07714991316799193, 0.07714991316799193, 0.07714991316799193, 0.07714991316799193]","[0.07714991316799193, -1.4936464136269045, 0.07714991316799193, 0.07714991316799193, 0.07714991316799193, 0.07714991316799193]",0.002,7,1
0,34,"[0.012876209802925587, -1.5583937105587502, 0.012896362935201466, 0.01294211923565669, 0.01288783922791481, 0.01279180496931076]","[0.3577462136745453, 0.35197684168815613, 0.354326069355011, 0.36066892743110657, 0.36121758818626404, 0.3640204071998596]","[0.0777203582327921, -1.4930759685621044, 0.0777203582327921, 0.0777203582327921, 0.0777203582327921, 0.0777203582327921]","[0.0777203582327921, -1.4930759685621044, 0.0777203582327921, 0.0777203582327921, 0.0777203582327921, 0.0777203582327921]",0.002,7,1
0,35,"[0.013615436851978302, -1.5576662600836535, 0.013498608266012013, 0.013729019755981398, 0.013575253076851368, 0.013526391237974167]","[0.36599552631378174, 0.3645594120025635, 0.36158451437950134, 0.36426737904548645, 0.3702050447463989, 0.3732536733150482]","[0.07829058499266005, -1.4925057418022365, 0.07829058499266005, 0.07829058499266005, 0.07829058499266005, 0.07829058499266005]","[0.07829058499266005, -1.4925057418022365, 0.07829058499266005, 0.07829058499266005, 0.07829058499266005, 0.07829058499266005]",0.002,7,1
0,36,"[0.014400092884898186, -1.5568758717602869, 0.014316860829488576, 0.014517708415649366, 0.01428659912198782, 0.01430913433432579]","[0.3753109276294708, 0.3734275996685028, 0.3727695643901825, 0.3734852969646454, 0.3800883889198303, 0.3834562301635742]","[0.07886059184591358, -1.491935734948983, 0.07886059184591358, 0.07886059184591358, 0.07886059184591358, 0.07886059184591358]","[0.07886059184591358, -1.491935734948983, 0.07886059184591358, 0.07886059184591358, 0.07886059184591358, 0.07886059184591358]",0.002,7,1
0,37,"[0.01513652689754963, -1.5560581426000972, 0.015038315449849904, 0.015238090152404737, 0.015099668875336647, 0.015076720155775547]","[0.3857710361480713, 0.38481107354164124, 0.3815130889415741, 0.38130825757980347, 0.3874843418598175, 0.38911551237106323]","[0.07943037719148822, -1.4913659496034084, 0.07943037719148822, 0.07943037719148822, 0.07943037719148822, 0.07943037719148822]","[0.07943037719148822, -1.4913659496034084, 0.07943037719148822, 0.07943037719148822, 0.07943037719148822, 0.07943037719148822]",0.002,7,1
0,38,"[0.015902895480394363, -1.5552798530882974, 0.015827004109517873, 0.015961094493530226, 0.01585466042160988, 0.015831660479307175]","[0.39267873764038086, 0.3981173634529114, 0.3891170918941498, 0.38980215787887573, 0.39729949831962585, 0.3985755443572998]","[0.07999993942894161, -1.4907963873659549, 0.07999993942894161, 0.07999993942894161, 0.07999993942894161, 0.07999993942894161]","[0.07999993942894161, -1.4907963873659549, 0.07999993942894161, 0.07999993942894161, 0.07999993942894161, 0.07999993942894161]",0.002,7,1
0,39,"[0.016746411100029945, -1.554471531217434, 0.0166857878314417, 0.016885920161865187, 0.016714472323656082, 0.016643628478050232]","[0.4024248719215393, 0.4040399193763733, 0.39806675910949707, 0.3990879952907562, 0.4061826169490814, 0.4073367416858673]","[0.08056927695845807, -1.4902270498364385, 0.08056927695845807, 0.08056927695845807, 0.08056927695845807, 0.08056927695845807]","[0.08056927695845807, -1.4902270498364385, 0.08056927695845807, 0.08056927695845807, 0.08056927695845807, 0.08056927695845807]",0.002,7,1
0,40,"[0.017558200284838676, -1.553622829993703, 0.017457310353414357, 0.017654700870178175, 0.01750229112803936, 0.01746668480336666]","[0.4089662432670593, 0.413879930973053, 0.40875640511512756, 0.4081142842769623, 0.41394832730293274, 0.4181280732154846]","[0.08113838818085317, -1.4896579386140434, 0.08113838818085317, 0.08113838818085317, 0.08113838818085317, 0.08113838818085317]","[0.08113838818085317, -1.4896579386140434, 0.08113838818085317, 0.08113838818085317, 0.08113838818085317, 0.08113838818085317]",0.002,7,1
0,41,"[0.018402885645627975, -1.5527421788177271, 0.018303696309224904, 0.018498583430908155, 0.01831165887415409, 0.018353061750531197]","[0.416705846786499, 0.42214062809944153, 0.4180047810077667, 0.4178946912288666, 0.42240482568740845, 0.4256015419960022]","[0.08170727149757809, -1.4890890552973184, 0.08170727149757809, 0.08170727149757809, 0.08170727149757809, 0.08170727149757809]","[0.08170727149757809, -1.4890890552973184, 0.08170727149757809, 0.08170727149757809, 0.08170727149757809, 0.08170727149757809]",0.002,7,1
0,42,"[0.019295847043395042, -1.551861734395363, 0.019140068684713185, 0.019346876735351515, 0.01917133294045925, 0.01918197050690651]","[0.42598965764045715, 0.4321906268596649, 0.4271979033946991, 0.42900288105010986, 0.42983928322792053, 0.432412713766098]","[0.08227592531072411, -1.4885204014841724, 0.08227592531072411, 0.08227592531072411, 0.08227592531072411, 0.08227592531072411]","[0.08227592531072411, -1.4885204014841724, 0.08227592531072411, 0.08227592531072411, 0.08227592531072411, 0.08227592531072411]",0.002,7,1
0,43,"[0.020120318979024887, -1.551031346698739, 0.019934002553121388, 0.02014748632397456, 0.020082909613847733, 0.020102020353078842]","[0.43653279542922974, 0.4417884647846222, 0.4364955723285675, 0.436638742685318, 0.4390702545642853, 0.44180282950401306]","[0.08284434802302726, -1.4879519787718694, 0.08284434802302726, 0.08284434802302726, 0.08284434802302726, 0.08284434802302726]","[0.08284434802302726, -1.4879519787718694, 0.08284434802302726, 0.08284434802302726, 0.08284434802302726, 0.08284434802302726]",0.002,7,1
0,44,"[0.02096172608435154, -1.5500534542701025, 0.020863835011617482, 0.021008296603820753, 0.020933236926794052, 0.020976971834897995]","[0.4419597089290619, 0.45095720887184143, 0.44355863332748413, 0.44398733973503113, 0.44672319293022156, 0.44855284690856934]","[0.08341253803787262, -1.487383788757024, 0.08341253803787262, 0.08341253803787262, 0.08341253803787262, 0.08341253803787262]","[0.08341253803787262, -1.487383788757024, 0.08341253803787262, 0.08341253803787262, 0.08341253803787262, 0.08341253803787262]",0.002,7,1
0,45,"[0.021865682676434517, -1.5490708717009802, 0.021739784871236623, 0.021850510234497023, 0.02185017801821232, 0.021909302100539207]","[0.4496724605560303, 0.45740944147109985, 0.4522392749786377, 0.45068326592445374, 0.4549899101257324, 0.4548896849155426]","[0.0839804937592989, -1.4868158330355976, 0.0839804937592989, 0.0839804937592989, 0.0839804937592989, 0.0839804937592989]","[0.0839804937592989, -1.4868158330355976, 0.0839804937592989, 0.0839804937592989, 0.0839804937592989, 0.0839804937592989]",0.002,7,1
0,46,"[0.022825371474027634, -1.5481396050057192, 0.02264291444887334, 0.022748156184814405, 0.022807469591498375, 0.022821305319666862]","[0.45682573318481445, 0.4626401364803314, 0.4595639109611511, 0.4586939811706543, 0.46268942952156067, 0.46140605211257935]","[0.08454821359200293, -1.4862481132028935, 0.08454821359200293, 0.08454821359200293, 0.08454821359200293, 0.08454821359200293]","[0.08454821359200293, -1.4862481132028935, 0.08454821359200293, 0.08454821359200293, 0.08454821359200293, 0.08454821359200293]",0.002,7,1
0,47,"[0.023734312504529953, -1.547216660608985, 0.023625675831929982, 0.02364294111218257, 0.02378132939338684, 0.02379772625863552]","[0.4658602476119995, 0.4699072539806366, 0.46601617336273193, 0.4669756293296814, 0.4715304374694824, 0.4685352146625519]","[0.08511569594134409, -1.4856806308535524, 0.08511569594134409, 0.08511569594134409, 0.08511569594134409, 0.08511569594134409]","[0.08511569594134409, -1.4856806308535524, 0.08511569594134409, 0.08511569594134409, 0.08511569594134409, 0.08511569594134409]",0.002,7,1
0,48,"[0.024729382246732712, -1.5462265734425564, 0.024546448384420216, 0.02456490575756831, 0.024758288636803627, 0.024744151160120964]","[0.472283273935318, 0.4754890203475952, 0.4711856544017792, 0.47495394945144653, 0.47878313064575195, 0.47604241967201233]","[0.08568293921334884, -1.4851133875815477, 0.08568293921334884, 0.08568293921334884, 0.08568293921334884, 0.08568293921334884]","[0.08568293921334884, -1.4851133875815477, 0.08568293921334884, 0.08568293921334884, 0.08568293921334884, 0.08568293921334884]",0.002,7,1
0,49,"[0.02562033198773861, -1.5452591993710776, 0.025482956563131154, 0.025578899974487257, 0.02567814290523529, 0.025746967643499374]","[0.4827522337436676, 0.4824046194553375, 0.4795452058315277, 0.48464104533195496, 0.485273152589798, 0.48152047395706177]","[0.08624994181471513, -1.4845463849801814, 0.08624994181471513, 0.08624994181471513, 0.08624994181471513, 0.08624994181471513]","[0.08624994181471513, -1.4845463849801814, 0.08624994181471513, 0.08624994181471513, 0.08624994181471513, 0.08624994181471513]",0.002,7,1
0,50,"[0.0265749990940094, -1.5442394086024542, 0.026445690785543263, 0.026466174716613722, 0.02673620730638504, 0.02674271911382675]","[0.4888770580291748, 0.48801082372665405, 0.4883693754673004, 0.4909885823726654, 0.4916280210018158, 0.4866364002227783]","[0.08681670215281696, -1.4839796246420796, 0.08681670215281696, 0.08681670215281696, 0.08681670215281696, 0.08681670215281696]","[0.08681670215281696, -1.4839796246420796, 0.08681670215281696, 0.08681670215281696, 0.08681670215281696, 0.08681670215281696]",0.002,7,1
0,51,"[0.027549315243959427, -1.5432397940060874, 0.027499024068013966, 0.027461095447204542, 0.027717722579836845, 0.02773307077586651]","[0.49488213658332825, 0.4924846291542053, 0.49533089995384216, 0.5008236765861511, 0.49627256393432617, 0.49410176277160645]","[0.0873832186357088, -1.4834131081591877, 0.0873832186357088, 0.0873832186357088, 0.0873832186357088, 0.0873832186357088]","[0.0873832186357088, -1.4834131081591877, 0.0873832186357088, 0.0873832186357088, 0.0873832186357088, 0.0873832186357088]",0.002,7,1
0,52,"[0.028511548414826393, -1.5421950344792386, 0.028446499501363576, 0.0284617382236938, 0.028736522421240807, 0.02874915488064289]","[0.5016769766807556, 0.499699205160141, 0.5027506351470947, 0.5076601505279541, 0.5029448866844177, 0.5015689134597778]","[0.08794948967213004, -1.4828468371227665, 0.08794948967213004, 0.08794948967213004, 0.08794948967213004, 0.08794948967213004]","[0.08794948967213004, -1.4828468371227665, 0.08794948967213004, 0.08794948967213004, 0.08794948967213004, 0.08794948967213004]",0.002,7,1
0,53,"[0.02949121966958046, -1.5411587090096255, 0.029506985341207326, 0.029498501414916944, 0.029757192358374596, 0.029744703322649002]","[0.5081219673156738, 0.5049042105674744, 0.5097568035125732, 0.5152329802513123, 0.5115163326263428, 0.5066906213760376]","[0.08851551367150956, -1.482280813123387, 0.08851551367150956, 0.08851551367150956, 0.08851551367150956, 0.08851551367150956]","[0.08851551367150956, -1.482280813123387, 0.08851551367150956, 0.08851551367150956, 0.08851551367150956, 0.08851551367150956]",0.002,7,1
0,54,"[0.03048795461654663, -1.5401931938580056, 0.03055268922914678, 0.030558033580444288, 0.03081359900534153, 0.030779344961047173]","[0.5158025622367859, 0.5120269656181335, 0.5168351531028748, 0.5238431096076965, 0.515994131565094, 0.5124472379684448]","[0.08908128904397009, -1.4817150377509265, 0.08908128904397009, 0.08908128904397009, 0.08908128904397009, 0.08908128904397009]","[0.08908128904397009, -1.4817150377509265, 0.08908128904397009, 0.08908128904397009, 0.08908128904397009, 0.08908128904397009]",0.002,7,1
0,55,"[0.03155523166060448, -1.5391199563494702, 0.031603638325826466, 0.03160004198040767, 0.03183354064822197, 0.031880687922239304]","[0.5199530124664307, 0.5167122483253479, 0.5206683278083801, 0.530117392539978, 0.5227661728858948, 0.5205860137939453]","[0.08964681420033266, -1.481149512594564, 0.08964681420033266, 0.08964681420033266, 0.08964681420033266, 0.08964681420033266]","[0.08964681420033266, -1.481149512594564, 0.08964681420033266, 0.08964681420033266, 0.08964681420033266, 0.08964681420033266]",0.002,7,1
0,56,"[0.032620493322610855, -1.5380318661085148, 0.03266650835146123, 0.032701416606567335, 0.032939404249191284, 0.032896146178245544]","[0.529973030090332, 0.5217745304107666, 0.5272530913352966, 0.5372854471206665, 0.5301989316940308, 0.5255005955696106]","[0.09021208755212123, -1.4805842392427753, 0.09021208755212123, 0.09021208755212123, 0.09021208755212123, 0.09021208755212123]","[0.09021208755212123, -1.4805842392427753, 0.09021208755212123, 0.09021208755212123, 0.09021208755212123, 0.09021208755212123]",0.002,7,1
0,57,"[0.033684536814689636, -1.5369570714286347, 0.03380424181093389, 0.03382997095074458, 0.03403622284531593, 0.03396375849843025]","[0.5338550806045532, 0.5293261408805847, 0.5328937768936157, 0.5401497483253479, 0.5331190228462219, 0.5322259068489075]","[0.09077710751156703, -1.4800192192833295, 0.09077710751156703, 0.09077710751156703, 0.09077710751156703, 0.09077710751156703]","[0.09077710751156703, -1.4800192192833295, 0.09077710751156703, 0.09077710751156703, 0.09077710751156703, 0.09077710751156703]",0.002,7,1
0,58,"[0.03472478315234184, -1.5358895298889657, 0.03485089937318975, 0.03496067106213374, 0.03509360924363136, 0.03503083810210228]","[0.5400004386901855, 0.5343928337097168, 0.5371376872062683, 0.5454117059707642, 0.5375124216079712, 0.5358745455741882]","[0.09134187249161291, -1.4794544543032837, 0.09134187249161291, 0.09134187249161291, 0.09134187249161291, 0.09134187249161291]","[0.09134187249161291, -1.4794544543032837, 0.09134187249161291, 0.09134187249161291, 0.09134187249161291, 0.09134187249161291]",0.002,7,1
0,59,"[0.035828039050102234, -1.5348905485919495, 0.035975281392232716, 0.036039872760436964, 0.036176495254039764, 0.03610239550471306]","[0.5451657772064209, 0.5399166345596313, 0.5429157614707947, 0.5491822361946106, 0.5439519286155701, 0.5414453744888306]","[0.091906380905918, -1.4788899458889786, 0.091906380905918, 0.091906380905918, 0.091906380905918, 0.091906380905918]","[0.091906380905918, -1.4788899458889786, 0.091906380905918, 0.091906380905918, 0.091906380905918, 0.091906380905918]",0.002,7,1
0,60,"[0.03697020187973976, -1.53374611333523, 0.03712159792055303, 0.03718785821881099, 0.037240151315927505, 0.03717288002371788]","[0.5494497418403625, 0.5456933975219727, 0.5490873456001282, 0.5525882840156555, 0.5483306050300598, 0.546548068523407]","[0.09247063116886214, -1.4783256956260344, 0.09247063116886214, 0.09247063116886214, 0.09247063116886214, 0.09247063116886214]","[0.09247063116886214, -1.4783256956260344, 0.09247063116886214, 0.09247063116886214, 0.09247063116886214, 0.09247063116886214]",0.002,7,1
0,61,"[0.03808893635869026, -1.5326761987856408, 0.03823215166200811, 0.03833870470013423, 0.038358401507139206, 0.038257841020822525]","[0.5545883774757385, 0.5499224662780762, 0.5532183051109314, 0.5561835169792175, 0.5528374314308167, 0.5528478026390076]","[0.09303462169555024, -1.4777617050993463, 0.09303462169555024, 0.09303462169555024, 0.09303462169555024, 0.09303462169555024]","[0.09303462169555024, -1.4777617050993463, 0.09303462169555024, 0.09303462169555024, 0.09303462169555024, 0.09303462169555024]",0.002,7,1
0,62,"[0.039268720895051956, -1.5315100637129326, 0.03930265108217412, 0.03947727262463374, 0.03951141610741615, 0.03936060145497322]","[0.560746967792511, 0.5576961040496826, 0.5625833868980408, 0.5598171949386597, 0.5584999918937683, 0.5591280460357666]","[0.09359835090181669, -1.4771979758930798, 0.09359835090181669, 0.09359835090181669, 0.09359835090181669, 0.09359835090181669]","[0.09359835090181669, -1.4771979758930798, 0.09359835090181669, 0.09359835090181669, 0.09359835090181669, 0.09359835090181669]",0.002,7,1
0,63,"[0.040339063853025436, -1.5303954196027298, 0.04042226472963506, 0.04066459714855952, 0.040542248636484146, 0.04051760584115982]","[0.5675572752952576, 0.5656846761703491, 0.5633872151374817, 0.5640228390693665, 0.5646746158599854, 0.5650028586387634]","[0.09416181720422998, -1.4766345095906666, 0.09416181720422998, 0.09416181720422998, 0.09416181720422998, 0.09416181720422998]","[0.09416181720422998, -1.4766345095906666, 0.09416181720422998, 0.09416181720422998, 0.09416181720422998, 0.09416181720422998]",0.002,7,1
0,64,"[0.04151074215769768, -1.5292833682945748, 0.041593376790181935, 0.04185251771893306, 0.04171384125947952, 0.04162647947669029]","[0.5710051655769348, 0.5693358778953552, 0.5719881653785706, 0.5694828629493713, 0.5676605105400085, 0.5710395574569702]","[0.09472501902009701, -1.4760713077747996, 0.09472501902009701, 0.09472501902009701, 0.09472501902009701, 0.09472501902009701]","[0.09472501902009701, -1.4760713077747996, 0.09472501902009701, 0.09472501902009701, 0.09472501902009701, 0.09472501902009701]",0.002,7,1
0,65,"[0.04257335513830185, -1.5281397935799141, 0.04271823564638311, 0.04298703252758784, 0.04283720627427101, 0.04272444546222687]","[0.5751219391822815, 0.5731469392776489, 0.5721554756164551, 0.5763318538665771, 0.5728104710578918, 0.575469434261322]","[0.09528795476746764, -1.475508372027429, 0.09528795476746764, 0.09528795476746764, 0.09528795476746764, 0.09528795476746764]","[0.09528795476746764, -1.475508372027429, 0.09528795476746764, 0.09528795476746764, 0.09528795476746764, 0.09528795476746764]",0.002,7,1
0,66,"[0.04380713775753975, -1.5269955334118386, 0.043845478688375294, 0.04421190797772212, 0.044048190116882324, 0.04383016750216484]","[0.5783368945121765, 0.5768706202507019, 0.57841557264328, 0.5811550617218018, 0.5779644250869751, 0.5811347365379333]","[0.09585062286513904, -1.4749457039297575, 0.09585062286513904, 0.09585062286513904, 0.09585062286513904, 0.09585062286513904]","[0.09585062286513904, -1.4749457039297575, 0.09585062286513904, 0.09585062286513904, 0.09585062286513904, 0.09585062286513904]",0.002,7,1
0,67,"[0.04494606703519821, -1.525832661693432, 0.04507476488222295, 0.04534606515850825, 0.04510962590575218, 0.045015398412942886]","[0.5859062075614929, 0.5812155604362488, 0.5817351937294006, 0.5827692747116089, 0.5858978629112244, 0.5855214595794678]","[0.09641302173266018, -1.4743833050622364, 0.09641302173266018, 0.09641302173266018, 0.09641302173266018, 0.09641302173266018]","[0.09641302173266018, -1.4743833050622364, 0.09641302173266018, 0.09641302173266018, 0.09641302173266018, 0.09641302173266018]",0.002,7,1
0,68,"[0.04612404480576515, -1.524681696002819, 0.046164814625875294, 0.04650036870922847, 0.04631079360842705, 0.04617970436811447]","[0.5874440670013428, 0.5868790149688721, 0.584469735622406, 0.5808857083320618, 0.5886030197143555, 0.5897514820098877]","[0.0969751497903362, -1.4738211770045604, 0.0969751497903362, 0.0969751497903362, 0.0969751497903362, 0.0969751497903362]","[0.0969751497903362, -1.4738211770045604, 0.0969751497903362, 0.0969751497903362, 0.0969751497903362, 0.0969751497903362]",0.002,7,1
0,69,"[0.04738844186067581, -1.5235156838646908, 0.047309223805562794, 0.0476115184971313, 0.047454752027988434, 0.047378137707710266]","[0.5949512720108032, 0.5919403433799744, 0.5894630551338196, 0.5841812491416931, 0.5936979055404663, 0.5949780941009521]","[0.09753700545923298, -1.4732593213356635, 0.09753700545923298, 0.09753700545923298, 0.09753700545923298, 0.09753700545923298]","[0.09753700545923298, -1.4732593213356635, 0.09753700545923298, 0.09753700545923298, 0.09753700545923298, 0.09753700545923298]",0.002,7,1
0,70,"[0.04848663508892059, -1.5223732006600876, 0.048505608235494435, 0.04886691152539058, 0.04867599159479141, 0.04857728257775307]","[0.5973637104034424, 0.5953882336616516, 0.5929040908813477, 0.5875491499900818, 0.5964260101318359, 0.601341724395752]","[0.09809858716118151, -1.472697739633715, 0.09809858716118151, 0.09809858716118151, 0.09809858716118151, 0.09809858716118151]","[0.09809858716118151, -1.472697739633715, 0.09809858716118151, 0.09809858716118151, 0.09809858716118151, 0.09809858716118151]",0.002,7,1
0,71,"[0.04966109246015549, -1.5211659383824845, 0.04962331453432256, 0.05000547944989009, 0.049824219197034836, 0.049794796854257584]","[0.5997862219810486, 0.5962541699409485, 0.5952281951904297, 0.5922834277153015, 0.6003382802009583, 0.6047597527503967]","[0.09865989331878224, -1.4721364334761142, 0.09865989331878224, 0.09865989331878224, 0.09865989331878224, 0.09865989331878224]","[0.09865989331878224, -1.4721364334761142, 0.09865989331878224, 0.09865989331878224, 0.09865989331878224, 0.09865989331878224]",0.002,7,1
0,72,"[0.05091555416584015, -1.519950297927, 0.05089885393251592, 0.05116967737164302, 0.05103778839111328, 0.05106726661324501]","[0.603233277797699, 0.5994462966918945, 0.6001899242401123, 0.5983914136886597, 0.6035377383232117, 0.6074509024620056]","[0.0992209223554096, -1.4715754044394869, 0.0992209223554096, 0.0992209223554096, 0.0992209223554096, 0.0992209223554096]","[0.0992209223554096, -1.4715754044394869, 0.0992209223554096, 0.0992209223554096, 0.0992209223554096, 0.0992209223554096]",0.002,7,1
0,73,"[0.05213240906596184, -1.5187308017960568, 0.05205852190126592, 0.05233578264202876, 0.052278634160757065, 0.05222529545426369]","[0.6053633093833923, 0.6033270359039307, 0.6036900281906128, 0.6014893651008606, 0.6085264682769775, 0.6123108863830566]","[0.09978167269521644, -1.47101465409968, 0.09978167269521644, 0.09978167269521644, 0.09978167269521644, 0.09978167269521644]","[0.09978167269521644, -1.47101465409968, 0.09978167269521644, 0.09978167269521644, 0.09978167269521644, 0.09978167269521644]",0.002,7,1
0,74,"[0.05335855484008789, -1.5174959500185032, 0.05327493349184209, 0.05347959577526851, 0.053534265607595444, 0.053451456129550934]","[0.6096545457839966, 0.6076599359512329, 0.6071649193763733, 0.6097064018249512, 0.611505925655365, 0.614547073841095]","[0.10034214276313845, -1.4704541840317582, 0.10034214276313845, 0.10034214276313845, 0.10034214276313845, 0.10034214276313845]","[0.10034214276313845, -1.4704541840317582, 0.10034214276313845, 0.10034214276313845, 0.10034214276313845, 0.10034214276313845]",0.002,7,1
0,75,"[0.0545576773583889, -1.5163042296520253, 0.05442268053163701, 0.05469946443524165, 0.05466241389513016, 0.0547184981405735]","[0.6159284710884094, 0.6066977381706238, 0.6100704669952393, 0.6099498271942139, 0.6148101091384888, 0.6160417199134827]","[0.10090233098489851, -1.4698939958099981, 0.10090233098489851, 0.10090233098489851, 0.10090233098489851, 0.10090233098489851]","[0.10090233098489851, -1.4698939958099981, 0.10090233098489851, 0.10090233098489851, 0.10090233098489851, 0.10090233098489851]",0.002,7,1
0,76,"[0.05580348148941994, -1.515052181934454, 0.05567533174623662, 0.05582527696575923, 0.05594894662499428, 0.05601169541478157]","[0.6173400282859802, 0.6075194478034973, 0.6126948595046997, 0.6132482290267944, 0.6192126870155334, 0.6178141832351685]","[0.10146223578701119, -1.4693340910078854, 0.10146223578701119, 0.10146223578701119, 0.10146223578701119, 0.10146223578701119]","[0.10146223578701119, -1.4693340910078854, 0.10146223578701119, 0.10146223578701119, 0.10146223578701119, 0.10146223578701119]",0.002,7,1
0,77,"[0.05709255859255791, -1.5138617616942902, 0.05692130724062139, 0.057043834323547316, 0.05717429891228676, 0.05725722387433052]","[0.6205442547798157, 0.6067741513252258, 0.6111168265342712, 0.6204164624214172, 0.6218839883804321, 0.6191095113754272]","[0.1020218555967871, -1.4687744711981094, 0.1020218555967871, 0.1020218555967871, 0.1020218555967871, 0.1020218555967871]","[0.1020218555967871, -1.4687744711981094, 0.1020218555967871, 0.1020218555967871, 0.1020218555967871, 0.1020218555967871]",0.002,7,1
0,78,"[0.05836086347699165, -1.512606245731451, 0.058172051106588185, 0.058372898692748976, 0.05845840275287628, 0.058493148535490036]","[0.6228864789009094, 0.6107168793678284, 0.6174272298812866, 0.626020610332489, 0.6225483417510986, 0.6229315400123596]","[0.10258118884233744, -1.4682151379525592, 0.10258118884233744, 0.10258118884233744, 0.10258118884233744, 0.10258118884233744]","[0.10258118884233744, -1.4682151379525592, 0.10258118884233744, 0.10258118884233744, 0.10258118884233744, 0.10258118884233744]",0.002,7,1
0,79,"[0.05958076938986778, -1.5113450710526486, 0.059408013020650685, 0.05955044805493159, 0.05968942493200302, 0.05982065573334694]","[0.6281782984733582, 0.6139723658561707, 0.6201108694076538, 0.6291753649711609, 0.6251349449157715, 0.6241896152496338]","[0.10314023395257824, -1.4676560928423183, 0.10314023395257824, 0.10314023395257824, 0.10314023395257824, 0.10314023395257824]","[0.10314023395257824, -1.4676560928423183, 0.10314023395257824, 0.10314023395257824, 0.10314023395257824, 0.10314023395257824]",0.002,7,1
0,80,"[0.06081013381481171, -1.51009143263612, 0.06067258516420537, 0.06084684907879634, 0.06100492924451828, 0.06107168272137642]","[0.6299231052398682, 0.6140888929367065, 0.6247041821479797, 0.6325532793998718, 0.6249870657920837, 0.6245541572570801]","[0.1036989893572349, -1.4670973374376617, 0.1036989893572349, 0.1036989893572349, 0.1036989893572349, 0.1036989893572349]","[0.1036989893572349, -1.4670973374376617, 0.1036989893572349, 0.1036989893572349, 0.1036989893572349, 0.1036989893572349]",0.002,7,1
0,81,"[0.06201152130961418, -1.508917873059847, 0.061916653309957326, 0.0620763736912231, 0.0623040497303009, 0.06239236891269684]","[0.6311478614807129, 0.6168890595436096, 0.6276108622550964, 0.6342717409133911, 0.627863347530365, 0.62667316198349]","[0.10425745348684658, -1.46653887330805, 0.10425745348684658, 0.10425745348684658, 0.10425745348684658, 0.10425745348684658]","[0.10425745348684658, -1.46653887330805, 0.10425745348684658, 0.10425745348684658, 0.10425745348684658, 0.10425745348684658]",0.002,7,1
0,82,"[0.06329722702503204, -1.5076846790364762, 0.06314498582948858, 0.06339804708447261, 0.06353727728128433, 0.06359346956014633]","[0.6321262717247009, 0.6191916465759277, 0.626319944858551, 0.6347452402114868, 0.6295530200004578, 0.6271665096282959]","[0.10481562477277054, -1.465980702022126, 0.10481562477277054, 0.10481562477277054, 0.10481562477277054, 0.10481562477277054]","[0.10481562477277054, -1.465980702022126, 0.10481562477277054, 0.10481562477277054, 0.10481562477277054, 0.10481562477277054]",0.002,7,1
0,83,"[0.06456322222948074, -1.506439284687378, 0.06449634233583623, 0.06464223443951411, 0.06489311903715134, 0.06489239633083344]","[0.633357048034668, 0.618586003780365, 0.6260268688201904, 0.6367201209068298, 0.6310885548591614, 0.6299569606781006]","[0.10537350164718662, -1.46542282514771, 0.10537350164718662, 0.10537350164718662, 0.10537350164718662, 0.10537350164718662]","[0.10537350164718662, -1.46542282514771, 0.10537350164718662, 0.10537350164718662, 0.10537350164718662, 0.10537350164718662]",0.002,7,1
0,84,"[0.06588216125965118, -1.5050466445139428, 0.06575662294496709, 0.06599144517864985, 0.06609170138835907, 0.06612705439329147]","[0.6354439854621887, 0.6240013837814331, 0.6301671862602234, 0.6361150741577148, 0.6322478652000427, 0.6306772232055664]","[0.1059310825431016, -1.4648652442517949, 0.1059310825431016, 0.1059310825431016, 0.1059310825431016, 0.1059310825431016]","[0.1059310825431016, -1.4648652442517949, 0.1059310825431016, 0.1059310825431016, 0.1059310825431016, 0.1059310825431016]",0.002,7,1
0,85,"[0.06717245280742645, -1.5038538214615365, 0.06702548662294561, 0.06726042806591792, 0.06745148450136185, 0.06736230105161667]","[0.636231541633606, 0.6247987747192383, 0.6296226382255554, 0.6359739303588867, 0.6309236288070679, 0.6290521621704102]","[0.10648836589435366, -1.464307960900543, 0.10648836589435366, 0.10648836589435366, 0.10648836589435366, 0.10648836589435366]","[0.10648836589435366, -1.464307960900543, 0.10648836589435366, 0.10648836589435366, 0.10648836589435366, 0.10648836589435366]",0.002,7,1
0,86,"[0.06846174597740173, -1.5025454473546525, 0.06831485429872686, 0.0686076122471313, 0.06867057830095291, 0.06861738115549088]","[0.6366552710533142, 0.6291676759719849, 0.6330044865608215, 0.6384991407394409, 0.6333012580871582, 0.6311489939689636]","[0.1070453501356167, -1.4637509766592798, 0.1070453501356167, 0.1070453501356167, 0.1070453501356167, 0.1070453501356167]","[0.1070453501356167, -1.4637509766592798, 0.1070453501356167, 0.1070453501356167, 0.1070453501356167, 0.1070453501356167]",0.002,7,1
0,87,"[0.06971297413110733, -1.501290315096714, 0.06967193285097295, 0.06992153703656001, 0.069939024746418, 0.06985163688659668]","[0.637708306312561, 0.6311398148536682, 0.6355494260787964, 0.6388082504272461, 0.6314553618431091, 0.6341665983200073]","[0.1076020337024048, -1.4631942930924917, 0.1076020337024048, 0.1076020337024048, 0.1076020337024048, 0.1076020337024048]","[0.1076020337024048, -1.4631942930924917, 0.1076020337024048, 0.1076020337024048, 0.1076020337024048, 0.1076020337024048]",0.002,7,1
0,88,"[0.07100686430931091, -1.4999892202070733, 0.07087642351259404, 0.0711483198353271, 0.07120972871780396, 0.07111212611198425]","[0.6395577192306519, 0.633489191532135, 0.6373997330665588, 0.636785626411438, 0.6339348554611206, 0.635008692741394]","[0.10815841503107655, -1.46263791176382, 0.10815841503107655, 0.10815841503107655, 0.10815841503107655, 0.10815841503107655]","[0.10815841503107655, -1.46263791176382, 0.10815841503107655, 0.10815841503107655, 0.10815841503107655, 0.10815841503107655]",0.002,7,1
0,89,"[0.07231166213750839, -1.498731256728508, 0.0722268263446253, 0.0724676090427856, 0.0724504217505455, 0.07234524935483932]","[0.6395494937896729, 0.6414979100227356, 0.6412553191184998, 0.6362711191177368, 0.635784387588501, 0.6374284625053406]","[0.10871449255883957, -1.462081834236057, 0.10871449255883957, 0.10871449255883957, 0.10871449255883957, 0.10871449255883957]","[0.10871449255883957, -1.462081834236057, 0.10871449255883957, 0.10871449255883957, 0.10871449255883957, 0.10871449255883957]",0.002,7,1
0,90,"[0.07350734621286392, -1.4974278894117852, 0.07346994081606084, 0.07383946954693599, 0.0737287774682045, 0.07364192605018616]","[0.641463041305542, 0.6392244100570679, 0.6367338299751282, 0.6363113522529602, 0.6353306770324707, 0.6382813453674316]","[0.10927026472375466, -1.4615260620711419, 0.10927026472375466, 0.10927026472375466, 0.10927026472375466, 0.10927026472375466]","[0.10927026472375466, -1.4615260620711419, 0.10927026472375466, 0.10927026472375466, 0.10927026472375466, 0.10927026472375466]",0.002,7,1
0,91,"[0.07474809139966965, -1.4961780470660706, 0.07475024858583623, 0.07513312875714107, 0.07492493093013763, 0.07492111623287201]","[0.6382469534873962, 0.6416938900947571, 0.6388189196586609, 0.6381463408470154, 0.6387113332748413, 0.6390962600708008]","[0.1098257299647405, -1.460970596830156, 0.1098257299647405, 0.1098257299647405, 0.1098257299647405, 0.1098257299647405]","[0.1098257299647405, -1.460970596830156, 0.1098257299647405, 0.1098257299647405, 0.1098257299647405, 0.1098257299647405]",0.002,7,1
0,92,"[0.07601398229598999, -1.4948314067772408, 0.07607537904848272, 0.07642905294384761, 0.07623633742332458, 0.0760873481631279]","[0.6362839341163635, 0.6441276669502258, 0.6375354528427124, 0.6362937092781067, 0.6382692456245422, 0.6420431733131409]","[0.11038088672157781, -1.4604154400733187, 0.11038088672157781, 0.11038088672157781, 0.11038088672157781, 0.11038088672157781]","[0.11038088672157781, -1.4604154400733187, 0.11038088672157781, 0.11038088672157781, 0.11038088672157781, 0.11038088672157781]",0.002,7,1
0,93,"[0.07743126153945923, -1.4935619992068787, 0.07730085054506475, 0.07766024648632808, 0.07748831808567047, 0.0774003118276596]","[0.6387999653816223, 0.6454516649246216, 0.6401911973953247, 0.6343347430229187, 0.6392674446105957, 0.6428273320198059]","[0.11093573343491375, -1.4598605933599829, 0.11093573343491375, 0.11093573343491375, 0.11093573343491375, 0.11093573343491375]","[0.11093573343491375, -1.4598605933599829, 0.11093573343491375, 0.11093573343491375, 0.11093573343491375, 0.11093573343491375]",0.002,7,1
0,94,"[0.07862434536218643, -1.4922777128270646, 0.07856589952577764, 0.07898799955334468, 0.07881433516740799, 0.07873737812042236]","[0.6378990411758423, 0.6483761072158813, 0.6417352557182312, 0.6345469951629639, 0.6401433944702148, 0.6428128480911255]","[0.11149026854626641, -1.4593060582486301, 0.11149026854626641, 0.11149026854626641, 0.11149026854626641, 0.11149026854626641]","[0.11149026854626641, -1.4593060582486301, 0.11149026854626641, 0.11149026854626641, 0.11149026854626641, 0.11149026854626641]",0.002,7,1
0,95,"[0.07996492832899094, -1.490976834004261, 0.0799019972430628, 0.08021800100292964, 0.08001071214675903, 0.08003043383359909]","[0.6404626965522766, 0.6493049263954163, 0.640661358833313, 0.6336249113082886, 0.6404517889022827, 0.6437285542488098]","[0.11204449049802913, -1.4587518362968674, 0.11204449049802913, 0.11204449049802913, 0.11204449049802913, 0.11204449049802913]","[0.11204449049802913, -1.4587518362968674, 0.11204449049802913, 0.11204449049802913, 0.11204449049802913, 0.11204449049802913]",0.002,7,1
0,96,"[0.08124633878469467, -1.4897329297712822, 0.08115035692323858, 0.08150784551586909, 0.08128096163272858, 0.08126144111156464]","[0.6380423307418823, 0.647418737411499, 0.638694167137146, 0.6322199106216431, 0.6398857831954956, 0.6427491903305054]","[0.11259839773347476, -1.4581979290614218, 0.11259839773347476, 0.11259839773347476, 0.11259839773347476, 0.11259839773347476]","[0.11259839773347476, -1.4581979290614218, 0.11259839773347476, 0.11259839773347476, 0.11259839773347476, 0.11259839773347476]",0.002,7,1
0,97,"[0.08247483521699905, -1.4883870121887703, 0.08246928850282842, 0.08274070798840327, 0.0825469121336937, 0.08257286995649338]","[0.6384661197662354, 0.6438863277435303, 0.6417929530143738, 0.6329551339149475, 0.6404170989990234, 0.643307089805603]","[0.11315198869676027, -1.4576443380981363, 0.11315198869676027, 0.11315198869676027, 0.11315198869676027, 0.11315198869676027]","[0.11315198869676027, -1.4576443380981363, 0.11315198869676027, 0.11315198869676027, 0.11315198869676027, 0.11315198869676027]",0.002,7,1
0,98,"[0.08374084532260895, -1.4870717537454148, 0.08370525041689092, 0.08392111837353511, 0.08387653529644012, 0.08390010893344879]","[0.6386492848396301, 0.6462592482566833, 0.638920783996582, 0.6322034597396851, 0.6392489671707153, 0.6428428888320923]","[0.11370526183293096, -1.4570910649619655, 0.11370526183293096, 0.11370526183293096, 0.11370526183293096, 0.11370526183293096]","[0.11370526183293096, -1.4570910649619655, 0.11370526183293096, 0.11370526183293096, 0.11370526183293096, 0.11370526183293096]",0.002,7,1
0,99,"[0.08503682166337967, -1.4857859101942559, 0.08495504060854131, 0.08513526498760982, 0.0851852148771286, 0.08522775024175644]","[0.6363175511360168, 0.643059253692627, 0.6387035250663757, 0.6338582038879395, 0.6391991972923279, 0.6414941549301147]","[0.11425821558792479, -1.4565381112069717, 0.11425821558792479, 0.11425821558792479, 0.11425821558792479, 0.11425821558792479]","[0.11425821558792479, -1.4565381112069717, 0.11425821558792479, 0.11425821558792479, 0.11425821558792479, 0.11425821558792479]",0.002,7,1
0,100,"[0.08630740642547607, -1.4845255252769967, 0.08626920381654912, 0.08632700025524898, 0.08640072494745255, 0.08650685101747513]","[0.6364279985427856, 0.6437176465988159, 0.6362231969833374, 0.6321510672569275, 0.6413597464561462, 0.6381857991218567]","[0.11481084840857694, -1.4559854783863195, 0.11481084840857694, 0.11481084840857694, 0.11481084840857694, 0.11481084840857694]","[0.11481084840857694, -1.4559854783863195, 0.11481084840857694, 0.11481084840857694, 0.11481084840857694, 0.11481084840857694]",0.002,7,1
0,101,"[0.08756837993860245, -1.48314871758733, 0.08748227754701787, 0.08762125551190181, 0.08769860118627548, 0.08781876415014267]","[0.6368415951728821, 0.6370766758918762, 0.6349325180053711, 0.6329755783081055, 0.6393373608589172, 0.637890100479126]","[0.11536315874262389, -1.4554331680522727, 0.11536315874262389, 0.11536315874262389, 0.11536315874262389, 0.11536315874262389]","[0.11536315874262389, -1.4554331680522727, 0.11536315874262389, 0.11536315874262389, 0.11536315874262389, 0.11536315874262389]",0.002,7,1
0,102,"[0.08891062438488007, -1.4819449049285431, 0.0887678305255335, 0.08884398519482417, 0.08899178355932236, 0.08909669518470764]","[0.6358328461647034, 0.6342067718505859, 0.6331386566162109, 0.6356053352355957, 0.6380181908607483, 0.6323433518409729]","[0.11591514503870809, -1.4548811817561884, 0.11591514503870809, 0.11591514503870809, 0.11591514503870809, 0.11591514503870809]","[0.11591514503870809, -1.4548811817561884, 0.11591514503870809, 0.11591514503870809, 0.11591514503870809, 0.11591514503870809]",0.002,7,1
0,103,"[0.0901406928896904, -1.4806214210442086, 0.09002572694887334, 0.09013955175366206, 0.09035331755876541, 0.09039612859487534]","[0.6350981593132019, 0.6302441954612732, 0.6362759470939636, 0.6405794024467468, 0.6331010460853577, 0.631688117980957]","[0.11646680574638203, -1.4543295210485145, 0.11646680574638203, 0.11646680574638203, 0.11646680574638203, 0.11646680574638203]","[0.11646680574638203, -1.4543295210485145, 0.11646680574638203, 0.11646680574638203, 0.11646680574638203, 0.11646680574638203]",0.002,7,1
0,104,"[0.09145915508270264, -1.4793271955898781, 0.09125835100282842, 0.09134010850872798, 0.09166515618562698, 0.09161251038312912]","[0.6347082257270813, 0.6298612952232361, 0.6326147317886353, 0.6398701667785645, 0.6312508583068848, 0.6311772465705872]","[0.11701813931611282, -1.4537781874787838, 0.11701813931611282, 0.11701813931611282, 0.11701813931611282, 0.11701813931611282]","[0.11701813931611282, -1.4537781874787838, 0.11701813931611282, 0.11701813931611282, 0.11701813931611282, 0.11701813931611282]",0.002,7,1
0,105,"[0.09260978549718857, -1.4780680623701592, 0.09249478975404912, 0.09258095800366206, 0.09283825755119324, 0.09290610253810883]","[0.6363273859024048, 0.6244209408760071, 0.6307105422019958, 0.6364565491676331, 0.6303582787513733, 0.6279087066650391]","[0.11756914419928645, -1.45322718259561, 0.11756914419928645, 0.11756914419928645, 0.11756914419928645, 0.11756914419928645]","[0.11756914419928645, -1.45322718259561, 0.11756914419928645, 0.11756914419928645, 0.11756914419928645, 0.11756914419928645]",0.002,7,1
0,106,"[0.09384962171316147, -1.476799653177597, 0.0938189665423792, 0.09388045846905513, 0.09419038891792297, 0.09420230239629745]","[0.6305204033851624, 0.6197500824928284, 0.6299799084663391, 0.6332388520240784, 0.6292688250541687, 0.6263629198074341]","[0.11811981884821209, -1.4526765079466846, 0.11811981884821209, 0.11811981884821209, 0.11811981884821209, 0.11811981884821209]","[0.11811981884821209, -1.4526765079466846, 0.11811981884821209, 0.11811981884821209, 0.11811981884821209, 0.11811981884821209]",0.002,7,1
0,107,"[0.09510277956724167, -1.4755660083941002, 0.09506875673402959, 0.09516684591259761, 0.09537279605865479, 0.09545307606458664]","[0.6283894777297974, 0.6174634099006653, 0.628625750541687, 0.6344587206840515, 0.6266261339187622, 0.6239614486694336]","[0.11867016171612652, -1.45212616507877, 0.11867016171612652, 0.11867016171612652, 0.11867016171612652, 0.11867016171612652]","[0.11867016171612652, -1.45212616507877, 0.11867016171612652, 0.11867016171612652, 0.11867016171612652, 0.11867016171612652]",0.002,7,1
0,108,"[0.0964217260479927, -1.4743032914451142, 0.09640247026552373, 0.09645025312390132, 0.09674418717622757, 0.0966213047504425]","[0.6278089880943298, 0.6190412640571594, 0.6242048144340515, 0.6303513646125793, 0.624864399433136, 0.621362030506134]","[0.11922017125719844, -1.451576155537698, 0.11922017125719844, 0.11922017125719844, 0.11922017125719844, 0.11922017125719844]","[0.11922017125719844, -1.451576155537698, 0.11922017125719844, 0.11922017125719844, 0.11922017125719844, 0.11922017125719844]",0.002,7,1
0,109,"[0.09769537299871445, -1.473011353319027, 0.09761697450746709, 0.09779874860729976, 0.09784233570098877, 0.09789136052131653]","[0.62797611951828, 0.6148734092712402, 0.6189737915992737, 0.6289012432098389, 0.6221879124641418, 0.6206811666488647]","[0.11976984592653282, -1.4510264808683637, 0.11976984592653282, 0.11976984592653282, 0.11976984592653282, 0.11976984592653282]","[0.11976984592653282, -1.4510264808683637, 0.11976984592653282, 0.11976984592653282, 0.11976984592653282, 0.11976984592653282]",0.002,7,1
0,110,"[0.09895829856395721, -1.4718106773546715, 0.09885722795595342, 0.09899799406018062, 0.09909292310476303, 0.09910557419061661]","[0.6273753643035889, 0.614348292350769, 0.6194503903388977, 0.6254501938819885, 0.6177467703819275, 0.6163312792778015]","[0.12031918418017519, -1.4504771426147214, 0.12031918418017519, 0.12031918418017519, 0.12031918418017519, 0.12031918418017519]","[0.12031918418017519, -1.4504771426147214, 0.12031918418017519, 0.12031918418017519, 0.12031918418017519, 0.12031918418017519]",0.002,7,1
0,111,"[0.10021726042032242, -1.4705949288657685, 0.10011750856508428, 0.1003909546085815, 0.10035073757171631, 0.100304014980793]","[0.621002733707428, 0.613929808139801, 0.6194761991500854, 0.6234353184700012, 0.6161066293716431, 0.6159895062446594]","[0.12086818447511613, -1.4499281423197805, 0.12086818447511613, 0.12086818447511613, 0.12086818447511613, 0.12086818447511613]","[0.12086818447511613, -1.4499281423197805, 0.12086818447511613, 0.12086818447511613, 0.12086818447511613, 0.12086818447511613]",0.002,7,1
0,112,"[0.10142135620117188, -1.4693049055388947, 0.10133344331850225, 0.1016436058231811, 0.10156324505805969, 0.10150323063135147]","[0.6186951994895935, 0.6126195788383484, 0.6193144917488098, 0.6197542548179626, 0.612865686416626, 0.6128019094467163]","[0.12141684526929539, -1.4493794815256011, 0.12141684526929539, 0.12141684526929539, 0.12141684526929539, 0.12141684526929539]","[0.12141684526929539, -1.4493794815256011, 0.12141684526929539, 0.12141684526929539, 0.12141684526929539, 0.12141684526929539]",0.002,7,1
0,113,"[0.10268464684486389, -1.4681419444135209, 0.10261136690248662, 0.10289303838696284, 0.10275936126708984, 0.10270582884550095]","[0.6198912262916565, 0.611701250076294, 0.6130656003952026, 0.6148728728294373, 0.6120554804801941, 0.6124554872512817]","[0.12196516502160637, -1.44883116177329, 0.12196516502160637, 0.12196516502160637, 0.12196516502160637, 0.12196516502160637]","[0.12196516502160637, -1.44883116177329, 0.12196516502160637, 0.12196516502160637, 0.12196516502160637, 0.12196516502160637]",0.002,7,1
0,114,"[0.10391905903816223, -1.4669161972454567, 0.10382110277284795, 0.10415570318188472, 0.10394003987312317, 0.10388200730085373]","[0.6150752902030945, 0.6122040152549744, 0.6145739555358887, 0.6093365550041199, 0.6098640561103821, 0.6110163331031799]","[0.12251314219190039, -1.4482831846029962, 0.12251314219190039, 0.12251314219190039, 0.12251314219190039, 0.12251314219190039]","[0.12251314219190039, -1.4482831846029962, 0.12251314219190039, 0.12251314219190039, 0.12251314219190039, 0.12251314219190039]",0.002,7,1
0,115,"[0.10508906096220016, -1.465728872721531, 0.10508472124208623, 0.10535208761181636, 0.10520797222852707, 0.10513904690742493]","[0.6106656789779663, 0.6100712418556213, 0.6091170907020569, 0.6050475239753723, 0.6078624129295349, 0.6090889573097229]","[0.12306077524099104, -1.4477355515539054, 0.12306077524099104, 0.12306077524099104, 0.12306077524099104, 0.12306077524099104]","[0.12306077524099104, -1.4477355515539054, 0.12306077524099104, 0.12306077524099104, 0.12306077524099104, 0.12306077524099104]",0.002,7,1
0,116,"[0.10627779364585876, -1.4645452362350007, 0.10626632372011358, 0.10660140096630855, 0.10641694813966751, 0.10629639029502869]","[0.6075904965400696, 0.6091762781143188, 0.6073880195617676, 0.6023739576339722, 0.6059598922729492, 0.6085591912269592]","[0.12360806263065853, -1.447188264164238, 0.12360806263065853, 0.12360806263065853, 0.12360806263065853, 0.12360806263065853]","[0.12360806263065853, -1.447188264164238, 0.12360806263065853, 0.12360806263065853, 0.12360806263065853, 0.12360806263065853]",0.002,7,1
0,117,"[0.10750942677259445, -1.4633312088302155, 0.10745174089540654, 0.10780243455853267, 0.10759095847606659, 0.10745996981859207]","[0.6025449633598328, 0.6055329442024231, 0.603302001953125, 0.596424400806427, 0.6037671566009521, 0.6060764193534851]","[0.12415500282365388, -1.4466413239712428, 0.12415500282365388, 0.12415500282365388, 0.12415500282365388, 0.12415500282365388]","[0.12415500282365388, -1.4466413239712428, 0.12415500282365388, 0.12415500282365388, 0.12415500282365388, 0.12415500282365388]",0.002,7,1
0,118,"[0.10870183259248734, -1.4620897707394143, 0.10867578188051397, 0.1089508968540649, 0.10874152183532715, 0.10865028947591782]","[0.6006646752357483, 0.6035973429679871, 0.5998942255973816, 0.592419445514679, 0.6013028621673584, 0.6046581268310547]","[0.12470159428370346, -1.446094732511193, 0.12470159428370346, 0.12470159428370346, 0.12470159428370346, 0.12470159428370346]","[0.12470159428370346, -1.446094732511193, 0.12470159428370346, 0.12470159428370346, 0.12470159428370346, 0.12470159428370346]",0.002,7,1
0,119,"[0.10997094959020615, -1.460935318177082, 0.10988456407655889, 0.11017744123425288, 0.10992835462093353, 0.10986535996198654]","[0.6011388897895813, 0.6027394533157349, 0.6008742451667786, 0.591651201248169, 0.6005542278289795, 0.6017295718193054]","[0.1252478354755131, -1.4455484913193835, 0.1252478354755131, 0.1252478354755131, 0.1252478354755131, 0.1252478354755131]","[0.1252478354755131, -1.4455484913193835, 0.1252478354755131, 0.1252478354755131, 0.1252478354755131, 0.1252478354755131]",0.002,7,1
0,120,"[0.11114616692066193, -1.459756688480713, 0.11111241975893194, 0.11135046064343257, 0.11111436039209366, 0.11106133460998535]","[0.5968857407569885, 0.6015313863754272, 0.5955106616020203, 0.5882160663604736, 0.5952035784721375, 0.5998314619064331]","[0.1257937248647725, -1.445002601930124, 0.1257937248647725, 0.1257937248647725, 0.1257937248647725, 0.1257937248647725]","[0.1257937248647725, -1.445002601930124, 0.1257937248647725, 0.1257937248647725, 0.1257937248647725, 0.1257937248647725]",0.002,7,1
0,121,"[0.11228608340024948, -1.4585479658893128, 0.11225444475282842, 0.11251930772747798, 0.1123545914888382, 0.11226308345794678]","[0.590302586555481, 0.5974737405776978, 0.593681275844574, 0.5848855972290039, 0.591089129447937, 0.5949522852897644]","[0.1263392609181595, -1.444457065876737, 0.1263392609181595, 0.1263392609181595, 0.1263392609181595, 0.1263392609181595]","[0.1263392609181595, -1.444457065876737, 0.1263392609181595, 0.1263392609181595, 0.1263392609181595, 0.1263392609181595]",0.002,7,1
0,122,"[0.11351905763149261, -1.457284801905491, 0.11342746416200811, 0.11361662923779292, 0.1134851947426796, 0.1135297566652298]","[0.587963342666626, 0.5917814373970032, 0.5857773423194885, 0.5838907957077026, 0.5880336165428162, 0.5919235944747925]","[0.1268844421033444, -1.4439118846915522, 0.1268844421033444, 0.1268844421033444, 0.1268844421033444, 0.1268844421033444]","[0.1268844421033444, -1.4439118846915522, 0.1268844421033444, 0.1268844421033444, 0.1268844421033444, 0.1268844421033444]",0.002,7,1
0,123,"[0.11468949913978577, -1.4562151294997712, 0.11463004747499639, 0.11476604520764155, 0.11468426138162613, 0.11466288566589355]","[0.584210991859436, 0.5890416502952576, 0.5836417078971863, 0.5790596008300781, 0.5864510536193848, 0.5881986618041992]","[0.12742926688899436, -1.4433670599059023, 0.12742926688899436, 0.12742926688899436, 0.12742926688899436, 0.12742926688899436]","[0.12742926688899436, -1.4433670599059023, 0.12742926688899436, 0.12742926688899436, 0.12742926688899436, 0.12742926688899436]",0.002,7,1
0,124,"[0.11581836640834808, -1.4550306734493752, 0.11569482484926397, 0.11582712709393306, 0.11585311591625214, 0.11585851013660431]","[0.5810580253601074, 0.5873827934265137, 0.5822954773902893, 0.5762492418289185, 0.5835202932357788, 0.584054708480835]","[0.12797373374477752, -1.442822593050119, 0.12797373374477752, 0.12797373374477752, 0.12797373374477752, 0.12797373374477752]","[0.12797373374477752, -1.442822593050119, 0.12797373374477752, 0.12797373374477752, 0.12797373374477752, 0.12797373374477752]",0.002,7,1
0,125,"[0.11700943857431412, -1.4538509112647553, 0.11686307588686162, 0.11695282041516109, 0.11697105318307877, 0.1170266717672348]","[0.5760964155197144, 0.5808991193771362, 0.577998697757721, 0.572424054145813, 0.5801941752433777, 0.5791159868240356]","[0.12851784114136747, -1.4422784856535291, 0.12851784114136747, 0.12851784114136747, 0.12851784114136747, 0.12851784114136747]","[0.12851784114136747, -1.4422784856535291, 0.12851784114136747, 0.12851784114136747, 0.12851784114136747, 0.12851784114136747]",0.002,7,1
0,126,"[0.11813613027334213, -1.4527407896569748, 0.11798268953432256, 0.11801986276593013, 0.1181371808052063, 0.11825507134199142]","[0.5731716156005859, 0.5740534663200378, 0.5745929479598999, 0.5698453783988953, 0.5770987868309021, 0.5737197995185852]","[0.12906158755044736, -1.4417347392444493, 0.12906158755044736, 0.12906158755044736, 0.12906158755044736, 0.12906158755044736]","[0.12906158755044736, -1.4417347392444493, 0.12906158755044736, 0.12906158755044736, 0.12906158755044736, 0.12906158755044736]",0.002,7,1
0,127,"[0.11928221583366394, -1.4515850779465218, 0.11913568178285772, 0.11921004831280513, 0.11932981759309769, 0.11936400830745697]","[0.5709876418113708, 0.5697484612464905, 0.5674691796302795, 0.5696905851364136, 0.5724475979804993, 0.569491446018219]","[0.12960497144471436, -1.4411913553501823, 0.12960497144471436, 0.12960497144471436, 0.12960497144471436, 0.12960497144471436]","[0.12960497144471436, -1.4411913553501823, 0.12960497144471436, 0.12960497144471436, 0.12960497144471436, 0.12960497144471436]",0.002,7,1
0,128,"[0.12046591192483902, -1.4503774803927918, 0.12024003664125615, 0.1202576595493774, 0.12043504416942596, 0.12048041075468063]","[0.5674942135810852, 0.5648646354675293, 0.5674293637275696, 0.5702368021011353, 0.5660341382026672, 0.5673049688339233]","[0.13014799129788393, -1.4406483354970125, 0.13014799129788393, 0.13014799129788393, 0.13014799129788393, 0.13014799129788393]","[0.13014799129788393, -1.4406483354970125, 0.13014799129788393, 0.13014799129788393, 0.13014799129788393, 0.13014799129788393]",0.002,7,1
0,129,"[0.12157579511404037, -1.449307919745781, 0.12141305605043584, 0.12141673147167964, 0.12165118008852005, 0.12167423218488693]","[0.5643290281295776, 0.5612103939056396, 0.562558650970459, 0.5679917335510254, 0.5627723336219788, 0.5608131885528564]","[0.13069064558469398, -1.4401056812102027, 0.13069064558469398, 0.13069064558469398, 0.13069064558469398, 0.13069064558469398]","[0.13069064558469398, -1.4401056812102027, 0.13069064558469398, 0.13069064558469398, 0.13069064558469398, 0.13069064558469398]",0.002,7,1
0,130,"[0.12267318367958069, -1.4481189039400597, 0.12256509462465459, 0.1225101190754394, 0.12273982167243958, 0.12281523644924164]","[0.5632905960083008, 0.5546005368232727, 0.5592657327651978, 0.5640406608581543, 0.5563428401947021, 0.5567628741264343]","[0.13123293278090936, -1.4395633940139871, 0.13123293278090936, 0.13123293278090936, 0.13123293278090936, 0.13123293278090936]","[0.13123293278090936, -1.4395633940139871, 0.13123293278090936, 0.13123293278090936, 0.13123293278090936, 0.13123293278090936]",0.002,7,1
0,131,"[0.12373196333646774, -1.4470322889140625, 0.1235588232623499, 0.12364058076824946, 0.12387880682945251, 0.12387454509735107]","[0.5553852319717407, 0.5491735935211182, 0.5540525317192078, 0.5602405071258545, 0.5538462996482849, 0.5511850118637085]","[0.1317748513633259, -1.4390214754315707, 0.1317748513633259, 0.1317748513633259, 0.1317748513633259, 0.1317748513633259]","[0.1317748513633259, -1.4390214754315707, 0.1317748513633259, 0.1317748513633259, 0.1317748513633259, 0.1317748513633259]",0.002,7,1
0,132,"[0.12477099150419235, -1.445925624375679, 0.12474471727480108, 0.12471966325726314, 0.12505054473876953, 0.12502141296863556]","[0.5483008623123169, 0.5448557138442993, 0.549380898475647, 0.5562223792076111, 0.5493255853652954, 0.546108603477478]","[0.1323163998097749, -1.4384799269851216, 0.1323163998097749, 0.1323163998097749, 0.1323163998097749, 0.1323163998097749]","[0.1323163998097749, -1.4384799269851216, 0.1323163998097749, 0.1323163998097749, 0.1323163998097749, 0.1323163998097749]",0.002,7,1
0,133,"[0.1258888989686966, -1.4448247265866776, 0.12588864961733037, 0.1257762151905517, 0.12607334554195404, 0.12611229717731476]","[0.5445469617843628, 0.5390319228172302, 0.54529869556427, 0.552028477191925, 0.5431506037712097, 0.5428101420402527]","[0.13285757659912725, -1.4379387501957692, 0.13285757659912725, 0.13285757659912725, 0.13285757659912725, 0.13285757659912725]","[0.13285757659912725, -1.4379387501957692, 0.13285757659912725, 0.13285757659912725, 0.13285757659912725, 0.13285757659912725]",0.002,7,1
0,134,"[0.12700790166854858, -1.4437226367047806, 0.1269305388080042, 0.12691514074291987, 0.1271996945142746, 0.12721635401248932]","[0.5402950048446655, 0.5356390476226807, 0.5412361025810242, 0.5482412576675415, 0.5393518209457397, 0.5385494232177734]","[0.13339838021129782, -1.4373979465835987, 0.13339838021129782, 0.13339838021129782, 0.13339838021129782, 0.13339838021129782]","[0.13339838021129782, -1.4373979465835987, 0.13339838021129782, 0.13339838021129782, 0.13339838021129782, 0.13339838021129782]",0.002,7,1
0,135,"[0.12809816002845764, -1.442608819609024, 0.12809592882265264, 0.12801937639202876, 0.12824958562850952, 0.12826493382453918]","[0.5384666919708252, 0.5332563519477844, 0.5394019484519958, 0.5413391590118408, 0.5350985527038574, 0.5339952707290649]","[0.13393880912724965, -1.4368575176676468, 0.13393880912724965, 0.13393880912724965, 0.13393880912724965, 0.13393880912724965]","[0.13393880912724965, -1.4368575176676468, 0.13393880912724965, 0.13393880912724965, 0.13393880912724965, 0.13393880912724965]",0.002,7,1
0,136,"[0.12908220291137695, -1.4415795368007203, 0.12910491624941045, 0.1291324335285644, 0.12936504185199738, 0.1293201893568039]","[0.5349208116531372, 0.5293123126029968, 0.5318753123283386, 0.5372156500816345, 0.5285581350326538, 0.5271841287612915]","[0.13447886182899826, -1.4363174649658983, 0.13447886182899826, 0.13447886182899826, 0.13447886182899826, 0.13447886182899826]","[0.13447886182899826, -1.4363174649658983, 0.13447886182899826, 0.13447886182899826, 0.13447886182899826, 0.13447886182899826]",0.002,7,1
0,137,"[0.13021834194660187, -1.4404859405807038, 0.13024551073183233, 0.13028351842846675, 0.13033679127693176, 0.1303381323814392]","[0.5285056829452515, 0.5219751000404358, 0.5265167355537415, 0.5349342226982117, 0.5226029753684998, 0.5248067378997803]","[0.1350185367996159, -1.4357777899952806, 0.1350185367996159, 0.1350185367996159, 0.1350185367996159, 0.1350185367996159]","[0.1350185367996159, -1.4357777899952806, 0.1350185367996159, 0.1350185367996159, 0.1350185367996159, 0.1350185367996159]",0.002,7,1
0,138,"[0.13124771416187286, -1.4394687426141282, 0.131263558064596, 0.13134078561749263, 0.1313641518354416, 0.13139608502388]","[0.5218437314033508, 0.5163542032241821, 0.5237202644348145, 0.5286318063735962, 0.5193348526954651, 0.5200459957122803]","[0.13555783252323578, -1.4352384942716607, 0.13555783252323578, 0.13555783252323578, 0.13555783252323578, 0.13555783252323578]","[0.13555783252323578, -1.4352384942716607, 0.13555783252323578, 0.13555783252323578, 0.13555783252323578, 0.13555783252323578]",0.002,7,1
0,139,"[0.13238906860351562, -1.438413382773735, 0.1323636213885706, 0.13241521894421382, 0.13242492079734802, 0.13238461315631866]","[0.518589973449707, 0.5160819292068481, 0.5213665962219238, 0.5205314755439758, 0.514366626739502, 0.515838623046875]","[0.13609674748505646, -1.43469957930984, 0.13609674748505646, 0.13609674748505646, 0.13609674748505646, 0.13609674748505646]","[0.13609674748505646, -1.43469957930984, 0.13609674748505646, 0.13609674748505646, 0.13609674748505646, 0.13609674748505646]",0.002,7,1
0,140,"[0.1333538442850113, -1.4373772752336045, 0.13333017030824834, 0.13344256460156245, 0.13347578048706055, 0.13339084386825562]","[0.5137616991996765, 0.5109899044036865, 0.5177127718925476, 0.5127759575843811, 0.5108767747879028, 0.510398268699646]","[0.13663528017134585, -1.4341610466235508, 0.13663528017134585, 0.13663528017134585, 0.13663528017134585, 0.13663528017134585]","[0.13663528017134585, -1.4341610466235508, 0.13663528017134585, 0.13663528017134585, 0.13663528017134585, 0.13663528017134585]",0.002,7,1
0,141,"[0.13437733054161072, -1.4364030373147507, 0.13435680070985967, 0.13452379285778804, 0.13442419469356537, 0.1343594640493393]","[0.5083683133125305, 0.510196328163147, 0.512984573841095, 0.5071850419044495, 0.5071412920951843, 0.5073872804641724]","[0.1371734290694457, -1.4336228977254508, 0.1371734290694457, 0.1371734290694457, 0.1371734290694457, 0.1371734290694457]","[0.1371734290694457, -1.4336228977254508, 0.1371734290694457, 0.1371734290694457, 0.1371734290694457, 0.1371734290694457]",0.002,7,1
0,142,"[0.13537481427192688, -1.4353390795043488, 0.13536292711366826, 0.1355336147495727, 0.13537323474884033, 0.1353902816772461]","[0.5037962198257446, 0.5046570897102356, 0.5029649138450623, 0.5031269192695618, 0.5015994310379028, 0.5020074844360352]","[0.13771119266777582, -1.4330851341271207, 0.13771119266777582, 0.13771119266777582, 0.13771119266777582, 0.13771119266777582]","[0.13771119266777582, -1.4330851341271207, 0.13771119266777582, 0.13771119266777582, 0.13771119266777582, 0.13771119266777582]",0.002,7,1
0,143,"[0.1363440901041031, -1.434357003574707, 0.13639718690981084, 0.1365021902271728, 0.1363646537065506, 0.13639187812805176]","[0.4971732795238495, 0.503785252571106, 0.49782997369766235, 0.4979950487613678, 0.4968251585960388, 0.4996300935745239]","[0.13824856945583813, -1.4325477573390584, 0.13824856945583813, 0.13824856945583813, 0.13824856945583813, 0.13824856945583813]","[0.13824856945583813, -1.4325477573390584, 0.13824856945583813, 0.13824856945583813, 0.13824856945583813, 0.13824856945583813]",0.002,7,1
