Arnibjarnst/BoxLift/logs/ur_rtde/trajectory_dur=10.0_delay=0.0_gain=100_lh=0.1_real.csv
arm_idx,step,actual_q,actual_qd,target_q,expected_q,loop_time,robot_mode,safety_mode
0,-1,"[0.08890488743782043, -1.493464933042862, 0.08096534410585576, 0.0782053905674438, 0.0750214159488678, 0.0825282409787178]","[-0.04706548526883125, -0.040234342217445374, -0.0426379069685936, -0.03994419053196907, -0.038559962064027786, -0.04144633933901787]","[0.0, -1.5707963267948966, 0.0, 0.0, 0.0, 0.0]","[0.0, -1.5707963267948966, 0.0, 0.0, 0.0, 0.0]",0.002,7,1
0,-1,"[0.08811481297016144, -1.4942168977907677, 0.08019620576967412, 0.07742778837170405, 0.07434778660535812, 0.08170691132545471]","[-0.06250208616256714, -0.05395221337676048, -0.05597773939371109, -0.055619433522224426, -0.05298856645822525, -0.05604339390993118]","[0.0, -1.5707963267948966, 0.0, 0.0, 0.0, 0.0]","[0.0, -1.5707963267948966, 0.0, 0.0, 0.0, 0.0]",0.002,7,1
0,-1,"[0.08757880330085754, -1.4946388465217133, 0.0797656218158167, 0.07698802530255122, 0.0738796517252922, 0.08124052733182907]","[-0.0697338879108429, -0.060134705156087875, -0.06301884353160858, -0.06178520619869232, -0.05908752605319023, -0.06521845608949661]","[0.0, -1.5707963267948966, 0.0, 0.0, 0.0, 0.0]","[0.0, -1.5707963267948966, 0.0, 0.0, 0.0, 0.0]",0.002,7,1
0,-1,"[0.08672939985990524, -1.4953156125596543, 0.07906943956484014, 0.07625703393902583, 0.07327613234519958, 0.08050321042537689]","[-0.0793059691786766, -0.06787862628698349, -0.07332798093557358, -0.07147427648305893, -0.06967542320489883, -0.07550950348377228]","[0.0, -1.5707963267948966, 0.0, 0.0, 0.0, 0.0]","[0.0, -1.5707963267948966, 0.0, 0.0, 0.0, 0.0]",0.002,7,1
0,-1,"[0.08584263920783997, -1.4960176435163994, 0.0782402197467249, 0.07544390737499995, 0.07257896661758423, 0.07962694019079208]","[-0.09039321541786194, -0.07690612226724625, -0.08238127827644348, -0.07973455637693405, -0.0776037722826004, -0.08506320416927338]","[0.0, -1.5707963267948966, 0.0, 0.0, 0.0, 0.0]","[0.0, -1.5707963267948966, 0.0, 0.0, 0.0, 0.0]",0.002,7,1
0,-1,"[0.08426510542631149, -1.4973736491850396, 0.07682401338686162, 0.07407526552166743, 0.07113655656576157, 0.07818910479545593]","[-0.10735422372817993, -0.09290167689323425, -0.09766989201307297, -0.09212633967399597, -0.09458912163972855, -0.09840463846921921]","[0.0, -1.5707963267948966, 0.0, 0.0, 0.0, 0.0]","[0.0, -1.5707963267948966, 0.0, 0.0, 0.0, 0.0]",0.002,7,1
0,-1,"[0.08337929844856262, -1.4981649455479165, 0.07602006593813115, 0.07328252374615474, 0.07042375206947327, 0.07738518714904785]","[-0.11431138217449188, -0.09980978816747665, -0.10378677397966385, -0.09891583025455475, -0.0999140590429306, -0.10557430237531662]","[0.0, -1.5707963267948966, 0.0, 0.0, 0.0, 0.0]","[0.0, -1.5707963267948966, 0.0, 0.0, 0.0, 0.0]",0.002,7,1
0,-1,"[0.08212621510028839, -1.4992049571922799, 0.0748665968524378, 0.07214300214733882, 0.06945561617612839, 0.07620472460985184]","[-0.12503275275230408, -0.11091551184654236, -0.11494791507720947, -0.10776367038488388, -0.106498584151268, -0.11402344703674316]","[0.0, -1.5707963267948966, 0.0, 0.0, 0.0, 0.0]","[0.0, -1.5707963267948966, 0.0, 0.0, 0.0, 0.0]",0.002,7,1
0,-1,"[0.08023276925086975, -1.5008485701731225, 0.07316095033754522, 0.07045678674664302, 0.06776287406682968, 0.07460687309503555]","[-0.13866084814071655, -0.12140101194381714, -0.1265583336353302, -0.11816726624965668, -0.11715540289878845, -0.12786135077476501]","[0.0, -1.5707963267948966, 0.0, 0.0, 0.0, 0.0]","[0.0, -1.5707963267948966, 0.0, 0.0, 0.0, 0.0]",0.002,7,1
0,-1,"[0.07850763946771622, -1.5023832705667992, 0.07157355943788701, 0.06893972932781978, 0.0663207471370697, 0.07292257249355316]","[-0.1496022492647171, -0.13140106201171875, -0.1403995007276535, -0.13106770813465118, -0.13015678524971008, -0.14094758033752441]","[0.0, -1.5707963267948966, 0.0, 0.0, 0.0, 0.0]","[0.0, -1.5707963267948966, 0.0, 0.0, 0.0, 0.0]",0.002,7,1
0,-1,"[0.07559442520141602, -1.504938082104065, 0.06887180009950811, 0.06645135461773677, 0.06383019685745239, 0.07026377320289612]","[-0.16772732138633728, -0.14739835262298584, -0.15372128784656525, -0.14366641640663147, -0.14425376057624817, -0.15843266248703003]","[0.0, -1.5707963267948966, 0.0, 0.0, 0.0, 0.0]","[0.0, -1.5707963267948966, 0.0, 0.0, 0.0, 0.0]",0.002,7,1
0,-1,"[0.07236310839653015, -1.5076793146184464, 0.06602937379945928, 0.06366650640454097, 0.061080072075128555, 0.06734538078308105]","[-0.18591900169849396, -0.1632651686668396, -0.16957437992095947, -0.15761113166809082, -0.15740075707435608, -0.1741817444562912]","[0.0, -1.5707963267948966, 0.0, 0.0, 0.0, 0.0]","[0.0, -1.5707963267948966, 0.0, 0.0, 0.0, 0.0]",0.002,7,1
0,-1,"[0.07003574818372726, -1.5096326147070904, 0.06390077272524053, 0.061586304301879835, 0.059091199189424515, 0.0651378184556961]","[-0.1980624943971634, -0.1710911989212036, -0.17895808815956116, -0.17303316295146942, -0.16797974705696106, -0.18604561686515808]","[0.0, -1.5707963267948966, 0.0, 0.0, 0.0, 0.0]","[0.0, -1.5707963267948966, 0.0, 0.0, 0.0, 0.0]",0.002,7,1
0,-1,"[0.06758111715316772, -1.511836727415659, 0.06158334413637334, 0.05942527830090327, 0.0570179782807827, 0.06280270218849182]","[-0.2097434401512146, -0.18159571290016174, -0.19006609916687012, -0.18038517236709595, -0.17398084700107574, -0.19826756417751312]","[0.0, -1.5707963267948966, 0.0, 0.0, 0.0, 0.0]","[0.0, -1.5707963267948966, 0.0, 0.0, 0.0, 0.0]",0.002,7,1
0,-1,"[0.06359294056892395, -1.5153343056193371, 0.058066670094625294, 0.05609576284374995, 0.053728137165308, 0.05915850028395653]","[-0.22664296627044678, -0.19925415515899658, -0.20631606876850128, -0.20058414340019226, -0.18931697309017181, -0.2111038714647293]","[0.0, -1.5707963267948966, 0.0, 0.0, 0.0, 0.0]","[0.0, -1.5707963267948966, 0.0, 0.0, 0.0, 0.0]",0.002,7,1
0,-1,"[0.05981546640396118, -1.5186240908554574, 0.05457193056215459, 0.05287007867779536, 0.05055001378059387, 0.05556775629520416]","[-0.24144220352172852, -0.21027924120426178, -0.22228747606277466, -0.21778486669063568, -0.20435671508312225, -0.22673846781253815]","[0.0, -1.5707963267948966, 0.0, 0.0, 0.0, 0.0]","[0.0, -1.5707963267948966, 0.0, 0.0, 0.0, 0.0]",0.002,7,1
0,-1,"[0.05788448825478554, -1.5203624454191704, 0.05277139345277959, 0.05115787565197749, 0.04887549579143524, 0.053634725511074066]","[-0.2504837214946747, -0.21802325546741486, -0.22865068912506104, -0.2284439206123352, -0.21225105226039886, -0.23269979655742645]","[0.0, -1.5707963267948966, 0.0, 0.0, 0.0, 0.0]","[0.0, -1.5707963267948966, 0.0, 0.0, 0.0, 0.0]",0.002,7,1
0,-1,"[0.05584752559661865, -1.5221699339202424, 0.05092746416200811, 0.04928211748089595, 0.04716736078262329, 0.051752906292676926]","[-0.2587069272994995, -0.22601376473903656, -0.23681479692459106, -0.23635292053222656, -0.2206498384475708, -0.2401413470506668]","[0.0, -1.5707963267948966, 0.0, 0.0, 0.0, 0.0]","[0.0, -1.5707963267948966, 0.0, 0.0, 0.0, 0.0]",0.002,7,1
0,-1,"[0.05316966027021408, -1.5244956512800236, 0.04853231111635381, 0.0468790966221313, 0.044967107474803925, 0.04929773882031441]","[-0.27135875821113586, -0.23429185152053833, -0.24542030692100525, -0.2433464378118515, -0.23131850361824036, -0.2476401925086975]","[0.0, -1.5707963267948966, 0.0, 0.0, 0.0, 0.0]","[0.0, -1.5707963267948966, 0.0, 0.0, 0.0, 0.0]",0.002,7,1
0,-1,"[0.04988505318760872, -1.5273413185826321, 0.04554444948305303, 0.04387657224621577, 0.04215306416153908, 0.04619992524385452]","[-0.28110113739967346, -0.245376855134964, -0.25704190135002136, -0.25199970602989197, -0.241195410490036, -0.26096460223197937]","[0.0, -1.5707963267948966, 0.0, 0.0, 0.0, 0.0]","[0.0, -1.5707963267948966, 0.0, 0.0, 0.0, 0.0]",0.002,7,1
0,-1,"[0.0463758185505867, -1.5302954402616997, 0.042371575032369435, 0.040806933040283155, 0.03920983895659447, 0.04301650449633598]","[-0.29451289772987366, -0.25510334968566895, -0.2689235508441925, -0.2609812915325165, -0.2509974539279938, -0.2729794383049011]","[0.0, -1.5707963267948966, 0.0, 0.0, 0.0, 0.0]","[0.0, -1.5707963267948966, 0.0, 0.0, 0.0, 0.0]",0.002,7,1
0,-1,"[0.04277078062295914, -1.533291259115078, 0.03910285631288701, 0.03751759111370845, 0.036164164543151855, 0.03983171284198761]","[-0.2967055141925812, -0.21720845997333527, -0.2523072361946106, -0.25138717889785767, -0.24796558916568756, -0.27049171924591064]","[0.0, -1.5707963267948966, 0.0, 0.0, 0.0, 0.0]","[0.0, -1.5707963267948966, 0.0, 0.0, 0.0, 0.0]",0.002,7,1
0,-1,"[0.03941822424530983, -1.536127657895424, 0.03603870073427373, 0.03450147687878413, 0.033251434564590454, 0.036694563925266266]","[-0.27693718671798706, -0.261343777179718, -0.25910016894340515, -0.23877009749412537, -0.23819413781166077, -0.26307564973831177]","[0.0, -1.5707963267948966, 0.0, 0.0, 0.0, 0.0]","[0.0, -1.5707963267948966, 0.0, 0.0, 0.0, 0.0]",0.002,7,1
0,-1,"[0.03394708037376404, -1.540977196102478, 0.031009976063863576, 0.029727860088012648, 0.028682980686426163, 0.031606849282979965]","[-0.26049333810806274, -0.22922146320343018, -0.2380000799894333, -0.2260533571243286, -0.2209177166223526, -0.24420985579490662]","[0.0, -1.5707963267948966, 0.0, 0.0, 0.0, 0.0]","[0.0, -1.5707963267948966, 0.0, 0.0, 0.0, 0.0]",0.002,7,1
0,-1,"[0.030931351706385612, -1.5436682917973776, 0.028255764638082326, 0.02714662134136958, 0.02605387009680271, 0.028753694146871567]","[-0.24772340059280396, -0.2172355055809021, -0.22396248579025269, -0.21604691445827484, -0.20741702616214752, -0.23162353038787842]","[0.0, -1.5707963267948966, 0.0, 0.0, 0.0, 0.0]","[0.0, -1.5707963267948966, 0.0, 0.0, 0.0, 0.0]",0.002,7,1
0,-1,"[0.027578309178352356, -1.5466829550317307, 0.025252644215719044, 0.02424745141949458, 0.023283453658223152, 0.025603413581848145]","[-0.2353590726852417, -0.205957293510437, -0.2138478308916092, -0.20525042712688446, -0.19573086500167847, -0.21822337806224823]","[0.0, -1.5707963267948966, 0.0, 0.0, 0.0, 0.0]","[0.0, -1.5707963267948966, 0.0, 0.0, 0.0, 0.0]",0.002,7,1
0,-1,"[0.02066068723797798, -1.552983396952488, 0.018796269093648732, 0.018243237132690382, 0.017326083034276962, 0.019083082675933838]","[-0.20297309756278992, -0.17920005321502686, -0.1869451105594635, -0.18403621017932892, -0.17132757604122162, -0.18612319231033325]","[0.0, -1.5707963267948966, 0.0, 0.0, 0.0, 0.0]","[0.0, -1.5707963267948966, 0.0, 0.0, 0.0, 0.0]",0.002,7,1
0,-1,"[0.019084373489022255, -1.5543485798737784, 0.017359558735982716, 0.016747160548828077, 0.01601002924144268, 0.017600132152438164]","[-0.19639234244823456, -0.16989800333976746, -0.17912746965885162, -0.17721740901470184, -0.1654452085494995, -0.18083946406841278]","[0.0, -1.5707963267948966, 0.0, 0.0, 0.0, 0.0]","[0.0, -1.5707963267948966, 0.0, 0.0, 0.0, 0.0]",0.002,7,1
0,-1,"[0.015734892338514328, -1.5572406251779576, 0.01432210603822881, 0.01385442792858882, 0.013255666941404343, 0.014575118198990822]","[-0.17753295600414276, -0.15550263226032257, -0.16325727105140686, -0.15978938341140747, -0.14965391159057617, -0.1656712293624878]","[0.0, -1.5707963267948966, 0.0, 0.0, 0.0, 0.0]","[0.0, -1.5707963267948966, 0.0, 0.0, 0.0, 0.0]",0.002,7,1
0,-1,"[0.012646228075027466, -1.5598171840286632, 0.011545483266012013, 0.011141939754150343, 0.010680854320526123, 0.011793543584644794]","[-0.15983739495277405, -0.13699407875537872, -0.14651630818843842, -0.14025910198688507, -0.1370571106672287, -0.14858463406562805]","[0.0, -1.5707963267948966, 0.0, 0.0, 0.0, 0.0]","[0.0, -1.5707963267948966, 0.0, 0.0, 0.0, 0.0]",0.002,7,1
0,-1,"[0.010671352036297321, -1.5613313711113115, 0.009869400654928029, 0.009482308025024366, 0.009148716926574707, 0.010109879076480865]","[-0.1476985514163971, -0.12636038661003113, -0.1353560984134674, -0.12899334728717804, -0.12584969401359558, -0.13750965893268585]","[0.0, -1.5707963267948966, 0.0, 0.0, 0.0, 0.0]","[0.0, -1.5707963267948966, 0.0, 0.0, 0.0, 0.0]",0.002,7,1
0,-1,"[0.008822700008749962, -1.5629751293784757, 0.008002106343404591, 0.007699771518371534, 0.007482022047042847, 0.008271913975477219]","[-0.13225381076335907, -0.11535920202732086, -0.1231062039732933, -0.11600339412689209, -0.11318887770175934, -0.12572506070137024]","[0.0, -1.5707963267948966, 0.0, 0.0, 0.0, 0.0]","[0.0, -1.5707963267948966, 0.0, 0.0, 0.0, 0.0]",0.002,7,1
0,-1,"[0.006627495866268873, -1.5649787902696808, 0.005974117909566701, 0.005706830615661573, 0.005592016037553549, 0.006233629770576954]","[-0.11489006131887436, -0.10392475128173828, -0.10677889734506607, -0.10018111765384674, -0.09766838699579239, -0.11158514767885208]","[0.0, -1.5707963267948966, 0.0, 0.0, 0.0, 0.0]","[0.0, -1.5707963267948966, 0.0, 0.0, 0.0, 0.0]",0.002,7,1
0,-1,"[0.0054547712206840515, -1.5659671610086043, 0.004980866109029591, 0.004833860988281202, 0.00473982747644186, 0.005206473637372255]","[-0.10523544996976852, -0.09472977370023727, -0.09777775406837463, -0.0897579938173294, -0.09156101197004318, -0.10013629496097565]","[0.0, -1.5707963267948966, 0.0, 0.0, 0.0, 0.0]","[0.0, -1.5707963267948966, 0.0, 0.0, 0.0, 0.0]",0.002,7,1
0,-1,"[0.003530298126861453, -1.5675770195997139, 0.0032299200641077164, 0.003073855037353468, 0.0031016420107334852, 0.003374079242348671]","[-0.08537710458040237, -0.07502824813127518, -0.07770590484142303, -0.07348653674125671, -0.07100401818752289, -0.08038341253995895]","[0.0, -1.5707963267948966, 0.0, 0.0, 0.0, 0.0]","[0.0, -1.5707963267948966, 0.0, 0.0, 0.0, 0.0]",0.002,7,1
0,-1,"[0.002580289263278246, -1.5684573953370382, 0.0023453871356409195, 0.002322240466735792, 0.002255890751257539, 0.002462762873619795]","[-0.07276906818151474, -0.0666453167796135, -0.06735500693321228, -0.06291718035936356, -0.06395064294338226, -0.06824496388435364]","[0.0, -1.5707963267948966, 0.0, 0.0, 0.0, 0.0]","[0.0, -1.5707963267948966, 0.0, 0.0, 0.0, 0.0]",0.002,7,1
0,-1,"[0.0014414271572604775, -1.5695285298027848, 0.0012839476214807632, 0.0013046699711303233, 0.001253761351108551, 0.0014326978707686067]","[-0.05515993386507034, -0.052374981343746185, -0.05044633150100708, -0.049059636890888214, -0.047398146241903305, -0.05192083120346069]","[0.0, -1.5707963267948966, 0.0, 0.0, 0.0, 0.0]","[0.0, -1.5707963267948966, 0.0, 0.0, 0.0, 0.0]",0.002,7,1
0,-1,"[0.0008817949565127492, -1.5700401282850471, 0.0007312933551233414, 0.000827475185058546, 0.0007952185114845634, 0.0008775018504820764]","[-0.042840421199798584, -0.038521647453308105, -0.03997591882944107, -0.03718700259923935, -0.037735141813755035, -0.04134513810276985]","[0.0, -1.5707963267948966, 0.0, 0.0, 0.0, 0.0]","[0.0, -1.5707963267948966, 0.0, 0.0, 0.0, 0.0]",0.002,7,1
0,-1,"[0.00029814880690537393, -1.5705997422959008, 0.00017530122865849762, 0.00023452817883296007, 0.0002902507840190083, 0.00030646324739791453]","[-0.02545887418091297, -0.02519606612622738, -0.023229431360960007, -0.02279004454612732, -0.021859867498278618, -0.023265959694981575]","[0.0, -1.5707963267948966, 0.0, 0.0, 0.0, 0.0]","[0.0, -1.5707963267948966, 0.0, 0.0, 0.0, 0.0]",0.002,7,1
0,-1,"[5.054473876953125e-05, -1.5708862743773402, -7.200265099527314e-05, -2.5109653808641497e-05, 3.766464942600578e-05, 9.172368299914524e-05]","[-0.008982319384813309, -0.010338319465517998, -0.009627080522477627, -0.008816814981400967, -0.00813872180879116, -0.008071716874837875]","[0.0, -1.5707963267948966, 0.0, 0.0, 0.0, 0.0]","[0.0, -1.5707963267948966, 0.0, 0.0, 0.0, 0.0]",0.002,7,1
0,-1,"[1.4543533325195312e-05, -1.5709387264647425, -8.27670082799159e-05, 4.987298931879991e-05, 8.264779899036512e-05, 7.510185241699219e-05]","[-1.78839654836338e-05, -4.242087743477896e-05, 0.003130679950118065, 0.00584526639431715, 0.006528997793793678, 0.004372377414256334]","[0.0, -1.5707963267948966, 0.0, 0.0, 0.0, 0.0]","[0.0, -1.5707963267948966, 0.0, 0.0, 0.0, 0.0]",0.002,7,1
0,-1,"[4.619038736564107e-05, -1.570902486840719, -7.93576255091466e-05, 3.950178112788194e-05, 6.030287840985693e-05, 0.0001035571112879552]","[0.002375626703724265, -0.003084312193095684, -3.709398515638895e-05, 1.2314955029069097e-06, 0.0006848275079391897, 0.0008211456588469446]","[0.0, -1.5707963267948966, 0.0, 0.0, 0.0, 0.0]","[0.0, -1.5707963267948966, 0.0, 0.0, 0.0, 0.0]",0.002,7,1
0,-1,"[6.246566772460938e-05, -1.5708347759642542, 2.080598940068512e-05, 6.465494122309678e-05, 6.916359416209161e-05, 2.935743577836547e-05]","[0.0003814163792412728, 0.003025686601176858, 0.00259804492816329, 0.0004156601498834789, -0.00018651908612810075, 0.0003914502449333668]","[0.0, -1.5707963267948966, 0.0, 0.0, 0.0, 0.0]","[0.0, -1.5707963267948966, 0.0, 0.0, 0.0, 0.0]",0.002,7,1
0,-1,"[8.345370588358492e-05, -1.5707097116504265, 1.6514454976856996e-05, 6.77543827514171e-05, 4.9924849008675665e-05, 9.172368299914524e-05]","[9.822062867897996e-13, 0.002496200380846858, 0.0016084874514490366, 8.318344771396369e-05, -0.0006007661577314138, -9.193667938234285e-05]","[0.0, -1.5707963267948966, 0.0, 0.0, 0.0, 0.0]","[0.0, -1.5707963267948966, 0.0, 0.0, 0.0, 0.0]",0.002,7,1
0,-1,"[0.00010733833187259734, -1.5708166561522425, -2.8318139811744913e-05, 3.199159588618272e-05, 6.183689401950687e-05, 1.7376662071910687e-05]","[1.0310056697163885e-27, 0.00031756897806189954, 0.0002701181801967323, -0.0003783151332754642, -0.0006454774993471801, -0.000581144995521754]","[0.0, -1.5707963267948966, 0.0, 0.0, 0.0, 0.0]","[0.0, -1.5707963267948966, 0.0, 0.0, 0.0, 0.0]",0.002,7,1
0,-1,"[9.089141531148925e-05, -1.570762325227708, 4.178682436162262e-05, 8.253633465571397e-05, 7.823701889719814e-05, 9.609865810489282e-05]","[4.4814910493029174e-37, 5.3574975567016736e-08, 7.714016101090237e-05, -0.0005818093195557594, -0.0009848977206274867, -0.0005317910690791905]","[0.0, -1.5707963267948966, 0.0, 0.0, 0.0, 0.0]","[0.0, -1.5707963267948966, 0.0, 0.0, 0.0, 0.0]",0.002,7,1
0,-1,"[0.00010735583055065945, -1.5707580156525474, -5.754519406764302e-06, 2.0070666931104597e-05, 5.435943603515625e-05, 9.609866538085043e-05]","[0.0, -0.0005070630577392876, 1.7493628073905754e-12, -0.000523420050740242, -0.0010477364994585514, -0.0007724137394689023]","[0.0, -1.5707963267948966, 0.0, 0.0, 0.0, 0.0]","[0.0, -1.5707963267948966, 0.0, 0.0, 0.0, 0.0]",0.002,7,1
0,-1,"[7.457216997863725e-05, -1.5707655224617447, 5.0846730367481996e-05, 2.4481410644483503e-05, -1.5560780660450746e-05, 5.125999450683594e-05]","[0.0, -0.00026664024335332215, 1.8362767499180434e-27, -0.0004403663333505392, -0.001033207168802619, -0.0008484381251037121]","[0.0, -1.5707963267948966, 0.0, 0.0, 0.0, 0.0]","[0.0, -1.5707963267948966, 0.0, 0.0, 0.0, 0.0]",0.002,7,1
0,-1,"[0.00010301922884536907, -1.5707458404325116, -2.8309103072388098e-05, 5.273401226801866e-05, 5.890955071663484e-05, 3.933906555175781e-05]","[0.0, -0.0001302419841522351, 5.949317532615089e-35, -0.0006204031524248421, -0.001111608580686152, -0.000806716619990766]","[0.0, -1.5707963267948966, 0.0, 0.0, 0.0, 0.0]","[0.0, -1.5707963267948966, 0.0, 0.0, 0.0, 0.0]",0.002,7,1
0,-1,"[6.682872481178492e-05, -1.5707208070637826, -3.734560596058145e-05, -1.3307934143114153e-05, 4.992957656213548e-06, -2.2236500875294496e-05]","[0.0, 0.00019286373571958393, 0.0, -0.0006719133234582841, -0.0006529405363835394, -0.0007258509285748005]","[0.0, -1.5707963267948966, 0.0, 0.0, 0.0, 0.0]","[0.0, -1.5707963267948966, 0.0, 0.0, 0.0, 0.0]",0.002,7,1
0,-1,"[6.684065010631457e-05, -1.570750221137434, -2.089755071210675e-05, 3.0237385253428783e-06, 1.9729736777662765e-06, 5.563497688854113e-05]","[0.0, 0.0002978015400003642, -0.0, -0.0004534608742687851, -0.0004275469691492617, -0.0006601179484277964]","[0.0, -1.5707963267948966, 0.0, 0.0, 0.0, 0.0]","[0.0, -1.5707963267948966, 0.0, 0.0, 0.0, 0.0]",0.002,7,1
0,-1,"[9.09474038053304e-05, -1.5708195171751917, 8.885060445606996e-06, -2.057970080571181e-05, -3.0819569722950746e-05, 3.592967914300971e-05]","[0.0, -0.00014190546062309295, -0.0, -0.00037409691140055656, -0.00023391118156723678, -0.00039024127181619406]","[0.0, -1.5707963267948966, 0.0, 0.0, 0.0, 0.0]","[0.0, -1.5707963267948966, 0.0, 0.0, 0.0, 0.0]",0.002,7,1
0,-1,"[7.45898432796821e-05, -1.5707906049541016, -1.9281900677015074e-05, 1.2083644531202253e-05, 3.0288047128124163e-05, 1.52587890625e-05]","[0.0, -0.00024065520847216249, -0.0, -0.0003485534689389169, -0.00021660263882949948, -0.0002424749982310459]","[0.0, -1.5707963267948966, 0.0, 0.0, 0.0, 0.0]","[0.0, -1.5707963267948966, 0.0, 0.0, 0.0, 0.0]",0.002,7,1
0,-1,"[6.58313074382022e-05, -1.5707545862172374, -2.842951744241873e-06, 7.434482238721785e-06, 1.5501984307775274e-05, 1.0895728337345645e-05]","[0.0, -0.00028277921956032515, -0.0, -0.0002766053075902164, -0.0002712129498831928, -0.00020330077677499503]","[0.0, -1.5707963267948966, 0.0, 0.0, 0.0, 0.0]","[0.0, -1.5707963267948966, 0.0, 0.0, 0.0, 0.0]",0.002,7,1
0,-1,"[7.023232319625095e-05, -1.5707741681784064, 2.080598940068512e-05, 2.4481410644483503e-05, 2.026795300480444e-06, 3.337860107421875e-06]","[0.0, -0.00017213319370057434, -0.0, -0.0002194560074713081, -0.00025043109781108797, -0.00019960099598392844]","[0.0, -1.5707963267948966, 0.0, 0.0, 0.0, 0.0]","[0.0, -1.5707963267948966, 0.0, 0.0, 0.0, 0.0]",0.002,7,1
0,-1,"[5.800318831461482e-05, -1.5707590211753377, 2.7958546773731996e-05, -8.897190429735247e-06, -3.0819569722950746e-05, 3.741308319149539e-05]","[-0.0001744463515933603, 0.00012769599561579525, -0.0, -0.0002117172844009474, -0.00021061637380626053, -0.00019692190107889473]","[0.0, -1.5707963267948966, 0.0, 0.0, 0.0, 0.0]","[0.0, -1.5707963267948966, 0.0, 0.0, 0.0, 0.0]",0.002,7,1
0,-1,"[4.6137858589645475e-05, -1.5707754091057105, -7.343042398133548e-06, 3.1429478148936596e-06, -6.372133363896637e-05, -3.415742983037262e-05]","[-0.00019305991008877754, 0.00017731431580614299, -0.0, -0.00019989274733234197, -0.0002002639666898176, -0.0001670728379394859]","[0.0, -1.5707963267948966, 0.0, 0.0, 0.0, 0.0]","[0.0, -1.5707963267948966, 0.0, 0.0, 0.0, 0.0]",0.002,7,1
0,-1,"[4.17072769778315e-05, -1.5707010009831102, 1.3176594869435121e-05, 2.0070666931104597e-05, -3.0819569722950746e-05, -8.885060445606996e-06]","[-0.0003148399118799716, 0.00014345237286761403, -0.0, -0.00019700464326888323, -0.0001759829028742388, -0.00016909310943447053]","[0.0, -1.5707963267948966, 0.0, 0.0, 0.0, 0.0]","[0.0, -1.5707963267948966, 0.0, 0.0, 0.0, 0.0]",0.002,7,1
0,-1,"[7.125937554519624e-05, -1.5707622609118808, 8.885060445606996e-06, 2.901136364741319e-05, 8.111611532513052e-05, 5.259647514321841e-05]","[-0.00023675004194956273, 9.873111412161961e-05, -0.0, -0.00018806126900017262, -0.00015681721561122686, -0.0001701439468888566]","[0.0, -1.5707963267948966, 0.0, 0.0, 0.0, 0.0]","[0.0, -1.5707963267948966, 0.0, 0.0, 0.0, 0.0]",0.002,7,1
0,-1,"[0.00010417711746413261, -1.5707579220582666, 3.4634266988575746e-05, -5.6342487670946184e-05, 4.814672138309106e-05, -8.885060445606996e-06]","[-0.000215926265809685, 2.5074049503359674e-09, -0.0, -0.00019530522695276886, -0.0001386907824780792, -0.00014672827091999352]","[0.0, -1.5707963267948966, 0.0, 0.0, 0.0, 0.0]","[0.0, -1.5707963267948966, 0.0, 0.0, 0.0, 0.0]",0.002,7,1
0,-1,"[8.788120612734929e-05, -1.5707872626829449, 3.2726918355763246e-05, -2.5228863098192278e-05, -2.175966371709137e-05, -4.593526021778871e-06]","[-0.00020994328951928765, 1.089898034785968e-18, -0.0, -0.00018048002675641328, -0.0001074151587090455, -0.0001314252585871145]","[0.0, -1.5707963267948966, 0.0, 0.0, 0.0, 0.0]","[0.0, -1.5707963267948966, 0.0, 0.0, 0.0, 0.0]",0.002,7,1
0,-1,"[5.800318831461482e-05, -1.5707623134515707, -2.837233478203416e-05, 2.0070666931104597e-05, 1.1049271051888354e-05, 7.826782166375779e-06]","[-0.00020566095190588385, 4.737479995883984e-28, -0.0, -0.00018031755462288857, -9.5961477200035e-05, -0.0001360129681415856]","[0.0, -1.5707963267948966, 0.0, 0.0, 0.0, 0.0]","[0.0, -1.5707963267948966, 0.0, 0.0, 0.0, 0.0]",0.002,7,1
0,-1,"[6.246566772460938e-05, -1.5707208233910315, 2.843538393193512e-05, -2.936725952196184e-06, -1.732503072560121e-06, 3.5997829400002956e-05]","[-0.000209799938602373, 1.5348873992899272e-35, -0.0, -0.00016398142906837165, -0.00010606330033624545, -0.0001264573511434719]","[0.0, -1.5707963267948966, 0.0, 0.0, 0.0, 0.0]","[0.0, -1.5707963267948966, 0.0, 0.0, 0.0, 0.0]",0.002,7,1
0,-1,"[5.933845022809692e-05, -1.570815225640768, -7.379079306701897e-06, 7.434482238721785e-06, -3.0819569722950746e-05, -2.2236500875294496e-05]","[-0.0007068050326779485, 7.006492321624085e-45, -0.0, -0.0001472166331950575, -9.661143849371001e-05, -0.00011624868784565479]","[0.0, -1.5707963267948966, 0.0, 0.0, 0.0, 0.0]","[0.0, -1.5707963267948966, 0.0, 0.0, 0.0, 0.0]",0.002,7,1
0,-1,"[5.749822776124347e-06, -1.570769816833792, 7.039705385381012e-05, -1.1758213378953997e-05, -5.6568776265919496e-05, -1.3176594869435121e-05]","[-0.0005420461529865861, 0.0, -0.0, -0.00013608614972326905, -9.015935938805342e-05, -0.00010919644410023466]","[0.0, -1.5707963267948966, 0.0, 0.0, 0.0, 0.0]","[0.0, -1.5707963267948966, 0.0, 0.0, 0.0, 0.0]",0.002,7,1
0,-1,"[9.667492122389376e-05, -1.5707425636104126, -2.378202771069482e-05, 1.2083644531202253e-05, 2.2792815798311494e-05, -1.794496645146637e-05]","[-0.0005075439112260938, 0.0, -0.0, -0.00012652053555939347, -9.858471457846463e-05, -0.00010295098036294803]","[0.0, -1.5707963267948966, 0.0, 0.0, 0.0, 0.0]","[0.0, -1.5707963267948966, 0.0, 0.0, 0.0, 0.0]",0.002,7,1
0,-1,"[1.3310909707797691e-06, -1.570782892112522, 2.080598940068512e-05, 5.869447674555772e-05, -1.3176594869435121e-05, 7.803569133102428e-06]","[-0.0005139840650372207, 0.0, -0.0, -0.00011821145744761452, -9.2791706265416e-05, -9.738119115354493e-05]","[0.0, -1.5707963267948966, 0.0, 0.0, 0.0, 0.0]","[0.0, -1.5707963267948966, 0.0, 0.0, 0.0, 0.0]",0.002,7,1
0,-1,"[-1.4607106344044496e-05, -1.5707458971558772, -2.3799955670256168e-05, 1.2083644531202253e-05, -4.560152162724762e-05, 3.337860107421875e-06]","[-0.0006077690050005913, 0.0, -0.0, -0.0001092422753572464, -8.642594912089407e-05, -9.121216862695292e-05]","[0.0, -1.5707963267948966, 0.0, 0.0, 0.0, 0.0]","[0.0, -1.5707963267948966, 0.0, 0.0, 0.0, 0.0]",0.002,7,1
0,-1,"[4.281506335246377e-05, -1.5707774218393133, -7.360971267189598e-06, 1.3514156005811628e-05, -3.892580141240387e-05, -1.6514454976856996e-05]","[-0.0004228556645102799, -2.4005734303500503e-05, -0.0, -0.00010012825077865273, -7.985394768184051e-05, -8.476954099023715e-05]","[0.0, -1.5707963267948966, 0.0, 0.0, 0.0, 0.0]","[0.0, -1.5707963267948966, 0.0, 0.0, 0.0, 0.0]",0.002,7,1
0,-1,"[-1.732503072560121e-06, -1.57081999401235, 1.732503072560121e-06, 2.9130572936963972e-05, 1.5483856259379536e-05, 3.5905839467886835e-05]","[9.654006862547249e-05, -3.8575875805690885e-05, -0.0, -8.898950181901455e-05, -7.167671719798818e-05, -5.662602831080221e-09]","[0.0, -1.5707963267948966, 0.0, 0.0, 0.0, 0.0]","[0.0, -1.5707963267948966, 0.0, 0.0, 0.0, 0.0]",0.002,7,1
0,-1,"[5.16732907271944e-05, -1.5707741681784064, 3.701845277959137e-05, 3.7952060363721785e-05, -9.85304461877945e-05, -4.593526021778871e-06]","[4.911314681521617e-05, -4.677561082644388e-05, -0.0, -8.008153963601217e-05, -1.3798247483834403e-12, -1.2212596668839763e-19]","[0.0, -1.5707963267948966, 0.0, 0.0, 0.0, 0.0]","[0.0, -1.5707963267948966, 0.0, 0.0, 0.0, 0.0]",0.002,7,1
0,-1,"[4.6169756387826055e-05, -1.5707666264409745, 8.885060445606996e-06, 7.434482238721785e-06, 2.0027164282510057e-06, -5.070363179981996e-06]","[2.3885671218693005e-09, -1.551140672070156e-13, -0.0, -1.5766997082944378e-12, -6.980463290442061e-21, -6.178291298439408e-28]","[0.0, -1.5707963267948966, 0.0, 0.0, 0.0, 0.0]","[0.0, -1.5707963267948966, 0.0, 0.0, 0.0, 0.0]",0.002,7,1
0,-1,"[3.5377383028389886e-05, -1.5706890884506102, 1.732503072560121e-06, 6.632387127680772e-05, -1.9375477926075746e-05, -2.9865895406544496e-05]","[1.3929362855049262e-20, -9.045759531794874e-25, -0.0, -1.221640945447575e-19, -5.408523099722079e-28, -4.7869935398855594e-35]","[0.0, -1.5707963267948966, 0.0, 0.0, 0.0, 0.0]","[0.0, -1.5707963267948966, 0.0, 0.0, 0.0, 0.0]",0.002,7,1
0,-1,"[3.408587144804187e-05, -1.570778564815857, -2.3799955670256168e-05, 4.573459289503035e-06, 2.740478521445766e-05, 7.788179573253728e-06]","[8.123160847303703e-32, -5.275198068616615e-36, -0.0, -9.46538099400357e-27, -4.1905719278904424e-35, -3.709237035067791e-42]","[0.0, -1.5707963267948966, 0.0, 0.0, 0.0, 0.0]","[0.0, -1.5707963267948966, 0.0, 0.0, 0.0, 0.0]",0.002,7,1
0,-1,"[1.3414978639048059e-05, -1.5707980595030726, 2.2236500875294496e-05, 5.4283733032178816e-05, -5.9429799215138246e-05, 1.2238501767569687e-05]","[0.0, 0.0, -0.0, -2.041408912335342e-37, -1.401298464324817e-45, -0.0]","[0.0, -1.5707963267948966, 0.0, 0.0, 0.0, 0.0]","[0.0, -1.5707963267948966, 0.0, 0.0, 0.0, 0.0]",0.002,7,1
0,-1,"[1.778996011125855e-05, -1.57078187217515, -2.8701194878522074e-06, 8.984203002881941e-06, -3.5587941304981996e-05, 3.590583582990803e-05]","[0.0, 0.0, -0.0, -1.5414283107572988e-44, -0.0, -0.0]","[0.0, -1.5707963267948966, 0.0, 0.0, 0.0, 0.0]","[0.0, -1.5707963267948966, 0.0, 0.0, 0.0, 0.0]",0.002,7,1
0,-1,"[2.658367156982422e-05, -1.570769866948769, 1.3653432027638246e-05, 2.9130572936963972e-05, -2.9865895406544496e-05, 3.585281956475228e-05]","[0.0, 0.00010764298349386081, -0.0, -0.0, -0.0, -0.0]","[0.0, -1.5707963267948966, 0.0, 0.0, 0.0, 0.0]","[0.0, -1.5707963267948966, 0.0, 0.0, 0.0, 0.0]",0.002,7,1
0,-1,"[3.5377383028389886e-05, -1.570815225640768, 1.732503072560121e-06, 4.67735477904796e-05, 1.1084851394116413e-05, -8.885060445606996e-06]","[0.0, 0.00011957981041632593, -0.0, -0.0, -0.0, -0.0]","[0.0, -1.5707963267948966, 0.0, 0.0, 0.0, 0.0]","[0.0, -1.5707963267948966, 0.0, 0.0, 0.0, 0.0]",0.002,7,1
0,-1,"[5.749822776124347e-06, -1.5707502647713518, 2.5097523824513246e-05, 1.474017761182722e-06, -6.500874654591371e-06, -4.593526021778871e-06]","[0.0, 2.8546111934701912e-05, -0.0, -0.0, -0.0, -0.0]","[0.0, -1.5707963267948966, 0.0, 0.0, 0.0, 0.0]","[0.0, -1.5707963267948966, 0.0, 0.0, 0.0, 0.0]",0.002,7,1
0,-1,"[-2.686177388966371e-06, -1.570782892112522, 1.3653432027638246e-05, -4.167974505620009e-05, 6.898498395457864e-05, 3.346803168824408e-06]","[0.0, 1.2007989681804901e-14, -0.0, -0.0, -0.0, -0.0]","[0.0, -1.5707963267948966, 0.0, 0.0, 0.0, 0.0]","[0.0, -1.5707963267948966, 0.0, 0.0, 0.0, 0.0]",0.002,7,1
0,-1,"[1.0124802429345436e-05, -1.5707697906221547, 8.422533144170075e-05, 1.6271557612412835e-07, -4.3217335836231996e-05, -8.885060445606996e-06]","[0.0, 1.691067818785034e-31, -0.0, -0.0, -0.0, -0.0]","[0.0, -1.5707963267948966, 0.0, 0.0, 0.0, 0.0]","[0.0, -1.5707963267948966, 0.0, 0.0, 0.0, 0.0]",0.002,7,1
0,1,"[1.0124802429345436e-05, -1.570766643886902, 6.024037496388246e-06, -2.5228863098192278e-05, 3.908882717951201e-05, 1.963376962521579e-05]","[0.0, 0.0, -0.0, -0.0, -7.296552507094173e-16, -0.0]","[0.0004387367163421333, -1.5703575900785545, 0.0004387367163421333, 0.0004387367163421333, 0.0004387367163421333, 0.0004387367163421333]","[0.0004387367163421333, -1.5703575900785545, 0.0004387367163421333, 0.0004387367163421333, 0.0004387367163421333, 0.0004387367163421333]",0.002,7,1
0,2,"[2.6226043701171875e-06, -1.5707872539599812, 8.885060445606996e-06, 4.987298931879991e-05, 3.627395926741883e-05, -1.794496645146637e-05]","[0.0, 0.0, -0.0, -0.0, -2.0310236038987878e-19, -0.0]","[0.0008774727395818924, -1.5699188540553146, 0.0008774727395818924, 0.0008774727395818924, 0.0008774727395818924, 0.0008774727395818924]","[0.0008774727395818924, -1.5699188540553146, 0.0008774727395818924, 0.0008774727395818924, 0.0008774727395818924, 0.0008774727395818924]",0.002,7,1
0,3,"[3.408587144804187e-05, -1.5707535828408545, -2.8792160264856648e-06, -4.454076800541884e-05, -4.3217335836231996e-05, 6.374692020472139e-06]","[0.0, 0.0, -0.0, -0.0, -1.027484395702568e-27, -0.0]","[0.0013162073766179979, -1.5694801194182786, 0.0013162073766179979, 0.0013162073766179979, 0.0013162073766179979, 0.0013162073766179979]","[0.0013162073766179979, -1.5694801194182786, 0.0013162073766179979, 0.0013162073766179979, 0.0013162073766179979, 0.0013162073766179979]",0.002,7,1
0,4,"[1.4517089766741265e-05, -1.5708276234068812, 6.80128680627945e-05, 1.649438824458116e-05, 4.817682929569855e-05, 2.4087343263090588e-05]","[0.000757088593672961, 0.0005125561146996915, 0.00021872033539693803, -3.742433099529485e-11, 0.002080023754388094, -5.353534837659879e-10]","[0.0017549399343513602, -1.5690413868605453, 0.0017549399343513602, 0.0017549399343513602, 0.0017549399343513602, 0.0017549399343513602]","[0.0017549399343513602, -1.5690413868605453, 0.0017549399343513602, 0.0017549399343513602, 0.0017549399343513602, 0.0017549399343513602]",0.002,7,1
0,5,"[-1.4607106344044496e-05, -1.5707916781587592, 6.181398500615387e-05, 1.649438824458116e-05, -1.1269246236622621e-05, 4.37751405115705e-05]","[0.001139994477853179, 0.00046928421943448484, 0.0017799498746171594, 0.001418321393430233, 0.001311905332840979, -1.4901770681134685e-13]","[0.002193669719686175, -1.5686026570752103, 0.002193669719686175, 0.002193669719686175, 0.002193669719686175, 0.002193669719686175]","[0.002193669719686175, -1.5686026570752103, 0.002193669719686175, 0.002193669719686175, 0.002193669719686175, 0.002193669719686175]",0.002,7,1
0,6,"[3.5377383028389886e-05, -1.570729459174192, 1.9375477926075746e-05, 4.0813083312940535e-05, -6.024037496388246e-06, 4.378050289233215e-05]","[0.0011323981452733278, 0.0004974035546183586, 0.0016079668421298265, 0.001325728720985353, 0.0012355779763311148, 0.0014826004626229405]","[0.0026323960395310173, -1.5681639307553656, 0.0026323960395310173, 0.0026323960395310173, 0.0026323960395310173, 0.0026323960395310173]","[0.0026323960395310173, -1.5681639307553656, 0.0026323960395310173, 0.0026323960395310173, 0.0026323960395310173, 0.0026323960395310173]",0.002,7,1
0,7,"[8.352198346983641e-05, -1.5707589863598805, -4.291534423828125e-06, 3.640233959956163e-05, 4.218230242258869e-05, 6.006231706123799e-05]","[0.0010922674555331469, 0.001085824565961957, 0.0014888278674334288, 0.0013327144552022219, 0.0011091590858995914, 0.0016718629049137235]","[0.003071118200799937, -1.5677252085940967, 0.003071118200799937, 0.003071118200799937, 0.003071118200799937, 0.003071118200799937]","[0.003071118200799937, -1.5677252085940967, 0.003071118200799937, 0.003071118200799937, 0.003071118200799937, 0.003071118200799937]",0.002,7,1
0,8,"[4.17072769778315e-05, -1.5707623308229195, 6.896654237920075e-05, 3.199159588618272e-05, 6.011906953062862e-05, 3.491989991744049e-05]","[0.0010636196238920093, 0.0034261257387697697, 0.00181450170930475, 0.0014470885507762432, 0.0018989426316693425, 0.002186764031648636]","[0.0035098355104135528, -1.567286491284483, 0.0035098355104135528, 0.0035098355104135528, 0.0035098355104135528, 0.0035098355104135528]","[0.0035098355104135528, -1.567286491284483, 0.0035098355104135528, 0.0035098355104135528, 0.0035098355104135528, 0.0035098355104135528]",0.002,7,1
0,9,"[7.913508306955919e-05, -1.5707381513460241, 9.47157489221695e-05, 4.832326855463975e-05, 7.968200952745974e-05, 1.0892539648921229e-05]","[0.0011900918325409293, 0.0040653664618730545, 0.004274710547178984, 0.002542726695537567, 0.00420389836654067, 0.0020429769065231085]","[0.00394854727530015, -1.5668477795195963, 0.00394854727530015, 0.00394854727530015, 0.00394854727530015, 0.00394854727530015]","[0.00394854727530015, -1.5668477795195963, 0.00394854727530015, 0.00394854727530015, 0.00394854727530015, 0.00394854727530015]",0.002,7,1
0,10,"[2.968692933791317e-05, -1.5707053355038916, 8.994737734013825e-05, 3.0237385253428783e-06, 5.4350384743884206e-05, 3.155470039928332e-05]","[0.001327292644418776, 0.004390786401927471, 0.005203138571232557, 0.003574081463739276, 0.005644222721457481, 0.0023140187840908766]","[0.00438725280239677, -1.5664090739924998, 0.00438725280239677, 0.00438725280239677, 0.00438725280239677, 0.00438725280239677]","[0.00438725280239677, -1.5664090739924998, 0.00438725280239677, 0.00438725280239677, 0.00438725280239677, 0.00438725280239677]",0.002,7,1
0,11,"[5.797886842628941e-05, -1.5707337983879661, 0.00010186830629521637, 1.1129970214796003e-05, 2.5811797968344763e-05, 2.0463476175791584e-06]","[0.0025266618467867374, 0.006028455216437578, 0.005911470856517553, 0.0045216698199510574, 0.0058791195042431355, 0.003338438691571355]","[0.004825951398650312, -1.5659703753962462, 0.004825951398650312, 0.004825951398650312, 0.004825951398650312, 0.004825951398650312]","[0.004825951398650312, -1.5659703753962462, 0.004825951398650312, 0.004825951398650312, 0.004825951398650312, 0.004825951398650312]",0.002,7,1
0,12,"[9.092092659557238e-05, -1.5707109483376662, 8.994737734013825e-05, 8.11058231811046e-05, 0.0001069395148078911, 4.82117357023526e-05]","[0.0045915693044662476, 0.007497834507375956, 0.006725687999278307, 0.005547294393181801, 0.006544005591422319, 0.005902511533349752]","[0.005264642371018622, -1.565531684423878, 0.005264642371018622, 0.005264642371018622, 0.005264642371018622, 0.005264642371018622]","[0.005264642371018622, -1.565531684423878, 0.005264642371018622, 0.005264642371018622, 0.005264642371018622, 0.005264642371018622]",0.002,7,1
0,13,"[2.0864608814008534e-05, -1.5707065624049683, 0.00010186830629521637, 0.00010053693737788194, 9.519644663669169e-05, 0.000104843798908405]","[0.005550016183406115, 0.008394304662942886, 0.009291556663811207, 0.006790666840970516, 0.007153073325753212, 0.007217333652079105]","[0.005703325026471591, -1.565093001768425, 0.005703325026471591, 0.005703325026471591, 0.005703325026471591, 0.005703325026471591]","[0.005703325026471591, -1.565093001768425, 0.005703325026471591, 0.005703325026471591, 0.005703325026471591, 0.005703325026471591]",0.002,7,1
0,14,"[5.3595158533426e-05, -1.5707109570542634, 0.00015908876527959137, 0.00013820707287592882, 7.358615403063595e-05, 0.00012439563579391688]","[0.005665604490786791, 0.009962965734302998, 0.010297461412847042, 0.008396871387958527, 0.008983374573290348, 0.008857673965394497]","[0.006141998671992247, -1.5646543281229044, 0.006141998671992247, 0.006141998671992247, 0.006141998671992247, 0.006141998671992247]","[0.006141998671992247, -1.5646543281229044, 0.006141998671992247, 0.006141998671992247, 0.006141998671992247, 0.006141998671992247]",0.002,7,1
0,15,"[0.00013579559163190424, -1.5706870135148456, 0.00016194978822881012, 0.00016657888378901475, 0.0001862630306277424, 0.00013621106336358935]","[0.00618051877245307, 0.011853333562612534, 0.010973144322633743, 0.00968440156430006, 0.010775502771139145, 0.010424287989735603]","[0.006580662614577854, -1.5642156641803187, 0.006580662614577854, 0.006580662614577854, 0.006580662614577854, 0.006580662614577854]","[0.006580662614577854, -1.5642156641803187, 0.006580662614577854, 0.006580662614577854, 0.006580662614577854, 0.006580662614577854]",0.002,7,1
0,16,"[0.00013458728790283203, -1.5706661785846627, 0.00015288988222295075, 0.00012032567944331163, 0.0001397371233906597, 0.00016341209993697703]","[0.008014557883143425, 0.012364781461656094, 0.012731310911476612, 0.010808506049215794, 0.011392238549888134, 0.011163963936269283]","[0.0070193161612410035, -1.5637770106336555, 0.0070193161612410035, 0.0070193161612410035, 0.0070193161612410035, 0.0070193161612410035]","[0.0070193161612410035, -1.5637770106336555, 0.0070193161612410035, 0.0070193161612410035, 0.0070193161612410035, 0.0070193161612410035]",0.002,7,1
0,17,"[0.0001763467735145241, -1.5706180904129106, 0.00020105043520146637, 0.00011436521496577257, 0.0001581549586262554, 0.00020074978237971663]","[0.009837809950113297, 0.014294356107711792, 0.01473210845142603, 0.012184645980596542, 0.013346300460398197, 0.013137632049620152]","[0.0074579586190107105, -1.563338368175886, 0.0074579586190107105, 0.0074579586190107105, 0.0074579586190107105, 0.0074579586190107105]","[0.0074579586190107105, -1.563338368175886, 0.0074579586190107105, 0.0074579586190107105, 0.0074579586190107105, 0.0074579586190107105]",0.002,7,1
0,18,"[0.00017945002764463425, -1.5705985587886353, 0.00023442903627568512, 0.00017599641766352647, 0.00023745250655338168, 0.0001709111238596961]","[0.011277016252279282, 0.01531105488538742, 0.01659202389419079, 0.014875962398946285, 0.014803389087319374, 0.014885173179209232]","[0.007896589294933507, -1.5628997374999631, 0.007896589294933507, 0.007896589294933507, 0.007896589294933507, 0.007896589294933507]","[0.007896589294933507, -1.5628997374999631, 0.007896589294933507, 0.007896589294933507, 0.007896589294933507, 0.007896589294933507]",0.002,7,1
0,19,"[0.00018705609545577317, -1.570528810382104, 0.0002821127520959976, 0.0001923280903319835, 0.00022837176220491529, 0.00022019576863385737]","[0.013597145676612854, 0.016972675919532776, 0.01847996562719345, 0.01641053520143032, 0.01681513525545597, 0.016796812415122986]","[0.008335207496074538, -1.562461119298822, 0.008335207496074538, 0.008335207496074538, 0.008335207496074538, 0.008335207496074538]","[0.008335207496074538, -1.562461119298822, 0.008335207496074538, 0.008335207496074538, 0.008335207496074538, 0.008335207496074538]",0.002,7,1
0,20,"[0.00019456724112387747, -1.5705374611755651, 0.0002973715411584976, 0.00023738920178217882, 0.0002721926721278578, 0.0002059728285530582]","[0.014117741025984287, 0.01664596237242222, 0.019353780895471573, 0.017106233164668083, 0.016902528703212738, 0.01659410633146763]","[0.008773812529518655, -1.5620225142653779, 0.008773812529518655, 0.008773812529518655, 0.008773812529518655, 0.008773812529518655]","[0.008773812529518655, -1.5620225142653779, 0.008773812529518655, 0.008773812529518655, 0.008773812529518655, 0.008773812529518655]",0.002,7,1
0,21,"[0.00026349257677793503, -1.57053112265233, 0.00035125414003545075, 0.0002850729176024913, 0.0002917552483268082, 0.0002592357050161809]","[0.01493205688893795, 0.017755012959241867, 0.019643500447273254, 0.01677096076309681, 0.016386115923523903, 0.017740320414304733]","[0.009212403702371514, -1.561583923092525, 0.009212403702371514, 0.009212403702371514, 0.009212403702371514, 0.009212403702371514]","[0.009212403702371514, -1.561583923092525, 0.009212403702371514, 0.009212403702371514, 0.009212403702371514, 0.009212403702371514]",0.002,7,1
0,22,"[0.0002995049289893359, -1.5704818420093325, 0.00032884279359990387, 0.00035862504925532335, 0.0002827644348144531, 0.0002985553874168545]","[0.017055507749319077, 0.01899215206503868, 0.020145602524280548, 0.016703980043530464, 0.01657327637076378, 0.01780868135392666]","[0.009650980321760663, -1.561145346473136, 0.009650980321760663, 0.009650980321760663, 0.009650980321760663, 0.009650980321760663]","[0.009650980321760663, -1.561145346473136, 0.009650980321760663, 0.009650980321760663, 0.009650980321760663, 0.009650980321760663]",0.002,7,1
0,23,"[0.00034109019907191396, -1.5704045466303178, 0.00038415590395146637, 0.00032882272686762803, 0.0003353834035806358, 0.00037735048681497574]","[0.017911935225129128, 0.018639685586094856, 0.021730786189436913, 0.017745694145560265, 0.01662749983370304, 0.017119156196713448]","[0.010089541694836647, -1.56070678510006, 0.010089541694836647, 0.010089541694836647, 0.010089541694836647, 0.010089541694836647]","[0.010089541694836647, -1.56070678510006, 0.010089541694836647, 0.010089541694836647, 0.010089541694836647, 0.010089541694836647]",0.002,7,1
0,24,"[0.0003638517518993467, -1.570455782206711, 0.0004442373858850601, 0.0003823476978759288, 0.00032646054751239717, 0.00034211468300782144]","[0.015920257195830345, 0.020189667120575905, 0.02249676175415516, 0.018238676711916924, 0.018094927072525024, 0.01811792701482773]","[0.010528087128774092, -1.5602682396661225, 0.010528087128774092, 0.010528087128774092, 0.010528087128774092, 0.010528087128774092]","[0.010528087128774092, -1.5602682396661225, 0.010528087128774092, 0.010528087128774092, 0.010528087128774092, 0.010528087128774092]",0.002,7,1
0,25,"[0.00041172123746946454, -1.5704022926259604, 0.00044900575746709137, 0.0003793674656371593, 0.0004240417038090527, 0.00040358732803724706]","[0.020592864602804184, 0.022566748782992363, 0.023268520832061768, 0.019433608278632164, 0.01983778551220894, 0.0189227107912302]","[0.010966615930772807, -1.5598297108641237, 0.010966615930772807, 0.010966615930772807, 0.010966615930772807, 0.010966615930772807]","[0.010966615930772807, -1.5598297108641237, 0.010966615930772807, 0.010966615930772807, 0.010966615930772807, 0.010966615930772807]",0.002,7,1
0,26,"[0.0004390678368508816, -1.570301783944462, 0.000588719044820607, 0.00042025625195307725, 0.0004314362595323473, 0.0004884641384705901]","[0.022737186402082443, 0.024398118257522583, 0.024310605600476265, 0.02059023454785347, 0.019500333815813065, 0.01953456737101078]","[0.01140512740805887, -1.5593911993868377, 0.01140512740805887, 0.01140512740805887, 0.01140512740805887, 0.01140512740805887]","[0.01140512740805887, -1.5593911993868377, 0.01140512740805887, 0.01140512740805887, 0.01140512740805887, 0.01140512740805887]",0.002,7,1
0,27,"[0.0004302501620259136, -1.5702778662419696, 0.0005987326251428726, 0.00048498689617915147, 0.0005218081641942263, 0.00048717259778641164]","[0.023197021335363388, 0.02441507764160633, 0.025261064991354942, 0.02139313891530037, 0.021608073264360428, 0.021145164966583252]","[0.011843620867885736, -1.5589527059270107, 0.011843620867885736, 0.011843620867885736, 0.011843620867885736, 0.011843620867885736]","[0.011843620867885736, -1.5589527059270107, 0.011843620867885736, 0.011843620867885736, 0.011843620867885736, 0.011843620867885736]",0.002,7,1
0,28,"[0.0005231370450928807, -1.5702047995622088, 0.0006378332721155289, 0.0005205112644652843, 0.0005082304705865681, 0.0005320199998095632]","[0.023700034245848656, 0.025023162364959717, 0.026805631816387177, 0.022525638341903687, 0.023060640320181847, 0.023346759378910065]","[0.01228209561753532, -1.5585142311773612, 0.01228209561753532, 0.01228209561753532, 0.01228209561753532, 0.01228209561753532]","[0.01228209561753532, -1.5585142311773612, 0.01228209561753532, 0.01228209561753532, 0.01228209561753532, 0.01228209561753532]",0.002,7,1
0,29,"[0.0005710325203835964, -1.5701949638062906, 0.0006817022906702164, 0.0005896526524047374, 0.0005654211272485554, 0.0005924099241383374]","[0.025121238082647324, 0.026414621621370316, 0.028219643980264664, 0.024633416905999184, 0.024746352806687355, 0.025667572394013405]","[0.012720550964319092, -1.5580757758305774, 0.012720550964319092, 0.012720550964319092, 0.012720550964319092, 0.012720550964319092]","[0.012720550964319092, -1.5580757758305774, 0.012720550964319092, 0.012720550964319092, 0.012720550964319092, 0.012720550964319092]",0.002,7,1
0,30,"[0.0006190355052240193, -1.5700816000792948, 0.0007746855365198257, 0.0006491380878905773, 0.0006043311441317201, 0.0006773096974939108]","[0.026433929800987244, 0.029240867123007774, 0.029860861599445343, 0.026413841173052788, 0.026083143427968025, 0.02688288874924183]","[0.01315898621557918, -1.5576373405793174, 0.01315898621557918, 0.01315898621557918, 0.01315898621557918, 0.01315898621557918]","[0.01315898621557918, -1.5576373405793174, 0.01315898621557918, 0.01315898621557918, 0.01315898621557918, 0.01315898621557918]",0.002,7,1
0,31,"[0.0006549119716510177, -1.5700499380803485, 0.0008319059955042007, 0.0006810861774901866, 0.000647938228212297, 0.0006628036499023438]","[0.02829871140420437, 0.030644532293081284, 0.030204085633158684, 0.028317485004663467, 0.028067952021956444, 0.029240760952234268]","[0.013597400678689451, -1.5571989261162071, 0.013597400678689451, 0.013597400678689451, 0.013597400678689451, 0.013597400678689451]","[0.013597400678689451, -1.5571989261162071, 0.013597400678689451, 0.013597400678689451, 0.013597400678689451, 0.013597400678689451]",0.002,7,1
0,32,"[0.0007118978537619114, -1.5700106185725708, 0.0008829275714319351, 0.0007569032856444835, 0.0006840136484242976, 0.0007317225681617856]","[0.03058437630534172, 0.03253507986664772, 0.033440954983234406, 0.029822558164596558, 0.030020246282219887, 0.03189226612448692]","[0.014035793661056617, -1.5567605331338399, 0.014035793661056617, 0.014035793661056617, 0.014035793661056617, 0.014035793661056617]","[0.014035793661056617, -1.5567605331338399, 0.014035793661056617, 0.014035793661056617, 0.014035793661056617, 0.014035793661056617]",0.002,7,1
0,33,"[0.0007795495912432671, -1.5698775531239626, 0.000993076954976857, 0.0007769304462890148, 0.0007649060571566224, 0.000803399074357003]","[0.03222301974892616, 0.036840878427028656, 0.03538551181554794, 0.03179411590099335, 0.03225576877593994, 0.033123861998319626]","[0.014474164470121325, -1.5563221623247752, 0.014474164470121325, 0.014474164470121325, 0.014474164470121325, 0.014474164470121325]","[0.014474164470121325, -1.5563221623247752, 0.014474164470121325, 0.014474164470121325, 0.014474164470121325, 0.014474164470121325]",0.002,7,1
0,34,"[0.0008514305809512734, -1.5698174647153174, 0.0010269323932092789, 0.0008228260227660655, 0.0007952094310894608, 0.0008921737899072468]","[0.03393586724996567, 0.03819190710783005, 0.036049045622348785, 0.03483060747385025, 0.034084320068359375, 0.033267077058553696]","[0.014912512413359249, -1.5558838143815372, 0.014912512413359249, 0.014912512413359249, 0.014912512413359249, 0.014912512413359249]","[0.014912512413359249, -1.5558838143815372, 0.014912512413359249, 0.014912512413359249, 0.014912512413359249, 0.014912512413359249]",0.002,7,1
0,35,"[0.0009159268229268491, -1.5697914536907156, 0.0011079947101038101, 0.0009335714527587413, 0.0008519886760041118, 0.0009399454575031996]","[0.03588566184043884, 0.037454843521118164, 0.03840143233537674, 0.035708192735910416, 0.03591254726052284, 0.03530909866094589]","[0.015350836798282188, -1.5554454899966144, 0.015350836798282188, 0.015350836798282188, 0.015350836798282188, 0.015350836798282188]","[0.015350836798282188, -1.5554454899966144, 0.015350836798282188, 0.015350836798282188, 0.015350836798282188, 0.015350836798282188]",0.002,7,1
0,36,"[0.0009714175248518586, -1.569689934640639, 0.0011881033526819351, 0.0009922224232177257, 0.0009288248838856816, 0.001065647229552269]","[0.037948302924633026, 0.0399356447160244, 0.041209448128938675, 0.03680061921477318, 0.03784104436635971, 0.038399457931518555]","[0.01578913693243915, -1.5550071898624573, 0.01578913693243915, 0.01578913693243915, 0.01578913693243915, 0.01578913693243915]","[0.01578913693243915, -1.5550071898624573, 0.01578913693243915, 0.01578913693243915, 0.01578913693243915, 0.01578913693243915]",0.002,7,1
0,37,"[0.0010882539208978415, -1.5695732763600354, 0.0012925306903284195, 0.0010523039051513194, 0.0010097441263496876, 0.0011166196782141924]","[0.03963996842503548, 0.041091740131378174, 0.04209386184811592, 0.03936151787638664, 0.04056419059634209, 0.04046786203980446]","[0.016227412123417467, -1.5545689146714792, 0.016227412123417467, 0.016227412123417467, 0.016227412123417467, 0.016227412123417467]","[0.016227412123417467, -1.5545689146714792, 0.016227412123417467, 0.016227412123417467, 0.016227412123417467, 0.016227412123417467]",0.002,7,1
0,38,"[0.0011483666021376848, -1.569526299401634, 0.0013979117022913101, 0.0011504131504516124, 0.0011047602165490389, 0.001209567184560001]","[0.041019901633262634, 0.04399761185050011, 0.04215206578373909, 0.041613202542066574, 0.04296014457941055, 0.04217449575662613]","[0.01666566167884386, -1.5541306651160527, 0.01666566167884386, 0.01666566167884386, 0.01666566167884386, 0.01666566167884386]","[0.01666566167884386, -1.5541306651160527, 0.01666566167884386, 0.01666566167884386, 0.01666566167884386, 0.01666566167884386]",0.002,7,1
0,39,"[0.0012859039707109332, -1.5694423464922984, 0.0014894644366663101, 0.0012267070957641124, 0.0012383658904582262, 0.0012505054473876953]","[0.0434645339846611, 0.048071492463350296, 0.045475948601961136, 0.04521702229976654, 0.04638625308871269, 0.04462237283587456]","[0.017103884906385567, -1.553692441888511, 0.017103884906385567, 0.017103884906385567, 0.017103884906385567, 0.017103884906385567]","[0.017103884906385567, -1.553692441888511, 0.017103884906385567, 0.017103884906385567, 0.017103884906385567, 0.017103884906385567]",0.002,7,1
0,40,"[0.001337229274213314, -1.569329793947265, 0.001569096242086232, 0.0012833315083007335, 0.0013192883925512433, 0.0013358179712668061]","[0.045291293412446976, 0.04574549198150635, 0.04729562625288963, 0.047547146677970886, 0.048645421862602234, 0.04656369611620903]","[0.017542081113751395, -1.5532542456811451, 0.017542081113751395, 0.017542081113751395, 0.017542081113751395, 0.017542081113751395]","[0.017542081113751395, -1.5532542456811451, 0.017542081113751395, 0.017542081113751395, 0.017542081113751395, 0.017542081113751395]",0.002,7,1
0,41,"[0.0014286843361333013, -1.5692875145799299, 0.0016439596759241226, 0.0013508039661864757, 0.0014199813595041633, 0.001476710895076394]","[0.04734320566058159, 0.049958981573581696, 0.04987282678484917, 0.04735522344708443, 0.050721943378448486, 0.049786344170570374]","[0.017980249608692853, -1.5528160771862036, 0.017980249608692853, 0.017980249608692853, 0.017980249608692853, 0.017980249608692853]","[0.017980249608692853, -1.5528160771862036, 0.017980249608692853, 0.017980249608692853, 0.017980249608692853, 0.017980249608692853]",0.002,7,1
0,42,"[0.0014963032444939017, -1.5691337669598688, 0.0017398039447229507, 0.0015292602726439952, 0.0014909619931131601, 0.001563648460432887]","[0.04995547980070114, 0.052853357046842575, 0.04799215868115425, 0.050255268812179565, 0.05266381800174713, 0.05122309550642967]","[0.018418389699005232, -1.5523779370958912, 0.018418389699005232, 0.018418389699005232, 0.018418389699005232, 0.018418389699005232]","[0.018418389699005232, -1.5523779370958912, 0.018418389699005232, 0.018418389699005232, 0.018418389699005232, 0.018418389699005232]",0.002,7,1
0,43,"[0.0016073902370408177, -1.5690290307723735, 0.0017955938922327164, 0.0015968519398192882, 0.0016110589494928718, 0.001693472033366561]","[0.05194893851876259, 0.05364684388041496, 0.0532565675675869, 0.053113650530576706, 0.054270729422569275, 0.055169619619846344]","[0.01885650069252868, -1.5519398261023678, 0.01885650069252868, 0.01885650069252868, 0.01885650069252868, 0.01885650069252868]","[0.01885650069252868, -1.5519398261023678, 0.01885650069252868, 0.01885650069252868, 0.01885650069252868, 0.01885650069252868]",0.002,7,1
0,44,"[0.001757195102982223, -1.568950399323814, 0.0019281546222131851, 0.001737042064331007, 0.0017206092597916722, 0.0017511722398921847]","[0.05378046631813049, 0.05572785064578056, 0.05553813651204109, 0.056210096925497055, 0.0578431710600853, 0.05665072798728943]","[0.01929458189714932, -1.5515017448977473, 0.01929458189714932, 0.01929458189714932, 0.01929458189714932, 0.01929458189714932]","[0.01929458189714932, -1.5515017448977473, 0.01929458189714932, 0.01929458189714932, 0.01929458189714932, 0.01929458189714932]",0.002,7,1
0,45,"[0.0018367728916928172, -1.568808448533975, 0.0020783583270471695, 0.001857443446777296, 0.0018857531249523163, 0.0018918437417596579]","[0.05594901740550995, 0.05757346376776695, 0.056793030351400375, 0.057743024080991745, 0.05926460772752762, 0.05652366951107979]","[0.01973263262080034, -1.5510636941740963, 0.01973263262080034, 0.01973263262080034, 0.01973263262080034, 0.01973263262080034]","[0.01973263262080034, -1.5510636941740963, 0.01973263262080034, 0.01973263262080034, 0.01973263262080034, 0.01973263262080034]",0.002,7,1
0,46,"[0.0020102860871702433, -1.5686842655162145, 0.0021513144122522476, 0.0019683080860595226, 0.0019718522671610117, 0.0020042620599269867]","[0.058411017060279846, 0.059758804738521576, 0.059037283062934875, 0.06074259430170059, 0.059765350073575974, 0.05881880596280098]","[0.020170652171463074, -1.5506256746234335, 0.020170652171463074, 0.020170652171463074, 0.020170652171463074, 0.020170652171463074]","[0.020170652171463074, -1.5506256746234335, 0.020170652171463074, 0.020170652171463074, 0.020170652171463074, 0.020170652171463074]",0.002,7,1
0,47,"[0.002093228278681636, -1.5685772914769878, 0.002289597188131154, 0.0020729738422851085, 0.002058902056887746, 0.0021121518220752478]","[0.06011022999882698, 0.06160978227853775, 0.06062852218747139, 0.06199013441801071, 0.06251458078622818, 0.06403406709432602]","[0.0206086398571681, -1.5501876869377285, 0.0206086398571681, 0.0206086398571681, 0.0206086398571681, 0.0206086398571681]","[0.0206086398571681, -1.5501876869377285, 0.0206086398571681, 0.0206086398571681, 0.0206086398571681, 0.0206086398571681]",0.002,7,1
0,48,"[0.0022162834648042917, -1.5684288088562717, 0.0024340788470667007, 0.002242727870605421, 0.0022542704828083515, 0.002235300838947296]","[0.06189446523785591, 0.06365709006786346, 0.06261312961578369, 0.06444928050041199, 0.06749759614467621, 0.06373725831508636]","[0.02104659498599634, -1.5497497318089002, 0.02104659498599634, 0.02104659498599634, 0.02104659498599634, 0.02104659498599634]","[0.02104659498599634, -1.5497497318089002, 0.02104659498599634, 0.02104659498599634, 0.02104659498599634, 0.02104659498599634]",0.002,7,1
0,49,"[0.0023748797830194235, -1.568292519343533, 0.002537552510396779, 0.002344532603881788, 0.00237419456243515, 0.0023644573520869017]","[0.06702233105897903, 0.0660509243607521, 0.06480191648006439, 0.06736379861831665, 0.06670829653739929, 0.06627592444419861]","[0.021484516866080144, -1.5493118099288163, 0.021484516866080144, 0.021484516866080144, 0.021484516866080144, 0.021484516866080144]","[0.021484516866080144, -1.5493118099288163, 0.021484516866080144, 0.021484516866080144, 0.021484516866080144, 0.021484516866080144]",0.002,7,1
0,50,"[0.0024323738180100918, -1.5681574710509558, 0.002691094075338185, 0.0024314361759643077, 0.0024658755864948034, 0.0025199425872415304]","[0.06414302438497543, 0.06784982234239578, 0.0666026845574379, 0.0690259113907814, 0.06955085694789886, 0.06872697919607162]","[0.0219224048056044, -1.5488739219892922, 0.0219224048056044, 0.0219224048056044, 0.0219224048056044, 0.0219224048056044]","[0.0219224048056044, -1.5488739219892922, 0.0219224048056044, 0.0219224048056044, 0.0219224048056044, 0.0219224048056044]",0.002,7,1
0,51,"[0.002621215069666505, -1.568065890144073, 0.0028365294085901382, 0.002599163646362257, 0.0026721644680947065, 0.0026534327771514654]","[0.06932463496923447, 0.06859046965837479, 0.0690997987985611, 0.07177076488733292, 0.07235683500766754, 0.07137031108140945]","[0.02236025811280759, -1.548436068682089, 0.02236025811280759, 0.02236025811280759, 0.02236025811280759, 0.02236025811280759]","[0.02236025811280759, -1.548436068682089, 0.02236025811280759, 0.02236025811280759, 0.02236025811280759, 0.02236025811280759]",0.002,7,1
0,52,"[0.002729200990870595, -1.5678889965968956, 0.002988163624898732, 0.0027851301380614757, 0.0027860526461154222, 0.0028252063784748316]","[0.07552342116832733, 0.07264339178800583, 0.07234816253185272, 0.07465222477912903, 0.07476901262998581, 0.07320468872785568]","[0.022798076095982937, -1.5479982506989136, 0.022798076095982937, 0.022798076095982937, 0.022798076095982937, 0.022798076095982937]","[0.022798076095982937, -1.5479982506989136, 0.022798076095982937, 0.022798076095982937, 0.022798076095982937, 0.022798076095982937]",0.002,7,1
0,53,"[0.0029418987687677145, -1.5677408150262018, 0.003109757100240529, 0.002916737193725538, 0.0028974413871765137, 0.0029475479386746883]","[0.0738583356142044, 0.0731276348233223, 0.07486355304718018, 0.07688019424676895, 0.07727676630020142, 0.07573191821575165]","[0.023235858063479446, -1.547560468731417, 0.023235858063479446, 0.023235858063479446, 0.023235858063479446, 0.023235858063479446]","[0.023235858063479446, -1.547560468731417, 0.023235858063479446, 0.023235858063479446, 0.023235858063479446, 0.023235858063479446]",0.002,7,1
0,54,"[0.003099455265328288, -1.5675770603450765, 0.003262821828023732, 0.0030643182941894054, 0.0030867166351526976, 0.0031238277442753315]","[0.07721289247274399, 0.07440386712551117, 0.07488910108804703, 0.07889539748430252, 0.08078575879335403, 0.07821234315633774]","[0.023673603323703017, -1.5471227234711935, 0.023673603323703017, 0.023673603323703017, 0.023673603323703017, 0.023673603323703017]","[0.023673603323703017, -1.5471227234711935, 0.023673603323703017, 0.023673603323703017, 0.023673603323703017, 0.023673603323703017]",0.002,7,1
0,55,"[0.003224581014364958, -1.567440884453692, 0.0033982435809534195, 0.003231926555297804, 0.003264190163463354, 0.003287537954747677]","[0.08109269291162491, 0.08027660101652145, 0.07999242842197418, 0.08105356991291046, 0.07973859459161758, 0.08019494265317917]","[0.02411131118511755, -1.5466850156097791, 0.02411131118511755, 0.02411131118511755, 0.02411131118511755, 0.02411131118511755]","[0.02411131118511755, -1.5466850156097791, 0.02411131118511755, 0.02411131118511755, 0.02411131118511755, 0.02411131118511755]",0.002,7,1
0,56,"[0.0033606570214033127, -1.5672640342130144, 0.003629509602681935, 0.0033797460743407726, 0.003403809852898121, 0.00339879235252738]","[0.08318562805652618, 0.07952605187892914, 0.07961027324199677, 0.08481280505657196, 0.08210732042789459, 0.08279069513082504]","[0.02454898095624604, -1.5462473458386505, 0.02454898095624604, 0.02454898095624604, 0.02454898095624604, 0.02454898095624604]","[0.02454898095624604, -1.5462473458386505, 0.02454898095624604, 0.02454898095624604, 0.02454898095624604, 0.02454898095624604]",0.002,7,1
0,57,"[0.0035692057572305202, -1.5671210675830771, 0.0037601629840295914, 0.0035884815403441905, 0.0036051690112799406, 0.003620156552642584]","[0.08523080497980118, 0.0827815905213356, 0.08289885520935059, 0.08548040688037872, 0.08775335550308228, 0.08539746701717377]","[0.024986611945671616, -1.545809714849225, 0.024986611945671616, 0.024986611945671616, 0.024986611945671616, 0.024986611945671616]","[0.024986611945671616, -1.545809714849225, 0.024986611945671616, 0.024986611945671616, 0.024986611945671616, 0.024986611945671616]",0.002,7,1
0,58,"[0.0037283997517079115, -1.5669520199629297, 0.003941361104146779, 0.003730459804199171, 0.0037314300425350666, 0.0037928351666778326]","[0.08784408122301102, 0.08580826222896576, 0.08534278720617294, 0.0919913500547409, 0.08855757117271423, 0.08711204677820206]","[0.025424203462038705, -1.545372123332858, 0.025424203462038705, 0.025424203462038705, 0.025424203462038705, 0.025424203462038705]","[0.025424203462038705, -1.545372123332858, 0.025424203462038705, 0.025424203462038705, 0.025424203462038705, 0.025424203462038705]",0.002,7,1
0,59,"[0.003950051497668028, -1.5667557537420471, 0.004109684620992482, 0.004004402751586866, 0.003937238361686468, 0.0039888229221105576]","[0.0901588425040245, 0.08815628290176392, 0.0872206836938858, 0.09111014753580093, 0.09191951155662537, 0.08967893570661545]","[0.025861754814054082, -1.5449345719808425, 0.025861754814054082, 0.025861754814054082, 0.025861754814054082, 0.025861754814054082]","[0.025861754814054082, -1.5449345719808425, 0.025861754814054082, 0.025861754814054082, 0.025861754814054082, 0.025861754814054082]",0.002,7,1
0,60,"[0.0041508921422064304, -1.5665909869461139, 0.004301849995748341, 0.004189415568969679, 0.004128167871385813, 0.004136120900511742]","[0.09277764707803726, 0.09035421162843704, 0.08950395882129669, 0.09377337992191315, 0.09526567161083221, 0.09255345165729523]","[0.026299265310487988, -1.5444970614844085, 0.026299265310487988, 0.026299265310487988, 0.026299265310487988, 0.026299265310487988]","[0.026299265310487988, -1.5444970614844085, 0.026299265310487988, 0.026299265310487988, 0.026299265310487988, 0.026299265310487988]",0.002,7,1
0,61,"[0.004353867378085852, -1.5664088463275512, 0.004449192677633107, 0.004303618068359327, 0.004317354876548052, 0.004344562534242868]","[0.09379294514656067, 0.09294980019330978, 0.09114395081996918, 0.09643346071243286, 0.09552476555109024, 0.09407449513673782]","[0.02673673426017517, -1.5440595925347214, 0.02673673426017517, 0.02673673426017517, 0.02673673426017517, 0.02673673426017517]","[0.02673673426017517, -1.5440595925347214, 0.02673673426017517, 0.02673673426017517, 0.02673673426017517, 0.02673673426017517]",0.002,7,1
0,62,"[0.004533811472356319, -1.5662812639823933, 0.004662338887349904, 0.0045726734348754405, 0.004481244366616011, 0.004552770406007767]","[0.09538934379816055, 0.09503621608018875, 0.09505746513605118, 0.0982285588979721, 0.09814329445362091, 0.10019651055335999]","[0.027174160972016047, -1.5436221658228806, 0.027174160972016047, 0.027174160972016047, 0.027174160972016047, 0.027174160972016047]","[0.027174160972016047, -1.5436221658228806, 0.027174160972016047, 0.027174160972016047, 0.027174160972016047, 0.027174160972016047]",0.002,7,1
0,63,"[0.004742182791233063, -1.5660357734053214, 0.004857842122213185, 0.0047061878391723155, 0.004764105658978224, 0.0047476645559072495]","[0.10102760046720505, 0.09795747697353363, 0.09616544842720032, 0.10010556131601334, 0.10117434710264206, 0.10068170726299286]","[0.027611544754977735, -1.5431847820399187, 0.027611544754977735, 0.027611544754977735, 0.027611544754977735, 0.027611544754977735]","[0.027611544754977735, -1.5431847820399187, 0.027611544754977735, 0.027611544754977735, 0.027611544754977735, 0.027611544754977735]",0.002,7,1
0,64,"[0.004917793441563845, -1.5658480229652305, 0.005061928425924123, 0.004980488414428663, 0.004951528273522854, 0.004972614347934723]","[0.10115039348602295, 0.09850899875164032, 0.09881334006786346, 0.10391953587532043, 0.10398152470588684, 0.10482332110404968]","[0.028048884918095193, -1.5427474418768015, 0.028048884918095193, 0.028048884918095193, 0.028048884918095193, 0.028048884918095193]","[0.028048884918095193, -1.5427474418768015, 0.028048884918095193, 0.028048884918095193, 0.028048884918095193, 0.028048884918095193]",0.002,7,1
0,65,"[0.005178511608392, -1.5656649254127224, 0.005261723195211232, 0.005229635829589796, 0.005181629676371813, 0.00516714109107852]","[0.10484246164560318, 0.10359134525060654, 0.10154163092374802, 0.10409874469041824, 0.10678810626268387, 0.1053699180483818]","[0.028486180770472276, -1.5423101460244242, 0.028486180770472276, 0.028486180770472276, 0.028486180770472276, 0.028486180770472276]","[0.028486180770472276, -1.5423101460244242, 0.028486180770472276, 0.028486180770472276, 0.028486180770472276, 0.028486180770472276]",0.002,7,1
0,66,"[0.005370557773858309, -1.5654903778671105, 0.005521599446431935, 0.0054362255283813, 0.005372300278395414, 0.005383288487792015]","[0.10758358240127563, 0.10279357433319092, 0.1027718186378479, 0.10767537355422974, 0.10902557522058487, 0.10789887607097626]","[0.02892343162128283, -1.5418728951736138, 0.02892343162128283, 0.02892343162128283, 0.02892343162128283, 0.02892343162128283]","[0.02892343162128283, -1.5418728951736138, 0.02892343162128283, 0.02892343162128283, 0.02892343162128283, 0.02892343162128283]",0.002,7,1
0,67,"[0.005623838398605585, -1.5652242789841075, 0.005712334309713185, 0.005626364345214796, 0.005609780550003052, 0.005649527069181204]","[0.1083478182554245, 0.1088501513004303, 0.10677234083414078, 0.10797720402479172, 0.10987181961536407, 0.10951131582260132]","[0.029360636779771816, -1.5414356900151247, 0.029360636779771816, 0.029360636779771816, 0.029360636779771816, 0.029360636779771816]","[0.029360636779771816, -1.5414356900151247, 0.029360636779771816, 0.029360636779771816, 0.029360636779771816, 0.029360636779771816]",0.002,7,1
0,68,"[0.00578947551548481, -1.5649919330938538, 0.0058625380145471695, 0.005872173900268507, 0.005814157426357269, 0.005819774232804775]","[0.11056136339902878, 0.11011070013046265, 0.10839250683784485, 0.11233711242675781, 0.11291801184415817, 0.11440637707710266]","[0.029797795555256364, -1.5409985312396401, 0.029797795555256364, 0.029797795555256364, 0.029797795555256364, 0.029797795555256364]","[0.029797795555256364, -1.5409985312396401, 0.029797795555256364, 0.029797795555256364, 0.029797795555256364, 0.029797795555256364]",0.002,7,1
0,69,"[0.006047078873962164, -1.5647801689668377, 0.006140057240621388, 0.00610451280560298, 0.006074574775993824, 0.006022789981216192]","[0.1137898862361908, 0.11286406219005585, 0.11185731738805771, 0.11245297640562057, 0.11537770926952362, 0.11296141147613525]","[0.030234907257126884, -1.5405614195377697, 0.030234907257126884, 0.030234907257126884, 0.030234907257126884, 0.030234907257126884]","[0.030234907257126884, -1.5405614195377697, 0.030234907257126884, 0.030234907257126884, 0.030234907257126884, 0.030234907257126884]",0.002,7,1
0,70,"[0.006290234625339508, -1.5645566264032205, 0.00641805330385381, 0.006332560176513624, 0.006287243217229843, 0.006303806323558092]","[0.11607252061367035, 0.1148674488067627, 0.11379920691251755, 0.11469094455242157, 0.11883170902729034, 0.11862003803253174]","[0.030671971194848137, -1.5401243556000483, 0.030671971194848137, 0.030671971194848137, 0.030671971194848137, 0.030671971194848137]","[0.030671971194848137, -1.5401243556000483, 0.030671971194848137, 0.030671971194848137, 0.030671971194848137, 0.030671971194848137]",0.002,7,1
0,71,"[0.006555645726621151, -1.5643188862926145, 0.006630245839254201, 0.006546421641967726, 0.006518768612295389, 0.006539363879710436]","[0.11811280995607376, 0.11756251007318497, 0.11695665121078491, 0.11748147755861282, 0.12048127502202988, 0.11923754215240479]","[0.031108986677960353, -1.5396873401169362, 0.031108986677960353, 0.031108986677960353, 0.031108986677960353, 0.031108986677960353]","[0.031108986677960353, -1.5396873401169362, 0.031108986677960353, 0.031108986677960353, 0.031108986677960353, 0.031108986677960353]",0.002,7,1
0,72,"[0.006721205078065395, -1.5640833003311236, 0.006862465535299123, 0.006786389941833448, 0.006739652715623379, 0.006762914825230837]","[0.11924739181995392, 0.11981284618377686, 0.11916273087263107, 0.12006088346242905, 0.12106286734342575, 0.12055571377277374]","[0.03154595301608032, -1.5392503737788163, 0.03154595301608032, 0.03154595301608032, 0.03154595301608032, 0.03154595301608032]","[0.03154595301608032, -1.5392503737788163, 0.03154595301608032, 0.03154595301608032, 0.03154595301608032, 0.03154595301608032]",0.002,7,1
0,73,"[0.007077178917825222, -1.563826712579914, 0.007086578999654591, 0.007080360049865675, 0.006978929508477449, 0.006994661875069141]","[0.12359915673732758, 0.12269528210163116, 0.1210089921951294, 0.1216893419623375, 0.12336838245391846, 0.12477412074804306]","[0.031982869518902446, -1.5388134572759942, 0.031982869518902446, 0.031982869518902446, 0.031982869518902446, 0.031982869518902446]","[0.031982869518902446, -1.5388134572759942, 0.031982869518902446, 0.031982869518902446, 0.031982869518902446, 0.031982869518902446]",0.002,7,1
0,74,"[0.007271041162312031, -1.5635937874070187, 0.0073502699481409195, 0.007336660022399855, 0.007273257710039616, 0.00730819720774889]","[0.12419203668832779, 0.12345769256353378, 0.1254190057516098, 0.12482628226280212, 0.12673957645893097, 0.1269553005695343]","[0.03241973549619986, -1.5383765912986966, 0.03241973549619986, 0.03241973549619986, 0.03241973549619986, 0.03241973549619986]","[0.03241973549619986, -1.5383765912986966, 0.03241973549619986, 0.03241973549619986, 0.03241973549619986, 0.03241973549619986]",0.002,7,1
0,75,"[0.007511207368224859, -1.5633349328166624, 0.007602516804830373, 0.007582231158874464, 0.00750911608338356, 0.007547995075583458]","[0.1276029497385025, 0.12958188354969025, 0.12535864114761353, 0.12637543678283691, 0.12789835035800934, 0.1281796395778656]","[0.03285655025782554, -1.537939776537071, 0.03285655025782554, 0.03285655025782554, 0.03285655025782554, 0.03285655025782554]","[0.03285655025782554, -1.537939776537071, 0.03285655025782554, 0.03285655025782554, 0.03285655025782554, 0.03285655025782554]",0.002,7,1
0,76,"[0.007779686711728573, -1.563103756201901, 0.00785380998720342, 0.00786702215161128, 0.007806852925568819, 0.007774788420647383]","[0.1289672553539276, 0.12923483550548553, 0.1303849220275879, 0.12925973534584045, 0.1333809643983841, 0.13064821064472198]","[0.03329331311371334, -1.5375030136811831, 0.03329331311371334, 0.03329331311371334, 0.03329331311371334, 0.03329331311371334]","[0.03329331311371334, -1.5375030136811831, 0.03329331311371334, 0.03329331311371334, 0.03329331311371334, 0.03329331311371334]",0.002,7,1
0,77,"[0.008076351135969162, -1.5628725441968818, 0.008166138325826466, 0.0081065136143188, 0.008029170334339142, 0.008034367114305496]","[0.1319529116153717, 0.13102087378501892, 0.13126252591609955, 0.13367250561714172, 0.13238579034805298, 0.1329984813928604]","[0.03373002337387915, -1.5370663034210175, 0.03373002337387915, 0.03373002337387915, 0.03373002337387915, 0.03373002337387915]","[0.03373002337387915, -1.5370663034210175, 0.03373002337387915, 0.03373002337387915, 0.03373002337387915, 0.03373002337387915]",0.002,7,1
0,78,"[0.008294363506138325, -1.5625386427021404, 0.008376423512594044, 0.008377953166625929, 0.008331319317221642, 0.008302392438054085]","[0.134554922580719, 0.13525789976119995, 0.1323746144771576, 0.1334594339132309, 0.1359497606754303, 0.1359153538942337]","[0.03416668034842189, -1.5366296464464746, 0.03416668034842189, 0.03416668034842189, 0.03416668034842189, 0.03416668034842189]","[0.03416668034842189, -1.5366296464464746, 0.03416668034842189, 0.03416668034842189, 0.03416668034842189, 0.03416668034842189]",0.002,7,1
0,79,"[0.008587968535721302, -1.5623772165602823, 0.008638683949605763, 0.008653922671935987, 0.00865012127906084, 0.008603651076555252]","[0.13507717847824097, 0.13674309849739075, 0.13637077808380127, 0.13580550253391266, 0.1388169229030609, 0.13762103021144867]","[0.03460328334752473, -1.5361930434473718, 0.03460328334752473, 0.03460328334752473, 0.03460328334752473, 0.03460328334752473]","[0.03460328334752473, -1.5361930434473718, 0.03460328334752473, 0.03460328334752473, 0.03460328334752473, 0.03460328334752473]",0.002,7,1
0,80,"[0.008883614093065262, -1.5620154405808826, 0.00898296037782842, 0.008964939708373976, 0.00884232111275196, 0.008883700706064701]","[0.14025373756885529, 0.1387220025062561, 0.1372658759355545, 0.137243390083313, 0.14035314321517944, 0.14018775522708893]","[0.035039831681456066, -1.5357564951134406, 0.035039831681456066, 0.035039831681456066, 0.035039831681456066, 0.035039831681456066]","[0.035039831681456066, -1.5357564951134406, 0.035039831681456066, 0.035039831681456066, 0.035039831681456066, 0.035039831681456066]",0.002,7,1
0,81,"[0.0091431038454175, -1.5617643569460888, 0.0092242399798792, 0.00926463186230464, 0.00920574925839901, 0.009146470576524734]","[0.1409197449684143, 0.14038479328155518, 0.13884784281253815, 0.14188149571418762, 0.14274471998214722, 0.1452309936285019]","[0.03547632466057065, -1.5353200021343258, 0.03547632466057065, 0.03547632466057065, 0.03547632466057065, 0.03547632466057065]","[0.03547632466057065, -1.5353200021343258, 0.03547632466057065, 0.03547632466057065, 0.03547632466057065, 0.03547632466057065]",0.002,7,1
0,82,"[0.009447782300412655, -1.5614426157302042, 0.009505573903219044, 0.009530349368713331, 0.009439929388463497, 0.009438533335924149]","[0.14376571774482727, 0.14621536433696747, 0.1438433825969696, 0.1400114744901657, 0.14311088621616364, 0.14569811522960663]","[0.035912761595310705, -1.5348835651995858, 0.035912761595310705, 0.035912761595310705, 0.035912761595310705, 0.035912761595310705]","[0.035912761595310705, -1.5348835651995858, 0.035912761595310705, 0.035912761595310705, 0.035912761595310705, 0.035912761595310705]",0.002,7,1
0,83,"[0.009719477035105228, -1.5611956876567383, 0.009805981312887013, 0.009768410319946241, 0.009732451289892197, 0.009710279293358326]","[0.1458054929971695, 0.14546805620193481, 0.14233291149139404, 0.14289182424545288, 0.14581122994422913, 0.14661148190498352]","[0.03634914179620697, -1.5344471849986896, 0.03634914179620697, 0.03634914179620697, 0.03634914179620697, 0.03634914179620697]","[0.03634914179620697, -1.5344471849986896, 0.03634914179620697, 0.03634914179620697, 0.03634914179620697, 0.03634914179620697]",0.002,7,1
0,84,"[0.009978732094168663, -1.5609232096797605, 0.010067288075582326, 0.010152145023010206, 0.010002422146499157, 0.01004796288907528]","[0.1476821005344391, 0.14683862030506134, 0.14550605416297913, 0.14572812616825104, 0.15052475035190582, 0.14986519515514374]","[0.03678546457387983, -1.5340108622210167, 0.03678546457387983, 0.03678546457387983, 0.03678546457387983, 0.03678546457387983]","[0.03678546457387983, -1.5340108622210167, 0.03678546457387983, 0.03678546457387983, 0.03678546457387983, 0.03678546457387983]",0.002,7,1
0,85,"[0.010312976315617561, -1.5605546005866309, 0.01040965715517217, 0.01040153085675044, 0.010362780652940273, 0.010347413830459118]","[0.1494469940662384, 0.15067443251609802, 0.14892783761024475, 0.14811578392982483, 0.15153110027313232, 0.15144199132919312]","[0.037221729239040366, -1.5335745975558561, 0.037221729239040366, 0.037221729239040366, 0.037221729239040366, 0.037221729239040366]","[0.037221729239040366, -1.5335745975558561, 0.037221729239040366, 0.037221729239040366, 0.037221729239040366, 0.037221729239040366]",0.002,7,1
0,86,"[0.01061718724668026, -1.560320029301085, 0.010715786610738576, 0.010776563281677198, 0.010604474693536758, 0.010622406378388405]","[0.15182964503765106, 0.1530512571334839, 0.15082110464572906, 0.1504122018814087, 0.15118815004825592, 0.1535475254058838]","[0.03765793510249147, -1.533138391692405, 0.03765793510249147, 0.03765793510249147, 0.03765793510249147, 0.03765793510249147]","[0.03765793510249147, -1.533138391692405, 0.03765793510249147, 0.03765793510249147, 0.03765793510249147, 0.03765793510249147]",0.002,7,1
0,87,"[0.010929686948657036, -1.5599338442883273, 0.011004273091451466, 0.011007948512695265, 0.010925844311714172, 0.010938813909888268]","[0.1557306945323944, 0.15452076494693756, 0.1532609909772873, 0.15244245529174805, 0.15335716307163239, 0.15555155277252197]","[0.03809408147512893, -1.5327022453197676, 0.03809408147512893, 0.03809408147512893, 0.03809408147512893, 0.03809408147512893]","[0.03809408147512893, -1.5327022453197676, 0.03809408147512893, 0.03809408147512893, 0.03809408147512893, 0.03809408147512893]",0.002,7,1
0,88,"[0.01127313170582056, -1.559659013790526, 0.011234108601705373, 0.011346741313598585, 0.011284520849585533, 0.011259266175329685]","[0.15628913044929504, 0.1582949161529541, 0.15436367690563202, 0.1546708345413208, 0.15684029459953308, 0.15839506685733795]","[0.03853016766794253, -1.532266159126954, 0.03853016766794253, 0.03853016766794253, 0.03853016766794253, 0.03853016766794253]","[0.03853016766794253, -1.532266159126954, 0.03853016766794253, 0.03853016766794253, 0.03853016766794253, 0.03853016766794253]",0.002,7,1
0,89,"[0.011592711322009563, -1.559408053090312, 0.011587921773092091, 0.011653586024902296, 0.011550099588930607, 0.011525440029799938]","[0.15752167999744415, 0.16132637858390808, 0.15739046037197113, 0.15633584558963776, 0.16136904060840607, 0.16038894653320312]","[0.03896619299201709, -1.5318301338028795, 0.03896619299201709, 0.03896619299201709, 0.03896619299201709, 0.03896619299201709]","[0.03896619299201709, -1.5318301338028795, 0.03896619299201709, 0.03896619299201709, 0.03896619299201709, 0.03896619299201709]",0.002,7,1
0,90,"[0.01188379805535078, -1.559047116232552, 0.011907879506246388, 0.01199297487225337, 0.011883207596838474, 0.011899448931217194]","[0.16005094349384308, 0.15995174646377563, 0.1606472283601761, 0.1604800671339035, 0.16263458132743835, 0.16315299272537231]","[0.03940215675853362, -1.531394170036363, 0.03940215675853362, 0.03940215675853362, 0.03940215675853362, 0.03940215675853362]","[0.03940215675853362, -1.531394170036363, 0.03940215675853362, 0.03940215675853362, 0.03940215675853362, 0.03940215675853362]",0.002,7,1
0,91,"[0.012216771952807903, -1.5587645594826718, 0.012212578450338185, 0.012312098140380812, 0.012207714840769768, 0.012230778113007545]","[0.16318976879119873, 0.16270935535430908, 0.1604132503271103, 0.1594737023115158, 0.1639895737171173, 0.16512247920036316]","[0.03983805827877034, -1.5309582685161263, 0.03983805827877034, 0.03983805827877034, 0.03983805827877034, 0.03983805827877034]","[0.03983805827877034, -1.5309582685161263, 0.03983805827877034, 0.03983805827877034, 0.03983805827877034, 0.03983805827877034]",0.002,7,1
0,92,"[0.012537379749119282, -1.5584675718894978, 0.012615029011861623, 0.012704296703002882, 0.012553896754980087, 0.012505436316132545]","[0.16682304441928864, 0.16538415849208832, 0.16300731897354126, 0.16174733638763428, 0.1654931753873825, 0.1677493155002594]","[0.04027389686410387, -1.5305224299307927, 0.04027389686410387, 0.04027389686410387, 0.04027389686410387, 0.04027389686410387]","[0.04027389686410387, -1.5305224299307927, 0.04027389686410387, 0.04027389686410387, 0.04027389686410387, 0.04027389686410387]",0.002,7,1
0,93,"[0.012886696495115757, -1.5580552968061347, 0.012909714375631154, 0.012882872218749952, 0.012896338477730751, 0.012828280217945576]","[0.167136088013649, 0.1683577001094818, 0.16504959762096405, 0.16423755884170532, 0.1676192730665207, 0.17038339376449585]","[0.04070967182601018, -1.5300866549688863, 0.04070967182601018, 0.04070967182601018, 0.04070967182601018, 0.04070967182601018]","[0.04070967182601018, -1.5300866549688863, 0.04070967182601018, 0.04070967182601018, 0.04070967182601018, 0.04070967182601018]",0.002,7,1
0,94,"[0.013179986737668514, -1.5577347691035648, 0.013252083455220998, 0.013348384494445753, 0.013210953213274479, 0.013214132748544216]","[0.1678178310394287, 0.17017613351345062, 0.16685600578784943, 0.16580013930797577, 0.1701025664806366, 0.17305251955986023]","[0.041145382476065785, -1.5296509443188309, 0.041145382476065785, 0.041145382476065785, 0.041145382476065785, 0.041145382476065785]","[0.041145382476065785, -1.5296509443188309, 0.041145382476065785, 0.041145382476065785, 0.041145382476065785, 0.041145382476065785]",0.002,7,1
0,95,"[0.013536803424358368, -1.5573497808403154, 0.013512913380758107, 0.01366679250683589, 0.013616375625133514, 0.013521882705390453]","[0.17054983973503113, 0.1743464320898056, 0.16774964332580566, 0.16596563160419464, 0.1718742400407791, 0.1730523258447647]","[0.0415810281259488, -1.5292152986689478, 0.0415810281259488, 0.0415810281259488, 0.0415810281259488, 0.0415810281259488]","[0.0415810281259488, -1.5292152986689478, 0.0415810281259488, 0.0415810281259488, 0.0415810281259488, 0.0415810281259488]",0.002,7,1
0,96,"[0.013950221240520477, -1.557048395541944, 0.013899151478902638, 0.013993187541625929, 0.013907811604440212, 0.013889881782233715]","[0.17252768576145172, 0.17376954853534698, 0.16986508667469025, 0.16945980489253998, 0.17228862643241882, 0.17425015568733215]","[0.04201660808744002, -1.5287797187074565, 0.04201660808744002, 0.04201660808744002, 0.04201660808744002, 0.04201660808744002]","[0.04201660808744002, -1.5287797187074565, 0.04201660808744002, 0.04201660808744002, 0.04201660808744002, 0.04201660808744002]",0.002,7,1
0,97,"[0.014272940345108509, -1.556666694847383, 0.014257256184713185, 0.014347954387329054, 0.014260096475481987, 0.01428375393152237]","[0.17467299103736877, 0.17517609894275665, 0.17408518493175507, 0.17207062244415283, 0.17498651146888733, 0.176097109913826]","[0.042452121672424015, -1.5283442051224725, 0.042452121672424015, 0.042452121672424015, 0.042452121672424015, 0.042452121672424015]","[0.042452121672424015, -1.5283442051224725, 0.042452121672424015, 0.042452121672424015, 0.042452121672424015, 0.042452121672424015]",0.002,7,1
0,98,"[0.014622451737523079, -1.5563221250525494, 0.014595810567037404, 0.014694018954894972, 0.014638431370258331, 0.014577256515622139]","[0.1768890917301178, 0.17922356724739075, 0.17596207559108734, 0.17357583343982697, 0.17658261954784393, 0.17829200625419617]","[0.042887568192890205, -1.5279087586020064, 0.042887568192890205, 0.042887568192890205, 0.042887568192890205, 0.042887568192890205]","[0.042887568192890205, -1.5279087586020064, 0.042887568192890205, 0.042887568192890205, 0.042887568192890205, 0.042887568192890205]",0.002,7,1
0,99,"[0.014948288910090923, -1.555963853639998, 0.01492482820619756, 0.015123291606567335, 0.014970029704272747, 0.014892728999257088]","[0.1772344559431076, 0.18017826974391937, 0.17733120918273926, 0.1756727546453476, 0.17831984162330627, 0.17852069437503815]","[0.043322946960933965, -1.5274733798339626, 0.043322946960933965, 0.043322946960933965, 0.043322946960933965, 0.043322946960933965]","[0.043322946960933965, -1.5274733798339626, 0.043322946960933965, 0.043322946960933965, 0.043322946960933965, 0.043322946960933965]",0.002,7,1
0,100,"[0.015345826745033264, -1.5556199311143537, 0.015334908162252248, 0.015399141902587843, 0.01530449464917183, 0.015290042385458946]","[0.17799600958824158, 0.18480134010314941, 0.17900945246219635, 0.17546528577804565, 0.1813707798719406, 0.18137584626674652]","[0.04375825728875771, -1.5270380695061387, 0.04375825728875771, 0.04375825728875771, 0.04375825728875771, 0.04375825728875771]","[0.04375825728875771, -1.5270380695061387, 0.04375825728875771, 0.04375825728875771, 0.04375825728875771, 0.04375825728875771]",0.002,7,1
0,101,"[0.015677107498049736, -1.555206326102354, 0.015710179005758107, 0.015748901958129835, 0.015696264803409576, 0.015620068646967411]","[0.18105818331241608, 0.18581116199493408, 0.18233057856559753, 0.17920860648155212, 0.1852927803993225, 0.18478082120418549]","[0.04419349848867195, -1.5266028283062245, 0.04419349848867195, 0.04419349848867195, 0.04419349848867195, 0.04419349848867195]","[0.04419349848867195, -1.5266028283062245, 0.04419349848867195, 0.04419349848867195, 0.04419349848867195, 0.04419349848867195]",0.002,7,1
0,102,"[0.01609424315392971, -1.554923926745989, 0.016008679066793263, 0.016071959132812452, 0.016107449308037758, 0.016029030084609985]","[0.18416723608970642, 0.18620993196964264, 0.1854831725358963, 0.18006664514541626, 0.18478482961654663, 0.18666788935661316]","[0.04462866987309642, -1.5261676569218001, 0.04462866987309642, 0.04462866987309642, 0.04462866987309642, 0.04462866987309642]","[0.04462866987309642, -1.5261676569218001, 0.04462866987309642, 0.04462866987309642, 0.04462866987309642, 0.04462866987309642]",0.002,7,1
0,103,"[0.01649470441043377, -1.5545191832682868, 0.016385857258931935, 0.01649145662274165, 0.01646464690566063, 0.01640509068965912]","[0.18443737924098969, 0.1871849149465561, 0.18472518026828766, 0.18089038133621216, 0.1865108609199524, 0.18812884390354156]","[0.04506377075456115, -1.5257325560403354, 0.04506377075456115, 0.04506377075456115, 0.04506377075456115, 0.04506377075456115]","[0.04506377075456115, -1.5257325560403354, 0.04506377075456115, 0.04506377075456115, 0.04506377075456115, 0.04506377075456115]",0.002,7,1
0,104,"[0.016834113746881485, -1.5540696562132617, 0.01669627824892217, 0.016829295749328566, 0.016764946281909943, 0.016768399626016617]","[0.18597713112831116, 0.1892499327659607, 0.18907307088375092, 0.18384012579917908, 0.18883012235164642, 0.19131264090538025]","[0.04549880044570755, -1.525297526349189, 0.04549880044570755, 0.04549880044570755, 0.04549880044570755, 0.04549880044570755]","[0.04549880044570755, -1.525297526349189, 0.04549880044570755, 0.04549880044570755, 0.04549880044570755, 0.04549880044570755]",0.002,7,1
0,105,"[0.017213281244039536, -1.553722857763507, 0.017087284718648732, 0.017155333156249952, 0.01718665473163128, 0.017201272770762444]","[0.18822966516017914, 0.19185271859169006, 0.18789999186992645, 0.18613660335540771, 0.19033055007457733, 0.19106997549533844]","[0.04593375825928948, -1.524862568535607, 0.04593375825928948, 0.04593375825928948, 0.04593375825928948, 0.04593375825928948]","[0.04593375825928948, -1.524862568535607, 0.04593375825928948, 0.04593375825928948, 0.04593375825928948, 0.04593375825928948]",0.002,7,1
0,106,"[0.01756882295012474, -1.5533095200410862, 0.017542187367574513, 0.017594738597534132, 0.017588766291737556, 0.017615217715501785]","[0.18962068855762482, 0.18991030752658844, 0.18968632817268372, 0.189800426363945, 0.19206416606903076, 0.19365791976451874]","[0.04636864350817435, -1.5244276832867223, 0.04636864350817435, 0.04636864350817435, 0.04636864350817435, 0.04636864350817435]","[0.04636864350817435, -1.5244276832867223, 0.04636864350817435, 0.04636864350817435, 0.04636864350817435, 0.04636864350817435]",0.002,7,1
0,107,"[0.018052712082862854, -1.5529829741320391, 0.017818752919332326, 0.017972035998962355, 0.017934875562787056, 0.017981110140681267]","[0.19204972684383392, 0.1917673945426941, 0.19405534863471985, 0.19297170639038086, 0.19327956438064575, 0.19461530447006226]","[0.04680345550534421, -1.5239928712895523, 0.04680345550534421, 0.04680345550534421, 0.04680345550534421, 0.04680345550534421]","[0.04680345550534421, -1.5239928712895523, 0.04680345550534421, 0.04680345550534421, 0.04680345550534421, 0.04680345550534421]",0.002,7,1
0,108,"[0.018406996503472328, -1.5526057363352557, 0.018215004597799123, 0.01832227289166255, 0.018339034169912338, 0.018344996497035027]","[0.19226601719856262, 0.1944420337677002, 0.19555211067199707, 0.19333034753799438, 0.19575676321983337, 0.19731979072093964]","[0.04723819356389685, -1.5235581332309998, 0.04723819356389685, 0.04723819356389685, 0.04723819356389685, 0.04723819356389685]","[0.04723819356389685, -1.5235581332309998, 0.04723819356389685, 0.04723819356389685, 0.04723819356389685, 0.04723819356389685]",0.002,7,1
0,109,"[0.01880737394094467, -1.5521723435125132, 0.018741909657613576, 0.01871602117504878, 0.01871570013463497, 0.0187399722635746]","[0.1968344897031784, 0.19787468016147614, 0.19482648372650146, 0.19595783948898315, 0.1983284205198288, 0.1988574117422104]","[0.04767285699704684, -1.5231234697978497, 0.04767285699704684, 0.04767285699704684, 0.04767285699704684, 0.04767285699704684]","[0.04767285699704684, -1.5231234697978497, 0.04767285699704684, 0.04767285699704684, 0.04767285699704684, 0.04767285699704684]",0.002,7,1
0,110,"[0.01918606087565422, -1.5517387253097077, 0.019079510365621388, 0.01912812768902583, 0.01908392272889614, 0.019168337807059288]","[0.19757746160030365, 0.19720938801765442, 0.19721563160419464, 0.1987762451171875, 0.19981127977371216, 0.19985197484493256]","[0.04810744511812663, -1.5226888816767699, 0.04810744511812663, 0.04810744511812663, 0.04810744511812663, 0.04810744511812663]","[0.04810744511812663, -1.5226888816767699, 0.04810744511812663, 0.04810744511812663, 0.04810744511812663, 0.04810744511812663]",0.002,7,1
0,111,"[0.019515730440616608, -1.55137091994796, 0.01946574846376592, 0.01949433862652583, 0.01953686773777008, 0.01953919604420662]","[0.19759872555732727, 0.1989360898733139, 0.19866348803043365, 0.20044882595539093, 0.20124667882919312, 0.20135709643363953]","[0.048541957240587706, -1.522254369554309, 0.048541957240587706, 0.048541957240587706, 0.048541957240587706, 0.048541957240587706]","[0.048541957240587706, -1.522254369554309, 0.048541957240587706, 0.048541957240587706, 0.048541957240587706, 0.048541957240587706]",0.002,7,1
0,112,"[0.01997605711221695, -1.5509374153665085, 0.019865338002340138, 0.019937081927917433, 0.01992838829755783, 0.019967980682849884]","[0.2000161111354828, 0.20223523676395416, 0.20038019120693207, 0.20227013528347015, 0.20444147288799286, 0.2026968151330948]","[0.048976392678001544, -1.521819934116895, 0.048976392678001544, 0.048976392678001544, 0.048976392678001544, 0.048976392678001544]","[0.048976392678001544, -1.521819934116895, 0.048976392678001544, 0.048976392678001544, 0.048976392678001544, 0.048976392678001544]",0.002,7,1
0,113,"[0.020399989560246468, -1.5505343724838276, 0.0202563444720667, 0.020282550449035597, 0.02033171057701111, 0.020363185554742813]","[0.2023884654045105, 0.2034422755241394, 0.20244267582893372, 0.20403148233890533, 0.2046893835067749, 0.2031925618648529]","[0.049410750744060795, -1.5213855760508357, 0.049410750744060795, 0.049410750744060795, 0.049410750744060795, 0.049410750744060795]","[0.049410750744060795, -1.5213855760508357, 0.049410750744060795, 0.049410750744060795, 0.049410750744060795, 0.049410750744060795]",0.002,7,1
0,114,"[0.020757893100380898, -1.5501134277186175, 0.020661656056539357, 0.020675583476684523, 0.020777801051735878, 0.0207934882491827]","[0.20657913386821747, 0.2063438445329666, 0.20490622520446777, 0.20495131611824036, 0.2069878727197647, 0.20351269841194153]","[0.04984503075258035, -1.5209512960423162, 0.04984503075258035, 0.04984503075258035, 0.04984503075258035, 0.04984503075258035]","[0.04984503075258035, -1.5209512960423162, 0.04984503075258035, 0.04984503075258035, 0.04984503075258035, 0.04984503075258035]",0.002,7,1
0,115,"[0.021197672933340073, -1.5497307249209662, 0.0210650602923792, 0.021140261287353468, 0.021202387288212776, 0.021150553598999977]","[0.20725257694721222, 0.2061951458454132, 0.20667245984077454, 0.2076803296804428, 0.20810508728027344, 0.20553159713745117]","[0.050279232017498385, -1.5205170947773983, 0.050279232017498385, 0.050279232017498385, 0.050279232017498385, 0.050279232017498385]","[0.050279232017498385, -1.5205170947773983, 0.050279232017498385, 0.050279232017498385, 0.050279232017498385, 0.050279232017498385]",0.002,7,1
0,116,"[0.021564597263932228, -1.5492865846357127, 0.021468464528219044, 0.021522565478942823, 0.021588057279586792, 0.021566074341535568]","[0.20707054436206818, 0.20797249674797058, 0.2077312469482422, 0.21142230927944183, 0.2079409956932068, 0.20742355287075043]","[0.0507133538528775, -1.520082972942019, 0.0507133538528775, 0.0507133538528775, 0.0507133538528775, 0.0507133538528775]","[0.0507133538528775, -1.520082972942019, 0.0507133538528775, 0.0507133538528775, 0.0507133538528775, 0.0507133538528775]",0.002,7,1
0,117,"[0.021991604939103127, -1.5488546893796702, 0.0218737761126917, 0.02190367757763667, 0.0220009945333004, 0.022023065015673637]","[0.20883484184741974, 0.21167021989822388, 0.20853734016418457, 0.21261397004127502, 0.2090482860803604, 0.20902903378009796]","[0.05114739557290577, -1.5196489312219907, 0.05114739557290577, 0.05114739557290577, 0.05114739557290577, 0.05114739557290577]","[0.05114739557290577, -1.5196489312219907, 0.05114739557290577, 0.05114739557290577, 0.05114739557290577, 0.05114739557290577]",0.002,7,1
0,118,"[0.02242240309715271, -1.5484598588994523, 0.02225190797914678, 0.02230624734844966, 0.02240467444062233, 0.0224508885294199]","[0.20883126556873322, 0.21179784834384918, 0.20892773568630219, 0.21368589997291565, 0.21066877245903015, 0.21100884675979614]","[0.05158135649189781, -1.5192149703029987, 0.05158135649189781, 0.05158135649189781, 0.05158135649189781, 0.05158135649189781]","[0.05158135649189781, -1.5192149703029987, 0.05158135649189781, 0.05158135649189781, 0.05158135649189781, 0.05158135649189781]",0.002,7,1
0,119,"[0.022854747250676155, -1.5479863968542595, 0.022680584584371388, 0.02278725683178706, 0.022899972274899483, 0.02284506894648075]","[0.21281926333904266, 0.21061654388904572, 0.21175257861614227, 0.21561837196350098, 0.2125711590051651, 0.21193598210811615]","[0.05201523592429592, -1.5187810908706005, 0.05201523592429592, 0.05201523592429592, 0.05201523592429592, 0.05201523592429592]","[0.05201523592429592, -1.5187810908706005, 0.05201523592429592, 0.05201523592429592, 0.05201523592429592, 0.05201523592429592]",0.002,7,1
0,120,"[0.023231126368045807, -1.5475501616350194, 0.02319986024965459, 0.023160501117370558, 0.023290062323212624, 0.023294610902667046]","[0.2132328748703003, 0.21095411479473114, 0.2132081538438797, 0.2173490971326828, 0.214509516954422, 0.21346452832221985]","[0.05244903318467109, -1.5183472936102254, 0.05244903318467109, 0.05244903318467109, 0.05244903318467109, 0.05244903318467109]","[0.05244903318467109, -1.5183472936102254, 0.05244903318467109, 0.05244903318467109, 0.05244903318467109, 0.05244903318467109]",0.002,7,1
0,121,"[0.02376645617187023, -1.5471268699369212, 0.023541752492086232, 0.023602648372314405, 0.02370128408074379, 0.023763909935951233]","[0.2144419252872467, 0.2115599364042282, 0.21272869408130646, 0.21814154088497162, 0.2154637724161148, 0.21435658633708954]","[0.05288274758772415, -1.5179135792071725, 0.05288274758772415, 0.05288274758772415, 0.05288274758772415, 0.05288274758772415]","[0.05288274758772415, -1.5179135792071725, 0.05288274758772415, 0.05288274758772415, 0.05288274758772415, 0.05288274758772415]",0.002,7,1
0,122,"[0.02417644113302231, -1.5466798742166539, 0.023964707051412404, 0.024066372508666944, 0.024130718782544136, 0.024154910817742348]","[0.21572060883045197, 0.2142675668001175, 0.2129330039024353, 0.21956034004688263, 0.21833428740501404, 0.21517404913902283]","[0.05331637844828681, -1.5174799483466097, 0.05331637844828681, 0.05331637844828681, 0.05331637844828681, 0.05331637844828681]","[0.05331637844828681, -1.5174799483466097, 0.05331637844828681, 0.05331637844828681, 0.05331637844828681, 0.05331637844828681]",0.002,7,1
0,123,"[0.024549389258027077, -1.546264051725604, 0.024442497883931935, 0.02443520605053706, 0.024650031700730324, 0.024634966626763344]","[0.2172439843416214, 0.21592336893081665, 0.21633994579315186, 0.22172729671001434, 0.21707506477832794, 0.2160671353340149]","[0.053749925081322765, -1.5170464017135739, 0.053749925081322765, 0.053749925081322765, 0.053749925081322765, 0.053749925081322765]","[0.053749925081322765, -1.5170464017135739, 0.053749925081322765, 0.053749925081322765, 0.053749925081322765, 0.053749925081322765]",0.002,7,1
0,124,"[0.025024153292179108, -1.5457734794220706, 0.024887863789693654, 0.02490191041912837, 0.025063851848244667, 0.025066711008548737]","[0.21739423274993896, 0.21798953413963318, 0.2193068265914917, 0.22300274670124054, 0.21884918212890625, 0.21862982213497162]","[0.05418338680192879, -1.5166129399929678, 0.05418338680192879, 0.05418338680192879, 0.05418338680192879, 0.05418338680192879]","[0.05418338680192879, -1.5166129399929678, 0.05418338680192879, 0.05418338680192879, 0.05418338680192879, 0.05418338680192879]",0.002,7,1
0,125,"[0.025439273566007614, -1.5453840692392369, 0.025359932576314748, 0.025279088611267042, 0.025550343096256256, 0.025568032637238503]","[0.21948017179965973, 0.21883419156074524, 0.2183973789215088, 0.22450561821460724, 0.22068798542022705, 0.21918685734272003]","[0.05461676292533576, -1.5161795638695608, 0.05461676292533576, 0.05461676292533576, 0.05461676292533576, 0.05461676292533576]","[0.05461676292533576, -1.5161795638695608, 0.05461676292533576, 0.05461676292533576, 0.05461676292533576, 0.05461676292533576]",0.002,7,1
0,126,"[0.025910798460245132, -1.5448945772698899, 0.02578431764711553, 0.025737567538879347, 0.025926897302269936, 0.025953801348805428]","[0.22064700722694397, 0.22065876424312592, 0.2204635739326477, 0.22626584768295288, 0.22210468351840973, 0.21949048340320587]","[0.0550500527669098, -1.5157462740279868, 0.0550500527669098, 0.0550500527669098, 0.0550500527669098, 0.0550500527669098]","[0.0550500527669098, -1.5157462740279868, 0.0550500527669098, 0.0550500527669098, 0.0550500527669098, 0.0550500527669098]",0.002,7,1
0,127,"[0.026341985911130905, -1.5444884107312937, 0.026186768208638966, 0.026204391116760206, 0.026372620835900307, 0.02639896608889103]","[0.22222942113876343, 0.22194544970989227, 0.22341063618659973, 0.22674821317195892, 0.22389665246009827, 0.22122834622859955]","[0.05548325564215335, -1.5153130711527432, 0.05548325564215335, 0.05548325564215335, 0.05548325564215335, 0.05548325564215335]","[0.05548325564215335, -1.5153130711527432, 0.05548325564215335, 0.05548325564215335, 0.05548325564215335, 0.05548325564215335]",0.002,7,1
0,128,"[0.026715697720646858, -1.5439738550088187, 0.02666169801820928, 0.026675625438354444, 0.02685302309691906, 0.026837121695280075]","[0.22403857111930847, 0.2219058722257614, 0.2274259626865387, 0.22851499915122986, 0.22476473450660706, 0.22432269155979156]","[0.05591637086670621, -1.5148799559281902, 0.05591637086670621, 0.05591637086670621, 0.05591637086670621, 0.05591637086670621]","[0.05591637086670621, -1.5148799559281902, 0.05591637086670621, 0.05591637086670621, 0.05591637086670621, 0.05591637086670621]",0.002,7,1
