Arnibjarnst/BoxLift/logs/ur_rtde/trajectory_dur=5.0_delay=0.0_gain=100_lh=0.03_real.csv
arm_idx,step,actual_q,actual_qd,target_q,expected_q,loop_time,robot_mode,safety_mode
0,-1,"[-0.006309811268941701, -1.576937814752096, -0.00627198675647378, -0.00632222116503911, -0.006283108388082326, -0.006312195454732716]","[0.04268554970622063, 0.04605536535382271, 0.044509731233119965, 0.04631205275654793, 0.04423300176858902, 0.04375328868627548]","[0.0, -1.5707963267948966, 0.0, 0.0, 0.0, 0.0]","[0.0, -1.5707963267948966, 0.0, 0.0, 0.0, 0.0]",0.002,7,1
0,-1,"[-0.0054925123797815445, -1.5760332546629847, -0.005453360266983509, -0.00555165231738286, -0.005419556294576466, -0.005480114613668263]","[0.06095186993479729, 0.059178583323955536, 0.06106231361627579, 0.06212133169174194, 0.061979930847883224, 0.061030495911836624]","[0.0, -1.5707963267948966, 0.0, 0.0, 0.0, 0.0]","[0.0, -1.5707963267948966, 0.0, 0.0, 0.0, 0.0]",0.002,7,1
0,-1,"[-0.0042832533465784195, -1.5748802624144496, -0.004183134995400906, -0.0042196077159424306, -0.004084412251607716, -0.004188839589254201]","[0.07729514688253403, 0.07653690874576569, 0.07821130752563477, 0.08094628155231476, 0.07978570461273193, 0.0794990211725235]","[0.0, -1.5707963267948966, 0.0, 0.0, 0.0, 0.0]","[0.0, -1.5707963267948966, 0.0, 0.0, 0.0, 0.0]",0.002,7,1
0,-1,"[-0.0034640471087854507, -1.574000974694723, -0.0033706442918628454, -0.0033803743175049306, -0.003277603779928029, -0.0033133665667932632]","[0.08682509511709213, 0.07402461767196655, 0.08149730414152145, 0.08666073530912399, 0.08520825207233429, 0.0854279175400734]","[0.0, -1.5707963267948966, 0.0, 0.0, 0.0, 0.0]","[0.0, -1.5707963267948966, 0.0, 0.0, 0.0, 0.0]",0.002,7,1
0,-1,"[-0.0024092833148401382, -1.5730654201903285, -0.002357211196795106, -0.0023209613612671376, -0.0021708647357385757, -0.0022190252887170914]","[0.06612823158502579, 0.07319936901330948, 0.0733887180685997, 0.06782498955726624, 0.06611109524965286, 0.06615418940782547]","[0.0, -1.5707963267948966, 0.0, 0.0, 0.0, 0.0]","[0.0, -1.5707963267948966, 0.0, 0.0, 0.0, 0.0]",0.002,7,1
0,-1,"[-0.000733677540914357, -1.571360250512594, -0.0006554877618327737, -0.0006433290294189931, -0.0005481878863733414, -0.0006025473224084976]","[0.03684018552303314, 0.03552413731813431, 0.03823403641581535, 0.03521750867366791, 0.03457440063357353, 0.03602162376046181]","[0.0, -1.5707963267948966, 0.0, 0.0, 0.0, 0.0]","[0.0, -1.5707963267948966, 0.0, 0.0, 0.0, 0.0]",0.002,7,1
0,-1,"[-0.0002973715411584976, -1.5709296665587367, -0.0001983189577003941, -0.00020344675097661025, -0.00014096895326787262, -0.00016433397401982575]","[0.019391721114516258, 0.019559983164072037, 0.019130002707242966, 0.019234906882047653, 0.01733752340078354, 0.017586225643754005]","[0.0, -1.5707963267948966, 0.0, 0.0, 0.0, 0.0]","[0.0, -1.5707963267948966, 0.0, 0.0, 0.0, 0.0]",0.002,7,1
0,-1,"[-0.000104252492086232, -1.5708323917784632, -6.465673504862934e-05, -1.4619236328172747e-05, -3.415742983037262e-05, 7.815667231625412e-06]","[0.007274733390659094, 0.006230185739696026, 0.006555069237947464, 0.0064658597111701965, 0.005587481427937746, 0.005206229165196419]","[0.0, -1.5707963267948966, 0.0, 0.0, 0.0, 0.0]","[0.0, -1.5707963267948966, 0.0, 0.0, 0.0, 0.0]",0.002,7,1
0,-1,"[-0.0001443068133752945, -1.5707815545232116, -0.00010781049786601216, -0.00010021150622563368, -3.5587941304981996e-05, -6.0383473531544496e-05]","[-0.0034753300715237856, 0.01692494936287403, 0.005060598254203796, -0.00035943507100455463, -0.0014793595764786005, -0.0007086529512889683]","[0.0, -1.5707963267948966, 0.0, 0.0, 0.0, 0.0]","[0.0, -1.5707963267948966, 0.0, 0.0, 0.0, 0.0]",0.002,7,1
0,-1,"[-0.00018340746034795075, -1.5708805523314417, -7.031834684312344e-05, -8.829057727055556e-05, -9.423891176396637e-05, -8.8993703023732e-05]","[-5.711386279472208e-07, -0.009510712698101997, -0.0021488668862730265, -4.26529644936835e-10, 4.685934129611269e-07, -0.00021837011445313692]","[0.0, -1.5707963267948966, 0.0, 0.0, 0.0, 0.0]","[0.0, -1.5707963267948966, 0.0, 0.0, 0.0, 0.0]",0.002,7,1
0,-1,"[-0.000104252492086232, -1.5709392033019007, -0.00013039374607615173, -6.730974230961806e-05, -4.464784731084137e-05, -6.562868227177887e-05]","[2.60684730095731e-13, -0.0044306423515081406, -0.0009999783942475915, 0.000748341903090477, 1.0106200729416661e-17, -7.537739747931482e-06]","[0.0, -1.5707963267948966, 0.0, 0.0, 0.0, 0.0]","[0.0, -1.5707963267948966, 0.0, 0.0, 0.0, 0.0]",0.002,7,1
0,-1,"[-0.00010520616640263825, -1.5709434948363246, -0.00017021939856931567, -7.183969531254775e-05, -9.566942323857575e-05, -4.369417299443512e-05]","[1.189420791272379e-37, -0.00010617186489980668, -0.0003305600839667022, 0.0005260956822894514, 0.0006258124485611916, -2.954580297856269e-21]","[0.0, -1.5707963267948966, 0.0, 0.0, 0.0, 0.0]","[0.0, -1.5707963267948966, 0.0, 0.0, 0.0, 0.0]",0.002,7,1
0,-1,"[-0.0001290480243127945, -1.5709225140013636, -0.00010199785174336284, -2.6659374572801653e-05, -0.00010663667787724762, -3.2726918355763246e-05]","[0.0, -2.2907146558281966e-05, -0.00026180699933320284, 0.0005248812958598137, 0.0006603029323741794, 0.0005657330038957298]","[0.0, -1.5707963267948966, 0.0, 0.0, 0.0, 0.0]","[0.0, -1.5707963267948966, 0.0, 0.0, 0.0, 0.0]",0.002,7,1
0,-1,"[-0.0001290480243127945, -1.5709763966002406, -0.00015646613610442728, -4.001081500248915e-05, -8.374849428349762e-05, -2.271333803349762e-05]","[0.00025995311443693936, -2.4045246987231472e-20, -6.960626342333853e-05, 0.0006210637511685491, 0.0009274054900743067, 0.0005024868296459317]","[0.0, -1.5707963267948966, 0.0, 0.0, 0.0, 0.0]","[0.0, -1.5707963267948966, 0.0, 0.0, 0.0, 0.0]",0.002,7,1
0,-1,"[-6.324449648076325e-05, -1.5709482632079066, -8.731582784093916e-05, -4.454076800541884e-05, -6.705919374638825e-05, -4.0356312887013246e-05]","[0.0004984380793757737, -3.3862576935310524e-37, -5.1635044655995443e-05, 0.000663447892293334, 0.0011434709886088967, 0.00036684656515717506]","[0.0, -1.5707963267948966, 0.0, 0.0, 0.0, 0.0]","[0.0, -1.5707963267948966, 0.0, 0.0, 0.0, 0.0]",0.002,7,1
0,-1,"[-0.00012666383852177887, -1.5708934269347132, -0.0001321713934885338, -3.560007128911025e-05, -1.1746083394825746e-05, -2.5097523824513246e-05]","[0.0004890618729405105, 0.0, -4.3000149162253365e-05, 0.00038723894977010787, 0.0007360654417425394, 0.0008025225251913071]","[0.0, -1.5707963267948966, 0.0, 0.0, 0.0, 0.0]","[0.0, -1.5707963267948966, 0.0, 0.0, 0.0, 0.0]",0.002,7,1
0,-1,"[-0.000130955372945607, -1.5709120235838832, -8.505177538609132e-05, 1.7124363402842846e-06, 1.1101191375928465e-05, -4.593526021778871e-06]","[0.0005666181677952409, 0.0, -1.8804728824761696e-05, 0.0006152292480692267, 0.0012926789931952953, 0.0004951400333084166]","[0.0, -1.5707963267948966, 0.0, 0.0, 0.0, 0.0]","[0.0, -1.5707963267948966, 0.0, 0.0, 0.0, 0.0]",0.002,7,1
0,-1,"[-3.606477846318512e-05, -1.5709053478636683, -9.870529174804688e-05, -3.560007128911025e-05, -1.732503072560121e-06, -6.562868227177887e-05]","[0.0011344938538968563, 0.00016833101108204573, -2.3403627058787672e-14, 0.0004322261374909431, 0.0005850293673574924, 0.00046471963287331164]","[0.0, -1.5707963267948966, 0.0, 0.0, 0.0, 0.0]","[0.0, -1.5707963267948966, 0.0, 0.0, 0.0, 0.0]",0.002,7,1
0,-1,"[-5.7522450582325746e-05, -1.5709148846068324, -0.00011572361108846962, -4.179895434575087e-05, -8.408223287403871e-06, -4.6078358785450746e-05]","[0.0015116501599550247, 0.00017527351155877113, -3.2958983157084328e-31, 0.0003391692298464477, 0.0003185929381288588, 0.0003498310688883066]","[0.0, -1.5707963267948966, 0.0, 0.0, 0.0, 0.0]","[0.0, -1.5707963267948966, 0.0, 0.0, 0.0, 0.0]",0.002,7,1
0,-1,"[-2.4143849508106996e-05, -1.5708466968932093, -0.00012302398681640625, 1.661359753413194e-05, 1.1061667464673519e-05, -1.6514454976856996e-05]","[0.0010676485253497958, 0.0002712683053687215, -1.922581493053649e-42, 0.00026383373187854886, 0.0002444139972794801, 0.00023851488367654383]","[0.0, -1.5707963267948966, 0.0, 0.0, 0.0, 0.0]","[0.0, -1.5707963267948966, 0.0, 0.0, 0.0, 0.0]",0.002,7,1
0,-1,"[-3.7495289937794496e-05, -1.5709053478636683, -0.00011396670015528798, -7.228260376024309e-06, 2.86102294921875e-06, -8.885060445606996e-06]","[0.0014007780700922012, 0.0002679418248590082, -0.0, 0.00022597388306166977, 0.00021157909941393882, 0.00023613304074387997]","[0.0, -1.5707963267948966, 0.0, 0.0, 0.0, 0.0]","[0.0, -1.5707963267948966, 0.0, 0.0, 0.0, 0.0]",0.002,7,1
0,-1,"[-2.1282826558888246e-05, -1.5709225140013636, -6.461048178607598e-05, 7.434482238721785e-06, -6.024037496388246e-06, 7.782527973176911e-06]","[0.0012505450285971165, 0.0002525145828258246, -0.0, 0.00019160621741320938, 0.00018115437706001103, 0.00022591112065128982]","[0.0, -1.5707963267948966, 0.0, 0.0, 0.0, 0.0]","[0.0, -1.5707963267948966, 0.0, 0.0, 0.0, 0.0]",0.002,7,1
0,-1,"[-5.418459047490387e-05, -1.5708981953062953, -0.00013674974616151303, -1.6288166381883684e-05, -5.9429799215138246e-05, -7.788287561538709e-07]","[0.0004006673698313534, 0.00027264043455943465, 0.00021342407853808254, 0.00016203544510062784, 0.00015449732018169016, 0.0002125771570717916]","[0.0, -1.5707963267948966, 0.0, 0.0, 0.0, 0.0]","[0.0, -1.5707963267948966, 0.0, 0.0, 0.0, 0.0]",0.002,7,1
0,-1,"[2.5155941330012865e-05, -1.5709315739073695, -9.408766345586628e-05, -2.081811938481337e-05, -2.9865895406544496e-05, -4.6078358785450746e-05]","[-2.8895288384234163e-09, 0.0002478737442288548, 0.00019921235798392445, 0.00016042553761508316, 0.0001539210497867316, 0.00018058621208183467]","[0.0, -1.5707963267948966, 0.0, 0.0, 0.0, 0.0]","[0.0, -1.5707963267948966, 0.0, 0.0, 0.0, 0.0]",0.002,7,1
0,-1,"[-1.732503072560121e-06, -1.5709406338133753, -0.00010647594172041863, -2.820909533696181e-05, -1.732503072560121e-06, 1.2296107342990581e-05]","[-9.361728417387708e-17, 0.0002141818986274302, 0.00020149722695350647, 0.00014729698887094855, 0.0001420957560185343, 0.0001168441740446724]","[0.0, -1.5707963267948966, 0.0, 0.0, 0.0, 0.0]","[0.0, -1.5707963267948966, 0.0, 0.0, 0.0, 0.0]",0.002,7,1
0,-1,"[2.5865006136882585e-06, -1.5709735355772914, -8.275218715425581e-05, -1.6288166381883684e-05, -1.0792409078419496e-05, -1.6514454976856996e-05]","[-1.3183981888612953e-33, 0.0002985658938996494, 0.00020075829525012523, 0.0001243931765202433, 9.472107194596902e-05, 0.00011332349822623655]","[0.0, -1.5707963267948966, 0.0, 0.0, 0.0, 0.0]","[0.0, -1.5707963267948966, 0.0, 0.0, 0.0, 0.0]",0.002,7,1
0,-1,"[-2.8912221090138246e-05, -1.570841451684469, -7.486343383789062e-05, -1.6288166381883684e-05, -1.7468129293263246e-05, -2.5097523824513246e-05]","[0.0, 0.0015629061963409185, 0.0005776850157417357, 0.00010928807751042768, 9.69130705925636e-05, 0.00011320498015265912]","[0.0, -1.5707963267948966, 0.0, 0.0, 0.0, 0.0]","[0.0, -1.5707963267948966, 0.0, 0.0, 0.0, 0.0]",0.002,7,1
0,-1,"[-1.3653432027638246e-05, -1.5708095035948695, -5.381333903642371e-05, -7.47007182617665e-05, -3.0819569722950746e-05, -1.6514454976856996e-05]","[0.0, 0.0016739441780373454, 0.0011597407283261418, 9.745407442096621e-05, 9.862095612334087e-05, 0.00011311399430269375]","[0.0, -1.5707963267948966, 0.0, 0.0, 0.0, 0.0]","[0.0, -1.5707963267948966, 0.0, 0.0, 0.0, 0.0]",0.002,7,1
0,-1,"[2.6495681595406495e-06, -1.5708595714964808, -8.722480561118573e-05, 7.434482238721785e-06, -4.7985707418263246e-05, 5.258750752545893e-05]","[0.0, 0.0017008755821734667, 0.0008618560386821628, 9.244884859072044e-05, 9.349839820060879e-05, 0.00010642833512974903]","[0.0, -1.5707963267948966, 0.0, 0.0, 0.0, 0.0]","[0.0, -1.5707963267948966, 0.0, 0.0, 0.0, 0.0]",0.002,7,1
0,-1,"[-4.5124684469044496e-05, -1.570829530755514, -4.643139982363209e-05, -9.016399719286028e-06, 4.76837158203125e-07, -8.885060445606996e-06]","[0.0, 0.0009662450756877661, 0.0009503101464360952, 8.583600720157847e-05, 0.00012869105557911098, 9.775778016773984e-05]","[0.0, -1.5707963267948966, 0.0, 0.0, 0.0, 0.0]","[0.0, -1.5707963267948966, 0.0, 0.0, 0.0, 0.0]",0.002,7,1
0,-1,"[2.5956405806937255e-06, -1.5708385906615199, -9.183645306620747e-05, -7.228260376024309e-06, -6.024037496388246e-06, 1.52587890625e-05]","[0.0, 0.0005902475095354021, 0.0007283659651875496, 2.0356419554445893e-05, 0.00012866660836152732, 0.00010298188135493547]","[0.0, -1.5707963267948966, 0.0, 0.0, 0.0, 0.0]","[0.0, -1.5707963267948966, 0.0, 0.0, 0.0, 0.0]",0.002,7,1
0,-1,"[-9.361897603810121e-06, -1.5708052120604457, -7.939623901620507e-05, -2.820909533696181e-05, -5.036989320927887e-05, 4.485464160097763e-05]","[0.0, 2.8841743169249844e-17, 0.0009334026253782213, 4.390288762044878e-16, 0.00010594921332085505, 8.539342525182292e-05]","[0.0, -1.5707963267948966, 0.0, 0.0, 0.0, 0.0]","[0.0, -1.5707963267948966, 0.0, 0.0, 0.0, 0.0]",0.002,7,1
0,-1,"[3.814697265625e-06, -1.5707886976054688, -1.14679460239131e-06, 2.2693271301221785e-05, -3.0819569722950746e-05, -4.593526021778871e-06]","[0.0, 4.061738435806541e-34, 0.0011156901018694043, 9.468581119199164e-27, 0.00010505616228329018, 7.293668750207871e-05]","[0.0, -1.5707963267948966, 0.0, 0.0, 0.0, 0.0]","[0.0, -1.5707963267948966, 0.0, 0.0, 0.0, 0.0]",0.002,7,1
0,-1,"[-3.0199159795074593e-07, -1.570843359033102, -5.6767476053209975e-06, -2.820909533696181e-05, -1.0792409078419496e-05, -8.885060445606996e-06]","[0.0, 0.0, 1.8540225513062176e-23, 1.5414283107572988e-44, 8.403559331782162e-05, 5.867218351340853e-05]","[0.0, -1.5707963267948966, 0.0, 0.0, 0.0, 0.0]","[0.0, -1.5707963267948966, 0.0, 0.0, 0.0, 0.0]",0.002,7,1
0,-1,"[-1.732503072560121e-06, -1.5707860384175838, 4.369417299443512e-05, -1.1758213378953997e-05, 2.2816659111413173e-05, 7.815842764102854e-06]","[0.0, 0.0, 1.9461371801091028e-38, 0.0, 7.593278860440478e-05, 5.313038491294719e-05]","[0.0, -1.5707963267948966, 0.0, 0.0, 0.0, 0.0]","[0.0, -1.5707963267948966, 0.0, 0.0, 0.0, 0.0]",0.002,7,1
0,-1,"[-7.931386129200746e-06, -1.5708190403380335, -3.910064697265625e-05, 1.363336529536241e-05, -1.0792409078419496e-05, 0.0]","[0.0, 2.183761534979567e-05, -0.0, 0.0, 7.081221701810136e-05, 2.5148106942651793e-05]","[0.0, -1.5707963267948966, 0.0, 0.0, 0.0, 0.0]","[0.0, -1.5707963267948966, 0.0, 0.0, 0.0, 0.0]",0.002,7,1
0,-1,"[-1.8421803609669496e-05, -1.5708023510374964, -1.0278755325998645e-05, 1.661359753413194e-05, 6.455087259382708e-06, -1.3176594869435121e-05]","[0.0, 3.5892131563741714e-05, -0.0, 0.0, 9.002266841045062e-14, 5.423719250276368e-16]","[0.0, -1.5707963267948966, 0.0, 0.0, 0.0, 0.0]","[0.0, -1.5707963267948966, 0.0, 0.0, 0.0, 0.0]",0.002,7,1
0,-1,"[-2.557436098271637e-05, -1.5708023510374964, 1.3653432027638246e-05, -2.820909533696181e-05, 2.5832652681856416e-05, -7.788287561538709e-07]","[0.0, 4.801044997293502e-05, -0.0, 0.0, 6.975034917672182e-21, 4.2023469235457317e-23]","[0.0, -1.5707963267948966, 0.0, 0.0, 0.0, 0.0]","[0.0, -1.5707963267948966, 0.0, 0.0, 0.0, 0.0]",0.002,7,1
0,-1,"[-3.320375551396637e-05, -1.570843359033102, -1.4781951904296875e-05, 6.358205761713975e-05, -8.408223287403871e-06, 2.4171209588530473e-05]","[0.0, 5.855663039255887e-05, -0.0, 0.0, 1.7851178131313303e-37, 1.075504979160083e-39]","[0.0, -1.5707963267948966, 0.0, 0.0, 0.0, 0.0]","[0.0, -1.5707963267948966, 0.0, 0.0, 0.0, 0.0]",0.002,7,1
0,-1,"[-1.3653432027638246e-05, -1.5708524189391078, -3.163505971315317e-05, -9.016399719286028e-06, -1.732503072560121e-06, -2.2236500875294496e-05]","[0.0, 4.646415254683234e-05, -0.0, 0.0, 0.0, 0.0]","[0.0, -1.5707963267948966, 0.0, 0.0, 0.0, 0.0]","[0.0, -1.5707963267948966, 0.0, 0.0, 0.0, 0.0]",0.002,7,1
0,-1,"[1.620388138690032e-05, -1.5708190403380335, -1.290321051783394e-06, 5.9052104614210066e-05, 1.8358230590820312e-05, 1.0883808499784209e-05]","[0.0, 3.229313006158918e-05, -0.0, 0.0, 1.3226938533165977e-13, 0.0]","[0.0, -1.5707963267948966, 0.0, 0.0, 0.0, 0.0]","[0.0, -1.5707963267948966, 0.0, 0.0, 0.0, 0.0]",0.002,7,1
0,1,"[-1.6514454976856996e-05, -1.5707975826659144, -2.7179718017578125e-05, -9.016399719286028e-06, 6.4373016357421875e-06, 1.5241150322253816e-05]","[0.0, 1.1882883882208262e-05, -0.0, 0.0, 2.622855401435373e-37, 0.0]","[0.0008776483039858048, -1.5699186784909107, 0.0008776483039858048, 0.0008776483039858048, 0.0008776483039858048, 0.0008776483039858048]","[0.0008776483039858048, -1.5699186784909107, 0.0008776483039858048, 0.0008776483039858048, 0.0008776483039858048, 0.0008776483039858048]",0.002,7,1
0,2,"[-3.034273256474762e-05, -1.5707906049541016, 2.7004872457325746e-05, 3.8071269653272566e-05, -1.5083943502247621e-05, -8.885060445606996e-06]","[0.0, 3.1127812690101564e-05, -0.0, 0.0, 0.0, 0.0]","[0.001755291059830304, -1.5690410357350661, 0.001755291059830304, 0.001755291059830304, 0.001755291059830304, 0.001755291059830304]","[0.001755291059830304, -1.5690410357350661, 0.001755291059830304, 0.001755291059830304, 0.001755291059830304, 0.001755291059830304]",0.002,7,1
0,3,"[8.58306884765625e-06, -1.5707860750001892, -3.1658630177844316e-05, 6.358205761713975e-05, 7.152557373046875e-06, -3.8448964254200746e-05]","[0.0, 0.0022581310477107763, -0.0, 0.0, 0.0, 0.0]","[0.0026329227194272654, -1.5681634040754693, 0.0026329227194272654, 0.0026329227194272654, 0.0026329227194272654, 0.0026329227194272654]","[0.0026329227194272654, -1.5681634040754693, 0.0026329227194272654, 0.0026329227194272654, 0.0026329227194272654, 0.0026329227194272654]",0.002,7,1
0,4,"[-6.024037496388246e-06, -1.5708114109435023, -3.308570012450218e-05, 2.4481410644483503e-05, -2.209340230763246e-06, 4.8224686906905845e-05]","[0.004094147589057684, 0.0033105001784861088, 0.0027972934767603874, 0.0035884808748960495, 0.005014447495341301, 0.004183047916740179]","[0.003510537734740602, -1.567285789060156, 0.003510537734740602, 0.003510537734740602, 0.003510537734740602, 0.003510537734740602]","[0.003510537734740602, -1.567285789060156, 0.003510537734740602, 0.003510537734740602, 0.003510537734740602, 0.003510537734740602]",0.002,7,1
0,5,"[-6.024037496388246e-06, -1.5708114109435023, -3.308570012450218e-05, 2.4481410644483503e-05, -2.209340230763246e-06, 4.8224686906905845e-05]","[0.004094147589057684, 0.0033105001784861088, 0.0027972934767603874, 0.0035884808748960495, 0.005014447495341301, 0.004183047916740179]","[0.004388130557839446, -1.566408196237057, 0.004388130557839446, 0.004388130557839446, 0.004388130557839446, 0.004388130557839446]","[0.004388130557839446, -1.566408196237057, 0.004388130557839446, 0.004388130557839446, 0.004388130557839446, 0.004388130557839446]",0.002,7,1
0,6,"[3.555712100933306e-05, -1.5707740016044518, 4.116688863575746e-06, 5.285322155756944e-05, 1.3887881323171314e-05, 7.642936543561518e-05]","[0.0037391846999526024, 0.0031147541012614965, 0.00250795716419816, 0.004354177042841911, 0.0047237807884812355, 0.00492120161652565]","[0.00526569564093322, -1.5655306311539634, 0.00526569564093322, 0.00526569564093322, 0.00526569564093322, 0.00526569564093322]","[0.00526569564093322, -1.5655306311539634, 0.00526569564093322, 0.00526569564093322, 0.00526569564093322, 0.00526569564093322]",0.002,7,1
0,7,"[6.851553916931152e-05, -1.5707994900145472, 2.557436098271637e-05, 9.016572918696397e-05, 2.125801438523922e-05, 6.758551171515137e-05]","[0.003266488667577505, 0.0031450940296053886, 0.002714094938710332, 0.00422820495441556, 0.004140506964176893, 0.004713533446192741]","[0.006143227436406706, -1.56465309935849, 0.006143227436406706, 0.006143227436406706, 0.006143227436406706, 0.006143227436406706]","[0.006143227436406706, -1.56465309935849, 0.006143227436406706, 0.006143227436406706, 0.006143227436406706, 0.006143227436406706]",0.002,7,1
0,8,"[3.1062852940522134e-05, -1.5707454985425393, 5.418459047490387e-05, 5.738317456049913e-05, 5.890703323530033e-05, 1.3931275134382304e-05]","[0.003528681118041277, 0.005685278680175543, 0.005679017398506403, 0.004308786243200302, 0.0053710052743554115, 0.004527319688349962]","[0.007020720396855121, -1.5637756063980415, 0.007020720396855121, 0.007020720396855121, 0.007020720396855121, 0.007020720396855121]","[0.007020720396855121, -1.5637756063980415, 0.007020720396855121, 0.007020720396855121, 0.007020720396855121, 0.007020720396855121]",0.002,7,1
0,9,"[1.4525599908665754e-05, -1.5707409232894243, 7.802644838506012e-05, 4.5581454894971785e-05, 7.351957174250856e-05, 5.434582271846011e-05]","[0.006031958386301994, 0.00895631406456232, 0.007807927671819925, 0.006207590457051992, 0.008139185607433319, 0.006390304770320654]","[0.007898168975119177, -1.5628981578197774, 0.007898168975119177, 0.007898168975119177, 0.007898168975119177, 0.007898168975119177]","[0.007898168975119177, -1.5628981578197774, 0.007898168975119177, 0.007898168975119177, 0.007898168975119177, 0.007898168975119177]",0.002,7,1
0,10,"[4.6062468754826114e-05, -1.5707425636104126, 9.185472597295075e-05, 0.00010661661114497178, 8.71147567522712e-05, 0.000100509641924873]","[0.008406853303313255, 0.011887938715517521, 0.009495807811617851, 0.00844957772642374, 0.009760052897036076, 0.009698932059109211]","[0.008775567624320156, -1.5620207591705764, 0.008775567624320156, 0.008775567624320156, 0.008775567624320156, 0.008775567624320156]","[0.008775567624320156, -1.5620207591705764, 0.008775567624320156, 0.008775567624320156, 0.008775567624320156, 0.008775567624320156]",0.002,7,1
0,11,"[5.054473876953125e-05, -1.5706883066926203, 8.994737734013825e-05, 8.122503247065538e-05, 0.0001818379678297788, 6.62403108435683e-05]","[0.00983457826077938, 0.01534930057823658, 0.013498368673026562, 0.011551820673048496, 0.012610496953129768, 0.012723473832011223]","[0.00965291079789497, -1.5611434159970017, 0.00965291079789497, 0.00965291079789497, 0.00965291079789497, 0.00965291079789497]","[0.00965291079789497, -1.5611434159970017, 0.00965291079789497, 0.00965291079789497, 0.00965291079789497, 0.00965291079789497]",0.002,7,1
0,12,"[0.00013608360313810408, -1.5706735143069928, 0.000130955372945607, 8.849679913325303e-05, 9.363912249682471e-05, 0.00012298845103941858]","[0.011636835522949696, 0.017891623079776764, 0.017055125907063484, 0.01492508128285408, 0.01546897180378437, 0.01626249961555004]","[0.010530192949631223, -1.5602661338452652, 0.010530192949631223, 0.010530192949631223, 0.010530192949631223, 0.010530192949631223]","[0.010530192949631223, -1.5602661338452652, 0.010530192949631223, 0.010530192949631223, 0.010530192949631223, 0.010530192949631223]",0.002,7,1
0,13,"[0.00017678541189525276, -1.570654110317566, 0.00013810793031865387, 0.00014416753735346788, 0.0001430809497833252, 0.00023330377007368952]","[0.014573671855032444, 0.022090468555688858, 0.020576229318976402, 0.0189294945448637, 0.017676828429102898, 0.01967182569205761]","[0.011407408533702281, -1.5593889182611942, 0.011407408533702281, 0.011407408533702281, 0.011407408533702281, 0.011407408533702281]","[0.011407408533702281, -1.5593889182611942, 0.011407408533702281, 0.011407408533702281, 0.011407408533702281, 0.011407408533702281]",0.002,7,1
0,14,"[0.0001555175840621814, -1.570592343214532, 0.00017720857729131012, 0.00018493711437983507, 0.00026477526989765465, 0.00019805047486443073]","[0.017033927142620087, 0.02487221732735634, 0.023501655086874962, 0.021716322749853134, 0.020308353006839752, 0.021394364535808563]","[0.012284552004702319, -1.5585117747901942, 0.012284552004702319, 0.012284552004702319, 0.012284552004702319, 0.012284552004702319]","[0.012284552004702319, -1.5585117747901942, 0.012284552004702319, 0.012284552004702319, 0.012284552004702319, 0.012284552004702319]",0.002,7,1
0,15,"[0.0002035439683822915, -1.570532426242, 0.000272099171773732, 0.000228567714355421, 0.0002766961988527328, 0.0003131749399472028]","[0.019046878442168236, 0.025028765201568604, 0.02491304837167263, 0.02314889058470726, 0.021555697545409203, 0.023593803867697716]","[0.01316161781768138, -1.5576347089772151, 0.01316161781768138, 0.01316161781768138, 0.01316161781768138, 0.01316161781768138]","[0.01316161781768138, -1.5576347089772151, 0.01316161781768138, 0.01316161781768138, 0.01316161781768138, 0.01316161781768138]",0.002,7,1
0,16,"[0.00024711800506338477, -1.5705414949082588, 0.0002611319171350601, 0.0003016430088500499, 0.0003236137272324413, 0.00030303001403808594]","[0.02121826633810997, 0.025603892281651497, 0.02606114000082016, 0.02319273352622986, 0.021790748462080956, 0.022624598816037178]","[0.01403860042818044, -1.556757726366716, 0.01403860042818044, 0.01403860042818044, 0.01403860042818044, 0.01403860042818044]","[0.01403860042818044, -1.556757726366716, 0.01403860042818044, 0.01403860042818044, 0.01403860042818044, 0.01403860042818044]",0.002,7,1
0,17,"[0.0002456036163493991, -1.5704723084966936, 0.000314060841695607, 0.00034980356182856553, 0.0003636570181697607, 0.0003523334744386375]","[0.0241001658141613, 0.026758402585983276, 0.0279376320540905, 0.023729482665657997, 0.020686835050582886, 0.02178795263171196]","[0.014915494292266438, -1.55588083250263, 0.014915494292266438, 0.014915494292266438, 0.014915494292266438, 0.014915494292266438]","[0.014915494292266438, -1.55588083250263, 0.014915494292266438, 0.014915494292266438, 0.014915494292266438, 0.014915494292266438]",0.002,7,1
0,18,"[0.0003296971262898296, -1.5704410380315785, 0.0003622213946741226, 0.0003736454197387218, 0.00038035487523302436, 0.0004079983336851001]","[0.023379433900117874, 0.029348790645599365, 0.02993839606642723, 0.024514203891158104, 0.021933123469352722, 0.02227894403040409]","[0.015792293866567334, -1.5550040329283292, 0.015792293866567334, 0.015792293866567334, 0.015792293866567334, 0.015792293866567334]","[0.015792293866567334, -1.5550040329283292, 0.015792293866567334, 0.015792293866567334, 0.015792293866567334, 0.015792293866567334]",0.002,7,1
0,19,"[0.00044966983841732144, -1.5703883761346624, 0.0004342238055627945, 0.00044576703991694444, 0.0003909703518729657, 0.0004810820973943919]","[0.02826618030667305, 0.03097526915371418, 0.03186798095703125, 0.025247501209378242, 0.02409227564930916, 0.02361956425011158]","[0.01666899360830715, -1.5541273331865895, 0.01666899360830715, 0.01666899360830715, 0.01666899360830715, 0.01666899360830715]","[0.01666899360830715, -1.5541273331865895, 0.01666899360830715, 0.01666899360830715, 0.01666899360830715, 0.01666899360830715]",0.002,7,1
0,20,"[0.00044655799865722656, -1.5703539970603124, 0.0005524794207971695, 0.00045601903881831163, 0.0005664825439453125, 0.00045893812784925103]","[0.031221751123666763, 0.03392951935529709, 0.033849384635686874, 0.027087245136499405, 0.026647718623280525, 0.02598331868648529]","[0.017545587975341018, -1.5532507388195556, 0.017545587975341018, 0.017545587975341018, 0.017545587975341018, 0.017545587975341018]","[0.017545587975341018, -1.5532507388195556, 0.017545587975341018, 0.017545587975341018, 0.017545587975341018, 0.017545587975341018]",0.002,7,1
0,21,"[0.000532260921318084, -1.570227965745591, 0.0006082693683069351, 0.0005295711704711437, 0.0005186319467611611, 0.0005768911796621978]","[0.03288983926177025, 0.03601696342229843, 0.036280613392591476, 0.02964426763355732, 0.028763772919774055, 0.029203880578279495]","[0.018422071426190196, -1.5523742553687063, 0.018422071426190196, 0.018422071426190196, 0.018422071426190196, 0.018422071426190196]","[0.018422071426190196, -1.5523742553687063, 0.018422071426190196, 0.018422071426190196, 0.018422071426190196, 0.018422071426190196]",0.002,7,1
0,22,"[0.0006491098320111632, -1.5701844090111372, 0.0007422606097620132, 0.000630183810852003, 0.000629615446086973, 0.000583725341130048]","[0.03507586568593979, 0.039042696356773376, 0.0388704352080822, 0.032095182687044144, 0.03168221563100815, 0.031076455488801003]","[0.019298438420077113, -1.5514978883748194, 0.019298438420077113, 0.019298438420077113, 0.019298438420077113, 0.019298438420077113]","[0.019298438420077113, -1.5514978883748194, 0.019298438420077113, 0.019298438420077113, 0.019298438420077113, 0.019298438420077113]",0.002,7,1
0,23,"[0.0006805839366279542, -1.570116817343962, 0.0007885138141077164, 0.0007082658955077648, 0.0007154631312005222, 0.0006715686758980155]","[0.03750167787075043, 0.04269806295633316, 0.04103201627731323, 0.034896496683359146, 0.03421802073717117, 0.035189736634492874]","[0.020174683416960392, -1.550621643377936, 0.020174683416960392, 0.020174683416960392, 0.020174683416960392, 0.020174683416960392]","[0.020174683416960392, -1.550621643377936, 0.020174683416960392, 0.020174683416960392, 0.020174683416960392, 0.020174683416960392]",0.002,7,1
0,24,"[0.0007480592466890812, -1.570021018418931, 0.0008590857135217789, 0.0007271009632567882, 0.0008075365331023932, 0.0007437006570398808]","[0.041850339621305466, 0.04415443167090416, 0.04555152729153633, 0.03795619681477547, 0.03730357810854912, 0.03921641781926155]","[0.021050800877569876, -1.5497455259173267, 0.021050800877569876, 0.021050800877569876, 0.021050800877569876, 0.021050800877569876]","[0.021050800877569876, -1.5497455259173267, 0.021050800877569876, 0.021050800877569876, 0.021050800877569876, 0.021050800877569876]",0.002,7,1
0,25,"[0.0009238729253411293, -1.5698752540377718, 0.000928227101461232, 0.0008455949970702648, 0.0008824547403492033, 0.000839448010083288]","[0.045031849294900894, 0.05093754827976227, 0.04871088266372681, 0.04258754849433899, 0.04099787026643753, 0.040683336555957794]","[0.021926785263441637, -1.5488695415314548, 0.021926785263441637, 0.021926785263441637, 0.021926785263441637, 0.021926785263441637]","[0.021926785263441637, -1.5488695415314548, 0.021926785263441637, 0.021926785263441637, 0.021926785263441637, 0.021926785263441637]",0.002,7,1
0,26,"[0.0009071798413060606, -1.5698123568766569, 0.0010555426227014664, 0.0009130674549560069, 0.0009305206476710737, 0.0009414867381565273]","[0.047887224704027176, 0.05207608640193939, 0.05142414942383766, 0.04432260990142822, 0.04462793096899986, 0.04314709082245827]","[0.022802631036952997, -1.5479936957579437, 0.022802631036952997, 0.022802631036952997, 0.022802631036952997, 0.022802631036952997]","[0.022802631036952997, -1.5479936957579437, 0.022802631036952997, 0.022802631036952997, 0.022802631036952997, 0.022802631036952997]",0.002,7,1
0,27,"[0.0010031252168118954, -1.569711757973284, 0.0011442343341272476, 0.000996990794799757, 0.001038565649650991, 0.001044703647494316]","[0.05160665512084961, 0.05477801710367203, 0.05636750906705856, 0.04688769951462746, 0.04806284233927727, 0.04856973513960838]","[0.023678332661357517, -1.5471179941335391, 0.023678332661357517, 0.023678332661357517, 0.023678332661357517, 0.023678332661357517]","[0.023678332661357517, -1.5471179941335391, 0.023678332661357517, 0.023678332661357517, 0.023678332661357517, 0.023678332661357517]",0.002,7,1
0,28,"[0.0011742210481315851, -1.5696083897822355, 0.0013201872455042007, 0.00112561761822505, 0.0011511445045471191, 0.0011405303375795484]","[0.05486845597624779, 0.059958189725875854, 0.05781539902091026, 0.05071110650897026, 0.05244004726409912, 0.052234549075365067]","[0.024553884600820034, -1.5462424421940766, 0.024553884600820034, 0.024553884600820034, 0.024553884600820034, 0.024553884600820034]","[0.024553884600820034, -1.5462424421940766, 0.024553884600820034, 0.024553884600820034, 0.024553884600820034, 0.024553884600820034]",0.002,7,1
0,29,"[0.0012326870346441865, -1.5695094913574685, 0.0014556089984338882, 0.0012300449558715343, 0.001263946294784546, 0.0012413818622007966]","[0.05923468619585037, 0.06657309830188751, 0.06143353134393692, 0.05705391243100166, 0.056603725999593735, 0.055993758141994476]","[0.025429281320451615, -1.545367045474445, 0.025429281320451615, 0.025429281320451615, 0.025429281320451615, 0.025429281320451615]","[0.025429281320451615, -1.545367045474445, 0.025429281320451615, 0.025429281320451615, 0.025429281320451615, 0.025429281320451615]",0.002,7,1
0,30,"[0.0013600797392427921, -1.569318904341646, 0.0015590826617639664, 0.0013213592716674327, 0.001379459397867322, 0.0013520289212465286]","[0.062297523021698, 0.06569933891296387, 0.06775221973657608, 0.06070630997419357, 0.06044435501098633, 0.060597289353609085]","[0.02630451728634456, -1.544491809508552, 0.02630451728634456, 0.02630451728634456, 0.02630451728634456, 0.02630451728634456]","[0.02630451728634456, -1.544491809508552, 0.02630451728634456, 0.02630451728634456, 0.02630451728634456, 0.02630451728634456]",0.002,7,1
0,31,"[0.0015417910180985928, -1.5691943490276863, 0.0016697088824670914, 0.0015236574360351085, 0.0015000583371147513, 0.0015094013651832938]","[0.06697889417409897, 0.07237707078456879, 0.06890521943569183, 0.06268046051263809, 0.06503236293792725, 0.06560828536748886]","[0.027179586965607412, -1.543616739829289, 0.027179586965607412, 0.027179586965607412, 0.027179586965607412, 0.027179586965607412]","[0.027179586965607412, -1.543616739829289, 0.027179586965607412, 0.027179586965607412, 0.027179586965607412, 0.027179586965607412]",0.002,7,1
0,32,"[0.0016751640941947699, -1.569042934836336, 0.0018065611468713882, 0.0015606123157958507, 0.0016230049077421427, 0.0016293791122734547]","[0.07157190144062042, 0.07756692916154861, 0.07354839891195297, 0.06787200272083282, 0.06927519291639328, 0.06998354196548462]","[0.02805448482639989, -1.5427418419684966, 0.02805448482639989, 0.02805448482639989, 0.02805448482639989, 0.02805448482639989]","[0.02805448482639989, -1.5427418419684966, 0.02805448482639989, 0.02805448482639989, 0.02805448482639989, 0.02805448482639989]",0.002,7,1
0,33,"[0.001822158694267273, -1.568870274383091, 0.0019510428058069351, 0.0017584997364501476, 0.0017852302407845855, 0.001773445401340723]","[0.07534009963274002, 0.08136497437953949, 0.07839427888393402, 0.07307199388742447, 0.07521066814661026, 0.07573389261960983]","[0.028929205337967896, -1.5418671214569286, 0.028929205337967896, 0.028929205337967896, 0.028929205337967896, 0.028929205337967896]","[0.028929205337967896, -1.5418671214569286, 0.028929205337967896, 0.028929205337967896, 0.028929205337967896, 0.028929205337967896]",0.002,7,1
0,34,"[0.002006635069847107, -1.5686902231867244, 0.0021403471576135757, 0.001976175899169874, 0.0019791938830167055, 0.001966210315003991]","[0.08038970082998276, 0.08535267412662506, 0.0823848769068718, 0.07842950522899628, 0.07582900673151016, 0.07745889574289322]","[0.029803742970678452, -1.540992583824218, 0.029803742970678452, 0.029803742970678452, 0.029803742970678452, 0.029803742970678452]","[0.029803742970678452, -1.540992583824218, 0.029803742970678452, 0.029803742970678452, 0.029803742970678452, 0.029803742970678452]",0.002,7,1
0,35,"[0.0021207481622695923, -1.5685463827433814, 0.002320591603414357, 0.0020523506351928233, 0.002084401436150074, 0.0020839020144194365]","[0.08378434926271439, 0.09007775038480759, 0.08700770139694214, 0.08213996142148972, 0.08096535503864288, 0.08358855545520782]","[0.03067809219605467, -1.5401182345988418, 0.03067809219605467, 0.03067809219605467, 0.03067809219605467, 0.03067809219605467]","[0.03067809219605467, -1.5401182345988418, 0.03067809219605467, 0.03067809219605467, 0.03067809219605467, 0.03067809219605467]",0.002,7,1
0,36,"[0.0023307418450713158, -1.5683754820241411, 0.0024555365191858414, 0.0022789674946288585, 0.002278447151184082, 0.0022738552652299404]","[0.09188351035118103, 0.09537471830844879, 0.0909983217716217, 0.0862412378191948, 0.08830036222934723, 0.08721540123224258]","[0.0315522474868107, -1.539244079308086, 0.0315522474868107, 0.0315522474868107, 0.0315522474868107, 0.0315522474868107]","[0.0315522474868107, -1.539244079308086, 0.0315522474868107, 0.0315522474868107, 0.0315522474868107, 0.0315522474868107]",0.002,7,1
0,37,"[0.0024853863287717104, -1.5681487291916092, 0.002659622822896779, 0.0024632650562743663, 0.002494489774107933, 0.0024734348990023136]","[0.09104467183351517, 0.09906050562858582, 0.09523294121026993, 0.0917215570807457, 0.09155432134866714, 0.09164734929800034]","[0.03242620331688668, -1.5383701234780098, 0.03242620331688668, 0.03242620331688668, 0.03242620331688668, 0.03242620331688668]","[0.03242620331688668, -1.5383701234780098, 0.03242620331688668, 0.03242620331688668, 0.03242620331688668, 0.03242620331688668]",0.002,7,1
0,38,"[0.002749308943748474, -1.5679116959548374, 0.0028565565692346695, 0.0026131111332396983, 0.002687025349587202, 0.0026535289362072945]","[0.10022041946649551, 0.10344339907169342, 0.09967875480651855, 0.09674441814422607, 0.09695052355527878, 0.09643512964248657]","[0.033299954161483625, -1.537496372633413, 0.033299954161483625, 0.033299954161483625, 0.033299954161483625, 0.033299954161483625]","[0.033299954161483625, -1.537496372633413, 0.033299954161483625, 0.033299954161483625, 0.033299954161483625, 0.033299954161483625]",0.002,7,1
0,39,"[0.0029068291187286377, -1.5677453703577449, 0.0030744711505334976, 0.0028467613407592296, 0.0028673894703388214, 0.00292302668094635]","[0.10408997535705566, 0.10664598643779755, 0.1071653664112091, 0.10228447616100311, 0.10182362794876099, 0.10171511769294739]","[0.03417349449709842, -1.5366228322977982, 0.03417349449709842, 0.03417349449709842, 0.03417349449709842, 0.03417349449709842]","[0.03417349449709842, -1.5366228322977982, 0.03417349449709842, 0.03417349449709842, 0.03417349449709842, 0.03417349449709842]",0.002,7,1
0,40,"[0.0031393086537718773, -1.567508172509708, 0.003248039876119435, 0.003067298526428175, 0.0031095112208276987, 0.003131202654913068]","[0.10930407792329788, 0.11158978193998337, 0.10890006273984909, 0.10743305832147598, 0.10860618948936462, 0.10693538933992386]","[0.03504681880155869, -1.5357495079933379, 0.03504681880155869, 0.03504681880155869, 0.03504681880155869, 0.03504681880155869]","[0.03504681880155869, -1.5357495079933379, 0.03504681880155869, 0.03504681880155869, 0.03504681880155869, 0.03504681880155869]",0.002,7,1
0,41,"[0.003442317247390747, -1.5673178404434402, 0.0035021940814417007, 0.0032877165028075694, 0.0033498574048280716, 0.003288933774456382]","[0.11501675099134445, 0.11743658035993576, 0.11515074223279953, 0.11192242801189423, 0.11074328422546387, 0.11183442920446396]","[0.035919921554057724, -1.5348764052408388, 0.035919921554057724, 0.035919921554057724, 0.035919921554057724, 0.035919921554057724]","[0.035919921554057724, -1.5348764052408388, 0.035919921554057724, 0.035919921554057724, 0.035919921554057724, 0.035919921554057724]",0.002,7,1
0,42,"[0.0035953670740127563, -1.5670870226207008, 0.0037329832660120132, 0.003544731731079054, 0.00355887645855546, 0.0035915719345211983]","[0.12028805911540985, 0.12237032502889633, 0.12169325351715088, 0.11756159365177155, 0.11773788183927536, 0.11792291700839996]","[0.03679279723518938, -1.5340035295597072, 0.03679279723518938, 0.03679279723518938, 0.03679279723518938, 0.03679279723518938]","[0.03679279723518938, -1.5340035295597072, 0.03679279723518938, 0.03679279723518938, 0.03679279723518938, 0.03679279723518938]",0.002,7,1
0,43,"[0.0038907378911972046, -1.5668122286773105, 0.004015747700826466, 0.0037668186375121593, 0.0038231564685702324, 0.0037988261319696903]","[0.1261342316865921, 0.12788762152194977, 0.1260073333978653, 0.12545301020145416, 0.12156522274017334, 0.1228688508272171]","[0.03766544032698294, -1.5331308864679136, 0.03766544032698294, 0.03766544032698294, 0.03766544032698294, 0.03766544032698294]","[0.03766544032698294, -1.5331308864679136, 0.03766544032698294, 0.03766544032698294, 0.03766544032698294, 0.03766544032698294]",0.002,7,1
0,44,"[0.004192089196294546, -1.5665813654525955, 0.004304234181539357, 0.004030509585998487, 0.004145788960158825, 0.004016169812530279]","[0.1314493864774704, 0.1328544020652771, 0.1310405284166336, 0.12988777458667755, 0.1285209208726883, 0.12823323905467987]","[0.03853784531293808, -1.5322584814819584, 0.03853784531293808, 0.03853784531293808, 0.03853784531293808, 0.03853784531293808]","[0.03853784531293808, -1.5322584814819584, 0.03853784531293808, 0.03853784531293808, 0.03853784531293808, 0.03853784531293808]",0.002,7,1
0,45,"[0.004489554092288017, -1.5663402669927855, 0.00455648103822881, 0.004328294391296339, 0.004298176150768995, 0.004309799522161484]","[0.13649363815784454, 0.1377428025007248, 0.13584168255329132, 0.1359870433807373, 0.1342175006866455, 0.1339583545923233]","[0.03941000667805963, -1.531386320116837, 0.03941000667805963, 0.03941000667805963, 0.03941000667805963, 0.03941000667805963]","[0.03941000667805963, -1.531386320116837, 0.03941000667805963, 0.03941000667805963, 0.03941000667805963, 0.03941000667805963]",0.002,7,1
0,46,"[0.0047682225704193115, -1.566008235593774, 0.004757229481832326, 0.004611297244689894, 0.004607715643942356, 0.004614138510078192]","[0.14548207819461823, 0.14205460250377655, 0.14218032360076904, 0.14104533195495605, 0.14024892449378967, 0.14249730110168457]","[0.04028191890889251, -1.530514407886004, 0.04028191890889251, 0.04028191890889251, 0.04028191890889251, 0.04028191890889251]","[0.04028191890889251, -1.530514407886004, 0.04028191890889251, 0.04028191890889251, 0.04028191890889251, 0.04028191890889251]",0.002,7,1
0,47,"[0.005048835184425116, -1.5657037750682612, 0.005083386098043263, 0.004919691676757765, 0.004941101185977459, 0.0048852902837097645]","[0.14829882979393005, 0.15051282942295074, 0.14651529490947723, 0.1460951268672943, 0.14676883816719055, 0.14660698175430298]","[0.041153576493556596, -1.52964275030134, 0.041153576493556596, 0.041153576493556596, 0.041153576493556596, 0.041153576493556596]","[0.041153576493556596, -1.52964275030134, 0.041153576493556596, 0.041153576493556596, 0.041153576493556596, 0.041153576493556596]",0.002,7,1
0,48,"[0.005344555713236332, -1.5654278055629511, 0.005445782338277638, 0.005208178157470655, 0.005275050178170204, 0.005180707201361656]","[0.1551029086112976, 0.1545528918504715, 0.15297099947929382, 0.15269818902015686, 0.15320634841918945, 0.15362320840358734]","[0.0420249739217815, -1.528771352873115, 0.0420249739217815, 0.0420249739217815, 0.0420249739217815, 0.0420249739217815]","[0.0420249739217815, -1.528771352873115, 0.0420249739217815, 0.0420249739217815, 0.0420249739217815, 0.0420249739217815]",0.002,7,1
0,49,"[0.00567743880674243, -1.5651233450374384, 0.005762879048482716, 0.0055998998829345226, 0.005566433537751436, 0.005575083661824465]","[0.15981940925121307, 0.1598687618970871, 0.16238828003406525, 0.16025514900684357, 0.15985217690467834, 0.16001538932323456]","[0.04289610568494145, -1.527900221109955, 0.04289610568494145, 0.04289610568494145, 0.04289610568494145, 0.04289610568494145]","[0.04289610568494145, -1.527900221109955, 0.04289610568494145, 0.04289610568494145, 0.04289610568494145, 0.04289610568494145]",0.002,7,1
0,50,"[0.006055882666260004, -1.5647874132594843, 0.006122891102926076, 0.0058200794407348155, 0.0059211645275354385, 0.0058540222235023975]","[0.1663588285446167, 0.1669863909482956, 0.16655965149402618, 0.16622783243656158, 0.16488422453403473, 0.16752871870994568]","[0.04376696627609011, -1.5270293605188066, 0.04376696627609011, 0.04376696627609011, 0.04376696627609011, 0.04376696627609011]","[0.04376696627609011, -1.5270293605188066, 0.04376696627609011, 0.04376696627609011, 0.04376696627609011, 0.04376696627609011]",0.002,7,1
0,51,"[0.006436740048229694, -1.5644469515285273, 0.0064232985125940445, 0.006280942554138136, 0.00625607930123806, 0.006160413846373558]","[0.17211861908435822, 0.1730138510465622, 0.17256629467010498, 0.1705399751663208, 0.1696990579366684, 0.17097951471805573]","[0.044637550189995365, -1.5261587766049012, 0.044637550189995365, 0.044637550189995365, 0.044637550189995365, 0.044637550189995365]","[0.044637550189995365, -1.5261587766049012, 0.044637550189995365, 0.044637550189995365, 0.044637550189995365, 0.044637550189995365]",0.002,7,1
0,52,"[0.006717090494930744, -1.5641154304942866, 0.006859127675191701, 0.0065906482883910655, 0.006584989372640848, 0.006557045038789511]","[0.17867274582386017, 0.17882801592350006, 0.1791195273399353, 0.17716415226459503, 0.17828550934791565, 0.17855899035930634]","[0.045507851923174164, -1.5252884748717224, 0.045507851923174164, 0.045507851923174164, 0.045507851923174164, 0.045507851923174164]","[0.045507851923174164, -1.5252884748717224, 0.045507851923174164, 0.045507851923174164, 0.045507851923174164, 0.045507851923174164]",0.002,7,1
0,53,"[0.007107226178050041, -1.5637839183076103, 0.007202927266256154, 0.007000728244445753, 0.007012330461293459, 0.0069087776355445385]","[0.1863236427307129, 0.18585622310638428, 0.18393369019031525, 0.18398617208003998, 0.18279685080051422, 0.18469181656837463]","[0.04637786597392728, -1.5244184608209692, 0.04637786597392728, 0.04637786597392728, 0.04637786597392728, 0.04637786597392728]","[0.04637786597392728, -1.5244184608209692, 0.04637786597392728, 0.04637786597392728, 0.04637786597392728, 0.04637786597392728]",0.002,7,1
0,54,"[0.007524169981479645, -1.5633007379113515, 0.007576290761129201, 0.00741831838574214, 0.007314573973417282, 0.00726794870570302]","[0.19088825583457947, 0.1943754404783249, 0.19161798059940338, 0.19066716730594635, 0.18896980583667755, 0.1929446905851364]","[0.04724758684237411, -1.5235487399525225, 0.04724758684237411, 0.04724758684237411, 0.04724758684237411, 0.04724758684237411]","[0.04724758684237411, -1.5235487399525225, 0.04724758684237411, 0.04724758684237411, 0.04724758684237411, 0.04724758684237411]",0.002,7,1
0,55,"[0.007887359708547592, -1.5629830167493601, 0.007967297230855763, 0.007798953647277784, 0.007760527543723583, 0.007676667999476194]","[0.19684073328971863, 0.1975986510515213, 0.19895367324352264, 0.1984303891658783, 0.19533956050872803, 0.19897879660129547]","[0.04811700903048741, -1.5226793177644091, 0.04811700903048741, 0.04811700903048741, 0.04811700903048741, 0.04811700903048741]","[0.04811700903048741, -1.5226793177644091, 0.04811700903048741, 0.04811700903048741, 0.04811700903048741, 0.04811700903048741]",0.002,7,1
0,56,"[0.008287912234663963, -1.5625236409581085, 0.008338276539937794, 0.008215470904968214, 0.00821621436625719, 0.008100827224552631]","[0.20169401168823242, 0.20541934669017792, 0.20401056110858917, 0.20510347187519073, 0.20221196115016937, 0.20490606129169464]","[0.0489861270421281, -1.5218101997527684, 0.0489861270421281, 0.0489861270421281, 0.0489861270421281, 0.0489861270421281]","[0.0489861270421281, -1.5218101997527684, 0.0489861270421281, 0.0489861270421281, 0.0489861270421281, 0.0489861270421281]",0.002,7,1
0,57,"[0.008715387433767319, -1.5621038733846326, 0.008866612111226857, 0.008606715793273878, 0.00853747595101595, 0.0085338419303298]","[0.20854640007019043, 0.21163910627365112, 0.2116728276014328, 0.20935192704200745, 0.20961882174015045, 0.21150703728199005]","[0.04985493538307995, -1.5209413914118166, 0.04985493538307995, 0.04985493538307995, 0.04985493538307995, 0.04985493538307995]","[0.04985493538307995, -1.5209413914118166, 0.04985493538307995, 0.04985493538307995, 0.04985493538307995, 0.04985493538307995]",0.002,7,1
0,58,"[0.00915621966123581, -1.5617289815894146, 0.009259049092428029, 0.00903265058483882, 0.00901708658784628, 0.008965447545051575]","[0.2151746153831482, 0.2169398069381714, 0.21528217196464539, 0.21462367475032806, 0.2176273614168167, 0.21763993799686432]","[0.05072342856108438, -1.520072898233812, 0.05072342856108438, 0.05072342856108438, 0.05072342856108438, 0.05072342856108438]","[0.05072342856108438, -1.520072898233812, 0.05072342856108438, 0.05072342856108438, 0.05072342856108438, 0.05072342856108438]",0.002,7,1
0,59,"[0.009654602967202663, -1.561297176671662, 0.009736363087789357, 0.00954548894848628, 0.009452247060835361, 0.009339616633951664]","[0.22268882393836975, 0.22278402745723724, 0.2204657793045044, 0.22107702493667603, 0.22322054207324982, 0.22571803629398346]","[0.05159160108587512, -1.5192047257090215, 0.05159160108587512, 0.05159160108587512, 0.05159160108587512, 0.05159160108587512]","[0.05159160108587512, -1.5192047257090215, 0.05159160108587512, 0.05159160108587512, 0.05159160108587512, 0.05159160108587512]",0.002,7,1
0,60,"[0.010131408460438251, -1.560919445273914, 0.010126415883199513, 0.00993613779034419, 0.009896299801766872, 0.009915247559547424]","[0.22912074625492096, 0.2299574613571167, 0.22811779379844666, 0.22759118676185608, 0.2288750559091568, 0.23185810446739197]","[0.05245944746921293, -1.5183368793256837, 0.05245944746921293, 0.05245944746921293, 0.05245944746921293, 0.05245944746921293]","[0.05245944746921293, -1.5183368793256837, 0.05245944746921293, 0.05245944746921293, 0.05245944746921293, 0.05245944746921293]",0.002,7,1
0,61,"[0.010517144575715065, -1.560376263489463, 0.010552231465474904, 0.010500951404235792, 0.010377326048910618, 0.010326256975531578]","[0.23597440123558044, 0.23657913506031036, 0.2350875437259674, 0.23545031249523163, 0.2368977963924408, 0.23817655444145203]","[0.05332696222492035, -1.5174693645699762, 0.05332696222492035, 0.05332696222492035, 0.05332696222492035, 0.05332696222492035]","[0.05332696222492035, -1.5174693645699762, 0.05332696222492035, 0.05332696222492035, 0.05332696222492035, 0.05332696222492035]",0.002,7,1
0,62,"[0.01098488736897707, -1.559912765664496, 0.011120621358053029, 0.010976358050964308, 0.01089070551097393, 0.01081028301268816]","[0.24472901225090027, 0.2434869259595871, 0.23968420922756195, 0.24306607246398926, 0.2427450269460678, 0.2450832575559616]","[0.05419413986891631, -1.5166021869259803, 0.05419413986891631, 0.05419413986891631, 0.05419413986891631, 0.05419413986891631]","[0.05419413986891631, -1.5166021869259803, 0.05419413986891631, 0.05419413986891631, 0.05419413986891631, 0.05419413986891631]",0.002,7,1
0,63,"[0.011530928313732147, -1.5594328290647645, 0.011610333119527638, 0.011472030276916456, 0.011363278143107891, 0.011317201890051365]","[0.24956144392490387, 0.25230303406715393, 0.24899430572986603, 0.24970278143882751, 0.24785520136356354, 0.25341328978538513]","[0.05506097491925081, -1.5157353518756458, 0.05506097491925081, 0.05506097491925081, 0.05506097491925081, 0.05506097491925081]","[0.05506097491925081, -1.5157353518756458, 0.05506097491925081, 0.05506097491925081, 0.05506097491925081, 0.05506097491925081]",0.002,7,1
0,64,"[0.011985572054982185, -1.5589665372720738, 0.012129131947652638, 0.011995001430175734, 0.011862928047776222, 0.0118294358253479]","[0.2559826672077179, 0.25696349143981934, 0.25413718819618225, 0.2568637430667877, 0.2554631233215332, 0.2599997818470001]","[0.055927461896139626, -1.514868864898757, 0.055927461896139626, 0.055927461896139626, 0.055927461896139626, 0.055927461896139626]","[0.055927461896139626, -1.514868864898757, 0.055927461896139626, 0.055927461896139626, 0.055927461896139626, 0.055927461896139626]",0.002,7,1
0,65,"[0.012567857280373573, -1.5584503955072542, 0.012598339711324513, 0.01256362974133296, 0.012404927983880043, 0.012344573624432087]","[0.2651921510696411, 0.26421529054641724, 0.2622043192386627, 0.2631348967552185, 0.2651163637638092, 0.26722854375839233]","[0.056793595321998874, -1.5140027314728977, 0.056793595321998874, 0.056793595321998874, 0.056793595321998874, 0.056793595321998874]","[0.056793595321998874, -1.5140027314728977, 0.056793595321998874, 0.056793595321998874, 0.056793595321998874, 0.056793595321998874]",0.002,7,1
0,66,"[0.013128949329257011, -1.5578875460526724, 0.013152901326314748, 0.013086839313171339, 0.012866802513599396, 0.012901644222438335]","[0.27061980962753296, 0.2741544246673584, 0.2690073251724243, 0.2687199115753174, 0.2719714045524597, 0.27392110228538513]","[0.057659369721479704, -1.5131369570734168, 0.057659369721479704, 0.057659369721479704, 0.057659369721479704, 0.057659369721479704]","[0.057659369721479704, -1.5131369570734168, 0.057659369721479704, 0.057659369721479704, 0.057659369721479704, 0.057659369721479704]",0.002,7,1
0,67,"[0.013610153459012508, -1.5573823147318144, 0.013690773640767873, 0.01363949357952876, 0.013523202389478683, 0.01342093851417303]","[0.27647238969802856, 0.2801186740398407, 0.2751927077770233, 0.2727147042751312, 0.2787047028541565, 0.28128698468208313]","[0.05852477962150289, -1.5122715471733936, 0.05852477962150289, 0.05852477962150289, 0.05852477962150289, 0.05852477962150289]","[0.05852477962150289, -1.5122715471733936, 0.05852477962150289, 0.05852477962150289, 0.05852477962150289, 0.05852477962150289]",0.002,7,1
0,68,"[0.014244362711906433, -1.5567791380784293, 0.01424724260439092, 0.014256401652954054, 0.014066347852349281, 0.01398990023881197]","[0.2838263213634491, 0.28736066818237305, 0.28459009528160095, 0.28096112608909607, 0.2855176031589508, 0.2883787155151367]","[0.05938981955129341, -1.5114065072436031, 0.05938981955129341, 0.05938981955129341, 0.05938981955129341, 0.05938981955129341]","[0.05938981955129341, -1.5114065072436031, 0.05938981955129341, 0.05938981955129341, 0.05938981955129341, 0.05938981955129341]",0.002,7,1
0,69,"[0.014828251674771309, -1.5562169191292305, 0.01482707658876592, 0.014760180110595655, 0.014637011103332043, 0.014610279351472855]","[0.29144299030303955, 0.295997679233551, 0.2913386821746826, 0.2885998487472534, 0.2930508553981781, 0.29537200927734375]","[0.060254484042415055, -1.5105418427524815, 0.060254484042415055, 0.060254484042415055, 0.060254484042415055, 0.060254484042415055]","[0.060254484042415055, -1.5105418427524815, 0.060254484042415055, 0.060254484042415055, 0.060254484042415055, 0.060254484042415055]",0.002,7,1
0,70,"[0.015421150252223015, -1.5555910610458632, 0.015408341084615529, 0.015324516887329054, 0.01525103859603405, 0.015173839405179024]","[0.29665258526802063, 0.30025461316108704, 0.2964355945587158, 0.2949681878089905, 0.2979407012462616, 0.2994007170200348]","[0.06111876762880499, -1.5096775591660916, 0.06111876762880499, 0.06111876762880499, 0.06111876762880499, 0.06111876762880499]","[0.06111876762880499, -1.5096775591660916, 0.06111876762880499, 0.06111876762880499, 0.06111876762880499, 0.06111876762880499]",0.002,7,1
0,71,"[0.01602351665496826, -1.5550033965012808, 0.015963379536763966, 0.015972777003906202, 0.01578504964709282, 0.015831468626856804]","[0.3054310977458954, 0.30914396047592163, 0.3044957220554352, 0.3021584749221802, 0.3059760332107544, 0.3083464801311493]","[0.061982664846808304, -1.5088136619480883, 0.061982664846808304, 0.061982664846808304, 0.061982664846808304, 0.061982664846808304]","[0.061982664846808304, -1.5088136619480883, 0.061982664846808304, 0.061982664846808304, 0.061982664846808304, 0.061982664846808304]",0.002,7,1
0,72,"[0.01669853925704956, -1.5544079460999747, 0.01658803621401006, 0.01659028112377925, 0.0164637453854084, 0.016446290537714958]","[0.31278541684150696, 0.3140016794204712, 0.3101452887058258, 0.3088650405406952, 0.312501460313797, 0.315483033657074]","[0.06284617023521256, -1.507950156559684, 0.06284617023521256, 0.06284617023521256, 0.06284617023521256, 0.06284617023521256]","[0.06284617023521256, -1.507950156559684, 0.06284617023521256, 0.06284617023521256, 0.06284617023521256, 0.06284617023521256]",0.002,7,1
0,73,"[0.01727628894150257, -1.55377032541249, 0.017237488423482716, 0.017187877292297316, 0.017101341858506203, 0.017127016559243202]","[0.3195160925388336, 0.3223583996295929, 0.3166871666908264, 0.3153071701526642, 0.3205774128437042, 0.32212501764297485]","[0.0637092783352823, -1.5070870484596142, 0.0637092783352823, 0.0637092783352823, 0.0637092783352823, 0.0637092783352823]","[0.0637092783352823, -1.5070870484596142, 0.0637092783352823, 0.0637092783352823, 0.0637092783352823, 0.0637092783352823]",0.002,7,1
0,74,"[0.017944196239113808, -1.5530488242259999, 0.017861668263570607, 0.01787058889355464, 0.017691385000944138, 0.01773778162896633]","[0.32645902037620544, 0.3252800405025482, 0.3235267698764801, 0.32218918204307556, 0.32774823904037476, 0.32944998145103455]","[0.06457198369079356, -1.506224343104103, 0.06457198369079356, 0.06457198369079356, 0.06457198369079356, 0.06457198369079356]","[0.06457198369079356, -1.506224343104103, 0.06457198369079356, 0.06457198369079356, 0.06457198369079356, 0.06457198369079356]",0.002,7,1
0,75,"[0.0186504777520895, -1.5524036933532734, 0.01855022112001592, 0.01849941789593501, 0.01839515008032322, 0.018413851037621498]","[0.33172985911369324, 0.33381184935569763, 0.32989412546157837, 0.32956457138061523, 0.33524733781814575, 0.3360978066921234]","[0.06543428084806839, -1.5053620459468282, 0.06543428084806839, 0.06543428084806839, 0.06543428084806839, 0.06543428084806839]","[0.06543428084806839, -1.5053620459468282, 0.06543428084806839, 0.06543428084806839, 0.06543428084806839, 0.06543428084806839]",0.002,7,1
0,76,"[0.01929558627307415, -1.5517243643156071, 0.019172493611470998, 0.019148750896118116, 0.019054396077990532, 0.01911083050072193]","[0.34058722853660583, 0.34183356165885925, 0.337994784116745, 0.33770275115966797, 0.3432123064994812, 0.3414507806301117]","[0.06629616435600925, -1.5045001624388874, 0.06629616435600925, 0.06629616435600925, 0.06629616435600925, 0.06629616435600925]","[0.06629616435600925, -1.5045001624388874, 0.06629616435600925, 0.06629616435600925, 0.06629616435600925, 0.06629616435600925]",0.002,7,1
0,77,"[0.020032035186886787, -1.5510270439884444, 0.019872490559713185, 0.01978544771160884, 0.019793609157204628, 0.01983529143035412]","[0.3479261100292206, 0.34756556153297424, 0.34681904315948486, 0.34602656960487366, 0.3503659963607788, 0.3497487008571625]","[0.06715762876613363, -1.5036386980287628, 0.06715762876613363, 0.06715762876613363, 0.06715762876613363, 0.06715762876613363]","[0.06715762876613363, -1.5036386980287628, 0.06715762876613363, 0.06715762876613363, 0.06715762876613363, 0.06715762876613363]",0.002,7,1
0,78,"[0.020698267966508865, -1.550283297230937, 0.020589653645650685, 0.02049200117077632, 0.020504755899310112, 0.020514780655503273]","[0.35448822379112244, 0.35712048411369324, 0.3521643280982971, 0.3556010127067566, 0.35655677318573, 0.3566329777240753]","[0.06801866863260826, -1.5027776581622883, 0.06801866863260826, 0.06801866863260826, 0.06801866863260826, 0.06801866863260826]","[0.06801866863260826, -1.5027776581622883, 0.06801866863260826, 0.06801866863260826, 0.06801866863260826, 0.06801866863260826]",0.002,7,1
0,79,"[0.021397579461336136, -1.5496037931046267, 0.021321598683492482, 0.021173043841979933, 0.021191643550992012, 0.021282996982336044]","[0.36177685856819153, 0.3626146614551544, 0.36009061336517334, 0.3629128336906433, 0.366136759519577, 0.36352381110191345]","[0.06887927851228377, -1.5019170482826127, 0.06887927851228377, 0.06887927851228377, 0.06887927851228377, 0.06887927851228377]","[0.06887927851228377, -1.5019170482826127, 0.06887927851228377, 0.06887927851228377, 0.06887927851228377, 0.06887927851228377]",0.002,7,1
0,80,"[0.022175896912813187, -1.5488313280842085, 0.02202493349184209, 0.02196936189617915, 0.02192370966076851, 0.02199416235089302]","[0.3686422109603882, 0.36750295758247375, 0.36669492721557617, 0.3713824450969696, 0.3719435930252075, 0.3704989552497864]","[0.06973945296472894, -1.5010568738301675, 0.06973945296472894, 0.06973945296472894, 0.06973945296472894, 0.06973945296472894]","[0.06973945296472894, -1.5010568738301675, 0.06973945296472894, 0.06973945296472894, 0.06973945296472894, 0.06973945296472894]",0.002,7,1
0,81,"[0.022873252630233765, -1.5480257768980046, 0.022813145314351857, 0.02266971647228999, 0.02272132597863674, 0.02276165783405304]","[0.3753456175327301, 0.37356695532798767, 0.3744763433933258, 0.3793354630470276, 0.3786550462245941, 0.37719815969467163]","[0.07059918655226517, -1.5001971402426313, 0.07059918655226517, 0.07059918655226517, 0.07059918655226517, 0.07059918655226517]","[0.07059918655226517, -1.5001971402426313, 0.07059918655226517, 0.07059918655226517, 0.07059918655226517, 0.07059918655226517]",0.002,7,1
0,82,"[0.023702794685959816, -1.5473285981318732, 0.023484532033101857, 0.02345077573742671, 0.02344113029539585, 0.023554731160402298]","[0.3830180764198303, 0.37893766164779663, 0.38293856382369995, 0.3874375820159912, 0.38691532611846924, 0.38449764251708984]","[0.07145847384000081, -1.4993378529548957, 0.07145847384000081, 0.07145847384000081, 0.07145847384000081, 0.07145847384000081]","[0.07145847384000081, -1.4993378529548957, 0.07145847384000081, 0.07145847384000081, 0.07145847384000081, 0.07145847384000081]",0.002,7,1
0,83,"[0.024467376992106438, -1.5464941591820498, 0.02429372469057256, 0.024187489146850538, 0.02430209517478943, 0.024289028719067574]","[0.38837480545043945, 0.3870309889316559, 0.38826218247413635, 0.39316093921661377, 0.3955399990081787, 0.3911503851413727]","[0.07231730939586554, -1.498479017399031, 0.07231730939586554, 0.07231730939586554, 0.07231730939586554, 0.07231730939586554]","[0.07231730939586554, -1.498479017399031, 0.07231730939586554, 0.07231730939586554, 0.07231730939586554, 0.07231730939586554]",0.002,7,1
0,84,"[0.025271454825997353, -1.5456856370768328, 0.025115791951314748, 0.024944229716918898, 0.02503049746155739, 0.02514265477657318]","[0.39689791202545166, 0.3932840824127197, 0.3960544466972351, 0.4015873372554779, 0.39996588230133057, 0.3979777693748474]","[0.07317568779064473, -1.497620639004252, 0.07317568779064473, 0.07317568779064473, 0.07317568779064473, 0.07317568779064473]","[0.07317568779064473, -1.497620639004252, 0.07317568779064473, 0.07317568779064473, 0.07317568779064473, 0.07317568779064473]",0.002,7,1
0,85,"[0.026030374690890312, -1.5448880244842549, 0.025945011769429982, 0.02573494493450923, 0.025929996743798256, 0.02596193738281727]","[0.4027380347251892, 0.40157797932624817, 0.39982426166534424, 0.4073813855648041, 0.40695106983184814, 0.4020874798297882]","[0.07403360359801374, -1.4967627231968827, 0.07403360359801374, 0.07403360359801374, 0.07403360359801374, 0.07403360359801374]","[0.07403360359801374, -1.4967627231968827, 0.07403360359801374, 0.07403360359801374, 0.07403360359801374, 0.07403360359801374]",0.002,7,1
0,86,"[0.026847565546631813, -1.5440634463778515, 0.026700321828023732, 0.026558681125305128, 0.026779092848300934, 0.0267612487077713]","[0.41002508997917175, 0.40597742795944214, 0.4103372097015381, 0.41312891244888306, 0.41292688250541687, 0.40883690118789673]","[0.0748910513945722, -1.4959052754003244, 0.0748910513945722, 0.0748910513945722, 0.0748910513945722, 0.0748910513945722]","[0.0748910513945722, -1.4959052754003244, 0.0748910513945722, 0.0748910513945722, 0.0748910513945722, 0.0748910513945722]",0.002,7,1
0,87,"[0.027630487456917763, -1.5431940381279965, 0.027573410664693654, 0.027409239406249952, 0.027565281838178635, 0.027574745938181877]","[0.4159196615219116, 0.41278544068336487, 0.41555944085121155, 0.4213870167732239, 0.4188525080680847, 0.4161079227924347]","[0.07574802575987832, -1.4950483010350182, 0.07574802575987832, 0.07574802575987832, 0.07574802575987832, 0.07574802575987832]","[0.07574802575987832, -1.4950483010350182, 0.07574802575987832, 0.07574802575987832, 0.07574802575987832, 0.07574802575987832]",0.002,7,1
0,88,"[0.028428323566913605, -1.5423259151032944, 0.028378788624898732, 0.028286619777343702, 0.028505593538284302, 0.028447456657886505]","[0.4226628541946411, 0.4194389879703522, 0.4255537986755371, 0.4283454120159149, 0.42629098892211914, 0.424531489610672]","[0.07660452127648316, -1.4941918055184134, 0.07660452127648316, 0.07660452127648316, 0.07660452127648316, 0.07660452127648316]","[0.07660452127648316, -1.4941918055184134, 0.07660452127648316, 0.07660452127648316, 0.07660452127648316, 0.07660452127648316]",0.002,7,1
0,89,"[0.029314415529370308, -1.5414786667427798, 0.029269043599263966, 0.02911917745556636, 0.029397599399089813, 0.029344813898205757]","[0.428902804851532, 0.42721089720726013, 0.4313887059688568, 0.435974657535553, 0.43345388770103455, 0.4312150478363037]","[0.07746053252996489, -1.4933357942649317, 0.07746053252996489, 0.07746053252996489, 0.07746053252996489, 0.07746053252996489]","[0.07746053252996489, -1.4933357942649317, 0.07746053252996489, 0.07746053252996489, 0.07746053252996489, 0.07746053252996489]",0.002,7,1
0,90,"[0.030155515298247337, -1.5405534834465762, 0.030173603688375294, 0.029982729549072218, 0.030225224792957306, 0.03023187443614006]","[0.43792176246643066, 0.43400055170059204, 0.4388773441314697, 0.44396546483039856, 0.4408130943775177, 0.4362643361091614]","[0.07831605410896296, -1.4924802726859336, 0.07831605410896296, 0.07831605410896296, 0.07831605410896296, 0.07831605410896296]","[0.07831605410896296, -1.4924802726859336, 0.07831605410896296, 0.07831605410896296, 0.07831605410896296, 0.07831605410896296]",0.002,7,1
0,91,"[0.031025230884552002, -1.5396121621927996, 0.03110391298402959, 0.030917330379150343, 0.031146511435508728, 0.03111647069454193]","[0.4437270164489746, 0.4367901682853699, 0.44566982984542847, 0.44970351457595825, 0.4471014738082886, 0.44401565194129944]","[0.07917108060521237, -1.4916252461896842, 0.07917108060521237, 0.07917108060521237, 0.07917108060521237, 0.07917108060521237]","[0.07917108060521237, -1.4916252461896842, 0.07917108060521237, 0.07917108060521237, 0.07917108060521237, 0.07917108060521237]",0.002,7,1
0,92,"[0.031932707875967026, -1.538771004681923, 0.03197843233217412, 0.03185121595349116, 0.03204987943172455, 0.03199039399623871]","[0.45096954703330994, 0.44695568084716797, 0.4499596059322357, 0.4575637876987457, 0.4517732262611389, 0.451651930809021]","[0.08002560661357781, -1.4907707201813187, 0.08002560661357781, 0.08002560661357781, 0.08002560661357781, 0.08002560661357781]","[0.08002560661357781, -1.4907707201813187, 0.08002560661357781, 0.08002560661357781, 0.08002560661357781, 0.08002560661357781]",0.002,7,1
0,93,"[0.03280293941497803, -1.5378478926471253, 0.03291350999941045, 0.032768531436584425, 0.03294585645198822, 0.03295162320137024]","[0.459827184677124, 0.45063668489456177, 0.4553945064544678, 0.46634170413017273, 0.45967742800712585, 0.4574015438556671]","[0.0808796267320879, -1.4899167000628086, 0.0808796267320879, 0.0808796267320879, 0.0808796267320879, 0.0808796267320879]","[0.0808796267320879, -1.4899167000628086, 0.0808796267320879, 0.0808796267320879, 0.0808796267320879, 0.0808796267320879]",0.002,7,1
0,94,"[0.03374283015727997, -1.5368709576180954, 0.033880058919088185, 0.03374259054150386, 0.03389031067490578, 0.03383016586303711]","[0.4667280614376068, 0.46070626378059387, 0.46284598112106323, 0.4713325798511505, 0.46426740288734436, 0.46204984188079834]","[0.08173313556196925, -1.4890631912329273, 0.08173313556196925, 0.08173313556196925, 0.08173313556196925, 0.08173313556196925]","[0.08173313556196925, -1.4890631912329273, 0.08173313556196925, 0.08173313556196925, 0.08173313556196925, 0.08173313556196925]",0.002,7,1
0,95,"[0.03465580940246582, -1.5359506656280537, 0.03482419649233037, 0.034729405040405226, 0.03483077883720398, 0.03480348363518715]","[0.4702830910682678, 0.4671482741832733, 0.46903055906295776, 0.47609663009643555, 0.46918821334838867, 0.4677157402038574]","[0.08258612770768066, -1.4882101990872159, 0.08258612770768066, 0.08258612770768066, 0.08258612770768066, 0.08258612770768066]","[0.08258612770768066, -1.4882101990872159, 0.08258612770768066, 0.08258612770768066, 0.08258612770768066, 0.08258612770768066]",0.002,7,1
0,96,"[0.03566323220729828, -1.5349781934968014, 0.03580981889833623, 0.035698218936584425, 0.035779669880867004, 0.035758838057518005]","[0.47606024146080017, 0.4738062620162964, 0.47466281056404114, 0.48104479908943176, 0.4769194722175598, 0.47385290265083313]","[0.08343859777694718, -1.4873577290179494, 0.08343859777694718, 0.08343859777694718, 0.08343859777694718, 0.08343859777694718]","[0.08343859777694718, -1.4873577290179494, 0.08343859777694718, 0.08343859777694718, 0.08343859777694718, 0.08343859777694718]",0.002,7,1
0,97,"[0.03670242428779602, -1.5340428327075024, 0.03672486940492803, 0.03670804082836909, 0.036831896752119064, 0.03671881556510925]","[0.4856238067150116, 0.48055320978164673, 0.4824889898300171, 0.48636412620544434, 0.48216307163238525, 0.4805297553539276]","[0.08429054038079421, -1.4865057864141022, 0.08429054038079421, 0.08429054038079421, 0.08429054038079421, 0.08429054038079421]","[0.08429054038079421, -1.4865057864141022, 0.08429054038079421, 0.08429054038079421, 0.08429054038079421, 0.08429054038079421]",0.002,7,1
0,98,"[0.03761160373687744, -1.5330386397293587, 0.03772575059999639, 0.03759555398907466, 0.037783119827508926, 0.03765936195850372]","[0.4902753531932831, 0.4864742159843445, 0.48599526286125183, 0.4901539385318756, 0.4873112142086029, 0.48920565843582153]","[0.08514195013358164, -1.4856543766613148, 0.08514195013358164, 0.08514195013358164, 0.08514195013358164, 0.08514195013358164]","[0.08514195013358164, -1.4856543766613148, 0.08514195013358164, 0.08514195013358164, 0.08514195013358164, 0.08514195013358164]",0.002,7,1
0,99,"[0.0386170819401741, -1.5320674416473885, 0.038680378590719044, 0.038736029262206984, 0.03871019184589386, 0.0386468730866909]","[0.49663233757019043, 0.49559712409973145, 0.4941113293170929, 0.49544811248779297, 0.4932698607444763, 0.49493539333343506]","[0.08599282165303773, -1.4848035051418589, 0.08599282165303773, 0.08599282165303773, 0.08599282165303773, 0.08599282165303773]","[0.08599282165303773, -1.4848035051418589, 0.08599282165303773, 0.08599282165303773, 0.08599282165303773, 0.08599282165303773]",0.002,7,1
0,100,"[0.039635300636291504, -1.5310997527888794, 0.039667908345357716, 0.03977458059277339, 0.039704449474811554, 0.039650414139032364]","[0.5034316778182983, 0.5017992258071899, 0.5024980306625366, 0.5018447041511536, 0.5009034872055054, 0.5018524527549744]","[0.08684314956029332, -1.4839531772346033, 0.08684314956029332, 0.08684314956029332, 0.08684314956029332, 0.08684314956029332]","[0.08684314956029332, -1.4839531772346033, 0.08684314956029332, 0.08684314956029332, 0.08684314956029332, 0.08684314956029332]",0.002,7,1
0,101,"[0.040642350912094116, -1.530088273142912, 0.04077464738954717, 0.04084996759381099, 0.040676284581422806, 0.04058445990085602]","[0.5082405209541321, 0.508861780166626, 0.5089139938354492, 0.5097935199737549, 0.5062090754508972, 0.5081077218055725]","[0.0876929284799157, -1.4831033983149808, 0.0876929284799157, 0.0876929284799157, 0.0876929284799157, 0.0876929284799157]","[0.0876929284799157, -1.4831033983149808, 0.0876929284799157, 0.0876929284799157, 0.0876929284799157, 0.0876929284799157]",0.002,7,1
0,102,"[0.04167706519365311, -1.5290644702366372, 0.04176694551576787, 0.04186050474133296, 0.04172073304653168, 0.041617780923843384]","[0.5124679207801819, 0.5127558708190918, 0.5164622068405151, 0.5160102248191833, 0.5107412338256836, 0.5148916244506836]","[0.08854215303994269, -1.482254173754954, 0.08854215303994269, 0.08854215303994269, 0.08854215303994269, 0.08854215303994269]","[0.08854215303994269, -1.482254173754954, 0.08854215303994269, 0.08854215303994269, 0.08854215303994269, 0.08854215303994269]",0.002,7,1
0,103,"[0.042720649391412735, -1.5279913072339077, 0.042793099080221, 0.04292289792980952, 0.042779043316841125, 0.04264364391565323]","[0.5172578692436218, 0.5204206705093384, 0.5172867774963379, 0.5193372964859009, 0.5168715715408325, 0.5196527242660522]","[0.08939081787191647, -1.48140550892298, 0.08939081787191647, 0.08939081787191647, 0.08939081787191647, 0.08939081787191647]","[0.08939081787191647, -1.48140550892298, 0.08939081787191647, 0.08939081787191647, 0.08939081787191647, 0.08939081787191647]",0.002,7,1
0,104,"[0.04378272220492363, -1.5270017434707661, 0.04383880296816045, 0.04394023000683589, 0.0437762588262558, 0.04363955184817314]","[0.5239986777305603, 0.5251929759979248, 0.5234217643737793, 0.5230854749679565, 0.5253078937530518, 0.5268816351890564]","[0.09023891761091771, -1.4805574091839788, 0.09023891761091771, 0.09023891761091771, 0.09023891761091771, 0.09023891761091771]","[0.09023891761091771, -1.4805574091839788, 0.09023891761091771, 0.09023891761091771, 0.09023891761091771, 0.09023891761091771]",0.002,7,1
0,105,"[0.04476544260978699, -1.5259797436049958, 0.044890705739156544, 0.04499165594067378, 0.04483991861343384, 0.04471101239323616]","[0.5327360033988953, 0.5313315987586975, 0.5291962623596191, 0.5250203609466553, 0.5306280851364136, 0.5322506427764893]","[0.09108644689559922, -1.4797098798992974, 0.09108644689559922, 0.09108644689559922, 0.09108644689559922, 0.09108644689559922]","[0.09108644689559922, -1.4797098798992974, 0.09108644689559922, 0.09108644689559922, 0.09108644689559922, 0.09108644689559922]",0.002,7,1
0,106,"[0.04591779783368111, -1.5249275130084534, 0.04598123231996709, 0.04614500581707759, 0.045861124992370605, 0.045799415558576584]","[0.5349968671798706, 0.5395553112030029, 0.5364939570426941, 0.530085563659668, 0.5377751588821411, 0.5393229722976685]","[0.09193340036822013, -1.4788629264266764, 0.09193340036822013, 0.09193340036822013, 0.09193340036822013, 0.09193340036822013]","[0.09193340036822013, -1.4788629264266764, 0.09193340036822013, 0.09193340036822013, 0.09193340036822013, 0.09193340036822013]",0.002,7,1
0,107,"[0.04696154594421387, -1.5238432076624413, 0.04701120058168584, 0.04719500123944087, 0.04691779613494873, 0.04687484726309776]","[0.5422147512435913, 0.5460134744644165, 0.5418637990951538, 0.5376803874969482, 0.5420281291007996, 0.5455825924873352]","[0.09277977267467959, -1.478016554120217, 0.09277977267467959, 0.09277977267467959, 0.09277977267467959, 0.09277977267467959]","[0.09277977267467959, -1.478016554120217, 0.09277977267467959, 0.09277977267467959, 0.09277977267467959, 0.09277977267467959]",0.002,7,1
0,108,"[0.04811013489961624, -1.522731752400734, 0.04804593721498662, 0.04832593976940913, 0.048094287514686584, 0.047995880246162415]","[0.5477264523506165, 0.5506260395050049, 0.5475807189941406, 0.5446996092796326, 0.5473682284355164, 0.552144467830658]","[0.09362555846455059, -1.4771707683303459, 0.09362555846455059, 0.09362555846455059, 0.09362555846455059, 0.09362555846455059]","[0.09362555846455059, -1.4771707683303459, 0.09362555846455059, 0.09362555846455059, 0.09362555846455059, 0.09362555846455059]",0.002,7,1
0,109,"[0.04921623319387436, -1.5216857355884095, 0.04914981523622686, 0.049357696170471144, 0.0491555817425251, 0.04915719851851463]","[0.5527669191360474, 0.5527215600013733, 0.551368772983551, 0.5482916235923767, 0.5523562431335449, 0.5597450733184814]","[0.09447075239111392, -1.4763255744037826, 0.09447075239111392, 0.09447075239111392, 0.09447075239111392, 0.09447075239111392]","[0.09447075239111392, -1.4763255744037826, 0.09447075239111392, 0.09447075239111392, 0.09447075239111392, 0.09447075239111392]",0.002,7,1
0,110,"[0.050302136689424515, -1.520566077237465, 0.05030280748476201, 0.050426645869873, 0.05029971897602081, 0.05021987110376358]","[0.5593453049659729, 0.5571982264518738, 0.5576397776603699, 0.5532253384590149, 0.558049201965332, 0.5654381513595581]","[0.09531534911139185, -1.4754809776835047, 0.09531534911139185, 0.09531534911139185, 0.09531534911139185, 0.09531534911139185]","[0.09531534911139185, -1.4754809776835047, 0.09531534911139185, 0.09531534911139185, 0.09531534911139185, 0.09531534911139185]",0.002,7,1
0,111,"[0.0514226071536541, -1.5194469702294846, 0.051356140767232716, 0.051513953799865675, 0.051380157470703125, 0.051349423825740814]","[0.5644667744636536, 0.5602226853370667, 0.560082733631134, 0.5573651194572449, 0.5643875002861023, 0.5665788650512695]","[0.09615934328618193, -1.4746369835087145, 0.09615934328618193, 0.09615934328618193, 0.09615934328618193, 0.09615934328618193]","[0.09615934328618193, -1.4746369835087145, 0.09615934328618193, 0.09615934328618193, 0.09615934328618193, 0.09615934328618193]",0.002,7,1
0,112,"[0.05260281264781952, -1.5182824035039921, 0.05252534547914678, 0.052609606380126905, 0.05249058082699776, 0.052537526935338974]","[0.5673128366470337, 0.5669319033622742, 0.5649684071540833, 0.5632843375205994, 0.5714356899261475, 0.5728103518486023]","[0.09700272958009082, -1.4737935972148057, 0.09700272958009082, 0.09700272958009082, 0.09700272958009082, 0.09700272958009082]","[0.09700272958009082, -1.4737935972148057, 0.09700272958009082, 0.09700272958009082, 0.09700272958009082, 0.09700272958009082]",0.002,7,1
0,113,"[0.053710319101810455, -1.5171643172255536, 0.05357820192445928, 0.05370168268170161, 0.05363276228308678, 0.05366857349872589]","[0.5755865573883057, 0.5698864459991455, 0.5713472962379456, 0.5736437439918518, 0.5758678913116455, 0.5783868432044983]","[0.09784550266156791, -1.4729508241333287, 0.09784550266156791, 0.09784550266156791, 0.09784550266156791, 0.09784550266156791]","[0.09784550266156791, -1.4729508241333287, 0.09784550266156791, 0.09784550266156791, 0.09784550266156791, 0.09784550266156791]",0.002,7,1
0,114,"[0.05488939583301544, -1.5159548346749325, 0.05477744737734014, 0.0547833877750854, 0.05486353859305382, 0.054966773837804794]","[0.5809786319732666, 0.5715417861938477, 0.5762893557548523, 0.5779320597648621, 0.5807406902313232, 0.582107663154602]","[0.09868765720293912, -1.4721086695919574, 0.09868765720293912, 0.09868765720293912, 0.09868765720293912, 0.09868765720293912]","[0.09868765720293912, -1.4721086695919574, 0.09868765720293912, 0.09868765720293912, 0.09868765720293912, 0.09868765720293912]",0.002,7,1
0,115,"[0.05607856810092926, -1.5148617041162034, 0.055962387715474904, 0.05599348127331538, 0.056017495691776276, 0.056081872433423996]","[0.5839471817016602, 0.5738834142684937, 0.5808073282241821, 0.5847249627113342, 0.5871267914772034, 0.5861561894416809]","[0.09952918788044049, -1.471267138914456, 0.09952918788044049, 0.09952918788044049, 0.09952918788044049, 0.09952918788044049]","[0.09952918788044049, -1.471267138914456, 0.09952918788044049, 0.09952918788044049, 0.09952918788044049, 0.09952918788044049]",0.002,7,1
0,116,"[0.057285670191049576, -1.5137345057776947, 0.057085816060201466, 0.05712358533825679, 0.05718768760561943, 0.057264477014541626]","[0.5916364192962646, 0.5786818265914917, 0.5837663412094116, 0.5909040570259094, 0.5922406315803528, 0.5879940390586853]","[0.10037008937425189, -1.4704262374206447, 0.10037008937425189, 0.10037008937425189, 0.10037008937425189, 0.10037008937425189]","[0.10037008937425189, -1.4704262374206447, 0.10037008937425189, 0.10037008937425189, 0.10037008937425189, 0.10037008937425189]",0.002,7,1
0,117,"[0.05845688655972481, -1.512564380919077, 0.058255974446431935, 0.058343930835388136, 0.05839138105511665, 0.05854067578911781]","[0.5963423848152161, 0.5821821689605713, 0.5910506248474121, 0.5965932011604309, 0.5952873826026917, 0.5939954519271851]","[0.10121035636853062, -1.4695859704263659, 0.10121035636853062, 0.10121035636853062, 0.10121035636853062, 0.10121035636853062]","[0.10121035636853062, -1.4695859704263659, 0.10121035636853062, 0.10121035636853062, 0.10121035636853062, 0.10121035636853062]",0.002,7,1
0,118,"[0.05962156504392624, -1.5113514748266716, 0.05952817598451787, 0.05953304349865718, 0.05959973484277725, 0.0596931055188179]","[0.6001699566841125, 0.5893816947937012, 0.5939273834228516, 0.6020421981811523, 0.6010730266571045, 0.596398115158081]","[0.10204998355144514, -1.4687463432434513, 0.10204998355144514, 0.10204998355144514, 0.10204998355144514, 0.10204998355144514]","[0.10204998355144514, -1.4687463432434513, 0.10204998355144514, 0.10204998355144514, 0.10204998355144514, 0.10204998355144514]",0.002,7,1
0,119,"[0.060799114406108856, -1.5101948764971276, 0.060653034840719044, 0.06072477876629634, 0.060840535908937454, 0.06093357503414154]","[0.6057467460632324, 0.5885099768638611, 0.6006869673728943, 0.6076862812042236, 0.6028475761413574, 0.6005482077598572]","[0.10288896561520831, -1.4679073611796882, 0.10288896561520831, 0.10288896561520831, 0.10288896561520831, 0.10288896561520831]","[0.10288896561520831, -1.4679073611796882, 0.10288896561520831, 0.10288896561520831, 0.10288896561520831, 0.10288896561520831]",0.002,7,1
0,120,"[0.06200972571969032, -1.5089370285025616, 0.06187898317445928, 0.061882300967834425, 0.062053486704826355, 0.06220158562064171]","[0.6093490719795227, 0.5941171050071716, 0.6052712798118591, 0.6105201840400696, 0.6081133484840393, 0.6054779291152954]","[0.10372729725611143, -1.4670690295387852, 0.10372729725611143, 0.10372729725611143, 0.10372729725611143, 0.10372729725611143]","[0.10372729725611143, -1.4670690295387852, 0.10372729725611143, 0.10372729725611143, 0.10372729725611143, 0.10372729725611143]",0.002,7,1
0,121,"[0.06325975060462952, -1.5077694442919274, 0.06313878694643194, 0.0631212431141357, 0.06342417001724243, 0.06341161578893661]","[0.6117410659790039, 0.5983160138130188, 0.6070197820663452, 0.6154823899269104, 0.6128491163253784, 0.6100131273269653]","[0.10456497317455739, -1.466231353620339, 0.10456497317455739, 0.10456497317455739, 0.10456497317455739, 0.10456497317455739]","[0.10456497317455739, -1.466231353620339, 0.10456497317455739, 0.10456497317455739, 0.10456497317455739, 0.10456497317455739]",0.002,7,1
0,122,"[0.0644397884607315, -1.5065061461976548, 0.06436759630312139, 0.06437878190960689, 0.06459853798151016, 0.06463190913200378]","[0.6174619793891907, 0.6005056500434875, 0.6089142560958862, 0.6211449503898621, 0.6163312792778015, 0.6132561564445496]","[0.10540198807509427, -1.4653943387198023, 0.10540198807509427, 0.10540198807509427, 0.10540198807509427, 0.10540198807509427]","[0.10540198807509427, -1.4653943387198023, 0.10540198807509427, 0.10540198807509427, 0.10540198807509427, 0.10540198807509427]",0.002,7,1
0,123,"[0.06575651466846466, -1.5053036895445366, 0.06563026109804326, 0.06567279874768062, 0.06582995504140854, 0.06585247814655304]","[0.6207043528556824, 0.6065800189971924, 0.6138514876365662, 0.6232726573944092, 0.6216163039207458, 0.6166648268699646]","[0.1062383366664489, -1.4645579901284476, 0.1062383366664489, 0.1062383366664489, 0.1062383366664489, 0.1062383366664489]","[0.1062383366664489, -1.4645579901284476, 0.1062383366664489, 0.1062383366664489, 0.1062383366664489, 0.1062383366664489]",0.002,7,1
0,124,"[0.06703060120344162, -1.5040528413704415, 0.06683570543398076, 0.06701950609173579, 0.06713303178548813, 0.06710276752710342]","[0.6289238333702087, 0.6125909686088562, 0.6180711984634399, 0.6264181137084961, 0.6219332814216614, 0.6178891658782959]","[0.10707401366156022, -1.4637223131333363, 0.10707401366156022, 0.10707401366156022, 0.10707401366156022, 0.10707401366156022]","[0.10707401366156022, -1.4637223131333363, 0.10707401366156022, 0.10707401366156022, 0.10707401366156022, 0.10707401366156022]",0.002,7,1
0,125,"[0.06828662753105164, -1.5028059047511597, 0.06814891496767217, 0.06826798498120112, 0.06833720207214355, 0.06836581975221634]","[0.628851056098938, 0.6163697838783264, 0.6235871911048889, 0.6322235465049744, 0.6248711943626404, 0.6246979832649231]","[0.10790901377761274, -1.462887313017284, 0.10790901377761274, 0.10790901377761274, 0.10790901377761274, 0.10790901377761274]","[0.10790901377761274, -1.462887313017284, 0.10790901377761274, 0.10790901377761274, 0.10790901377761274, 0.10790901377761274]",0.002,7,1
0,126,"[0.06954409182071686, -1.5015423607877274, 0.06944352785219365, 0.06953363000836177, 0.06965834647417068, 0.06959154456853867]","[0.6298590302467346, 0.6223986148834229, 0.6279126405715942, 0.6351027488708496, 0.6282156109809875, 0.629361093044281]","[0.10874333173606994, -1.4620529950588266, 0.10874333173606994, 0.10874333173606994, 0.10874333173606994, 0.10874333173606994]","[0.10874333173606994, -1.4620529950588266, 0.10874333173606994, 0.10874333173606994, 0.10874333173606994, 0.10874333173606994]",0.002,7,1
0,127,"[0.07087257504463196, -1.500276045208313, 0.07066041627992803, 0.07087747632946773, 0.07085602730512619, 0.07080254703760147]","[0.6357839703559875, 0.6282938718795776, 0.6315632462501526, 0.636967122554779, 0.6319573521614075, 0.6333165168762207]","[0.1095769622627076, -1.461219364532189, 0.1095769622627076, 0.1095769622627076, 0.1095769622627076, 0.1095769622627076]","[0.1095769622627076, -1.461219364532189, 0.1095769622627076, 0.1095769622627076, 0.1095769622627076, 0.1095769622627076]",0.002,7,1
0,128,"[0.07211504876613617, -1.4990712863257905, 0.07197171846498662, 0.07214896261181636, 0.07218366861343384, 0.07203399389982224]","[0.6395593285560608, 0.6364755630493164, 0.6367803812026978, 0.6384006142616272, 0.6356260776519775, 0.6378612518310547]","[0.1104099000876472, -1.4603864267072493, 0.1104099000876472, 0.1104099000876472, 0.1104099000876472, 0.1104099000876472]","[0.1104099000876472, -1.4603864267072493, 0.1104099000876472, 0.1104099000876472, 0.1104099000876472, 0.1104099000876472]",0.002,7,1
0,129,"[0.07335949689149857, -1.4976882275990029, 0.07326251665224248, 0.07345275461163325, 0.07340703904628754, 0.07329435646533966]","[0.6429613828659058, 0.6399143934249878, 0.6399616003036499, 0.639285147190094, 0.6400555968284607, 0.6406518816947937]","[0.11124213994538917, -1.4595541868495074, 0.11124213994538917, 0.11124213994538917, 0.11124213994538917, 0.11124213994538917]","[0.11124213994538917, -1.4595541868495074, 0.11124213994538917, 0.11124213994538917, 0.11124213994538917, 0.11124213994538917]",0.002,7,1
0,130,"[0.07464464008808136, -1.496471383874752, 0.0745003859149378, 0.07483737050976558, 0.07461266219615936, 0.07456611841917038]","[0.64292311668396, 0.6442817449569702, 0.6441588401794434, 0.6417162418365479, 0.6441019177436829, 0.6463872790336609]","[0.11207367657484625, -1.4587226502200503, 0.11207367657484625, 0.11207367657484625, 0.11207367657484625, 0.11207367657484625]","[0.11207367657484625, -1.4587226502200503, 0.11207367657484625, 0.11207367657484625, 0.11207367657484625, 0.11207367657484625]",0.002,7,1
0,131,"[0.0759073793888092, -1.4951307636550446, 0.07588369051088506, 0.07613436758007808, 0.0759575217962265, 0.07581114023923874]","[0.6454360485076904, 0.6471536755561829, 0.6460856199264526, 0.6466031074523926, 0.6469752192497253, 0.651131808757782]","[0.11290450471937667, -1.45789182207552, 0.11290450471937667, 0.11290450471937667, 0.11290450471937667, 0.11290450471937667]","[0.11290450471937667, -1.45789182207552, 0.11290450471937667, 0.11290450471937667, 0.11290450471937667, 0.11290450471937667]",0.002,7,1
0,132,"[0.07728895545005798, -1.4938069817474862, 0.0771258513080042, 0.07743053018536372, 0.07715697586536407, 0.07715147733688354]","[0.648345947265625, 0.6546350717544556, 0.6512253880500793, 0.6488614082336426, 0.650241494178772, 0.6549032330513]","[0.11373461912681745, -1.4570617076680792, 0.11373461912681745, 0.11373461912681745, 0.11373461912681745, 0.11373461912681745]","[0.11373461912681745, -1.4570617076680792, 0.11373461912681745, 0.11373461912681745, 0.11373461912681745, 0.11373461912681745]",0.002,7,1
0,133,"[0.07854484021663666, -1.4925096344998856, 0.0784385840045374, 0.07874409734692378, 0.0785897970199585, 0.07846597582101822]","[0.6544476747512817, 0.660397469997406, 0.6556925177574158, 0.6490545868873596, 0.6543177366256714, 0.657890796661377]","[0.11456401454951752, -1.456232312245379, 0.11456401454951752, 0.11456401454951752, 0.11456401454951752, 0.11456401454951752]","[0.11456401454951752, -1.456232312245379, 0.11456401454951752, 0.11456401454951752, 0.11456401454951752, 0.11456401454951752]",0.002,7,1
0,134,"[0.0798589289188385, -1.49122670412574, 0.07970744768251592, 0.08000437795605464, 0.07976457476615906, 0.07979085296392441]","[0.6572555899620056, 0.6635462045669556, 0.6588196754455566, 0.6510513424873352, 0.6592367887496948, 0.6614800691604614]","[0.11539268574437102, -1.4554036410505256, 0.11539268574437102, 0.11539268574437102, 0.11539268574437102, 0.11539268574437102]","[0.11539268574437102, -1.4554036410505256, 0.11539268574437102, 0.11539268574437102, 0.11539268574437102, 0.11539268574437102]",0.002,7,1
0,135,"[0.081151582300663, -1.489891105597355, 0.08105451265443975, 0.08133475362744136, 0.08116801083087921, 0.08110984414815903]","[0.6588285565376282, 0.6645878553390503, 0.6589682698249817, 0.6535611152648926, 0.6610448956489563, 0.6613224744796753]","[0.11622062747285028, -1.4545756993220462, 0.11622062747285028, 0.11622062747285028, 0.11622062747285028, 0.11622062747285028]","[0.11622062747285028, -1.4545756993220462, 0.11622062747285028, 0.11622062747285028, 0.11622062747285028, 0.11622062747285028]",0.002,7,1
0,136,"[0.08253957331180573, -1.4885585618070145, 0.08235675493349248, 0.08258406698193355, 0.08246748149394989, 0.08248487859964371]","[0.6618107557296753, 0.6649242639541626, 0.6636413931846619, 0.6590237021446228, 0.6636617183685303, 0.6665632128715515]","[0.11704783450103912, -1.4537484922938575, 0.11704783450103912, 0.11704783450103912, 0.11704783450103912, 0.11704783450103912]","[0.11704783450103912, -1.4537484922938575, 0.11704783450103912, 0.11704783450103912, 0.11704783450103912, 0.11704783450103912]",0.002,7,1
0,137,"[0.08377977460622787, -1.4871804055622597, 0.08368331590761358, 0.08391277372326655, 0.08375538885593414, 0.08385196328163147]","[0.664909303188324, 0.669667661190033, 0.6641131043434143, 0.6607125401496887, 0.6662641763687134, 0.6680244207382202]","[0.11787430159966572, -1.4529220251952308, 0.11787430159966572, 0.11787430159966572, 0.11787430159966572, 0.11787430159966572]","[0.11787430159966572, -1.4529220251952308, 0.11787430159966572, 0.11787430159966572, 0.11787430159966572, 0.11787430159966572]",0.002,7,1
0,138,"[0.08512695133686066, -1.4858513188413163, 0.0849984327899378, 0.0850633817860107, 0.08513570576906204, 0.08522462844848633]","[0.666253924369812, 0.6706411242485046, 0.6690778732299805, 0.6656556725502014, 0.669241726398468, 0.670597493648529]","[0.11870002354413592, -1.4520963032507606, 0.11870002354413592, 0.11870002354413592, 0.11870002354413592, 0.11870002354413592]","[0.11870002354413592, -1.4520963032507606, 0.11870002354413592, 0.11870002354413592, 0.11870002354413592, 0.11870002354413592]",0.002,7,1
0,139,"[0.08656801283359528, -1.4844986733845253, 0.0864189306842249, 0.086437388057373, 0.08644498884677887, 0.08657633513212204]","[0.6705033779144287, 0.671302855014801, 0.6692323684692383, 0.6675803065299988, 0.6745051145553589, 0.6710954904556274]","[0.1195249951145661, -1.4512713316803305, 0.1195249951145661, 0.1195249951145661, 0.1195249951145661, 0.1195249951145661]","[0.1195249951145661, -1.4512713316803305, 0.1195249951145661, 0.1195249951145661, 0.1195249951145661, 0.1195249951145661]",0.002,7,1
0,140,"[0.08789163827896118, -1.4831315216473122, 0.08774406114687139, 0.08774404108013911, 0.08784335851669312, 0.08795233070850372]","[0.6731117963790894, 0.6712008714675903, 0.6684236526489258, 0.6712103486061096, 0.6757417321205139, 0.6725792288780212]","[0.12034921109581614, -1.4504471156990804, 0.12034921109581614, 0.12034921109581614, 0.12034921109581614, 0.12034921109581614]","[0.12034921109581614, -1.4504471156990804, 0.12034921109581614, 0.12034921109581614, 0.12034921109581614, 0.12034921109581614]",0.002,7,1
0,141,"[0.0892578512430191, -1.481726699774601, 0.08905250230898076, 0.08909503995861812, 0.08920830488204956, 0.08933369070291519]","[0.6741181015968323, 0.6716982126235962, 0.6736679077148438, 0.6755890846252441, 0.6769301891326904, 0.6710487604141235]","[0.12117266627752252, -1.449623660517374, 0.12117266627752252, 0.12117266627752252, 0.12117266627752252, 0.12117266627752252]","[0.12117266627752252, -1.449623660517374, 0.12117266627752252, 0.12117266627752252, 0.12117266627752252, 0.12117266627752252]",0.002,7,1
0,142,"[0.09061193466186523, -1.4803937014988442, 0.0904000441180628, 0.09046392023052974, 0.09061408042907715, 0.09072042256593704]","[0.6777545213699341, 0.6718655824661255, 0.6775408983230591, 0.6803326606750488, 0.677142322063446, 0.6748046278953552]","[0.12199535545413111, -1.4488009713407655, 0.12199535545413111, 0.12199535545413111, 0.12199535545413111, 0.12199535545413111]","[0.12199535545413111, -1.4488009713407655, 0.12199535545413111, 0.12199535545413111, 0.12199535545413111, 0.12199535545413111]",0.002,7,1
0,143,"[0.09192447364330292, -1.47896050781522, 0.09175283113588506, 0.09178678571667476, 0.09206923842430115, 0.09207155555486679]","[0.6807615160942078, 0.673122227191925, 0.6744320392608643, 0.6848360300064087, 0.6781630516052246, 0.6769111752510071]","[0.12281727342493026, -1.4479790533699664, 0.12281727342493026, 0.12281727342493026, 0.12281727342493026, 0.12281727342493026]","[0.12281727342493026, -1.4479790533699664, 0.12281727342493026, 0.12281727342493026, 0.12281727342493026, 0.12281727342493026]",0.002,7,1
0,144,"[0.09325739741325378, -1.4776257586530228, 0.09315139452089483, 0.09315757333721919, 0.0933479592204094, 0.09341568499803543]","[0.6817575097084045, 0.6725723743438721, 0.6785091161727905, 0.6854766011238098, 0.6795772910118103, 0.6771304607391357]","[0.12363841499408351, -1.447157911800813, 0.12363841499408351, 0.12363841499408351, 0.12363841499408351, 0.12363841499408351]","[0.12363841499408351, -1.447157911800813, 0.12363841499408351, 0.12363841499408351, 0.12363841499408351, 0.12363841499408351]",0.002,7,1
0,145,"[0.09457453340291977, -1.476323352461197, 0.09449512163271123, 0.0944949823566894, 0.09474356472492218, 0.09480232000350952]","[0.6817765235900879, 0.6726652979850769, 0.6796238422393799, 0.6851876378059387, 0.6830955743789673, 0.6776315569877625]","[0.1244587749706625, -1.446337551824234, 0.1244587749706625, 0.1244587749706625, 0.1244587749706625, 0.1244587749706625]","[0.1244587749706625, -1.446337551824234, 0.1244587749706625, 0.1244587749706625, 0.1244587749706625, 0.1244587749706625]",0.002,7,1
0,146,"[0.09597505629062653, -1.474914790397026, 0.09585220018495733, 0.09591905652966304, 0.0961461067199707, 0.0961361974477768]","[0.6822003126144409, 0.6731718182563782, 0.6795211434364319, 0.6874389052391052, 0.6828197240829468, 0.6796597838401794]","[0.12527834816867986, -1.4455179786262167, 0.12527834816867986, 0.12527834816867986, 0.12527834816867986, 0.12527834816867986]","[0.12527834816867986, -1.4455179786262167, 0.12527834816867986, 0.12527834816867986, 0.12527834816867986, 0.12527834816867986]",0.002,7,1
0,147,"[0.09734892845153809, -1.4735215541771431, 0.09720451036562139, 0.0973248916813354, 0.0974925234913826, 0.09748842567205429]","[0.6862653493881226, 0.67318195104599, 0.6783839464187622, 0.6870645880699158, 0.685194194316864, 0.6817275881767273]","[0.12609712940712178, -1.4446991973877747, 0.12609712940712178, 0.12609712940712178, 0.12609712940712178, 0.12609712940712178]","[0.12609712940712178, -1.4446991973877747, 0.12609712940712178, 0.12609712940712178, 0.12609712940712178, 0.12609712940712178]",0.002,7,1
0,148,"[0.09870921075344086, -1.472184420829155, 0.09866220155824834, 0.09868125497784419, 0.09885462373495102, 0.09888111799955368]","[0.6876884698867798, 0.6770795583724976, 0.6800615787506104, 0.689129114151001, 0.6855472326278687, 0.6815546751022339]","[0.12691511350998105, -1.4438812132849155, 0.12691511350998105, 0.12691511350998105, 0.12691511350998105, 0.12691511350998105]","[0.12691511350998105, -1.4438812132849155, 0.12691511350998105, 0.12691511350998105, 0.12691511350998105, 0.12691511350998105]",0.002,7,1
0,149,"[0.10012549161911011, -1.4708103773048897, 0.09992772737611944, 0.10015241682019038, 0.10021422803401947, 0.10019884258508682]","[0.6892155408859253, 0.6786875128746033, 0.6831583976745605, 0.6918053030967712, 0.6838828921318054, 0.6849554181098938]","[0.1277322953062895, -1.443064031488607, 0.1277322953062895, 0.1277322953062895, 0.1277322953062895, 0.1277322953062895]","[0.1277322953062895, -1.443064031488607, 0.1277322953062895, 0.1277322953062895, 0.1277322953062895, 0.1277322953062895]",0.002,7,1
0,150,"[0.10153762996196747, -1.4694541481188317, 0.10137063661684209, 0.10163693010296626, 0.10157977789640427, 0.10150472819805145]","[0.6868811845779419, 0.6811990141868591, 0.6870190501213074, 0.6923480033874512, 0.6852174401283264, 0.6852238178253174]","[0.12854866963015096, -1.4422476571647456, 0.12854866963015096, 0.12854866963015096, 0.12854866963015096, 0.12854866963015096]","[0.12854866963015096, -1.4422476571647456, 0.12854866963015096, 0.12854866963015096, 0.12854866963015096, 0.12854866963015096]",0.002,7,1
0,151,"[0.10289035737514496, -1.4680059191635628, 0.10273296037782842, 0.10299472391094966, 0.1028951108455658, 0.10291413217782974]","[0.6890588402748108, 0.6839573979377747, 0.6859062314033508, 0.6926210522651672, 0.6870856881141663, 0.6881623864173889]","[0.12936423132077363, -1.4414320954741229, 0.12936423132077363, 0.12936423132077363, 0.12936423132077363, 0.12936423132077363]","[0.12936423132077363, -1.4414320954741229, 0.12936423132077363, 0.12936423132077363, 0.12936423132077363, 0.12936423132077363]",0.002,7,1
0,152,"[0.10424847900867462, -1.4667478439262887, 0.10415488878359014, 0.10441546022381587, 0.10430501401424408, 0.10420234501361847]","[0.6938023567199707, 0.6882168650627136, 0.6912349462509155, 0.690694272518158, 0.6855449080467224, 0.6907480359077454]","[0.13017897522250294, -1.4406173515723937, 0.13017897522250294, 0.13017897522250294, 0.13017897522250294, 0.13017897522250294]","[0.13017897522250294, -1.4406173515723937, 0.13017897522250294, 0.13017897522250294, 0.13017897522250294, 0.13017897522250294]",0.002,7,1
0,153,"[0.1056026816368103, -1.4653136742166062, 0.1055830160724085, 0.10585920392956538, 0.10567492246627808, 0.10557139664888382]","[0.6912277340888977, 0.6900599002838135, 0.6879870891571045, 0.6911052465438843, 0.6880202889442444, 0.6930637359619141]","[0.1309928961848541, -1.4398034306100425, 0.1309928961848541, 0.1309928961848541, 0.1309928961848541, 0.1309928961848541]","[0.1309928961848541, -1.4398034306100425, 0.1309928961848541, 0.1309928961848541, 0.1309928961848541, 0.1309928961848541]",0.002,7,1
0,154,"[0.10689784586429596, -1.463981644516327, 0.10695439973940069, 0.10725311815228267, 0.10698093473911285, 0.10688388347625732]","[0.6895354390144348, 0.6906481385231018, 0.6889435648918152, 0.6899211406707764, 0.6894880533218384, 0.6925094723701477]","[0.13180598906254448, -1.438990337732352, 0.13180598906254448, 0.13180598906254448, 0.13180598906254448, 0.13180598906254448]","[0.13180598906254448, -1.438990337732352, 0.13180598906254448, 0.13180598906254448, 0.13180598906254448, 0.13180598906254448]",0.002,7,1
0,155,"[0.10836422443389893, -1.462546059196331, 0.10824186006654912, 0.10858683168377681, 0.10839993506669998, 0.10831659287214279]","[0.6882460713386536, 0.6928213238716125, 0.6905120015144348, 0.6851446032524109, 0.6914519667625427, 0.6954145431518555]","[0.13261824871552635, -1.4381780780793703, 0.13261824871552635, 0.13261824871552635, 0.13261824871552635, 0.13261824871552635]","[0.13261824871552635, -1.4381780780793703, 0.13261824871552635, 0.13261824871552635, 0.13261824871552635, 0.13261824871552635]",0.002,7,1
0,156,"[0.10978643596172333, -1.4611854639700432, 0.10969239870180303, 0.10998134195294185, 0.10974674671888351, 0.10964211076498032]","[0.6899908185005188, 0.6966438889503479, 0.6902933120727539, 0.6862617135047913, 0.692696750164032, 0.6965394616127014]","[0.1334296700090193, -1.4373666567858772, 0.1334296700090193, 0.1334296700090193, 0.1334296700090193, 0.1334296700090193]","[0.1334296700090193, -1.4373666567858772, 0.1334296700090193, 0.1334296700090193, 0.1334296700090193, 0.1334296700090193]",0.002,7,1
0,157,"[0.11109773069620132, -1.459815339451172, 0.11103183427919561, 0.11136393129315181, 0.11106862127780914, 0.1110430508852005]","[0.6919440031051636, 0.6993230581283569, 0.693568229675293, 0.6856849789619446, 0.6934942603111267, 0.6975829005241394]","[0.13424024781354274, -1.4365560789813538, 0.13424024781354274, 0.13424024781354274, 0.13424024781354274, 0.13424024781354274]","[0.13424024781354274, -1.4365560789813538, 0.13424024781354274, 0.13424024781354274, 0.13424024781354274, 0.13424024781354274]",0.002,7,1
0,158,"[0.11250649392604828, -1.4584821102074166, 0.11238080659975225, 0.11270885049786372, 0.11253590881824493, 0.11248882859945297]","[0.6919219493865967, 0.6994029879570007, 0.6947339773178101, 0.6849849224090576, 0.6931463479995728, 0.6972638964653015]","[0.1350499770049481, -1.4357463497899485, 0.1350499770049481, 0.1350499770049481, 0.1350499770049481, 0.1350499770049481]","[0.1350499770049481, -1.4357463497899485, 0.1350499770049481, 0.1350499770049481, 0.1350499770049481, 0.1350499770049481]",0.002,7,1
