Arnibjarnst/BoxLift/logs/ur_rtde/trajectory_dur=5.0_delay=0.2_gain=100_lh=0.1_real.csv
arm_idx,step,actual_q,actual_qd,target_q,expected_q,loop_time,robot_mode,safety_mode
0,-1,"[0.030066974461078644, -1.5406711355647822, 0.03009063402284795, 0.03014175474133296, 0.03012530319392681, 0.030080115422606468]","[-0.037466928362846375, -0.032747719436883926, -0.033696211874485016, -0.03139819577336311, -0.030525395646691322, -0.030971048399806023]","[0.0, -1.5707963267948966, 0.0, 0.0, 0.0, 0.0]","[0.0, -1.5707963267948966, 0.0, 0.0, 0.0, 0.0]",0.002,7,1
0,-1,"[0.02949974313378334, -1.5413111218116065, 0.02949983278383428, 0.029606505031249952, 0.02965998649597168, 0.02957492507994175]","[-0.04815983399748802, -0.04788776487112045, -0.047319311648607254, -0.04487316310405731, -0.04567471891641617, -0.04630166292190552]","[0.0, -1.5707963267948966, 0.0, 0.0, 0.0, 0.0]","[0.0, -1.5707963267948966, 0.0, 0.0, 0.0, 0.0]",0.002,7,1
0,-1,"[0.02896435745060444, -1.5418632247349997, 0.028974358235494435, 0.029039426440856886, 0.02910614013671875, 0.02908470295369625]","[-0.05627395585179329, -0.05727088078856468, -0.05570969358086586, -0.055712901055812836, -0.05630240961909294, -0.05377591773867607]","[0.0, -1.5707963267948966, 0.0, 0.0, 0.0, 0.0]","[0.0, -1.5707963267948966, 0.0, 0.0, 0.0, 0.0]",0.002,7,1
0,-1,"[0.028390562161803246, -1.5424766235849638, 0.02839547792543584, 0.028548045749328566, 0.02849552035331726, 0.028414428234100342]","[-0.06664934754371643, -0.06565825641155243, -0.06516812741756439, -0.06541392207145691, -0.06667154282331467, -0.06521826237440109]","[0.0, -1.5707963267948966, 0.0, 0.0, 0.0, 0.0]","[0.0, -1.5707963267948966, 0.0, 0.0, 0.0, 0.0]",0.002,7,1
0,-1,"[0.027597926557064056, -1.5432580609670659, 0.02767831483949834, 0.027735872859619093, 0.027805525809526443, 0.027730446308851242]","[-0.07896828651428223, -0.0768088549375534, -0.07615460455417633, -0.07802090048789978, -0.07607550173997879, -0.07526720315217972]","[0.0, -1.5707963267948966, 0.0, 0.0, 0.0, 0.0]","[0.0, -1.5707963267948966, 0.0, 0.0, 0.0, 0.0]",0.002,7,1
0,-1,"[0.026644878089427948, -1.5442254927805443, 0.026652161275045216, 0.0267985302158813, 0.02677576057612896, 0.026759307831525803]","[-0.08845846354961395, -0.08791636675596237, -0.08787477016448975, -0.08946146070957184, -0.09071453660726547, -0.08967626094818115]","[0.0, -1.5707963267948966, 0.0, 0.0, 0.0, 0.0]","[0.0, -1.5707963267948966, 0.0, 0.0, 0.0, 0.0]",0.002,7,1
0,-1,"[0.025902435183525085, -1.5449498792043705, 0.025878254567281544, 0.02604465066876216, 0.025966793298721313, 0.025922546163201332]","[-0.09707572311162949, -0.09334169328212738, -0.0951474979519844, -0.10003634542226791, -0.09776288270950317, -0.09799610078334808]","[0.0, -1.5707963267948966, 0.0, 0.0, 0.0, 0.0]","[0.0, -1.5707963267948966, 0.0, 0.0, 0.0, 0.0]",0.002,7,1
0,-1,"[0.023784127086400986, -1.547085841452219, 0.02378398576845342, 0.023905082339904737, 0.02375931292772293, 0.02370942011475563]","[-0.11876753717660904, -0.11155050992965698, -0.11481574177742004, -0.11885096877813339, -0.1155078187584877, -0.11604712158441544]","[0.0, -1.5707963267948966, 0.0, 0.0, 0.0, 0.0]","[0.0, -1.5707963267948966, 0.0, 0.0, 0.0, 0.0]",0.002,7,1
0,-1,"[0.02223779819905758, -1.5485479992679139, 0.02236491838564092, 0.02238552152600093, 0.022353166714310646, 0.022189008072018623]","[-0.12837864458560944, -0.12557534873485565, -0.13085155189037323, -0.1299431324005127, -0.1280493289232254, -0.12649796903133392]","[0.0, -1.5707963267948966, 0.0, 0.0, 0.0, 0.0]","[0.0, -1.5707963267948966, 0.0, 0.0, 0.0, 0.0]",0.002,7,1
0,-1,"[0.019820746034383774, -1.551127841030695, 0.019834820424215138, 0.019925041789672804, 0.019785666838288307, 0.019718356430530548]","[-0.14478258788585663, -0.1451786458492279, -0.1443498134613037, -0.14937500655651093, -0.14627328515052795, -0.14468728005886078]","[0.0, -1.5707963267948966, 0.0, 0.0, 0.0, 0.0]","[0.0, -1.5707963267948966, 0.0, 0.0, 0.0, 0.0]",0.002,7,1
0,-1,"[0.015271511860191822, -1.5554864222979923, 0.015386406575338185, 0.015398188228271437, 0.015337880700826645, 0.015266884118318558]","[-0.17445416748523712, -0.16876162588596344, -0.17569243907928467, -0.17504309117794037, -0.17453624308109283, -0.17327961325645447]","[0.0, -1.5707963267948966, 0.0, 0.0, 0.0, 0.0]","[0.0, -1.5707963267948966, 0.0, 0.0, 0.0, 0.0]",0.002,7,1
0,-1,"[0.012949632480740547, -1.5576927627301593, 0.013132397328512013, 0.013049884433410597, 0.012952901422977448, 0.012973188422620296]","[-0.1593087762594223, -0.13966533541679382, -0.1532200276851654, -0.16069425642490387, -0.15981528162956238, -0.1596423238515854]","[0.0, -1.5707963267948966, 0.0, 0.0, 0.0, 0.0]","[0.0, -1.5707963267948966, 0.0, 0.0, 0.0, 0.0]",0.002,7,1
0,-1,"[0.010777520015835762, -1.5598072868636628, 0.01100474992860967, 0.01082567750897212, 0.010931366123259068, 0.010838487185537815]","[-0.14588895440101624, -0.14875885844230652, -0.1487220972776413, -0.1477721631526947, -0.14899952709674835, -0.14950703084468842]","[0.0, -1.5707963267948966, 0.0, 0.0, 0.0, 0.0]","[0.0, -1.5707963267948966, 0.0, 0.0, 0.0, 0.0]",0.002,7,1
0,-1,"[0.008561893366277218, -1.5619205099395295, 0.008711640034810841, 0.008571549052856398, 0.008643575944006443, 0.008663266897201538]","[-0.13194802403450012, -0.13126178085803986, -0.13229383528232574, -0.13000982999801636, -0.13321039080619812, -0.1342611163854599]","[0.0, -1.5707963267948966, 0.0, 0.0, 0.0, 0.0]","[0.0, -1.5707963267948966, 0.0, 0.0, 0.0, 0.0]",0.002,7,1
0,-1,"[0.005245168227702379, -1.5652488761446257, 0.0053857008563440445, 0.0053176122852782726, 0.005325830075889826, 0.005440909881144762]","[-0.10448698699474335, -0.10686630755662918, -0.10479475557804108, -0.10150675475597382, -0.1054854542016983, -0.10498063266277313]","[0.0, -1.5707963267948966, 0.0, 0.0, 0.0, 0.0]","[0.0, -1.5707963267948966, 0.0, 0.0, 0.0, 0.0]",0.002,7,1
0,-1,"[0.004381152335554361, -1.5662176327644666, 0.004418675099508107, 0.00431160509075923, 0.004368778318166733, 0.004407668951898813]","[-0.09229642152786255, -0.097572922706604, -0.09424305707216263, -0.09198789298534393, -0.09556827694177628, -0.0958627462387085]","[0.0, -1.5707963267948966, 0.0, 0.0, 0.0, 0.0]","[0.0, -1.5707963267948966, 0.0, 0.0, 0.0, 0.0]",0.002,7,1
0,-1,"[0.0032636725809425116, -1.5672808632119377, 0.0032985846148889664, 0.00326339780773921, 0.0033452645875513554, 0.0033731621224433184]","[-0.08214390277862549, -0.0849245935678482, -0.08411084860563278, -0.08032777905464172, -0.08145058155059814, -0.08304771780967712]","[0.0, -1.5707963267948966, 0.0, 0.0, 0.0, 0.0]","[0.0, -1.5707963267948966, 0.0, 0.0, 0.0, 0.0]",0.002,7,1
0,-1,"[0.0023110168986022472, -1.568271004162245, 0.002370659505025685, 0.0024087864109496593, 0.002436222042888403, 0.002380634192377329]","[-0.07266820967197418, -0.07520473748445511, -0.0728132352232933, -0.06807588040828705, -0.06993727385997772, -0.07103721797466278]","[0.0, -1.5707963267948966, 0.0, 0.0, 0.0, 0.0]","[0.0, -1.5707963267948966, 0.0, 0.0, 0.0, 0.0]",0.002,7,1
0,-1,"[0.001783038955181837, -1.5688753475299855, 0.0018289724933069351, 0.0018670993992309093, 0.0018789845053106546, 0.001928078243508935]","[-0.06156839802861214, -0.06802957504987717, -0.06414180994033813, -0.05987243354320526, -0.06498704850673676, -0.06113959848880768]","[0.0, -1.5707963267948966, 0.0, 0.0, 0.0, 0.0]","[0.0, -1.5707963267948966, 0.0, 0.0, 0.0, 0.0]",0.002,7,1
0,-1,"[0.0011530008632689714, -1.56964632452976, 0.0011466185199182632, 0.0011725860783080577, 0.001176997204311192, 0.0012520249001681805]","[-0.04853169620037079, -0.05449735000729561, -0.053747836500406265, -0.048037875443696976, -0.05070898309350014, -0.05080806091427803]","[0.0, -1.5707963267948966, 0.0, 0.0, 0.0, 0.0]","[0.0, -1.5707963267948966, 0.0, 0.0, 0.0, 0.0]",0.002,7,1
0,-1,"[0.0006866093026474118, -1.5700930007481766, 0.000615421925679982, 0.0007316309162597179, 0.0006768073653802276, 0.0007094117463566363]","[-0.03589441999793053, -0.04323343560099602, -0.04071929678320885, -0.03771856054663658, -0.03851817920804024, -0.03717941418290138]","[0.0, -1.5707963267948966, 0.0, 0.0, 0.0, 0.0]","[0.0, -1.5707963267948966, 0.0, 0.0, 0.0, 0.0]",0.002,7,1
0,-1,"[0.0002934567164629698, -1.5706001743131601, 0.00024015108217412262, 0.0002608734318236827, 0.0002663778723217547, 0.0003795567899942398]","[-0.025969039648771286, -0.02966814674437046, -0.027475755661725998, -0.02645091712474823, -0.02549016661942005, -0.026170693337917328]","[0.0, -1.5707963267948966, 0.0, 0.0, 0.0, 0.0]","[0.0, -1.5707963267948966, 0.0, 0.0, 0.0, 0.0]",0.002,7,1
0,-1,"[7.009453111095354e-05, -1.5708261928954066, -2.86102294921875e-06, 0.00010506689038081163, 0.00013409568055067211, 9.753060294315219e-05]","[-0.01342018973082304, -0.015251286327838898, -0.014871004968881607, -0.014471596106886864, -0.013525168411433697, -0.014245139434933662]","[0.0, -1.5707963267948966, 0.0, 0.0, 0.0, 0.0]","[0.0, -1.5707963267948966, 0.0, 0.0, 0.0, 0.0]",0.002,7,1
0,-1,"[-5.070363179981996e-06, -1.5708981953062953, -0.0001577157963765785, 1.2083644531202253e-05, 6.625370588153601e-05, 7.219314284157008e-05]","[-0.0001710264477878809, 0.0007948972634039819, -4.771132444147952e-05, 0.00286931823939085, 0.003592217341065407, 0.0008607031777501106]","[0.0, -1.5707963267948966, 0.0, 0.0, 0.0, 0.0]","[0.0, -1.5707963267948966, 0.0, 0.0, 0.0, 0.0]",0.002,7,1
0,-1,"[4.149055530433543e-05, -1.5708652935423792, 2.4143849508106996e-05, 0.00010220586743159288, 4.553794860839844e-05, 5.864151899004355e-05]","[0.00023219581635203212, 0.013460524380207062, 0.0020047063007950783, -0.000336233846610412, 0.00034902174957096577, 0.00043177331099286675]","[0.0, -1.5707963267948966, 0.0, 0.0, 0.0, 0.0]","[0.0, -1.5707963267948966, 0.0, 0.0, 0.0, 0.0]",0.002,7,1
0,-1,"[2.947127904917579e-05, -1.5708352528014125, -3.169774936395697e-05, 4.0932292602491316e-05, 5.435943603515625e-05, 9.019962453749031e-05]","[0.00034861848689615726, 0.002839388558641076, 0.0004125460109207779, 2.5874728635244537e-06, -7.9050958447624e-05, 0.0002509558107703924]","[0.0, -1.5707963267948966, 0.0, 0.0, 0.0, 0.0]","[0.0, -1.5707963267948966, 0.0, 0.0, 0.0, 0.0]",0.002,7,1
0,-1,"[8.370327850570902e-05, -1.570769579415657, 2.9865895406544496e-05, 0.00010959684338374132, 8.26120376586914e-05, 4.2277490138076246e-05]","[0.0002205881173722446, 0.0020628059282898903, 0.002266721334308386, -0.00019650094327516854, -0.00017334771109744906, 0.00014722354535479099]","[0.0, -1.5707963267948966, 0.0, 0.0, 0.0, 0.0]","[0.0, -1.5707963267948966, 0.0, 0.0, 0.0, 0.0]",0.002,7,1
0,-1,"[5.3387404477689415e-05, -1.570775698070367, 8.885060445606996e-06, 7.669507946772569e-05, 3.656679473351687e-05, 7.510185241699219e-05]","[0.00010747783380793408, 0.0011027466971427202, 0.000816228857729584, -0.0002793824824038893, -0.0003126476367469877, -8.157285628840327e-05]","[0.0, -1.5707963267948966, 0.0, 0.0, 0.0, 0.0]","[0.0, -1.5707963267948966, 0.0, 0.0, 0.0, 0.0]",0.002,7,1
0,-1,"[4.6050547098275274e-05, -1.5707456183484574, -1.4781951904296875e-05, 6.477415051264757e-05, 7.959186768857762e-05, 5.5733318731654435e-05]","[7.912691216915846e-05, 0.00029962838743813336, 0.0005247345543466508, -0.00020142784342169762, -0.0006025155307725072, -0.00012771769252140075]","[0.0, -1.5707963267948966, 0.0, 0.0, 0.0, 0.0]","[0.0, -1.5707963267948966, 0.0, 0.0, 0.0, 0.0]",0.002,7,1
0,-1,"[9.562420746078715e-05, -1.5708066425719203, 1.732503072560121e-06, 7.434482238721785e-06, 5.550384594243951e-05, 7.95870364527218e-05]","[5.333553781383671e-05, 1.131273910946794e-14, 0.00029116528457961977, -0.0005220836610533297, -0.0005173627287149429, -0.0003475527046248317]","[0.0, -1.5707963267948966, 0.0, 0.0, 0.0, 0.0]","[0.0, -1.5707963267948966, 0.0, 0.0, 0.0, 0.0]",0.002,7,1
0,-1,"[9.85860824584961e-05, -1.5708066425719203, -2.390837653365452e-05, 7.383405651850694e-05, 0.00011297773744445294, 9.626145765651017e-05]","[4.7683821321697906e-05, 3.665193168498871e-22, 0.00021933902462478727, -0.00044095705379731953, -0.000658724398817867, -0.0005027416627854109]","[0.0, -1.5707963267948966, 0.0, 0.0, 0.0, 0.0]","[0.0, -1.5707963267948966, 0.0, 0.0, 0.0, 0.0]",0.002,7,1
0,-1,"[5.3411484259413555e-05, -1.5708023510374964, -4.366385837784037e-05, 3.366052593989366e-05, 3.912449028575793e-05, 6.47964479867369e-05]","[3.850376742775552e-05, 5.161640854386534e-39, 0.00019086606334894896, -0.0009211462456732988, -0.0006640524952672422, -0.0008861427195370197]","[0.0, -1.5707963267948966, 0.0, 0.0, 0.0, 0.0]","[0.0, -1.5707963267948966, 0.0, 0.0, 0.0, 0.0]",0.002,7,1
0,-1,"[2.4923325327108614e-05, -1.570759118800499, -1.9345163309480995e-05, 2.4481410644483503e-05, 3.906508209183812e-05, -5.547200338185121e-06]","[1.7909770502938636e-20, 0.0005452873883768916, 0.00010755880066426471, -0.00038488427526317537, -0.000523722730576992, -0.0007573653128929436]","[0.0, -1.5707963267948966, 0.0, 0.0, 0.0, 0.0]","[0.0, -1.5707963267948966, 0.0, 0.0, 0.0, 0.0]",0.002,7,1
0,-1,"[8.041853288887069e-05, -1.5707500886968155, -4.082417581230402e-05, -1.6254237671375904e-06, -3.5587941304981996e-05, 3.1680057873018086e-05]","[1.879958845624691e-35, 0.0002513687068130821, 9.279695950681344e-05, -0.0005218946025706828, -0.00028660940006375313, -0.0003701167006511241]","[0.0, -1.5707963267948966, 0.0, 0.0, 0.0, 0.0]","[0.0, -1.5707963267948966, 0.0, 0.0, 0.0, 0.0]",0.002,7,1
0,-1,"[0.00010309502977179363, -1.5707486730865021, -7.403111339954194e-06, 6.668149914546007e-05, 3.1803130696062e-05, 3.16739096888341e-05]","[0.0, -0.00015870697097852826, 8.412417082581669e-05, -0.00030762291862629354, -0.0002488194440957159, -0.00033241455093957484]","[0.0, -1.5707963267948966, 0.0, 0.0, 0.0, 0.0]","[0.0, -1.5707963267948966, 0.0, 0.0, 0.0, 0.0]",0.002,7,1
0,-1,"[6.69479341013357e-05, -1.5708261928954066, -6.916577694937587e-05, 2.114355053706163e-05, 5.1045419240836054e-05, -2.9865895406544496e-05]","[0.0, -0.0004033480945508927, 6.14832024439238e-05, -0.00024713901802897453, -0.00020518414385151118, -0.0002784757816698402]","[0.0, -1.5707963267948966, 0.0, 0.0, 0.0, 0.0]","[0.0, -1.5707963267948966, 0.0, 0.0, 0.0, 0.0]",0.002,7,1
0,-1,"[1.7550350094097666e-05, -1.5707500886968155, 0.0, 7.434482238721785e-06, 1.1036872820113786e-05, 1.0767536878120154e-05]","[-0.00015224315575324, 0.0008514547953382134, 6.193342414917424e-05, -0.0001342095056315884, -0.00013944545935373753, -0.00020835072791669518]","[0.0, -1.5707963267948966, 0.0, 0.0, 0.0, 0.0]","[0.0, -1.5707963267948966, 0.0, 0.0, 0.0, 0.0]",0.002,7,1
0,-1,"[-3.163014547169496e-06, -1.5707622185803594, -3.298962110420689e-05, 5.476057019038194e-05, -1.7468129293263246e-05, 7.912746696092654e-06]","[-0.0001321091258432716, 0.0005322800134308636, 1.942629043738542e-11, -0.00013276691606733948, -0.00013750282232649624, -0.0001695271348580718]","[0.0, -1.5707963267948966, 0.0, 0.0, 0.0, 0.0]","[0.0, -1.5707963267948966, 0.0, 0.0, 0.0, 0.0]",0.002,7,1
0,-1,"[4.299879219615832e-05, -1.5707740497640152, -2.1038837076048367e-05, 2.4481410644483503e-05, -3.0819569722950746e-05, 1.9741059077205136e-05]","[-0.00012701140076387674, 6.555913842021255e-06, 2.735776745247263e-28, -0.00012686869013123214, -0.00012987825903110206, -0.00013647392916027457]","[0.0, -1.5707963267948966, 0.0, 0.0, 0.0, 0.0]","[0.0, -1.5707963267948966, 0.0, 0.0, 0.0, 0.0]",0.002,7,1
0,-1,"[1.7550350094097666e-05, -1.5708304844298304, -1.9345163309480995e-05, -1.6288166381883684e-05, -2.175966371709137e-05, -1.3653432027638246e-05]","[-0.00015252441517077386, 5.384156264334671e-34, -0.0, -0.00016611628234386444, -9.956942085409537e-05, -0.00011771841673180461]","[0.0, -1.5707963267948966, 0.0, 0.0, 0.0, 0.0]","[0.0, -1.5707963267948966, 0.0, 0.0, 0.0, 0.0]",0.002,7,1
0,-1,"[1.7550350094097666e-05, -1.5708066425719203, 4.116688863575746e-06, -7.756174121098525e-05, -4.750887026006012e-05, 0.0]","[-0.00039313611341640353, -6.741894935657911e-07, -0.0, -0.00013668229803442955, -8.965111192082986e-05, -0.00010562925308477134]","[0.0, -1.5707963267948966, 0.0, 0.0, 0.0, 0.0]","[0.0, -1.5707963267948966, 0.0, 0.0, 0.0, 0.0]",0.002,7,1
0,-1,"[5.202308966545388e-05, -1.570824762383932, -7.424235263897572e-06, 9.222621581983503e-06, -1.3176594869435121e-05, 7.940127034089528e-06]","[-0.0004305575857870281, -9.494515285073878e-24, -0.0, -0.0001113239413825795, -7.947348058223724e-05, -9.330906323157251e-05]","[0.0, -1.5707963267948966, 0.0, 0.0, 0.0, 0.0]","[0.0, -1.5707963267948966, 0.0, 0.0, 0.0, 0.0]",0.002,7,1
0,-1,"[-6.024037496388246e-06, -1.5708023510374964, 1.3653432027638246e-05, -4.367237426805559e-06, -2.175966371709137e-05, -3.892580141240387e-05]","[-0.00025027530500665307, 2.923886969589793e-21, -0.0, -8.502833952661604e-05, -2.5020761018623716e-09, -6.715368385812326e-07]","[0.0, -1.5707963267948966, 0.0, 0.0, 0.0, 0.0]","[0.0, -1.5707963267948966, 0.0, 0.0, 0.0, 0.0]",0.002,7,1
0,-1,"[-6.024037496388246e-06, -1.570756007117172, 1.0792409078419496e-05, -2.081811938481337e-05, 3.6225796065991744e-05, 7.383256161119789e-05]","[-0.00020070881873834878, 2.287635066265023e-34, -0.0, -7.658779941266403e-05, -1.2657875902491665e-17, -3.397270215726891e-15]","[0.0, -1.5707963267948966, 0.0, 0.0, 0.0, 0.0]","[0.0, -1.5707963267948966, 0.0, 0.0, 0.0, 0.0]",0.002,7,1
0,-1,"[3.559303149813786e-05, -1.5707740497640152, -1.4781951904296875e-05, 1.2083644531202253e-05, -6.024037496388246e-06, -2.080598940068512e-05]","[-0.00023818587942514569, 7.411467577813957e-42, -0.0, -7.247620669659227e-05, -2.3005084835481925e-22, -6.174376591302703e-20]","[0.0, -1.5707963267948966, 0.0, 0.0, 0.0, 0.0]","[0.0, -1.5707963267948966, 0.0, 0.0, 0.0, 0.0]",0.002,7,1
0,-1,"[4.0156126488000154e-05, -1.5707830412196309, 8.885060445606996e-06, -2.546728167729384e-05, 2.0146371753071435e-06, 1.52587890625e-05]","[-5.856429925188422e-05, -2.798073285487687e-16, -0.0, -6.389914051396772e-05, -3.239525595976949e-34, -8.694619785242678e-32]","[0.0, -1.5707963267948966, 0.0, 0.0, 0.0, 0.0]","[0.0, -1.5707963267948966, 0.0, 0.0, 0.0, 0.0]",0.002,7,1
0,-1,"[-1.0792409078419496e-05, -1.570795090079475, 1.3653432027638246e-05, 3.830968823237413e-05, 2.8876303986180574e-05, 3.337907764944248e-05]","[-4.211812847643159e-05, -1.631747034277002e-27, 8.941970970101354e-13, -5.966385288047604e-05, -2.5100058092986123e-41, -6.736666697124485e-39]","[0.0, -1.5707963267948966, 0.0, 0.0, 0.0, 0.0]","[0.0, -1.5707963267948966, 0.0, 0.0, 0.0, 0.0]",0.002,7,1
0,-1,"[1.3056161151325796e-05, -1.570774061803906, -7.442524747602874e-06, 7.315272949171003e-06, -2.209340230763246e-06, -5.0846730367481996e-05]","[-2.4084129108814523e-05, 4.600700401159424e-25, 9.851128204203464e-43, -6.509738565590776e-24, -0.0, -0.0]","[0.0, -1.5707963267948966, 0.0, 0.0, 0.0, 0.0]","[0.0, -1.5707963267948966, 0.0, 0.0, 0.0, 0.0]",0.002,7,1
0,-1,"[4.301071021473035e-05, -1.5707906139130792, -3.169774936395697e-05, 4.692668579053816e-06, -1.9375477926075746e-05, 1.0764599210233428e-05]","[-1.9409524611546658e-05, 6.479604099037954e-42, -0.0, -1.403962124192287e-34, -0.0, -0.0]","[0.0, -1.5707963267948966, 0.0, 0.0, 0.0, 0.0]","[0.0, -1.5707963267948966, 0.0, 0.0, 0.0, 0.0]",0.002,7,1
0,-1,"[3.561699122656137e-05, -1.5707411750702995, -3.292340988991782e-05, 2.114355053706163e-05, 3.470182491582818e-05, -1.794496645146637e-05]","[-1.7520302208140492e-05, 0.0, -0.0, -1.6660317702050615e-40, -0.0, -0.0]","[0.0, -1.5707963267948966, 0.0, 0.0, 0.0, 0.0]","[0.0, -1.5707963267948966, 0.0, 0.0, 0.0, 0.0]",0.002,7,1
0,-1,"[5.2059222070965916e-05, -1.5707740497658342, 1.1746083394825746e-05, -3.27390483398915e-05, -4.750887026006012e-05, 2.8930122425663285e-05]","[-3.185983223374933e-05, 0.0, -0.0, -2.802596928649634e-45, -0.0, -0.0]","[0.0, -1.5707963267948966, 0.0, 0.0, 0.0, 0.0]","[0.0, -1.5707963267948966, 0.0, 0.0, 0.0, 0.0]",0.002,7,1
0,-1,"[5.51021184946876e-06, -1.5708395443358363, 3.4634266988575746e-05, -4.367237426805559e-06, 1.8358230590820312e-05, -1.794496645146637e-05]","[-2.933085670520086e-05, 0.0, -0.0, -0.0, -0.0, -0.0]","[0.0, -1.5707963267948966, 0.0, 0.0, 0.0, 0.0]","[0.0, -1.5707963267948966, 0.0, 0.0, 0.0, 0.0]",0.002,7,1
0,-1,"[-7.931386129200746e-06, -1.570786134604834, -2.86102294921875e-06, 2.114355053706163e-05, 1.841215453168843e-05, 3.168291368638165e-05]","[-1.335931483481545e-05, -2.4895116439438425e-05, -0.0, -0.0, -0.0, -0.0]","[0.0, -1.5707963267948966, 0.0, 0.0, 0.0, 0.0]","[0.0, -1.5707963267948966, 0.0, 0.0, 0.0, 0.0]",0.002,7,1
0,-1,"[2.658367156982422e-05, -1.5708066425719203, 4.116688863575746e-06, -1.1758213378953997e-05, -2.366701234990387e-05, -8.885060445606996e-06]","[-2.4533637770218775e-05, -2.1340216335374862e-05, -0.0, -0.0, -0.0, -0.0]","[0.0, -1.5707963267948966, 0.0, 0.0, 0.0, 0.0]","[0.0, -1.5707963267948966, 0.0, 0.0, 0.0, 0.0]",0.002,7,1
0,-1,"[2.658367156982422e-05, -1.5707531881383439, 2.557436098271637e-05, -1.1758213378953997e-05, 2.014635811065091e-06, 1.0785466656670906e-05]","[-1.1339516277075745e-05, -1.868234721769113e-05, -0.0, -0.0, -0.0, -0.0]","[0.0, -1.5707963267948966, 0.0, 0.0, 0.0, 0.0]","[0.0, -1.5707963267948966, 0.0, 0.0, 0.0, 0.0]",0.002,7,1
0,-1,"[1.4543533325195312e-05, -1.5708204708495082, 3.892580141240387e-05, -4.2037372924852434e-05, -1.5083943502247621e-05, 1.5240596439980436e-05]","[-2.1084426407469437e-05, -9.077855800398993e-09, -0.0, -0.0, -0.0, -0.0]","[0.0, -1.5707963267948966, 0.0, 0.0, 0.0, 0.0]","[0.0, -1.5707963267948966, 0.0, 0.0, 0.0, 0.0]",0.002,7,1
0,1,"[-1.8421803609669496e-05, -1.5707666528454247, 2.080598940068512e-05, -3.27390483398915e-05, -1.732503072560121e-06, -1.794496645146637e-05]","[-4.5656701266910455e-18, -3.0872419558668525e-31, -0.0, -0.0, -0.0, -0.0]","[0.08765894793109064, -1.4831373788638058, 0.08765894793109064, 0.08765894793109064, 0.08765894793109064, 0.08765894793109064]","[0.08765894793109064, -1.4831373788638058, 0.08765894793109064, 0.08765894793109064, 0.08765894793109064, 0.08765894793109064]",0.002,7,1
0,2,"[7.602906407555565e-05, -1.570599929215252, 0.00012475648988896637, 4.5700664184522566e-05, 0.00010496954200789332, 0.00010991191811626777]","[0.034659143537282944, 0.16636453568935394, 0.11434061825275421, 0.05931001156568527, 0.046252038329839706, 0.0488310381770134]","[0.08850819476859928, -1.4822881320262973, 0.08850819476859928, 0.08850819476859928, 0.08850819476859928, 0.08850819476859928]","[0.08850819476859928, -1.4822881320262973, 0.08850819476859928, 0.08850819476859928, 0.08850819476859928, 0.08850819476859928]",0.002,7,1
0,3,"[0.0001919033529702574, -1.5703706724783224, 0.000249210988179982, 0.00022892534222407335, 0.0002748164697550237, 0.00022051978157833219]","[0.046154044568538666, 0.19893436133861542, 0.13974985480308533, 0.09561517834663391, 0.07405237853527069, 0.07548829913139343]","[0.08935688209272531, -1.4814394447021713, 0.08935688209272531, 0.08935688209272531, 0.08935688209272531, 0.08935688209272531]","[0.08935688209272531, -1.4814394447021713, 0.08935688209272531, 0.08935688209272531, 0.08935688209272531, 0.08935688209272531]",0.002,7,1
0,4,"[0.00024117663269862533, -1.5700149387451638, 0.0005562941180627945, 0.00032178937878413194, 0.00045219468302093446, 0.00040221353992819786]","[0.05403805896639824, 0.19339871406555176, 0.13755561411380768, 0.09979117661714554, 0.08680812269449234, 0.09144099056720734]","[0.09020500453840717, -1.4805913222564895, 0.09020500453840717, 0.09020500453840717, 0.09020500453840717, 0.09020500453840717]","[0.09020500453840717, -1.4805913222564895, 0.09020500453840717, 0.09020500453840717, 0.09020500453840717, 0.09020500453840717]",0.002,7,1
0,5,"[0.0004210686020087451, -1.569686564766318, 0.0008018652545374039, 0.0004998880573729991, 0.0006069402443245053, 0.0006334984209388494]","[0.07384436577558517, 0.18922722339630127, 0.14180628955364227, 0.09811487048864365, 0.09718319028615952, 0.09767603129148483]","[0.09105255674415423, -1.4797437700507423, 0.09105255674415423, 0.09105255674415423, 0.09105255674415423, 0.09105255674415423]","[0.09105255674415423, -1.4797437700507423, 0.09105255674415423, 0.09105255674415423, 0.09105255674415423, 0.09105255674415423]",0.002,7,1
0,6,"[0.0006928759394213557, -1.5692786305774753, 0.0012653509723108414, 0.0007414060780028819, 0.0008161151199601591, 0.000816064013633877]","[0.100192591547966, 0.19983519613742828, 0.16152481734752655, 0.10805441439151764, 0.10894732177257538, 0.11199194192886353]","[0.09189953335208066, -1.4788967934428159, 0.09189953335208066, 0.09189953335208066, 0.09189953335208066, 0.09189953335208066]","[0.09189953335208066, -1.4788967934428159, 0.09189953335208066, 0.09189953335208066, 0.09189953335208066, 0.09189953335208066]",0.002,7,1
0,7,"[0.0009479092550463974, -1.5688780902749677, 0.0015814940081995132, 0.0010835367390136241, 0.0010141689563170075, 0.001023037708364427]","[0.12098784744739532, 0.2069510817527771, 0.17427301406860352, 0.12415429949760437, 0.12188476324081421, 0.12490947544574738]","[0.0927459290079393, -1.4780503977869572, 0.0927459290079393, 0.0927459290079393, 0.0927459290079393, 0.0927459290079393]","[0.0927459290079393, -1.4780503977869572, 0.0927459290079393, 0.0927459290079393, 0.0927459290079393, 0.0927459290079393]",0.002,7,1
0,8,"[0.001257037278264761, -1.568548181825765, 0.0019748846637170914, 0.0014691787907104015, 0.0011796161998063326, 0.001340796472504735]","[0.14899438619613647, 0.18954749405384064, 0.16558335721492767, 0.1450420320034027, 0.13810475170612335, 0.1404189169406891]","[0.09359173836115567, -1.4772045884337408, 0.09359173836115567, 0.09359173836115567, 0.09359173836115567, 0.09359173836115567]","[0.09359173836115567, -1.4772045884337408, 0.09359173836115567, 0.09359173836115567, 0.09359173836115567, 0.09359173836115567]",0.002,7,1
0,9,"[0.0017042269464582205, -1.568249783511721, 0.0022032896624963882, 0.001748486156127882, 0.0015116543509066105, 0.0016166467685252428]","[0.17008088529109955, 0.1520998328924179, 0.14271342754364014, 0.16142329573631287, 0.15288874506950378, 0.1547713577747345]","[0.09443695606486147, -1.476359370730035, 0.09443695606486147, 0.09443695606486147, 0.09443695606486147, 0.09443695606486147]","[0.09443695606486147, -1.476359370730035, 0.09443695606486147, 0.09443695606486147, 0.09443695606486147, 0.09443695606486147]",0.002,7,1
0,10,"[0.002064051339402795, -1.5680261936834832, 0.0025518576251428726, 0.0021553474613646983, 0.0018118934240192175, 0.001990082673728466]","[0.18264169991016388, 0.12093879282474518, 0.16109798848628998, 0.17949092388153076, 0.170099675655365, 0.16981278359889984]","[0.09528157677592872, -1.4755147500189678, 0.09528157677592872, 0.09528157677592872, 0.09528157677592872, 0.09528157677592872]","[0.09528157677592872, -1.4755147500189678, 0.09528157677592872, 0.09528157677592872, 0.09528157677592872, 0.09528157677592872]",0.002,7,1
0,11,"[0.002317543374374509, -1.5677922666403283, 0.002683464680806935, 0.0024295288273314952, 0.0022132997401058674, 0.0023090913891792297]","[0.19154882431030273, 0.1544986218214035, 0.18382398784160614, 0.19025655090808868, 0.18401098251342773, 0.18619373440742493]","[0.09612559515500335, -1.4746707316398933, 0.09612559515500335, 0.09612559515500335, 0.09612559515500335, 0.09612559515500335]","[0.09612559515500335, -1.4746707316398933, 0.09612559515500335, 0.09612559515500335, 0.09612559515500335, 0.09612559515500335]",0.002,7,1
0,12,"[0.0026956398505717516, -1.567495481842645, 0.003033939992086232, 0.0026387411304931163, 0.0026427428238093853, 0.0027683405205607414]","[0.1997864991426468, 0.18644708395004272, 0.18633122742176056, 0.19441358745098114, 0.2021065354347229, 0.19926948845386505]","[0.09696900586653895, -1.4738273209283577, 0.09696900586653895, 0.09696900586653895, 0.09696900586653895, 0.09696900586653895]","[0.09696900586653895, -1.4738273209283577, 0.09696900586653895, 0.09696900586653895, 0.09696900586653895, 0.09696900586653895]",0.002,7,1
0,13,"[0.0030630608089268208, -1.5671906348182638, 0.0034216086017053726, 0.003083034152648878, 0.0031513720750808716, 0.0031669579911977053]","[0.21436119079589844, 0.1914501041173935, 0.1914937049150467, 0.19913342595100403, 0.22089844942092896, 0.2122441530227661]","[0.09781180357883058, -1.4729845232160659, 0.09781180357883058, 0.09781180357883058, 0.09781180357883058, 0.09781180357883058]","[0.09781180357883058, -1.4729845232160659, 0.09781180357883058, 0.09781180357883058, 0.09781180357883058, 0.09781180357883058]",0.002,7,1
0,14,"[0.00358060491271317, -1.566823527948447, 0.00391561189760381, 0.0035307842442016124, 0.003598845563828945, 0.00358231901191175]","[0.2287212610244751, 0.19747470319271088, 0.20782917737960815, 0.21293510496616364, 0.2352554053068161, 0.22765444219112396]","[0.09865398296404841, -1.472142343830848, 0.09865398296404841, 0.09865398296404841, 0.09865398296404841, 0.09865398296404841]","[0.09865398296404841, -1.472142343830848, 0.09865398296404841, 0.09865398296404841, 0.09865398296404841, 0.09865398296404841]",0.002,7,1
0,15,"[0.004125108011066914, -1.5664336693337937, 0.004449192677633107, 0.004085584277770948, 0.004100546706467867, 0.004083026200532913]","[0.24524031579494476, 0.2083052694797516, 0.22760415077209473, 0.2347077876329422, 0.2477906346321106, 0.2424430400133133]","[0.0994955386982715, -1.4713007880966251, 0.0994955386982715, 0.0994955386982715, 0.0994955386982715, 0.0994955386982715]","[0.0994955386982715, -1.4713007880966251, 0.0994955386982715, 0.0994955386982715, 0.0994955386982715, 0.0994955386982715]",0.002,7,1
0,16,"[0.0047717927955091, -1.5659659442356606, 0.004962746297017873, 0.004706426257751417, 0.004497467074543238, 0.004636477213352919]","[0.2618871331214905, 0.22374887764453888, 0.24783548712730408, 0.25883749127388, 0.26029667258262634, 0.25815925002098083]","[0.10033646546152125, -1.4704598613333753, 0.10033646546152125, 0.10033646546152125, 0.10033646546152125, 0.10033646546152125]","[0.10033646546152125, -1.4704598613333753, 0.10033646546152125, 0.10033646546152125, 0.10033646546152125, 0.10033646546152125]",0.002,7,1
0,17,"[0.005379319190979004, -1.5655399405262251, 0.005480591450826466, 0.005299492473266554, 0.005065259989351034, 0.005164335947483778]","[0.2798386812210083, 0.2404172420501709, 0.2619816064834595, 0.28084978461265564, 0.2712300419807434, 0.2752740681171417]","[0.10117675793779526, -1.4696195688571012, 0.10117675793779526, 0.10117675793779526, 0.10117675793779526, 0.10117675793779526]","[0.10117675793779526, -1.4696195688571012, 0.10117675793779526, 0.10117675793779526, 0.10117675793779526, 0.10117675793779526]",0.002,7,1
0,18,"[0.005946259945631027, -1.565016196375229, 0.005945984517232716, 0.005819721812866163, 0.005713500082492828, 0.005763850174844265]","[0.29408901929855347, 0.2543076276779175, 0.27361318469047546, 0.2940745949745178, 0.28560009598731995, 0.28896063566207886]","[0.10201641081510086, -1.4687799159797956, 0.10201641081510086, 0.10201641081510086, 0.10201641081510086, 0.10201641081510086]","[0.10201641081510086, -1.4687799159797956, 0.10201641081510086, 0.10201641081510086, 0.10201641081510086, 0.10201641081510086]",0.002,7,1
0,19,"[0.006490916479378939, -1.5645047289184113, 0.0065453688250940445, 0.006330652827880812, 0.006342977285385132, 0.006379192229360342]","[0.30460548400878906, 0.2658091187477112, 0.2844943404197693, 0.29949313402175903, 0.3000968098640442, 0.3022535443305969]","[0.10285541878548858, -1.467940908009408, 0.10285541878548858, 0.10285541878548858, 0.10285541878548858, 0.10285541878548858]","[0.10285541878548858, -1.467940908009408, 0.10285541878548858, 0.10285541878548858, 0.10285541878548858, 0.10285541878548858]",0.002,7,1
0,20,"[0.007088709622621536, -1.5639798057130356, 0.0071023146258752945, 0.006922646159789991, 0.006979887839406729, 0.006986772641539574]","[0.31196245551109314, 0.27962177991867065, 0.2939385771751404, 0.3033091723918915, 0.3174372613430023, 0.31223005056381226]","[0.10369377654508585, -1.4671025502498107, 0.10369377654508585, 0.10369377654508585, 0.10369377654508585, 0.10369377654508585]","[0.10369377654508585, -1.4671025502498107, 0.10369377654508585, 0.10369377654508585, 0.10369377654508585, 0.10369377654508585]",0.002,7,1
0,21,"[0.007714074105024338, -1.5633783650449296, 0.007719818745748341, 0.007483406657836866, 0.007653974927961826, 0.007635536137968302]","[0.32242754101753235, 0.2917160987854004, 0.3070260286331177, 0.3109854757785797, 0.3307309150695801, 0.32638171315193176]","[0.10453147879413045, -1.466264848000766, 0.10453147879413045, 0.10453147879413045, 0.10453147879413045, 0.10453147879413045]","[0.10453147879413045, -1.466264848000766, 0.10453147879413045, 0.10453147879413045, 0.10453147879413045, 0.10453147879413045]",0.002,7,1
0,22,"[0.008460771292448044, -1.5627709788135071, 0.008358780537740529, 0.008233352298400831, 0.008356973528862, 0.008307239040732384]","[0.33291783928871155, 0.3067070543766022, 0.3212643265724182, 0.3249029517173767, 0.3419734835624695, 0.33812379837036133]","[0.10536852023700408, -1.4654278065578925, 0.10536852023700408, 0.10536852023700408, 0.10536852023700408, 0.10536852023700408]","[0.10536852023700408, -1.4654278065578925, 0.10536852023700408, 0.10536852023700408, 0.10536852023700408, 0.10536852023700408]",0.002,7,1
0,23,"[0.009233376011252403, -1.5620928567698975, 0.009074036275045216, 0.009003444308898878, 0.008987718261778355, 0.008979161269962788]","[0.35079941153526306, 0.3225221037864685, 0.33529722690582275, 0.34478694200515747, 0.3529619574546814, 0.34942880272865295]","[0.1062048955822657, -1.464591431212631, 0.1062048955822657, 0.1062048955822657, 0.1062048955822657, 0.1062048955822657]","[0.1062048955822657, -1.464591431212631, 0.1062048955822657, 0.1062048955822657, 0.1062048955822657, 0.1062048955822657]",0.002,7,1
0,24,"[0.00989321619272232, -1.5614139477587123, 0.009833161030904591, 0.009924932117126417, 0.009740320965647697, 0.009686371311545372]","[0.36522746086120605, 0.33462628722190857, 0.34990471601486206, 0.36834704875946045, 0.3606489598751068, 0.3636602759361267]","[0.10704059954268516, -1.4637557272522115, 0.10704059954268516, 0.10704059954268516, 0.10704059954268516, 0.10704059954268516]","[0.10704059954268516, -1.4637557272522115, 0.10704059954268516, 0.10704059954268516, 0.10704059954268516, 0.10704059954268516]",0.002,7,1
0,25,"[0.010617472231388092, -1.5607420925847073, 0.010565582905904591, 0.010716839427612257, 0.010435089468955994, 0.010445505380630493]","[0.3775384724140167, 0.3485289514064789, 0.3626403510570526, 0.3838328719139099, 0.373160719871521, 0.37617596983909607]","[0.10787562683527654, -1.46292069995962, 0.10787562683527654, 0.10787562683527654, 0.10787562683527654, 0.10787562683527654]","[0.10787562683527654, -1.46292069995962, 0.10787562683527654, 0.10787562683527654, 0.10787562683527654, 0.10787562683527654]",0.002,7,1
0,26,"[0.01131400652229786, -1.5600167636624356, 0.011288468037740529, 0.011394305820129347, 0.011150293983519077, 0.01122240535914898]","[0.3867776691913605, 0.3613073229789734, 0.37561115622520447, 0.39370742440223694, 0.38298505544662476, 0.38648003339767456]","[0.1087099721813315, -1.462086354613565, 0.1087099721813315, 0.1087099721813315, 0.1087099721813315, 0.1087099721813315]","[0.1087099721813315, -1.462086354613565, 0.1087099721813315, 0.1087099721813315, 0.1087099721813315, 0.1087099721813315]",0.002,7,1
0,27,"[0.012107565067708492, -1.5591876984438677, 0.012022320424215138, 0.01218525945629878, 0.01204253826290369, 0.012013226747512817]","[0.39442360401153564, 0.37449294328689575, 0.38612714409828186, 0.3980838358402252, 0.3984659016132355, 0.3984149098396301]","[0.10954363030645263, -1.461252696488444, 0.10954363030645263, 0.10954363030645263, 0.10954363030645263, 0.10954363030645263]","[0.10954363030645263, -1.461252696488444, 0.10954363030645263, 0.10954363030645263, 0.10954363030645263, 0.10954363030645263]",0.002,7,1
0,28,"[0.012949572876095772, -1.5583855503103514, 0.012821499501363576, 0.012984200114868116, 0.012847394682466984, 0.012842923402786255]","[0.4045462906360626, 0.38851431012153625, 0.3952104151248932, 0.4027351438999176, 0.4116310179233551, 0.40961939096450806]","[0.11037659594058698, -1.4604197308543097, 0.11037659594058698, 0.11037659594058698, 0.11037659594058698, 0.11037659594058698]","[0.11037659594058698, -1.4604197308543097, 0.11037659594058698, 0.11037659594058698, 0.11037659594058698, 0.11037659594058698]",0.002,7,1
0,29,"[0.013801734894514084, -1.5576157358339806, 0.013689819966451466, 0.013775511378906202, 0.01362882275134325, 0.013646813109517097]","[0.4169043004512787, 0.4036753475666046, 0.4036766290664673, 0.40724846720695496, 0.4242106080055237, 0.42056187987327576]","[0.11120886381805924, -1.4595874629768373, 0.11120886381805924, 0.11120886381805924, 0.11120886381805924, 0.11120886381805924]","[0.11120886381805924, -1.4595874629768373, 0.11120886381805924, 0.11120886381805924, 0.11120886381805924, 0.11120886381805924]",0.002,7,1
0,30,"[0.014681563712656498, -1.5567426544478913, 0.014497105275289357, 0.0147135692783813, 0.014501244761049747, 0.014527339488267899]","[0.43005314469337463, 0.41936516761779785, 0.4190703332424164, 0.41997936367988586, 0.4347926080226898, 0.4316813051700592]","[0.11204042867760493, -1.4587558981172917, 0.11204042867760493, 0.11204042867760493, 0.11204042867760493, 0.11204042867760493]","[0.11204042867760493, -1.4587558981172917, 0.11204042867760493, 0.11204042867760493, 0.11204042867760493, 0.11204042867760493]",0.002,7,1
0,31,"[0.015558097511529922, -1.555824233484902, 0.015399758015767873, 0.01560620843853755, 0.015366137027740479, 0.015387515537440777]","[0.4417077600955963, 0.43315985798835754, 0.4318162202835083, 0.43347465991973877, 0.44025927782058716, 0.44088220596313477]","[0.11287128526240384, -1.4579250415324927, 0.11287128526240384, 0.11287128526240384, 0.11287128526240384, 0.11287128526240384]","[0.11287128526240384, -1.4579250415324927, 0.11287128526240384, 0.11287128526240384, 0.11287128526240384, 0.11287128526240384]",0.002,7,1
0,32,"[0.01645916886627674, -1.5549532652697344, 0.016271893178121388, 0.016509099597595167, 0.016230404376983643, 0.016220835968852043]","[0.449903279542923, 0.4451559782028198, 0.4431842267513275, 0.4477713704109192, 0.4508915841579437, 0.45358365774154663]","[0.11370142832011325, -1.4570948984747834, 0.11370142832011325, 0.11370142832011325, 0.11370142832011325, 0.11370142832011325]","[0.11370142832011325, -1.4570948984747834, 0.11370142832011325, 0.11370142832011325, 0.11370142832011325, 0.11370142832011325]",0.002,7,1
0,33,"[0.01734733209013939, -1.5540474125048895, 0.017197434102193654, 0.017394109363220167, 0.017258353531360626, 0.01716230809688568]","[0.4574165344238281, 0.4574691355228424, 0.4568272829055786, 0.45853108167648315, 0.46165865659713745, 0.4644463360309601]","[0.11453085260290095, -1.4562654741919956, 0.11453085260290095, 0.11453085260290095, 0.11453085260290095, 0.11453085260290095]","[0.11453085260290095, -1.4562654741919956, 0.11453085260290095, 0.11453085260290095, 0.11453085260290095, 0.11453085260290095]",0.002,7,1
0,34,"[0.018271449953317642, -1.5530438993922253, 0.018080059682027638, 0.01825801908459468, 0.018164873123168945, 0.018160248175263405]","[0.4670325219631195, 0.4659413695335388, 0.466838538646698, 0.46653321385383606, 0.47246482968330383, 0.4738793671131134]","[0.11535955286747862, -1.4554367739274179, 0.11535955286747862, 0.11535955286747862, 0.11535955286747862, 0.11535955286747862]","[0.11535955286747862, -1.4554367739274179, 0.11535955286747862, 0.11535955286747862, 0.11535955286747862, 0.11535955286747862]",0.002,7,1
0,35,"[0.019231047481298447, -1.5520646286061783, 0.01901275316347295, 0.01918272554364009, 0.019107842817902565, 0.019098717719316483]","[0.4764862358570099, 0.47925865650177, 0.4749431908130646, 0.47394320368766785, 0.4823765456676483, 0.48281267285346985]","[0.11618752387513484, -1.4546088029197617, 0.11618752387513484, 0.11618752387513484, 0.11618752387513484, 0.11618752387513484]","[0.11618752387513484, -1.4546088029197617, 0.11618752387513484, 0.11618752387513484, 0.11618752387513484, 0.11618752387513484]",0.002,7,1
0,36,"[0.02023088000714779, -1.551022784118988, 0.02001840273012334, 0.02010457097973628, 0.02011399157345295, 0.020086944103240967]","[0.4886418581008911, 0.4910719096660614, 0.4859473407268524, 0.4822959899902344, 0.4929501712322235, 0.4928503632545471]","[0.11701476039176834, -1.4537815664031282, 0.11701476039176834, 0.11701476039176834, 0.11701476039176834, 0.11701476039176834]","[0.11701476039176834, -1.4537815664031282, 0.11701476039176834, 0.11701476039176834, 0.11701476039176834, 0.11701476039176834]",0.002,7,1
0,37,"[0.021167252212762833, -1.5500359305045386, 0.020980183278219044, 0.02108435213055415, 0.021129868924617767, 0.021166415885090828]","[0.49749767780303955, 0.502478301525116, 0.4951176047325134, 0.49401307106018066, 0.5020443797111511, 0.5017698407173157]","[0.11784125718792089, -1.4529550696069757, 0.11784125718792089, 0.11784125718792089, 0.11784125718792089, 0.11784125718792089]","[0.11784125718792089, -1.4529550696069757, 0.11784125718792089, 0.11784125718792089, 0.11784125718792089, 0.11784125718792089]",0.002,7,1
0,38,"[0.02219492569565773, -1.5489749082228919, 0.022013489400045216, 0.022082849139831495, 0.022143516689538956, 0.022156333550810814]","[0.5048576593399048, 0.5098868608474731, 0.5056238174438477, 0.5055163502693176, 0.5094335675239563, 0.510250449180603]","[0.11866700903881057, -1.452129317756086, 0.11866700903881057, 0.11866700903881057, 0.11866700903881057, 0.11866700903881057]","[0.11866700903881057, -1.452129317756086, 0.11866700903881057, 0.11866700903881057, 0.11866700903881057, 0.11866700903881057]",0.002,7,1
0,39,"[0.023184359073638916, -1.5479098980179806, 0.023006264363424123, 0.02312104284252925, 0.023155609145760536, 0.02314244583249092]","[0.5128530859947205, 0.5168911218643188, 0.5148710608482361, 0.5172135829925537, 0.5178799033164978, 0.5176535248756409]","[0.11949201072436472, -1.451304316070532, 0.11949201072436472, 0.11949201072436472, 0.11949201072436472, 0.11949201072436472]","[0.11949201072436472, -1.451304316070532, 0.11949201072436472, 0.11949201072436472, 0.11949201072436472, 0.11949201072436472]",0.002,7,1
0,40,"[0.02425619214773178, -1.5468344625881691, 0.024054829274312794, 0.024167223567626905, 0.02417176589369774, 0.024231083691120148]","[0.5218650102615356, 0.5260317325592041, 0.5198974609375, 0.5270321369171143, 0.5272425413131714, 0.5253190994262695]","[0.12031625702925285, -1.4504800697656437, 0.12031625702925285, 0.12031625702925285, 0.12031625702925285, 0.12031625702925285]","[0.12031625702925285, -1.4504800697656437, 0.12031625702925285, 0.12031625702925285, 0.12031625702925285, 0.12031625702925285]",0.002,7,1
0,41,"[0.025325408205389977, -1.5457176578095932, 0.025179688130513966, 0.025188608760498, 0.02526126615703106, 0.0253641065210104]","[0.532349705696106, 0.5343891382217407, 0.5300877094268799, 0.5371077656745911, 0.5347880721092224, 0.5334624648094177]","[0.1211397427429197, -1.4496565840519768, 0.1211397427429197, 0.1211397427429197, 0.1211397427429197, 0.1211397427429197]","[0.1211397427429197, -1.4496565840519768, 0.1211397427429197, 0.1211397427429197, 0.1211397427429197, 0.1211397427429197]",0.002,7,1
0,42,"[0.026339612901210785, -1.544635421862342, 0.026275459920064748, 0.026130838985107374, 0.02641591802239418, 0.02641425095498562]","[0.53936368227005, 0.5444254279136658, 0.5358790159225464, 0.5441138744354248, 0.542701780796051, 0.5382816195487976]","[0.12196246265961823, -1.4488338641352783, 0.12196246265961823, 0.12196246265961823, 0.12196246265961823, 0.12196246265961823]","[0.12196246265961823, -1.4488338641352783, 0.12196246265961823, 0.12196246265961823, 0.12196246265961823, 0.12196246265961823]",0.002,7,1
0,43,"[0.02742599882185459, -1.54351261377845, 0.027333561574117482, 0.02731601774182124, 0.027520839124917984, 0.027526432648301125]","[0.5479372143745422, 0.5520676970481873, 0.5487942695617676, 0.5513255000114441, 0.5500417947769165, 0.5463162660598755]","[0.12278441157844236, -1.4480119152164541, 0.12278441157844236, 0.12278441157844236, 0.12278441157844236, 0.12278441157844236]","[0.12278441157844236, -1.4480119152164541, 0.12278441157844236, 0.12278441157844236, 0.12278441157844236, 0.12278441157844236]",0.002,7,1
0,44,"[0.028520580381155014, -1.5422525641373177, 0.028426949177877248, 0.02836708604779048, 0.028582144528627396, 0.028645813465118408]","[0.5555985569953918, 0.5592724084854126, 0.5582714676856995, 0.5565190315246582, 0.5577414631843567, 0.5552685260772705]","[0.12360558430336005, -1.4471907424915365, 0.12360558430336005, 0.12360558430336005, 0.12360558430336005, 0.12360558430336005]","[0.12360558430336005, -1.4471907424915365, 0.12360558430336005, 0.12360558430336005, 0.12360558430336005, 0.12360558430336005]",0.002,7,1
0,45,"[0.029560629278421402, -1.541141129364707, 0.029597107564107716, 0.02953772127117915, 0.029871460050344467, 0.029790474101901054]","[0.5619626641273499, 0.5649543404579163, 0.5632107257843018, 0.5653326511383057, 0.566746175289154, 0.5619711875915527]","[0.12442597564324599, -1.4463703511516506, 0.12442597564324599, 0.12442597564324599, 0.12442597564324599, 0.12442597564324599]","[0.12442597564324599, -1.4463703511516506, 0.12442597564324599, 0.12442597564324599, 0.12442597564324599, 0.12442597564324599]",0.002,7,1
0,46,"[0.030661847442388535, -1.5399901040694495, 0.030707661305562794, 0.030634208316467237, 0.031000223010778427, 0.030974866822361946]","[0.5696130394935608, 0.5703045725822449, 0.5720232129096985, 0.5752437710762024, 0.5735847353935242, 0.56948322057724]","[0.12524558041191447, -1.445550746382982, 0.12524558041191447, 0.12524558041191447, 0.12524558041191447, 0.12524558041191447]","[0.12524558041191447, -1.445550746382982, 0.12524558041191447, 0.12524558041191447, 0.12524558041191447, 0.12524558041191447]",0.002,7,1
0,47,"[0.031851641833782196, -1.538801522260048, 0.03190070787538701, 0.03179864465679927, 0.03213825076818466, 0.03213101252913475]","[0.5753430128097534, 0.577155590057373, 0.578075647354126, 0.583147406578064, 0.5784828662872314, 0.5766271352767944]","[0.1260643934281522, -1.4447319333667443, 0.1260643934281522, 0.1260643934281522, 0.1260643934281522, 0.1260643934281522]","[0.1260643934281522, -1.4447319333667443, 0.1260643934281522, 0.1260643934281522, 0.1260643934281522, 0.1260643934281522]",0.002,7,1
0,48,"[0.03303582966327667, -1.5376686950078984, 0.033108059559957326, 0.03302769243206782, 0.03331206738948822, 0.03328517824411392]","[0.5844074487686157, 0.581210732460022, 0.5835874080657959, 0.5908929705619812, 0.5860244631767273, 0.5824990272521973]","[0.12688240951575097, -1.4439139172791455, 0.12688240951575097, 0.12688240951575097, 0.12688240951575097, 0.12688240951575097]","[0.12688240951575097, -1.4439139172791455, 0.12688240951575097, 0.12688240951575097, 0.12688240951575097, 0.12688240951575097]",0.002,7,1
0,49,"[0.03423753008246422, -1.5364501152983685, 0.03433400789369756, 0.034262223834655714, 0.03445836901664734, 0.03447732329368591]","[0.5931968092918396, 0.5877367258071899, 0.5907732844352722, 0.5946028828620911, 0.5907478332519531, 0.5877214074134827]","[0.12769962350354055, -1.443096703291356, 0.12769962350354055, 0.12769962350354055, 0.12769962350354055, 0.12769962350354055]","[0.12769962350354055, -1.443096703291356, 0.12769962350354055, 0.12769962350354055, 0.12769962350354055, 0.12769962350354055]",0.002,7,1
0,50,"[0.03536149114370346, -1.5352446523359795, 0.035441223775045216, 0.035528822536132765, 0.0356530100107193, 0.035620156675577164]","[0.5983473062515259, 0.5949991941452026, 0.5937179923057556, 0.6041605472564697, 0.5958106517791748, 0.5946620106697083]","[0.12851603022542116, -1.4422802965694754, 0.12851603022542116, 0.12851603022542116, 0.12851603022542116, 0.12851603022542116]","[0.12851603022542116, -1.4422802965694754, 0.12851603022542116, 0.12851603022542116, 0.12851603022542116, 0.12851603022542116]",0.002,7,1
0,51,"[0.03659702092409134, -1.5340105940452595, 0.036721054707662404, 0.03679136812176509, 0.036877527832984924, 0.03681455925107002]","[0.6038407683372498, 0.6012802720069885, 0.6011464595794678, 0.6125738024711609, 0.6009061336517334, 0.6006022095680237]","[0.12933162452039626, -1.4414647022745002, 0.12933162452039626, 0.12933162452039626, 0.12933162452039626, 0.12933162452039626]","[0.12933162452039626, -1.4414647022745002, 0.12933162452039626, 0.12933162452039626, 0.12933162452039626, 0.12933162452039626]",0.002,7,1
0,52,"[0.03785986825823784, -1.5328168545714398, 0.037961784993306935, 0.03804592668499751, 0.03808677941560745, 0.038001883774995804]","[0.6086107492446899, 0.6073172688484192, 0.607668399810791, 0.617312490940094, 0.606985330581665, 0.6081095337867737]","[0.13014640123260515, -1.4406499255622913, 0.13014640123260515, 0.13014640123260515, 0.13014640123260515, 0.13014640123260515]","[0.13014640123260515, -1.4406499255622913, 0.13014640123260515, 0.13014640123260515, 0.13014640123260515, 0.13014640123260515]",0.002,7,1
0,53,"[0.03914114087820053, -1.5315435913256188, 0.03918153444399053, 0.03931991636242671, 0.03926568105816841, 0.0392509400844574]","[0.6149510145187378, 0.6163516640663147, 0.6166934967041016, 0.6202497482299805, 0.6129074692726135, 0.6138563752174377]","[0.13096035521135554, -1.439835971583541, 0.13096035521135554, 0.13096035521135554, 0.13096035521135554, 0.13096035521135554]","[0.13096035521135554, -1.439835971583541, 0.13096035521135554, 0.13096035521135554, 0.13096035521135554, 0.13096035521135554]",0.002,7,1
0,54,"[0.040325623005628586, -1.5303425540081044, 0.04043943086733037, 0.040579600925109816, 0.040495023131370544, 0.040441349148750305]","[0.6213317513465881, 0.6247586011886597, 0.6196423172950745, 0.6223621368408203, 0.621516227722168, 0.6209489703178406]","[0.13177348131115624, -1.4390228454837404, 0.13177348131115624, 0.13177348131115624, 0.13177348131115624, 0.13177348131115624]","[0.13177348131115624, -1.4390228454837404, 0.13177348131115624, 0.13177348131115624, 0.13177348131115624, 0.13177348131115624]",0.002,7,1
0,55,"[0.04158393293619156, -1.5291248981705685, 0.04173499742616826, 0.04186384260144038, 0.041810061782598495, 0.04167718067765236]","[0.6281158328056335, 0.6287882328033447, 0.6282464265823364, 0.6253675222396851, 0.6257862448692322, 0.6273099780082703]","[0.1325857743917494, -1.4382105524031472, 0.1325857743917494, 0.1325857743917494, 0.1325857743917494, 0.1325857743917494]","[0.1325857743917494, -1.4382105524031472, 0.1325857743917494, 0.1325857743917494, 0.1325857743917494, 0.1325857743917494]",0.002,7,1
0,56,"[0.042854707688093185, -1.527854961608984, 0.042925659810201466, 0.04323725282635493, 0.043003812432289124, 0.04290890693664551]","[0.6312050223350525, 0.6344470977783203, 0.6294737458229065, 0.6304071545600891, 0.631212055683136, 0.6338006854057312]","[0.13339722931814335, -1.4373990974767532, 0.13339722931814335, 0.13339722931814335, 0.13339722931814335, 0.13339722931814335]","[0.13339722931814335, -1.4373990974767532, 0.13339722931814335, 0.13339722931814335, 0.13339722931814335, 0.13339722931814335]",0.002,7,1
0,57,"[0.044100236147642136, -1.5266499754837533, 0.04422504106630498, 0.04448549329724116, 0.04424982890486717, 0.04415379837155342]","[0.6367950439453125, 0.6387797594070435, 0.6361267566680908, 0.6380116939544678, 0.6364312767982483, 0.64027339220047]","[0.13420784096064478, -1.4365884858342517, 0.13420784096064478, 0.13420784096064478, 0.13420784096064478, 0.13420784096064478]","[0.13420784096064478, -1.4365884858342517, 0.13420784096064478, 0.13420784096064478, 0.13420784096064478, 0.13420784096064478]",0.002,7,1
0,58,"[0.045395638793706894, -1.525346079175808, 0.045470539723531544, 0.04580382883038325, 0.04551428556442261, 0.04543687775731087]","[0.6383383870124817, 0.6417988538742065, 0.6409247517585754, 0.6415761113166809, 0.6425004005432129, 0.6441067457199097]","[0.13501760419489134, -1.4357787226000052, 0.13501760419489134, 0.13501760419489134, 0.13501760419489134, 0.13501760419489134]","[0.13501760419489134, -1.4357787226000052, 0.13501760419489134, 0.13501760419489134, 0.13501760419489134, 0.13501760419489134]",0.002,7,1
0,59,"[0.04669305309653282, -1.524010581230261, 0.046735588704244435, 0.047076864833496046, 0.04682663828134537, 0.04673253372311592]","[0.646567702293396, 0.6491144895553589, 0.6431291699409485, 0.6428046822547913, 0.6469618678092957, 0.6507751941680908]","[0.13582651390188397, -1.4349698128930126, 0.13582651390188397, 0.13582651390188397, 0.13582651390188397, 0.13582651390188397]","[0.13582651390188397, -1.4349698128930126, 0.13582651390188397, 0.13582651390188397, 0.13582651390188397, 0.13582651390188397]",0.002,7,1
0,60,"[0.04802677035331726, -1.5226987724057217, 0.04797393480409795, 0.048341794604919386, 0.04812300205230713, 0.04799630865454674]","[0.6531701683998108, 0.6539782285690308, 0.6496831178665161, 0.6434527039527893, 0.6533008217811584, 0.6559864282608032]","[0.13663456496801923, -1.4341617618268774, 0.13663456496801923, 0.13663456496801923, 0.13663456496801923, 0.13663456496801923]","[0.13663456496801923, -1.4341617618268774, 0.13663456496801923, 0.13663456496801923, 0.13663456496801923, 0.13663456496801923]",0.002,7,1
0,61,"[0.049300286918878555, -1.521392398779728, 0.04929095903505498, 0.0495878893085937, 0.04944948852062225, 0.04934212192893028]","[0.6569408178329468, 0.6550592184066772, 0.6539345979690552, 0.6447080373764038, 0.6565159559249878, 0.6609908938407898]","[0.13744175228512176, -1.4333545745097749, 0.13744175228512176, 0.13744175228512176, 0.13744175228512176, 0.13744175228512176]","[0.13744175228512176, -1.4333545745097749, 0.13744175228512176, 0.13744175228512176, 0.13744175228512176, 0.13744175228512176]",0.002,7,1
0,62,"[0.050585709512233734, -1.5201106679490586, 0.050612751637594044, 0.050923152560852, 0.05072181671857834, 0.05064946040511131]","[0.6594368815422058, 0.655238926410675, 0.6573396325111389, 0.6503126621246338, 0.6610392928123474, 0.6634021401405334]","[0.13824807075047635, -1.4325482560444203, 0.13824807075047635, 0.13824807075047635, 0.13824807075047635, 0.13824807075047635]","[0.13824807075047635, -1.4325482560444203, 0.13824807075047635, 0.13824807075047635, 0.13824807075047635, 0.13824807075047635]",0.002,7,1
0,63,"[0.051889535039663315, -1.518793487255909, 0.05191690126527959, 0.05222277223553462, 0.05202610418200493, 0.05203911289572716]","[0.6631152629852295, 0.6579140424728394, 0.6603466272354126, 0.6587468385696411, 0.6646776795387268, 0.6686780452728271]","[0.1390535152668604, -1.4317428115280362, 0.1390535152668604, 0.1390535152668604, 0.1390535152668604, 0.1390535152668604]","[0.1390535152668604, -1.4317428115280362, 0.1390535152668604, 0.1390535152668604, 0.1390535152668604, 0.1390535152668604]",0.002,7,1
0,64,"[0.053268373012542725, -1.5175114435008545, 0.05325156847109014, 0.05347256242718501, 0.05342186614871025, 0.053395625203847885]","[0.6673493385314941, 0.6630017757415771, 0.6658057570457458, 0.66800856590271, 0.6680798530578613, 0.6712846755981445]","[0.1398580807425761, -1.4309382460523206, 0.1398580807425761, 0.1398580807425761, 0.1398580807425761, 0.1398580807425761]","[0.1398580807425761, -1.4309382460523206, 0.1398580807425761, 0.1398580807425761, 0.1398580807425761, 0.1398580807425761]",0.002,7,1
0,65,"[0.0546625517308712, -1.516192541723587, 0.054550949727193654, 0.054733677501342726, 0.054652418941259384, 0.05478662997484207]","[0.6734556555747986, 0.6632538437843323, 0.6710759401321411, 0.6703029870986938, 0.67299485206604, 0.6729668378829956]","[0.14066176209148248, -1.430134564703414, 0.14066176209148248, 0.14066176209148248, 0.14066176209148248, 0.14066176209148248]","[0.14066176209148248, -1.430134564703414, 0.14066176209148248, 0.14066176209148248, 0.14066176209148248, 0.14066176209148248]",0.002,7,1
0,66,"[0.05599859729409218, -1.5148858216455956, 0.055912319813863576, 0.05604080736126704, 0.056053221225738525, 0.0561012364923954]","[0.6760886907577515, 0.6629003882408142, 0.6697337627410889, 0.6737049221992493, 0.6787779331207275, 0.6765998601913452]","[0.14146455423302773, -1.4293317725618688, 0.14146455423302773, 0.14146455423302773, 0.14146455423302773, 0.14146455423302773]","[0.14146455423302773, -1.4293317725618688, 0.14146455423302773, 0.14146455423302773, 0.14146455423302773, 0.14146455423302773]",0.002,7,1
0,67,"[0.057366661727428436, -1.5135209833136578, 0.0572589079486292, 0.05738954126324458, 0.05743110552430153, 0.05750298872590065]","[0.6807487607002258, 0.6632615923881531, 0.6718334555625916, 0.6759730577468872, 0.6827092170715332, 0.6772019863128662]","[0.14226645209228123, -1.4285298747026154, 0.14226645209228123, 0.14226645209228123, 0.14226645209228123, 0.14226645209228123]","[0.14226645209228123, -1.4285298747026154, 0.14226645209228123, 0.14226645209228123, 0.14226645209228123, 0.14226645209228123]",0.002,7,1
0,68,"[0.058828722685575485, -1.5121462282589455, 0.05862027803529912, 0.05877987920727534, 0.0588548444211483, 0.05890323594212532]","[0.6829867362976074, 0.6677966713905334, 0.6743486523628235, 0.6818240284919739, 0.6825413703918457, 0.6806791424751282]","[0.14306745059996573, -1.427728876194931, 0.14306745059996573, 0.14306745059996573, 0.14306745059996573, 0.14306745059996573]","[0.14306745059996573, -1.427728876194931, 0.14306745059996573, 0.14306745059996573, 0.14306745059996573, 0.14306745059996573]",0.002,7,1
0,69,"[0.06007750332355499, -1.510814433251955, 0.05990726152528936, 0.06008867799725337, 0.06023012846708298, 0.060302428901195526]","[0.6860826015472412, 0.6701880693435669, 0.6776543855667114, 0.6864672899246216, 0.6860695481300354, 0.6841859221458435]","[0.14386754469248916, -1.4269287821024075, 0.14386754469248916, 0.14386754469248916, 0.14386754469248916, 0.14386754469248916]","[0.14386754469248916, -1.4269287821024075, 0.14386754469248916, 0.14386754469248916, 0.14386754469248916, 0.14386754469248916]",0.002,7,1
0,70,"[0.061456114053726196, -1.5094518598965188, 0.061274353657857716, 0.06145267068829341, 0.061695683747529984, 0.061751242727041245]","[0.6908367872238159, 0.6709446907043457, 0.6814091205596924, 0.69148850440979, 0.6889007687568665, 0.6849220395088196]","[0.14466672931197697, -1.4261295974829196, 0.14466672931197697, 0.14466672931197697, 0.14466672931197697, 0.14466672931197697]","[0.14466672931197697, -1.4261295974829196, 0.14466672931197697, 0.14466672931197697, 0.14466672931197697, 0.14466672931197697]",0.002,7,1
0,71,"[0.06282652169466019, -1.508083590572216, 0.06264096895326787, 0.06285087644543452, 0.06307177245616913, 0.06311772018671036]","[0.6917726993560791, 0.6720406413078308, 0.6853713989257812, 0.6938350200653076, 0.690500020980835, 0.6879571676254272]","[0.14546499940630384, -1.4253313273885928, 0.14546499940630384, 0.14546499940630384, 0.14546499940630384, 0.14546499940630384]","[0.14546499940630384, -1.4253313273885928, 0.14546499940630384, 0.14546499940630384, 0.14546499940630384, 0.14546499940630384]",0.002,7,1
0,72,"[0.06419749557971954, -1.506823406820633, 0.06408244768251592, 0.06425849973645015, 0.06442535668611526, 0.06447112560272217]","[0.6938460469245911, 0.6725065112113953, 0.6857265830039978, 0.6960533261299133, 0.6922397613525391, 0.6905469298362732]","[0.14626234992912576, -1.4245339768657708, 0.14626234992912576, 0.14626234992912576, 0.14626234992912576, 0.14626234992912576]","[0.14626234992912576, -1.4245339768657708, 0.14626234992912576, 0.14626234992912576, 0.14626234992912576, 0.14626234992912576]",0.002,7,1
0,73,"[0.06565674394369125, -1.505441003744938, 0.06542617479433233, 0.06573526441540523, 0.06588775664567947, 0.0659291073679924]","[0.6970288753509521, 0.6757764220237732, 0.6858700513839722, 0.6955037117004395, 0.6952582597732544, 0.6901022791862488]","[0.14705877583991184, -1.4237375509549848, 0.14705877583991184, 0.14705877583991184, 0.14705877583991184, 0.14705877583991184]","[0.14705877583991184, -1.4237375509549848, 0.14705877583991184, 0.14705877583991184, 0.14705877583991184, 0.14705877583991184]",0.002,7,1
0,74,"[0.06703291833400726, -1.5040020135096093, 0.06687623659242803, 0.06709496557202144, 0.06727954745292664, 0.06720568984746933]","[0.7019140124320984, 0.6796431541442871, 0.6890659928321838, 0.6946535110473633, 0.6939521431922913, 0.6914656758308411]","[0.1478542721039762, -1.4229420546909204, 0.1478542721039762, 0.1478542721039762, 0.1478542721039762, 0.1478542721039762]","[0.1478542721039762, -1.4229420546909204, 0.1478542721039762, 0.1478542721039762, 0.1478542721039762, 0.1478542721039762]",0.002,7,1
0,75,"[0.068488210439682, -1.5026850339821358, 0.06827003160585576, 0.06854836523022456, 0.06861723214387894, 0.06856529414653778]","[0.6992247104644775, 0.6832608580589294, 0.6886708736419678, 0.7012245059013367, 0.6950035691261292, 0.6941800117492676]","[0.14864883369250992, -1.4221474931023868, 0.14864883369250992, 0.14864883369250992, 0.14864883369250992, 0.14864883369250992]","[0.14864883369250992, -1.4221474931023868, 0.14864883369250992, 0.14864883369250992, 0.14864883369250992, 0.14864883369250992]",0.002,7,1
0,76,"[0.0698346495628357, -1.501318411236145, 0.06966811815370733, 0.07002751409497066, 0.07000698149204254, 0.06998120248317719]","[0.7003467082977295, 0.6851831674575806, 0.6918553113937378, 0.7016643285751343, 0.6952789425849915, 0.6966875195503235]","[0.1494424555826126, -1.421353871212284, 0.1494424555826126, 0.1494424555826126, 0.1494424555826126, 0.1494424555826126]","[0.1494424555826126, -1.421353871212284, 0.1494424555826126, 0.1494424555826126, 0.1494424555826126, 0.1494424555826126]",0.002,7,1
0,77,"[0.0713539570569992, -1.4998724249056359, 0.07107097307314092, 0.07140509664501948, 0.07140017300844193, 0.07129186391830444]","[0.7033953666687012, 0.6904252767562866, 0.6981805562973022, 0.7040107846260071, 0.6969770789146423, 0.699636697769165]","[0.1502351327573243, -1.4205611940375722, 0.1502351327573243, 0.1502351327573243, 0.1502351327573243, 0.1502351327573243]","[0.1502351327573243, -1.4205611940375722, 0.1502351327573243, 0.1502351327573243, 0.1502351327573243, 0.1502351327573243]",0.002,7,1
0,78,"[0.07269646227359772, -1.4984566134265442, 0.0725329558001917, 0.07292406141247554, 0.07278381288051605, 0.07273560762405396]","[0.7046740651130676, 0.6964207291603088, 0.701332151889801, 0.702083945274353, 0.700801432132721, 0.7027684450149536]","[0.15102686020565723, -1.4197694665892393, 0.15102686020565723, 0.15102686020565723, 0.15102686020565723, 0.15102686020565723]","[0.15102686020565723, -1.4197694665892393, 0.15102686020565723, 0.15102686020565723, 0.15102686020565723, 0.15102686020565723]",0.002,7,1
0,79,"[0.074065662920475, -1.497069464331009, 0.07385856309999639, 0.07426826536145015, 0.07415834814310074, 0.07405778020620346]","[0.7062502503395081, 0.6985200047492981, 0.6978980898857117, 0.7022544145584106, 0.7005583643913269, 0.704463005065918]","[0.1518176329226273, -1.4189786938722693, 0.1518176329226273, 0.1518176329226273, 0.1518176329226273, 0.1518176329226273]","[0.1518176329226273, -1.4189786938722693, 0.1518176329226273, 0.1518176329226273, 0.1518176329226273, 0.1518176329226273]",0.002,7,1
0,80,"[0.07544329017400742, -1.4956621539643784, 0.07530099550356084, 0.0757414537617187, 0.0755518451333046, 0.07551001757383347]","[0.70338374376297, 0.7001546025276184, 0.7029386758804321, 0.7035390734672546, 0.7031558156013489, 0.705746054649353]","[0.15260744590928588, -1.4181888808856107, 0.15260744590928588, 0.15260744590928588, 0.15260744590928588, 0.15260744590928588]","[0.15260744590928588, -1.4181888808856107, 0.15260744590928588, 0.15260744590928588, 0.15260744590928588, 0.15260744590928588]",0.002,7,1
0,81,"[0.07681871950626373, -1.4942386162332078, 0.07670766512026006, 0.07717613756146235, 0.07694616913795471, 0.07687952369451523]","[0.7033979296684265, 0.7024391293525696, 0.7019967436790466, 0.7019927501678467, 0.7054789066314697, 0.7079092860221863]","[0.1533962941727514, -1.4174000326221452, 0.1533962941727514, 0.1533962941727514, 0.1533962941727514, 0.1533962941727514]","[0.1533962941727514, -1.4174000326221452, 0.1533962941727514, 0.1533962941727514, 0.1533962941727514, 0.1533962941727514]",0.002,7,1
0,82,"[0.07831401377916336, -1.4928151679090043, 0.07808858553041631, 0.0786171394535522, 0.07834175229072571, 0.07829903066158295]","[0.7049365639686584, 0.7069695591926575, 0.7045343518257141, 0.701590359210968, 0.7066013813018799, 0.7090094685554504]","[0.1541841727262409, -1.4166121540686556, 0.1541841727262409, 0.1541841727262409, 0.1541841727262409, 0.1541841727262409]","[0.1541841727262409, -1.4166121540686556, 0.1541841727262409, 0.1541841727262409, 0.1541841727262409, 0.1541841727262409]",0.002,7,1
0,83,"[0.07975485175848007, -1.4914104503444214, 0.0794904867755335, 0.07995729028668208, 0.07971692085266113, 0.07971853762865067]","[0.7081753015518188, 0.7093855738639832, 0.7068029642105103, 0.7001199126243591, 0.7078047394752502, 0.709625780582428]","[0.1549710765891015, -1.415825250205795, 0.1549710765891015, 0.1549710765891015, 0.1549710765891015, 0.1549710765891015]","[0.1549710765891015, -1.415825250205795, 0.1549710765891015, 0.1549710765891015, 0.1549710765891015, 0.1549710765891015]",0.002,7,1
0,84,"[0.08111570030450821, -1.4899626311710854, 0.08090716997255498, 0.08134357511486812, 0.08116833120584488, 0.0811460018157959]","[0.7059441804885864, 0.7109680771827698, 0.7072414755821228, 0.6999308466911316, 0.709101676940918, 0.7089003920555115]","[0.1557570007868419, -1.4150393260080547, 0.1557570007868419, 0.1557570007868419, 0.1557570007868419, 0.1557570007868419]","[0.1557570007868419, -1.4150393260080547, 0.1557570007868419, 0.1557570007868419, 0.1557570007868419, 0.1557570007868419]",0.002,7,1
0,85,"[0.0825137123465538, -1.4884743776968499, 0.08242208162416631, 0.08271412431683345, 0.08254267275333405, 0.08258506655693054]","[0.7094604969024658, 0.7120119333267212, 0.7104910016059875, 0.700527012348175, 0.7094237804412842, 0.711812436580658]","[0.1565419403511639, -1.4142543864437327, 0.1565419403511639, 0.1565419403511639, 0.1565419403511639, 0.1565419403511639]","[0.1565419403511639, -1.4142543864437327, 0.1565419403511639, 0.1565419403511639, 0.1565419403511639, 0.1565419403511639]",0.002,7,1
0,86,"[0.08393161743879318, -1.487074875538685, 0.08378917375673467, 0.0840567785450439, 0.08399108797311783, 0.08402073383331299]","[0.7071636915206909, 0.7137848734855652, 0.708820104598999, 0.7017719745635986, 0.7093271017074585, 0.7124606370925903]","[0.15732589031999372, -1.413470436474903, 0.15732589031999372, 0.15732589031999372, 0.15732589031999372, 0.15732589031999372]","[0.15732589031999372, -1.413470436474903, 0.15732589031999372, 0.15732589031999372, 0.15732589031999372, 0.15732589031999372]",0.002,7,1
0,87,"[0.08537974208593369, -1.485599012379982, 0.08523542085756475, 0.08545152723278804, 0.08548998087644577, 0.08550041168928146]","[0.706007719039917, 0.7134208083152771, 0.7119454145431519, 0.7045403122901917, 0.7100933790206909, 0.7106652855873108]","[0.15810884573751346, -1.412687481057383, 0.15810884573751346, 0.15810884573751346, 0.15810884573751346, 0.15810884573751346]","[0.15810884573751346, -1.412687481057383, 0.15810884573751346, 0.15810884573751346, 0.15810884573751346, 0.15810884573751346]",0.002,7,1
0,88,"[0.08680573105812073, -1.4841505152038117, 0.08667117754091436, 0.08673660337414546, 0.0869031772017479, 0.08691694587469101]","[0.7067288756370544, 0.712205708026886, 0.7068715691566467, 0.7036992907524109, 0.7122122049331665, 0.7097598314285278]","[0.1588908016541923, -1.4119055251407042, 0.1588908016541923, 0.1588908016541923, 0.1588908016541923, 0.1588908016541923]","[0.1588908016541923, -1.4119055251407042, 0.1588908016541923, 0.1588908016541923, 0.1588908016541923, 0.1588908016541923]",0.002,7,1
0,89,"[0.08824073523283005, -1.482675940995552, 0.08809119859804326, 0.08811728536572261, 0.08833695948123932, 0.08836502581834793]","[0.7076243162155151, 0.7108906507492065, 0.7058866620063782, 0.7062249779701233, 0.710709273815155, 0.7078902125358582]","[0.159671753126818, -1.4111245736680786, 0.159671753126818, 0.159671753126818, 0.159671753126818, 0.159671753126818]","[0.159671753126818, -1.4111245736680786, 0.159671753126818, 0.159671753126818, 0.159671753126818, 0.159671753126818]",0.002,7,1
0,90,"[0.08960174024105072, -1.4812654864839097, 0.08945209184755498, 0.089572473163269, 0.08976941555738449, 0.08981532603502274]","[0.7072980403900146, 0.7114964127540588, 0.7092937231063843, 0.709253191947937, 0.7095806002616882, 0.7052335739135742]","[0.16045169521852784, -1.4103446315763688, 0.16045169521852784, 0.16045169521852784, 0.16045169521852784, 0.16045169521852784]","[0.16045169521852784, -1.4103446315763688, 0.16045169521852784, 0.16045169521852784, 0.16045169521852784, 0.16045169521852784]",0.002,7,1
0,91,"[0.09102947264909744, -1.4797907930663605, 0.09097177187074834, 0.09100310384716792, 0.09114770591259003, 0.09125064313411713]","[0.7065330147743225, 0.7105384469032288, 0.710611879825592, 0.7120309472084045, 0.7075309157371521, 0.7060959935188293]","[0.16123062299884008, -1.4095657037960565, 0.16123062299884008, 0.16123062299884008, 0.16123062299884008, 0.16123062299884008]","[0.16123062299884008, -1.4095657037960565, 0.16123062299884008, 0.16123062299884008, 0.16123062299884008, 0.16123062299884008]",0.002,7,1
0,92,"[0.09237751364707947, -1.4783409920385857, 0.09228498140443975, 0.09241323053326411, 0.09262901544570923, 0.09268207103013992]","[0.7104250192642212, 0.7096883654594421, 0.7088598012924194, 0.7140173316001892, 0.7059481739997864, 0.7047211527824402]","[0.16200853154368505, -1.4087877952512116, 0.16200853154368505, 0.16200853154368505, 0.16200853154368505, 0.16200853154368505]","[0.16200853154368505, -1.4087877952512116, 0.16200853154368505, 0.16200853154368505, 0.16200853154368505, 0.16200853154368505]",0.002,7,1
0,93,"[0.09375903755426407, -1.4769382265261193, 0.09371978441347295, 0.09389738618817134, 0.09399129450321198, 0.09410924464464188]","[0.7052508592605591, 0.7054584622383118, 0.7100934386253357, 0.7130155563354492, 0.7056304812431335, 0.704815149307251]","[0.16278541593543633, -1.4080109108594603, 0.16278541593543633, 0.16278541593543633, 0.16278541593543633, 0.16278541593543633]","[0.16278541593543633, -1.4080109108594603, 0.16278541593543633, 0.16278541593543633, 0.16278541593543633, 0.16278541593543633]",0.002,7,1
0,94,"[0.09513577073812485, -1.4754670795849343, 0.09510881105531865, 0.09523992120709224, 0.09542392194271088, 0.0954868420958519]","[0.7043295502662659, 0.7027968764305115, 0.7086799740791321, 0.7133901715278625, 0.7051658034324646, 0.7020513415336609]","[0.1635612712629417, -1.4072350555319548, 0.1635612712629417, 0.1635612712629417, 0.1635612712629417, 0.1635612712629417]","[0.1635612712629417, -1.4072350555319548, 0.1635612712629417, 0.1635612712629417, 0.1635612712629417, 0.1635612712629417]",0.002,7,1
0,95,"[0.09657865017652512, -1.4740890500000496, 0.09663421312441045, 0.0967072683521728, 0.09693145751953125, 0.09693184494972229]","[0.704980731010437, 0.704675555229187, 0.7060148119926453, 0.7088696360588074, 0.7030724287033081, 0.7006629705429077]","[0.16433609262155432, -1.4064602341733423, 0.16433609262155432, 0.16433609262155432, 0.16433609262155432, 0.16433609262155432]","[0.16433609262155432, -1.4064602341733423, 0.16433609262155432, 0.16433609262155432, 0.16433609262155432, 0.16433609262155432]",0.002,7,1
0,96,"[0.09807977825403214, -1.4726040673306962, 0.09796411195863897, 0.09812752782788081, 0.09831225126981735, 0.09830237925052643]","[0.70441073179245, 0.7033627033233643, 0.702461838722229, 0.7053558826446533, 0.7046862244606018, 0.6994338631629944]","[0.1651098751131637, -1.405686451681733, 0.1651098751131637, 0.1651098751131637, 0.1651098751131637, 0.1651098751131637]","[0.1651098751131637, -1.405686451681733, 0.1651098751131637, 0.1651098751131637, 0.1651098751131637, 0.1651098751131637]",0.002,7,1
0,97,"[0.0994357019662857, -1.4712194886854668, 0.099372688923971, 0.0996061998554687, 0.09968487173318863, 0.0996890515089035]","[0.7028506994247437, 0.7013989686965942, 0.7030771374702454, 0.7051881551742554, 0.7012959718704224, 0.6994032859802246]","[0.1658826138462266, -1.40491371294867, 0.1658826138462266, 0.1658826138462266, 0.1658826138462266, 0.1658826138462266]","[0.1658826138462266, -1.40491371294867, 0.1658826138462266, 0.1658826138462266, 0.1658826138462266, 0.1658826138462266]",0.002,7,1
0,98,"[0.10083705931901932, -1.4698849630406876, 0.10082132021059209, 0.1010935741611938, 0.10106684267520905, 0.10103937238454819]","[0.7031971216201782, 0.7014761567115784, 0.7033801078796387, 0.7049212455749512, 0.6965636610984802, 0.6965718865394592]","[0.166654303935798, -1.4041420228590986, 0.166654303935798, 0.166654303935798, 0.166654303935798, 0.166654303935798]","[0.166654303935798, -1.4041420228590986, 0.166654303935798, 0.166654303935798, 0.166654303935798, 0.166654303935798]",0.002,7,1
0,99,"[0.1023046225309372, -1.4684364435127755, 0.10228616396059209, 0.10247878610577388, 0.10240180045366287, 0.10237298160791397]","[0.7032800912857056, 0.701337993144989, 0.700856626033783, 0.7029317021369934, 0.6977444887161255, 0.6976412534713745]","[0.16742494050356208, -1.4033713862913344, 0.16742494050356208, 0.16742494050356208, 0.16742494050356208, 0.16742494050356208]","[0.16742494050356208, -1.4033713862913344, 0.16742494050356208, 0.16742494050356208, 0.16742494050356208, 0.16742494050356208]",0.002,7,1
0,100,"[0.10370758920907974, -1.4670158189586182, 0.10371047655214483, 0.10395590841259761, 0.10379816591739655, 0.10376882553100586]","[0.6980342268943787, 0.7015156745910645, 0.7010286450386047, 0.7007247805595398, 0.6957552433013916, 0.6995245218276978]","[0.1681945186778629, -1.4026018081170337, 0.1681945186778629, 0.1681945186778629, 0.1681945186778629, 0.1681945186778629]","[0.1681945186778629, -1.4026018081170337, 0.1681945186778629, 0.1681945186778629, 0.1681945186778629, 0.1681945186778629]",0.002,7,1
0,101,"[0.10504438728094101, -1.4656455901316185, 0.1050646940814417, 0.10537867128338618, 0.10518857836723328, 0.10513757169246674]","[0.698859691619873, 0.6963286995887756, 0.7000107169151306, 0.6984665989875793, 0.6946517825126648, 0.6976916790008545]","[0.16896303359373518, -1.4018332932011615, 0.16896303359373518, 0.16896303359373518, 0.16896303359373518, 0.16896303359373518]","[0.16896303359373518, -1.4018332932011615, 0.16896303359373518, 0.16896303359373518, 0.16896303359373518, 0.16896303359373518]",0.002,7,1
0,102,"[0.10646418482065201, -1.4642685142210503, 0.10647231737245733, 0.1067393261143188, 0.10661276429891586, 0.10650486499071121]","[0.6961501240730286, 0.696148693561554, 0.6982983946800232, 0.6943798065185547, 0.6942206025123596, 0.697789192199707]","[0.16973048039293528, -1.4010658464019612, 0.16973048039293528, 0.16973048039293528, 0.16973048039293528, 0.16973048039293528]","[0.16973048039293528, -1.4010658464019612, 0.16973048039293528, 0.16973048039293528, 0.16973048039293528, 0.16973048039293528]",0.002,7,1
0,103,"[0.10787452757358551, -1.462827780549862, 0.10781890550722295, 0.10816030084576411, 0.10792836546897888, 0.1078912541270256]","[0.6906223893165588, 0.6942537426948547, 0.6962985992431641, 0.6905170679092407, 0.6947315335273743, 0.6973280906677246]","[0.17049685422397173, -1.4002994725709248, 0.17049685422397173, 0.17049685422397173, 0.17049685422397173, 0.17049685422397173]","[0.17049685422397173, -1.4002994725709248, 0.17049685422397173, 0.17049685422397173, 0.17049685422397173, 0.17049685422397173]",0.002,7,1
0,104,"[0.10928140580654144, -1.4615474802306672, 0.10928517976869756, 0.10961846887554927, 0.10931110382080078, 0.10923000425100327]","[0.6925722360610962, 0.694180428981781, 0.6924964785575867, 0.6878241896629333, 0.6922208070755005, 0.6948409676551819]","[0.17126215024213584, -1.3995341765527607, 0.17126215024213584, 0.17126215024213584, 0.17126215024213584, 0.17126215024213584]","[0.17126215024213584, -1.3995341765527607, 0.17126215024213584, 0.17126215024213584, 0.17126215024213584, 0.17126215024213584]",0.002,7,1
0,105,"[0.11064974218606949, -1.4601518225720902, 0.11057836214174444, 0.11093215524639888, 0.11065618693828583, 0.11063893139362335]","[0.6911452412605286, 0.6964836716651917, 0.6929643750190735, 0.6830145120620728, 0.6918299198150635, 0.6953715085983276]","[0.1720263636095325, -1.398769963185364, 0.1720263636095325, 0.1720263636095325, 0.1720263636095325, 0.1720263636095325]","[0.1720263636095325, -1.398769963185364, 0.1720263636095325, 0.1720263636095325, 0.1720263636095325, 0.1720263636095325]",0.002,7,1
0,106,"[0.11199992150068283, -1.4587936636856575, 0.11193591753114873, 0.1122409540363769, 0.11200472712516785, 0.11199835687875748]","[0.688973069190979, 0.6929499506950378, 0.6901188492774963, 0.6814472675323486, 0.6892946362495422, 0.692950963973999]","[0.1727894894951107, -1.3980068372997858, 0.1727894894951107, 0.1727894894951107, 0.1727894894951107, 0.1727894894951107]","[0.1727894894951107, -1.3980068372997858, 0.1727894894951107, 0.1727894894951107, 0.1727894894951107, 0.1727894894951107]",0.002,7,1
0,107,"[0.11340060830116272, -1.4574623641422768, 0.11333209673036748, 0.11356632291760249, 0.11336958408355713, 0.11342864483594894]","[0.688136875629425, 0.6909539103507996, 0.6872949600219727, 0.6821568012237549, 0.6865285038948059, 0.6888741850852966]","[0.17355152307469404, -1.3972448037202025, 0.17355152307469404, 0.17355152307469404, 0.17355152307469404, 0.17355152307469404]","[0.17355152307469404, -1.3972448037202025, 0.17355152307469404, 0.17355152307469404, 0.17355152307469404, 0.17355152307469404]",0.002,7,1
0,108,"[0.11474493891000748, -1.4560606864145775, 0.11469012895692998, 0.11487452566113276, 0.11480071395635605, 0.11481932550668716]","[0.6829927563667297, 0.6875433325767517, 0.686594545841217, 0.6803379058837891, 0.6850988268852234, 0.6887767314910889]","[0.17431245953101113, -1.3964838672638855, 0.17431245953101113, 0.17431245953101113, 0.17431245953101113, 0.17431245953101113]","[0.17431245953101113, -1.3964838672638855, 0.17431245953101113, 0.17431245953101113, 0.17431245953101113, 0.17431245953101113]",0.002,7,1
0,109,"[0.11610978841781616, -1.454686478977539, 0.11601668993105108, 0.11621300756420894, 0.11614994704723358, 0.11621491611003876]","[0.6844189167022705, 0.6859914660453796, 0.6843428015708923, 0.6811830997467041, 0.6827471852302551, 0.6865468621253967]","[0.17507229405372643, -1.3957240327411702, 0.17507229405372643, 0.17507229405372643, 0.17507229405372643, 0.17507229405372643]","[0.17507229405372643, -1.3957240327411702, 0.17507229405372643, 0.17507229405372643, 0.17507229405372643, 0.17507229405372643]",0.002,7,1
0,110,"[0.11748601496219635, -1.4533081886223336, 0.11741763750185186, 0.11745314180340571, 0.1176370307803154, 0.11759816110134125]","[0.6814773678779602, 0.6824908256530762, 0.6818862557411194, 0.6775439381599426, 0.6828963160514832, 0.6833495497703552]","[0.17583102183946997, -1.3949653049554267, 0.17583102183946997, 0.17583102183946997, 0.17583102183946997, 0.17583102183946997]","[0.17583102183946997, -1.3949653049554267, 0.17583102183946997, 0.17583102183946997, 0.17583102183946997, 0.17583102183946997]",0.002,7,1
0,111,"[0.11883562058210373, -1.4520134788802643, 0.1187661329852503, 0.11874584733929439, 0.11889001727104187, 0.11893349140882492]","[0.6792067885398865, 0.6745981574058533, 0.6772251129150391, 0.6760298013687134, 0.6812748908996582, 0.6781988739967346]","[0.17658863809186856, -1.394207688703028, 0.17658863809186856, 0.17658863809186856, 0.17658863809186856, 0.17658863809186856]","[0.17658863809186856, -1.394207688703028, 0.17658863809186856, 0.17658863809186856, 0.17658863809186856, 0.17658863809186856]",0.002,7,1
0,112,"[0.12025376409292221, -1.4506219562939187, 0.12018806139101201, 0.12008456766094966, 0.12036003172397614, 0.120333731174469]","[0.67922043800354, 0.6714890003204346, 0.6773282885551453, 0.6755801439285278, 0.6778120398521423, 0.6754382252693176]","[0.17734513802157542, -1.3934511887733212, 0.17734513802157542, 0.17734513802157542, 0.17734513802157542, 0.17734513802157542]","[0.17734513802157542, -1.3934511887733212, 0.17734513802157542, 0.17734513802157542, 0.17734513802157542, 0.17734513802157542]",0.002,7,1
0,113,"[0.12163735926151276, -1.449287274186947, 0.12149697939027959, 0.12148479997601314, 0.12165570259094238, 0.12171430885791779]","[0.6769024729728699, 0.669778048992157, 0.673465371131897, 0.6765372157096863, 0.6750137805938721, 0.67195725440979]","[0.17810051684630074, -1.3926958099485958, 0.17810051684630074, 0.17810051684630074, 0.17810051684630074, 0.17810051684630074]","[0.17810051684630074, -1.3926958099485958, 0.17810051684630074, 0.17810051684630074, 0.17810051684630074, 0.17810051684630074]",0.002,7,1
0,114,"[0.12292630225419998, -1.4479890328696747, 0.12284452119936162, 0.122836633319519, 0.12304903566837311, 0.1230643168091774]","[0.676683247089386, 0.6652653217315674, 0.6700882315635681, 0.678065299987793, 0.6713152527809143, 0.6690818071365356]","[0.17885476979084194, -1.3919415570040545, 0.17885476979084194, 0.17885476979084194, 0.17885476979084194, 0.17885476979084194]","[0.17885476979084194, -1.3919415570040545, 0.17885476979084194, 0.17885476979084194, 0.17885476979084194, 0.17885476979084194]",0.002,7,1
0,115,"[0.12422914803028107, -1.4466218662313004, 0.12415773073305303, 0.12413732587780757, 0.12439622730016708, 0.1243717223405838]","[0.6741918921470642, 0.6599610447883606, 0.6687279939651489, 0.6753484010696411, 0.6674132943153381, 0.66707843542099]","[0.17960789208711384, -1.3911884347077828, 0.17960789208711384, 0.17960789208711384, 0.17960789208711384, 0.17960789208711384]","[0.17960789208711384, -1.3911884347077828, 0.17960789208711384, 0.17960789208711384, 0.17960789208711384, 0.17960789208711384]",0.002,7,1
0,116,"[0.12556828558444977, -1.4452888828567048, 0.12546283403505498, 0.12547044336285396, 0.12577904760837555, 0.12579748034477234]","[0.6696760058403015, 0.6539405584335327, 0.6656734943389893, 0.6712177395820618, 0.6650303602218628, 0.6643164753913879]","[0.18035987897417868, -1.3904364478207178, 0.18035987897417868, 0.18035987897417868, 0.18035987897417868, 0.18035987897417868]","[0.18035987897417868, -1.3904364478207178, 0.18035987897417868, 0.18035987897417868, 0.18035987897417868, 0.18035987897417868]",0.002,7,1
0,117,"[0.12689046561717987, -1.4439367812922974, 0.12683231035341436, 0.1268290716358642, 0.1270914524793625, 0.1270967721939087]","[0.666732132434845, 0.6499456167221069, 0.6602842211723328, 0.669603705406189, 0.6619974374771118, 0.6610726714134216]","[0.18111072569827633, -1.3896856010966203, 0.18111072569827633, 0.18111072569827633, 0.18111072569827633, 0.18111072569827633]","[0.18111072569827633, -1.3896856010966203, 0.18111072569827633, 0.18111072569827633, 0.18111072569827633, 0.18111072569827633]",0.002,7,1
0,118,"[0.1282176524400711, -1.4426580679467698, 0.1281827131854456, 0.12820629655804439, 0.12843692302703857, 0.12841284275054932]","[0.6626042127609253, 0.6502412557601929, 0.6586904525756836, 0.6643665432929993, 0.6586567163467407, 0.6572006344795227]","[0.1818604275128543, -1.3889358992820422, 0.1818604275128543, 0.1818604275128543, 0.1818604275128543, 0.1818604275128543]","[0.1818604275128543, -1.3889358992820422, 0.1818604275128543, 0.1818604275128543, 0.1818604275128543, 0.1818604275128543]",0.002,7,1
0,119,"[0.12954051792621613, -1.4413567197373887, 0.12947208086122686, 0.12957100450482173, 0.12970054149627686, 0.1297292411327362]","[0.66302490234375, 0.6454019546508789, 0.6537708044052124, 0.6582881212234497, 0.6542555093765259, 0.6530023217201233]","[0.18260897967859785, -1.3881873471162987, 0.18260897967859785, 0.18260897967859785, 0.18260897967859785, 0.18260897967859785]","[0.18260897967859785, -1.3881873471162987, 0.18260897967859785, 0.18260897967859785, 0.18260897967859785, 0.18260897967859785]",0.002,7,1
0,120,"[0.13089486956596375, -1.4400660109571, 0.13082391420473272, 0.13089506208386226, 0.13100266456604004, 0.1309792399406433]","[0.6571409106254578, 0.64480060338974, 0.6522535681724548, 0.6573158502578735, 0.6513990759849548, 0.6506209373474121]","[0.1833563774634597, -1.3874399493314369, 0.1833563774634597, 0.1833563774634597, 0.1833563774634597, 0.1833563774634597]","[0.1833563774634597, -1.3874399493314369, 0.1833563774634597, 0.1833563774634597, 0.1833563774634597, 0.1833563774634597]",0.002,7,1
0,121,"[0.1322137415409088, -1.4388510447791596, 0.1321032683001917, 0.13224391519512935, 0.13230906426906586, 0.1322876363992691]","[0.6524339318275452, 0.6422797441482544, 0.6487601399421692, 0.6543735265731812, 0.6490054726600647, 0.6484310030937195]","[0.1841026161426903, -1.3866937106522061, 0.1841026161426903, 0.1841026161426903, 0.1841026161426903, 0.1841026161426903]","[0.1841026161426903, -1.3866937106522061, 0.1841026161426903, 0.1841026161426903, 0.1841026161426903, 0.1841026161426903]",0.002,7,1
0,122,"[0.13354603946208954, -1.4375194323113938, 0.13345748582948858, 0.13363341867413325, 0.13352535665035248, 0.13350722193717957]","[0.6507728695869446, 0.641356885433197, 0.6485889554023743, 0.6532594561576843, 0.6435725688934326, 0.6461644768714905]","[0.18484769099886728, -1.3859486357960293, 0.18484769099886728, 0.18484769099886728, 0.18484769099886728, 0.18484769099886728]","[0.18484769099886728, -1.3859486357960293, 0.18484769099886728, 0.18484769099886728, 0.18484769099886728, 0.18484769099886728]",0.002,7,1
0,123,"[0.1348140388727188, -1.436198652987816, 0.13470822969545537, 0.13492195188488765, 0.13488654792308807, 0.13479933142662048]","[0.6479424238204956, 0.6448270678520203, 0.6459964513778687, 0.6484642624855042, 0.6430746912956238, 0.645757794380188]","[0.18559159732192573, -1.3852047294729708, 0.18559159732192573, 0.18559159732192573, 0.18559159732192573, 0.18559159732192573]","[0.18559159732192573, -1.3852047294729708, 0.18559159732192573, 0.18559159732192573, 0.18559159732192573, 0.18559159732192573]",0.002,7,1
0,124,"[0.13601002097129822, -1.4349258554032822, 0.13606244722475225, 0.13623170434918208, 0.13611261546611786, 0.13605818152427673]","[0.6441929340362549, 0.6402003765106201, 0.6424034237861633, 0.6427038908004761, 0.6394675970077515, 0.6413856148719788]","[0.1863343304091875, -1.384461996385709, 0.1863343304091875, 0.1863343304091875, 0.1863343304091875, 0.1863343304091875]","[0.1863343304091875, -1.384461996385709, 0.1863343304091875, 0.1863343304091875, 0.1863343304091875, 0.1863343304091875]",0.002,7,1
0,125,"[0.13731643557548523, -1.4337226164392014, 0.1372292677508753, 0.13751689969982905, 0.13729903101921082, 0.13732841610908508]","[0.638687789440155, 0.6384866833686829, 0.6406614184379578, 0.639416515827179, 0.6390084028244019, 0.6392667293548584]","[0.18707588556539143, -1.3837204412295052, 0.18707588556539143, 0.18707588556539143, 0.18707588556539143, 0.18707588556539143]","[0.18707588556539143, -1.3837204412295052, 0.18707588556539143, 0.18707588556539143, 0.18707588556539143, 0.18707588556539143]",0.002,7,1
0,126,"[0.13858534395694733, -1.4324328315309067, 0.13853913942445928, 0.1387602525898437, 0.13864992558956146, 0.13862746953964233]","[0.6317135095596313, 0.6355769038200378, 0.6334806084632874, 0.6310012936592102, 0.6369869112968445, 0.6384248733520508]","[0.18781625810272246, -1.382980068692174, 0.18781625810272246, 0.18781625810272246, 0.18781625810272246, 0.18781625810272246]","[0.18781625810272246, -1.382980068692174, 0.18781625810272246, 0.18781625810272246, 0.18781625810272246, 0.18781625810272246]",0.002,7,1
0,127,"[0.1398594081401825, -1.4311621350101014, 0.1398685614215296, 0.14003769933666987, 0.13983571529388428, 0.1398375928401947]","[0.6307883858680725, 0.6348244547843933, 0.6339069604873657, 0.6249642968177795, 0.6337111592292786, 0.6339826583862305]","[0.18855544334084182, -1.3822408834540547, 0.18855544334084182, 0.18855544334084182, 0.18855544334084182, 0.18855544334084182]","[0.18855544334084182, -1.3822408834540547, 0.18855544334084182, 0.18855544334084182, 0.18855544334084182, 0.18855544334084182]",0.002,7,1
0,128,"[0.14115813374519348, -1.4298588645509263, 0.14106923738588506, 0.1413094240375976, 0.14107778668403625, 0.14111478626728058]","[0.6282010078430176, 0.6341321468353271, 0.6302686929702759, 0.6223676800727844, 0.6317618489265442, 0.6317830681800842]","[0.1892934366069163, -1.3815028901879802, 0.1892934366069163, 0.1892934366069163, 0.1892934366069163, 0.1892934366069163]","[0.1892934366069163, -1.3815028901879802, 0.1892934366069163, 0.1892934366069163, 0.1892934366069163, 0.1892934366069163]",0.002,7,1
0,129,"[0.142449289560318, -1.4286645960858841, 0.14227658907045537, 0.14256958543743892, 0.1423112452030182, 0.1423313170671463]","[0.6259766221046448, 0.6310567855834961, 0.6285974383354187, 0.6186681389808655, 0.6285169720649719, 0.629477858543396]","[0.19003023323564783, -1.3807660935592487, 0.19003023323564783, 0.19003023323564783, 0.19003023323564783, 0.19003023323564783]","[0.19003023323564783, -1.3807660935592487, 0.19003023323564783, 0.19003023323564783, 0.19003023323564783, 0.19003023323564783]",0.002,7,1
0,130,"[0.14362715184688568, -1.4273301374963303, 0.14353686967958623, 0.14382283269848628, 0.14354370534420013, 0.1436038762331009]","[0.6216078996658325, 0.6265214681625366, 0.6253681182861328, 0.6172491312026978, 0.6240341067314148, 0.6248583793640137]","[0.19076582856930302, -1.3800304982255935, 0.19076582856930302, 0.19076582856930302, 0.19076582856930302, 0.19076582856930302]","[0.19076582856930302, -1.3800304982255935, 0.19076582856930302, 0.19076582856930302, 0.19076582856930302, 0.19076582856930302]",0.002,7,1
0,131,"[0.14489996433258057, -1.4260793638280411, 0.14473134676088506, 0.14494340002026362, 0.1448342502117157, 0.14481544494628906]","[0.6177341938018799, 0.6225287318229675, 0.6230169534683228, 0.6168801188468933, 0.6212949156761169, 0.6241357326507568]","[0.19150021795774258, -1.379296108837154, 0.19150021795774258, 0.19150021795774258, 0.19150021795774258, 0.19150021795774258]","[0.19150021795774258, -1.379296108837154, 0.19150021795774258, 0.19150021795774258, 0.19150021795774258, 0.19150021795774258]",0.002,7,1
0,132,"[0.14615283906459808, -1.4248661559871216, 0.14602834383119756, 0.14616887151684566, 0.14600326120853424, 0.14610889554023743]","[0.6150205731391907, 0.6207163333892822, 0.6188983917236328, 0.6142061352729797, 0.6182511448860168, 0.6211526989936829]","[0.19223339675845078, -1.3785629300364457, 0.19223339675845078, 0.19223339675845078, 0.19223339675845078, 0.19223339675845078]","[0.19223339675845078, -1.3785629300364457, 0.19223339675845078, 0.19223339675845078, 0.19223339675845078, 0.19223339675845078]",0.002,7,1
0,133,"[0.14734356105327606, -1.4235697996667405, 0.14724618593324834, 0.1472727495380859, 0.14733415842056274, 0.14727972447872162]","[0.6108877062797546, 0.6186867356300354, 0.6162317991256714, 0.6103721857070923, 0.6154047250747681, 0.6170337200164795]","[0.19296536033656458, -1.377830966458332, 0.19296536033656458, 0.19296536033656458, 0.19296536033656458, 0.19296536033656458]","[0.19296536033656458, -1.377830966458332, 0.19296536033656458, 0.19296536033656458, 0.19296536033656458, 0.19296536033656458]",0.002,7,1
0,134,"[0.14855217933654785, -1.4223807913115998, 0.14848834673036748, 0.1485089498707275, 0.14852313697338104, 0.14861908555030823]","[0.6073184013366699, 0.6112458109855652, 0.6105592846870422, 0.604736864566803, 0.61533123254776, 0.6114663481712341]","[0.19369610406490334, -1.377100222729993, 0.19369610406490334, 0.19369610406490334, 0.19369610406490334, 0.19369610406490334]","[0.19369610406490334, -1.377100222729993, 0.19369610406490334, 0.19369610406490334, 0.19369610406490334, 0.19369610406490334]",0.002,7,1
0,135,"[0.14978012442588806, -1.4211820375970383, 0.14963990846742803, 0.14964549123730464, 0.1497114598751068, 0.1497754156589508]","[0.6036121845245361, 0.6070855259895325, 0.6065983772277832, 0.6028597354888916, 0.6094920635223389, 0.6087721586227417]","[0.19442562332399757, -1.376370703470899, 0.19442562332399757, 0.19442562332399757, 0.19442562332399757, 0.19442562332399757]","[0.19442562332399757, -1.376370703470899, 0.19442562332399757, 0.19442562332399757, 0.19442562332399757, 0.19442562332399757]",0.002,7,1
0,136,"[0.15098805725574493, -1.4199369710734864, 0.15091258684267217, 0.15090148031201167, 0.15092262625694275, 0.15100887417793274]","[0.6008638143539429, 0.6015993356704712, 0.601088285446167, 0.603603184223175, 0.6042294502258301, 0.6010463237762451]","[0.1951539135021186, -1.375642413292778, 0.1951539135021186, 0.1951539135021186, 0.1951539135021186, 0.1951539135021186]","[0.1951539135021186, -1.375642413292778, 0.1951539135021186, 0.1951539135021186, 0.1951539135021186, 0.1951539135021186]",0.002,7,1
0,137,"[0.15220503509044647, -1.4187308710864563, 0.15210229555238897, 0.15201572954144282, 0.15212556719779968, 0.15224513411521912]","[0.5992815494537354, 0.5975857973098755, 0.6024996042251587, 0.6053098440170288, 0.5993404388427734, 0.5983781218528748]","[0.19588096999530732, -1.3749153567995893, 0.19588096999530732, 0.19588096999530732, 0.19588096999530732, 0.19588096999530732]","[0.19588096999530732, -1.3749153567995893, 0.19588096999530732, 0.19588096999530732, 0.19588096999530732, 0.19588096999530732]",0.002,7,1
0,138,"[0.1533745974302292, -1.4175227147391816, 0.15325862566103154, 0.1532243925281982, 0.15343321859836578, 0.15350671112537384]","[0.5981025099754333, 0.594793975353241, 0.5989831686019897, 0.6027540564537048, 0.5946241617202759, 0.5952268242835999]","[0.19660678820740363, -1.374189538587493, 0.19660678820740363, 0.19660678820740363, 0.19660678820740363, 0.19660678820740363]","[0.19660678820740363, -1.374189538587493, 0.19660678820740363, 0.19660678820740363, 0.19660678820740363, 0.19660678820740363]",0.002,7,1
0,139,"[0.15447315573692322, -1.4163276714137574, 0.15450793901552373, 0.15439490854229732, 0.15459996461868286, 0.15466567873954773]","[0.5938581228256226, 0.5897641181945801, 0.595501720905304, 0.5982713103294373, 0.5936712622642517, 0.5897414088249207]","[0.19733136355007524, -1.3734649632448213, 0.19733136355007524, 0.19733136355007524, 0.19733136355007524, 0.19733136355007524]","[0.19733136355007524, -1.3734649632448213, 0.19733136355007524, 0.19733136355007524, 0.19733136355007524, 0.19733136355007524]",0.002,7,1
0,140,"[0.15564270317554474, -1.415186495786049, 0.15568095842470342, 0.15557651102032466, 0.15579597651958466, 0.15582530200481415]","[0.5899367928504944, 0.5868115425109863, 0.5916429162025452, 0.5935508012771606, 0.5891484022140503, 0.586922824382782]","[0.19805469144284696, -1.3727416353520496, 0.19805469144284696, 0.19805469144284696, 0.19805469144284696, 0.19805469144284696]","[0.19805469144284696, -1.3727416353520496, 0.19805469144284696, 0.19805469144284696, 0.19805469144284696, 0.19805469144284696]",0.002,7,1
0,141,"[0.15686480700969696, -1.4140165609172364, 0.1568515936480921, 0.15673796712841792, 0.15700261294841766, 0.1570468544960022]","[0.5849434733390808, 0.5790907740592957, 0.5889803171157837, 0.5911769866943359, 0.5851307511329651, 0.5810592770576477]","[0.19877676731312927, -1.3720195594817672, 0.19877676731312927, 0.19877676731312927, 0.19877676731312927, 0.19877676731312927]","[0.19877676731312927, -1.3720195594817672, 0.19877676731312927, 0.19877676731312927, 0.19877676731312927, 0.19877676731312927]",0.002,7,1
0,142,"[0.15800371766090393, -1.4127854865840455, 0.15802270570863897, 0.15795223295178218, 0.1581602841615677, 0.1582109034061432]","[0.5804901719093323, 0.5751577019691467, 0.5812593102455139, 0.5876758694648743, 0.5796197652816772, 0.5792441964149475]","[0.19949758659624753, -1.371298740198649, 0.19949758659624753, 0.19949758659624753, 0.19949758659624753, 0.19949758659624753]","[0.19949758659624753, -1.371298740198649, 0.19949758659624753, 0.19949758659624753, 0.19949758659624753, 0.19949758659624753]",0.002,7,1
0,143,"[0.15914925932884216, -1.4116206926158448, 0.15919763246645147, 0.1591006952473144, 0.159338116645813, 0.15936611592769623]","[0.5782865881919861, 0.5731709003448486, 0.5792157053947449, 0.5816898345947266, 0.576328456401825, 0.5727648138999939]","[0.20021714473547073, -1.3705791820594257, 0.20021714473547073, 0.20021714473547073, 0.20021714473547073, 0.20021714473547073]","[0.20021714473547073, -1.3705791820594257, 0.20021714473547073, 0.20021714473547073, 0.20021714473547073, 0.20021714473547073]",0.002,7,1
0,144,"[0.16032558679580688, -1.4104969215444108, 0.16040259996523076, 0.1602993446537475, 0.16050048172473907, 0.1604907363653183]","[0.5757418870925903, 0.5707492828369141, 0.5722538232803345, 0.5766918659210205, 0.5727003216743469, 0.5689286589622498]","[0.20093543718204032, -1.3698608896128563, 0.20093543718204032, 0.20093543718204032, 0.20093543718204032, 0.20093543718204032]","[0.20093543718204032, -1.3698608896128563, 0.20093543718204032, 0.20093543718204032, 0.20093543718204032, 0.20093543718204032]",0.002,7,1
0,145,"[0.16148805618286133, -1.4094471049359818, 0.16157228151430303, 0.1614735561558227, 0.16161023080348969, 0.1615857034921646]","[0.5704229474067688, 0.5676805377006531, 0.5689685344696045, 0.5747731924057007, 0.5646856427192688, 0.5652452111244202]","[0.20165245939519896, -1.3691438673996976, 0.20165245939519896, 0.20165245939519896, 0.20165245939519896, 0.20165245939519896]","[0.20165245939519896, -1.3691438673996976, 0.20165245939519896, 0.20165245939519896, 0.20165245939519896, 0.20165245939519896]",0.002,7,1
0,146,"[0.16259299218654633, -1.4082626563361664, 0.16275245348085576, 0.16266636430706782, 0.16271330416202545, 0.1627357304096222]","[0.5666457414627075, 0.5636025071144104, 0.5633627772331238, 0.5717489719390869, 0.5620626211166382, 0.5621796250343323]","[0.2023682068422192, -1.3684281199526773, 0.2023682068422192, 0.2023682068422192, 0.2023682068422192, 0.2023682068422192]","[0.2023682068422192, -1.3684281199526773, 0.2023682068422192, 0.2023682068422192, 0.2023682068422192, 0.2023682068422192]",0.002,7,1
0,147,"[0.16377171874046326, -1.4071092766574402, 0.1638410727130335, 0.1638156610676269, 0.16388703882694244, 0.16383683681488037]","[0.5632753372192383, 0.5632303357124329, 0.5623533129692078, 0.5671758055686951, 0.5591100454330444, 0.5585977435112]","[0.2030826749984321, -1.3677136517964645, 0.2030826749984321, 0.2030826749984321, 0.2030826749984321, 0.2030826749984321]","[0.2030826749984321, -1.3677136517964645, 0.2030826749984321, 0.2030826749984321, 0.2030826749984321, 0.2030826749984321]",0.002,7,1
0,148,"[0.1649138182401657, -1.4060265135816117, 0.16496402422060186, 0.1649908262440185, 0.16494861245155334, 0.16490161418914795]","[0.5615158677101135, 0.5614736676216125, 0.5560503005981445, 0.5602021813392639, 0.5554216504096985, 0.5559651851654053]","[0.20379585934725608, -1.3670004674476406, 0.20379585934725608, 0.20379585934725608, 0.20379585934725608, 0.20379585934725608]","[0.20379585934725608, -1.3670004674476406, 0.20379585934725608, 0.20379585934725608, 0.20379585934725608, 0.20379585934725608]",0.002,7,1
0,149,"[0.1659262478351593, -1.4049184036305924, 0.1660407225238245, 0.1660795646854858, 0.16600832343101501, 0.16601422429084778]","[0.5551511645317078, 0.5594894289970398, 0.555271565914154, 0.5536313056945801, 0.5511428117752075, 0.5541742444038391]","[0.20450775538022495, -1.3662885714146715, 0.20450775538022495, 0.20450775538022495, 0.20450775538022495, 0.20450775538022495]","[0.20450775538022495, -1.3662885714146715, 0.20450775538022495, 0.20450775538022495, 0.20450775538022495, 0.20450775538022495]",0.002,7,1
0,150,"[0.1670464277267456, -1.4038211864284058, 0.16714889207948858, 0.16724924623455806, 0.1670898050069809, 0.16705065965652466]","[0.5505708456039429, 0.5542190670967102, 0.5490304827690125, 0.5486252307891846, 0.5486882328987122, 0.5503391623497009]","[0.20521835859701704, -1.3655779681978795, 0.20521835859701704, 0.20521835859701704, 0.20521835859701704, 0.20521835859701704]","[0.20521835859701704, -1.3655779681978795, 0.20521835859701704, 0.20521835859701704, 0.20521835859701704, 0.20521835859701704]",0.002,7,1
