Arnibjarnst/BoxLift/logs/ur_rtde/trajectory_dur=7.5_delay=0.2_gain=200_lh=0.05_real.csv
arm_idx,step,actual_q,actual_qd,target_q,expected_q,loop_time,robot_mode,safety_mode
0,-1,"[0.03281352296471596, -1.5380338926664372, 0.03282291093935186, 0.03293220579113765, 0.03288646787405014, 0.0328659750521183]","[-0.03958640620112419, -0.042483698576688766, -0.03841179609298706, -0.036326758563518524, -0.04007270559668541, -0.03697258234024048]","[0.0, -1.5707963267948966, 0.0, 0.0, 0.0, 0.0]","[0.0, -1.5707963267948966, 0.0, 0.0, 0.0, 0.0]",0.002,7,1
0,-1,"[0.032029781490564346, -1.5388321925750752, 0.032050434743062794, 0.032156510944030714, 0.032177798449993134, 0.03214988484978676]","[-0.055590204894542694, -0.056487370282411575, -0.05464019253849983, -0.052767325192689896, -0.05448788404464722, -0.0534154549241066]","[0.0, -1.5707963267948966, 0.0, 0.0, 0.0, 0.0]","[0.0, -1.5707963267948966, 0.0, 0.0, 0.0, 0.0]",0.002,7,1
0,-1,"[0.031227383762598038, -1.539740565498807, 0.031197849904195607, 0.03136221944775386, 0.03133764863014221, 0.03129825368523598]","[-0.06796331703662872, -0.06901204586029053, -0.06693461537361145, -0.06733985245227814, -0.06913343071937561, -0.06701815873384476]","[0.0, -1.5707963267948966, 0.0, 0.0, 0.0, 0.0]","[0.0, -1.5707963267948966, 0.0, 0.0, 0.0, 0.0]",0.002,7,1
0,-1,"[0.030628670006990433, -1.5403250747225066, 0.030601326619283498, 0.03069738923992915, 0.030761370435357094, 0.030689841136336327]","[-0.07699118554592133, -0.07607580721378326, -0.07325874269008636, -0.0764012262225151, -0.07604371011257172, -0.07456929236650467]","[0.0, -1.5707963267948966, 0.0, 0.0, 0.0, 0.0]","[0.0, -1.5707963267948966, 0.0, 0.0, 0.0, 0.0]",0.002,7,1
0,-1,"[0.02992866560816765, -1.540951556791999, 0.030014816914693654, 0.030035539264343214, 0.030084429308772087, 0.030102794989943504]","[-0.0847334936261177, -0.0800616666674614, -0.08207569271326065, -0.08313777297735214, -0.0857953429222107, -0.08363302052021027]","[0.0, -1.5707963267948966, 0.0, 0.0, 0.0, 0.0]","[0.0, -1.5707963267948966, 0.0, 0.0, 0.0, 0.0]",0.002,7,1
0,-1,"[0.028883595019578934, -1.542115283464529, 0.028905693684713185, 0.028964324588439894, 0.028960321098566055, 0.02890556864440441]","[-0.0961376503109932, -0.09287367016077042, -0.09416312724351883, -0.09671690315008163, -0.09869041293859482, -0.09614382684230804]","[0.0, -1.5707963267948966, 0.0, 0.0, 0.0, 0.0]","[0.0, -1.5707963267948966, 0.0, 0.0, 0.0, 0.0]",0.002,7,1
0,-1,"[0.027890929952263832, -1.5430871502361079, 0.027941528950826466, 0.027910514468810987, 0.02786138840019703, 0.02787892147898674]","[-0.1060848981142044, -0.10075778514146805, -0.10256081074476242, -0.1071893572807312, -0.10742804408073425, -0.10691580176353455]","[0.0, -1.5707963267948966, 0.0, 0.0, 0.0, 0.0]","[0.0, -1.5707963267948966, 0.0, 0.0, 0.0, 0.0]",0.002,7,1
0,-1,"[0.02580992877483368, -1.5452171184918662, 0.02580434480776006, 0.025831504459045362, 0.025774620473384857, 0.02576329931616783]","[-0.12466118484735489, -0.11962395906448364, -0.12314756959676743, -0.124148428440094, -0.12442709505558014, -0.12499138712882996]","[0.0, -1.5707963267948966, 0.0, 0.0, 0.0, 0.0]","[0.0, -1.5707963267948966, 0.0, 0.0, 0.0, 0.0]",0.002,7,1
0,-1,"[0.023942336440086365, -1.5469914742610236, 0.023958985005513966, 0.024002118701599073, 0.023937514051795006, 0.023895539343357086]","[-0.13808922469615936, -0.13541008532047272, -0.1391030251979828, -0.1394331008195877, -0.13645415008068085, -0.13705669343471527]","[0.0, -1.5707963267948966, 0.0, 0.0, 0.0, 0.0]","[0.0, -1.5707963267948966, 0.0, 0.0, 0.0, 0.0]",0.002,7,1
0,-1,"[0.02156965062022209, -1.549328002413251, 0.02163869539369756, 0.021671934718749952, 0.02152426540851593, 0.02150437980890274]","[-0.15604926645755768, -0.149448424577713, -0.15433380007743835, -0.15555903315544128, -0.15386879444122314, -0.15209445357322693]","[0.0, -1.5707963267948966, 0.0, 0.0, 0.0, 0.0]","[0.0, -1.5707963267948966, 0.0, 0.0, 0.0, 0.0]",0.002,7,1
0,-1,"[0.016851387917995453, -1.5540380266359826, 0.016961399708883107, 0.016951127643249464, 0.01682077907025814, 0.01676454022526741]","[-0.18399237096309662, -0.17645901441574097, -0.18234527111053467, -0.1866229623556137, -0.18191459774971008, -0.18054814636707306]","[0.0, -1.5707963267948966, 0.0, 0.0, 0.0, 0.0]","[0.0, -1.5707963267948966, 0.0, 0.0, 0.0, 0.0]",0.002,7,1
0,-1,"[0.013969043269753456, -1.5565605138293286, 0.014265839253560841, 0.01416890203442378, 0.01405663974583149, 0.014047322794795036]","[-0.16654188930988312, -0.15568765997886658, -0.16299386322498322, -0.16687892377376556, -0.17065633833408356, -0.16701824963092804]","[0.0, -1.5707963267948966, 0.0, 0.0, 0.0, 0.0]","[0.0, -1.5707963267948966, 0.0, 0.0, 0.0, 0.0]",0.002,7,1
0,-1,"[0.011450955644249916, -1.5590379790267725, 0.011690441762105763, 0.011563940639160109, 0.011549308896064758, 0.011553719639778137]","[-0.14939433336257935, -0.15376146137714386, -0.1544528752565384, -0.15019196271896362, -0.15546472370624542, -0.15189747512340546]","[0.0, -1.5707963267948966, 0.0, 0.0, 0.0, 0.0]","[0.0, -1.5707963267948966, 0.0, 0.0, 0.0, 0.0]",0.002,7,1
0,-1,"[0.007354344706982374, -1.5631130866571148, 0.007519547139303029, 0.0073889929005126476, 0.007475795224308968, 0.007512371521443129]","[-0.12185093760490417, -0.12461550533771515, -0.12407233566045761, -0.12074965238571167, -0.12419771403074265, -0.12492890655994415]","[0.0, -1.5707963267948966, 0.0, 0.0, 0.0, 0.0]","[0.0, -1.5707963267948966, 0.0, 0.0, 0.0, 0.0]",0.002,7,1
0,-1,"[0.006422840058803558, -1.5640565755641838, 0.0065415541278284195, 0.006375713939331007, 0.006559302099049091, 0.006606099661439657]","[-0.11342833191156387, -0.11650057137012482, -0.11718512326478958, -0.11431509256362915, -0.11481966078281403, -0.11659038066864014]","[0.0, -1.5707963267948966, 0.0, 0.0, 0.0, 0.0]","[0.0, -1.5707963267948966, 0.0, 0.0, 0.0, 0.0]",0.002,7,1
0,-1,"[0.0055479020811617374, -1.5649519025212904, 0.005703274403707326, 0.005530281657836866, 0.005651373881846666, 0.005631515756249428]","[-0.10549074411392212, -0.11187020689249039, -0.11164722591638565, -0.10453175008296967, -0.10670489817857742, -0.1089470162987709]","[0.0, -1.5707963267948966, 0.0, 0.0, 0.0, 0.0]","[0.0, -1.5707963267948966, 0.0, 0.0, 0.0, 0.0]",0.002,7,1
0,-1,"[0.004552905913442373, -1.5659462439692398, 0.0046342054950159195, 0.004527731532714796, 0.004650875460356474, 0.004629724659025669]","[-0.0962778776884079, -0.10077086836099625, -0.09972833842039108, -0.09453491866588593, -0.09900379180908203, -0.09899026900529861]","[0.0, -1.5707963267948966, 0.0, 0.0, 0.0, 0.0]","[0.0, -1.5707963267948966, 0.0, 0.0, 0.0, 0.0]",0.002,7,1
0,-1,"[0.002960165962576866, -1.5676097215949376, 0.002984348927633107, 0.0029780107685546398, 0.0030609951354563236, 0.0030637704767286777]","[-0.07685721665620804, -0.08263930678367615, -0.08270151913166046, -0.07777566462755203, -0.07841123640537262, -0.07957091182470322]","[0.0, -1.5707963267948966, 0.0, 0.0, 0.0, 0.0]","[0.0, -1.5707963267948966, 0.0, 0.0, 0.0, 0.0]",0.002,7,1
0,-1,"[0.00175673293415457, -1.5689832461396982, 0.0016954580890100601, 0.0017823415943603038, 0.0017405186081305146, 0.0018000054406002164]","[-0.05863499268889427, -0.06725284457206726, -0.061637405306100845, -0.05885666236281395, -0.06217985227704048, -0.061057765036821365]","[0.0, -1.5707963267948966, 0.0, 0.0, 0.0, 0.0]","[0.0, -1.5707963267948966, 0.0, 0.0, 0.0, 0.0]",0.002,7,1
0,-1,"[0.0010084001114591956, -1.5698083212231104, 0.0009773413287561539, 0.0010817485996703624, 0.0011077612871304154, 0.001032350119203329]","[-0.04502709582448006, -0.051025960594415665, -0.047122880816459656, -0.04567220062017441, -0.046997737139463425, -0.048280712217092514]","[0.0, -1.5707963267948966, 0.0, 0.0, 0.0, 0.0]","[0.0, -1.5707963267948966, 0.0, 0.0, 0.0, 0.0]",0.002,7,1
0,-1,"[0.0005819601938128471, -1.5703287090330669, 0.0004804770099084976, 0.0005335050770263194, 0.0005397262866608799, 0.000606092216912657]","[-0.034939877688884735, -0.03654101490974426, -0.035247717052698135, -0.034616757184267044, -0.03412557765841484, -0.03504801169037819]","[0.0, -1.5707963267948966, 0.0, 0.0, 0.0, 0.0]","[0.0, -1.5707963267948966, 0.0, 0.0, 0.0, 0.0]",0.002,7,1
0,-1,"[0.00025463104248046875, -1.570627044119039, 0.000165287648336232, 0.000228567714355421, 0.000257423467701301, 0.0002867579460144043]","[-0.0211893729865551, -0.023064518347382545, -0.021712929010391235, -0.022448671981692314, -0.022543447092175484, -0.019685795530676842]","[0.0, -1.5707963267948966, 0.0, 0.0, 0.0, 0.0]","[0.0, -1.5707963267948966, 0.0, 0.0, 0.0, 0.0]",0.002,7,1
0,-1,"[9.531116666039452e-05, -1.5708185635008753, -2.27007876674179e-05, 1.8316456298350658e-06, 4.072467709193006e-05, 5.882978439331055e-05]","[-0.010026560164988041, -0.009955396875739098, -0.010189368389546871, -0.010443550534546375, -0.010570330545306206, -0.01030985452234745]","[0.0, -1.5707963267948966, 0.0, 0.0, 0.0, 0.0]","[0.0, -1.5707963267948966, 0.0, 0.0, 0.0, 0.0]",0.002,7,1
0,-1,"[-1.0315571920216371e-05, -1.5708281002440394, -4.6510456741089e-05, 4.5700664184522566e-05, 4.668235487770289e-05, 5.129480268806219e-05]","[-0.0011380452197045088, 0.0004515439795795828, -4.765217818203382e-05, -0.00035111868055537343, 0.002548912772908807, -0.00013207942538429052]","[0.0, -1.5707963267948966, 0.0, 0.0, 0.0, 0.0]","[0.0, -1.5707963267948966, 0.0, 0.0, 0.0, 0.0]",0.002,7,1
0,-1,"[0.0001268863707082346, -1.5708772144713343, -2.7179718017578125e-05, 9.767591442866319e-05, 6.179809861350805e-05, 8.726119995117188e-05]","[0.0036036556120961905, -0.017677228897809982, -0.006476641166955233, 0.0008779851486906409, 0.0023745265789330006, 0.0004705206083599478]","[0.0, -1.5707963267948966, 0.0, 0.0, 0.0, 0.0]","[0.0, -1.5707963267948966, 0.0, 0.0, 0.0, 0.0]",0.002,7,1
0,-1,"[0.00010623798152664676, -1.5708171329894007, -2.8431074952095514e-06, 0.00011698781933588975, 9.803772263694555e-05, 0.00010794735135277733]","[0.0006145713850855827, 0.010686684399843216, 0.0015080494340509176, -0.0001989208976738155, 0.00021805654978379607, 0.00010427036613691598]","[0.0, -1.5707963267948966, 0.0, 0.0, 0.0, 0.0]","[0.0, -1.5707963267948966, 0.0, 0.0, 0.0, 0.0]",0.002,7,1
0,-1,"[0.000114996793854516, -1.5707682211435277, 2.5097523824513246e-05, 5.571424450678819e-05, 6.905746704433113e-05, 4.2581559682730585e-05]","[0.0002127256157109514, 0.0018424021545797586, 0.0008296911837533116, 0.0009246126282960176, 1.9028737461602996e-14, 4.3562601442781457e-11]","[0.0, -1.5707963267948966, 0.0, 0.0, 0.0, 0.0]","[0.0, -1.5707963267948966, 0.0, 0.0, 0.0, 0.0]",0.002,7,1
0,-1,"[3.304894198663533e-05, -1.5707335094233095, 9.900728334599762e-05, 4.832326855463975e-05, 3.0279159545898438e-05, 4.2581559682730585e-05]","[-9.75147559074685e-05, 0.00019114380120299757, 0.0003471937670838088, -0.0004988317959941924, -0.0008658220176585019, -0.000543420494068414]","[0.0, -1.5707963267948966, 0.0, 0.0, 0.0, 0.0]","[0.0, -1.5707963267948966, 0.0, 0.0, 0.0, 0.0]",0.002,7,1
0,-1,"[0.00015209184493869543, -1.5707994900145472, 1.3176594869435121e-05, 5.285322155756944e-05, -2.209340230763246e-06, 5.121634603710845e-05]","[-3.1792300433153287e-05, 4.715085994124153e-17, 0.00021131399262230843, -0.000848263967782259, -0.0009439049172215164, -0.000840664841234684]","[0.0, -1.5707963267948966, 0.0, 0.0, 0.0, 0.0]","[0.0, -1.5707963267948966, 0.0, 0.0, 0.0, 0.0]",0.002,7,1
0,-1,"[0.00013999087968841195, -1.5708023510374964, 4.6078358785450746e-05, 1.0891551635694441e-05, 5.1164628530386835e-05, 6.752014451194555e-05]","[-5.3821480832993984e-05, 2.0495153281746093e-26, 0.00014727770758327097, -0.0007205361616797745, -0.0007969899452291429, -0.0009505375637672842]","[0.0, -1.5707963267948966, 0.0, 0.0, 0.0, 0.0]","[0.0, -1.5707963267948966, 0.0, 0.0, 0.0, 0.0]",0.002,7,1
0,-1,"[0.00011060873657697812, -1.5707335454247477, 3.701845277959137e-05, -9.135609008836809e-06, -1.5083943502247621e-05, 2.2753714802092873e-05]","[-4.563443872029893e-05, 1.1952118533579863e-37, 0.00012310358579270542, -0.0008922209963202477, -0.0008011672762222588, -0.001088507822714746]","[0.0, -1.5707963267948966, 0.0, 0.0, 0.0, 0.0]","[0.0, -1.5707963267948966, 0.0, 0.0, 0.0, 0.0]",0.002,7,1
0,-1,"[5.05360440001823e-05, -1.5707380455536004, 1.1746083394825746e-05, -9.135609008836809e-06, -1.3176594869435121e-05, 1.0919571650447324e-05]","[-7.431273843394592e-05, 0.000596159603446722, 0.00011853913019876927, -0.0005842883256264031, -0.001050103222951293, -0.0006399851990863681]","[0.0, -1.5707963267948966, 0.0, 0.0, 0.0, 0.0]","[0.0, -1.5707963267948966, 0.0, 0.0, 0.0, 0.0]",0.002,7,1
0,-1,"[4.9290280003333464e-05, -1.5707003748942334, 4.5124684469044496e-05, 1.9951457641553816e-05, -3.987947572881012e-05, 2.719703843467869e-05]","[-9.63843340286985e-05, 0.0001943583192769438, 9.22219333006069e-05, -0.00022929019178263843, -0.0003840866847895086, -0.00027342260000295937]","[0.0, -1.5707963267948966, 0.0, 0.0, 0.0, 0.0]","[0.0, -1.5707963267948966, 0.0, 0.0, 0.0, 0.0]",0.002,7,1
0,-1,"[8.215455454774201e-05, -1.5708157024779261, 2.843538393193512e-05, 6.215154614253038e-05, -4.369417299443512e-05, 7.312965317396447e-05]","[-8.439886005362496e-05, -0.0006620839121751487, 6.761388794984668e-05, -0.0001624460273887962, -0.00019695129594765604, -0.000194599837413989]","[0.0, -1.5707963267948966, 0.0, 0.0, 0.0, 0.0]","[0.0, -1.5707963267948966, 0.0, 0.0, 0.0, 0.0]",0.002,7,1
0,-1,"[7.031195127638057e-05, -1.5707770325010024, 2.5097523824513246e-05, -9.016399719286028e-06, 4.668235487770289e-05, 1.5276402336894535e-05]","[-8.752192661631852e-05, -0.00042575705447234213, 4.828702731174417e-05, -0.00015119275485631078, -0.00017097067029681057, -0.00017622255836613476]","[0.0, -1.5707963267948966, 0.0, 0.0, 0.0, 0.0]","[0.0, -1.5707963267948966, 0.0, 0.0, 0.0, 0.0]",0.002,7,1
0,-1,"[2.9894021281506866e-05, -1.5707500646170338, 6.6105519429982e-05, 7.315272949171003e-06, 2.7502059310791083e-05, -3.415742983037262e-05]","[-0.00016022921772673726, -5.796422192361206e-05, 4.4756638089893386e-05, -0.00015104433987289667, -0.0001583712437422946, -0.00017245319031644613]","[0.0, -1.5707963267948966, 0.0, 0.0, 0.0, 0.0]","[0.0, -1.5707963267948966, 0.0, 0.0, 0.0, 0.0]",0.002,7,1
0,-1,"[9.528708324069157e-05, -1.570738036516861, 5.8476124898731996e-05, 1.661359753413194e-05, -6.705919374638825e-05, -3.415742983037262e-05]","[-0.0005100435810163617, -1.5521337687340875e-11, 1.0949296665785369e-05, -0.0001378466549795121, -0.0001540779776405543, -0.00015737446665298194]","[0.0, -1.5707963267948966, 0.0, 0.0, 0.0, 0.0]","[0.0, -1.5707963267948966, 0.0, 0.0, 0.0, 0.0]",0.002,7,1
0,-1,"[5.8030796935781837e-05, -1.5706735680181119, 3.2726918355763246e-05, -4.367237426805559e-06, -1.7468129293263246e-05, -7.788287561538709e-07]","[-0.0004417919262778014, 0.0005325685488060117, 2.0180084902676754e-05, -0.00011953760986216366, -0.00013155522174201906, -0.00013649079483002424]","[0.0, -1.5707963267948966, 0.0, 0.0, 0.0, 0.0]","[0.0, -1.5707963267948966, 0.0, 0.0, 0.0, 0.0]",0.002,7,1
0,-1,"[8.65810870891437e-05, -1.570741031293739, 4.5124684469044496e-05, -2.0937328674364153e-05, -6.024037496388246e-06, -7.788287561538709e-07]","[-0.00046661050873808563, 0.00021959400328341872, 1.340580185901415e-17, -0.00011860888480441645, -0.0001288088969886303, -8.495296788169071e-05]","[0.0, -1.5707963267948966, 0.0, 0.0, 0.0, 0.0]","[0.0, -1.5707963267948966, 0.0, 0.0, 0.0, 0.0]",0.002,7,1
0,-1,"[9.962423064280301e-05, -1.5707576164716848, 8.660951723271637e-05, -9.016399719286028e-06, -1.3176594869435121e-05, -4.593526021778871e-06]","[-0.0003383247822057456, -0.00041611248161643744, 8.267660939516421e-44, -9.425688040209934e-05, -0.0001030207859002985, -6.71929883537814e-05]","[0.0, -1.5707963267948966, 0.0, 0.0, 0.0, 0.0]","[0.0, -1.5707963267948966, 0.0, 0.0, 0.0, 0.0]",0.002,7,1
0,-1,"[1.3680410120286979e-06, -1.570738036516861, 2.843538393193512e-05, 5.285322155756944e-05, 6.42829490971053e-06, -2.080598940068512e-05]","[-0.0008772899163886905, -0.0001913255255203694, -0.0, -8.35193568491377e-05, -9.247232810594141e-05, -6.002292866469361e-05]","[0.0, -1.5707963267948966, 0.0, 0.0, 0.0, 0.0]","[0.0, -1.5707963267948966, 0.0, 0.0, 0.0, 0.0]",0.002,7,1
0,-1,"[1.4543533325195312e-05, -1.5708009205260218, 3.606477846318512e-05, -3.27390483398915e-05, -5.036989320927887e-05, -1.3176594869435121e-05]","[-0.0009114245185628533, 6.380198465194553e-05, -0.0, -7.810985698597506e-05, -6.16703910054639e-05, -1.525146399217192e-05]","[0.0, -1.5707963267948966, 0.0, 0.0, 0.0, 0.0]","[0.0, -1.5707963267948966, 0.0, 0.0, 0.0, 0.0]",0.002,7,1
0,-1,"[2.2191930838744156e-05, -1.5707711830185254, 4.7985707418263246e-05, -4.367237426805559e-06, 1.955032530531753e-06, -5.036989320927887e-05]","[-0.0003027890925295651, 3.0542208302383744e-13, -0.0, -8.121316932374611e-05, -5.5577143939444795e-05, -5.037760217530473e-15]","[0.0, -1.5707963267948966, 0.0, 0.0, 0.0, 0.0]","[0.0, -1.5707963267948966, 0.0, 0.0, 0.0, 0.0]",0.002,7,1
0,-1,"[1.887082908069715e-05, -1.5707740646888233, 3.701845277959137e-05, 2.4481410644483503e-05, 2.2831552996649407e-05, 5.244350541033782e-05]","[-0.0002017126971622929, -0.00046292212209664285, -0.0, -9.886221232591197e-05, -5.1742870709858835e-05, -3.9032996624694157e-22]","[0.0, -1.5707963267948966, 0.0, 0.0, 0.0, 0.0]","[0.0, -1.5707963267948966, 0.0, 0.0, 0.0, 0.0]",0.002,7,1
0,-1,"[5.0527258281363174e-05, -1.5707049292507982, 2.843538393193512e-05, -3.011644396977431e-05, -8.408223287403871e-06, 7.772732715238817e-06]","[-0.00013408949598670006, -0.0001588297018315643, -0.0, -8.560054993722588e-05, -1.5082688570311475e-11, -8.41828516099855e-33]","[0.0, -1.5707963267948966, 0.0, 0.0, 0.0, 0.0]","[0.0, -1.5707963267948966, 0.0, 0.0, 0.0, 0.0]",0.002,7,1
0,-1,"[5.491314368555322e-05, -1.5707756619270477, 4.178682436162262e-05, -1.6288166381883684e-05, -4.369417299443512e-05, 1.52587890625e-05]","[-8.813163003651425e-05, 0.0001738079881761223, -0.0, -6.759807001799345e-05, -3.8601059985726087e-28, -0.0]","[0.0, -1.5707963267948966, 0.0, 0.0, 0.0, 0.0]","[0.0, -1.5707963267948966, 0.0, 0.0, 0.0, 0.0]",0.002,7,1
0,-1,"[1.134443300543353e-05, -1.5707591519752278, 5.8476124898731996e-05, -6.289899859623915e-05, 6.455997208831832e-06, 4.47105776402168e-05]","[-7.369801460299641e-05, 0.00010660912084858865, -0.0, -6.034585749148391e-05, -1.275044499493834e-37, -0.0]","[0.0, -1.5707963267948966, 0.0, 0.0, 0.0, 0.0]","[0.0, -1.5707963267948966, 0.0, 0.0, 0.0, 0.0]",0.002,7,1
0,-1,"[-6.024037496388246e-06, -1.570766643886902, 2.5097523824513246e-05, -4.465997729496962e-05, -6.024037496388246e-06, -7.788287561538709e-07]","[-6.685483094770461e-05, 3.3467695175204426e-05, -0.0, -5.6553872127551585e-05, -1.5134023414708024e-43, -0.0]","[0.0, -1.5707963267948966, 0.0, 0.0, 0.0, 0.0]","[0.0, -1.5707963267948966, 0.0, 0.0, 0.0, 0.0]",0.002,7,1
0,-1,"[1.4552256288880017e-05, -1.570778564815857, 7.468858827763825e-05, 3.366052593989366e-05, -2.209340230763246e-06, -5.070363179981996e-06]","[-6.223209493327886e-05, 6.609515157407486e-10, -0.0, -5.384700489230454e-05, -0.0, -0.0]","[0.0, -1.5707963267948966, 0.0, 0.0, 0.0, 0.0]","[0.0, -1.5707963267948966, 0.0, 0.0, 0.0, 0.0]",0.002,7,1
0,-1,"[1.889149825728964e-05, -1.5707830470849622, 8.660951723271637e-05, 4.73695942382335e-05, -9.566942323857575e-05, 1.2189864719402976e-05]","[-5.820736623718403e-05, 2.1414050043411555e-17, -0.0, -5.138753112987615e-05, -0.0, -0.0]","[0.0, -1.5707963267948966, 0.0, 0.0, 0.0, 0.0]","[0.0, -1.5707963267948966, 0.0, 0.0, 0.0, 0.0]",0.002,7,1
0,-1,"[-5.9429799215138246e-05, -1.570787556195075, 2.080598940068512e-05, 1.6271557612412835e-07, -1.5083943502247621e-05, -1.3176594869435121e-05]","[-5.385374970501289e-05, 9.308086443585576e-27, -0.0, -2.1181632803290995e-07, -0.0, -0.0]","[0.0, -1.5707963267948966, 0.0, 0.0, 0.0, 0.0]","[0.0, -1.5707963267948966, 0.0, 0.0, 0.0, 0.0]",0.002,7,1
0,-1,"[3.968810779042542e-05, -1.5707621616168872, 8.885060445606996e-06, -2.081811938481337e-05, -1.0792409078419496e-05, 3.337860107421875e-06]","[-4.809772872249596e-05, 9.769852893272625e-42, -0.0, -6.996574862381776e-17, -0.0, -0.0]","[0.0, -1.5707963267948966, 0.0, 0.0, 0.0, 0.0]","[0.0, -1.5707963267948966, 0.0, 0.0, 0.0, 0.0]",0.002,7,1
0,-1,"[4.617056401912123e-05, -1.5707711800135549, 4.593526021778871e-06, -5.8369045593309465e-05, 4.838752647629008e-05, -1.7468129293263246e-05]","[-4.398434248287231e-05, 0.0, -0.0, -3.5395308744319413e-25, -0.0, -0.0]","[0.0, -1.5707963267948966, 0.0, 0.0, 0.0, 0.0]","[0.0, -1.5707963267948966, 0.0, 0.0, 0.0, 0.0]",0.002,7,1
0,-1,"[-3.415742983037262e-05, -1.570766643886902, 4.941621889287262e-05, -2.081811938481337e-05, 5.1191575039410964e-05, 6.132180715212598e-05]","[-1.3522296285373159e-05, 0.0, -0.0, -7.633743827144254e-36, -0.0, -0.0]","[0.0, -1.5707963267948966, 0.0, 0.0, 0.0, 0.0]","[0.0, -1.5707963267948966, 0.0, 0.0, 0.0, 0.0]",0.002,7,1
0,-1,"[4.283189628040418e-05, -1.5707365579185826, 5.8476124898731996e-05, 4.2720431945753035e-05, 2.284948277520016e-05, -8.885060445606996e-06]","[-7.88577416854158e-17, 0.0, -0.0, -5.913479519450728e-43, -0.0, -0.0]","[0.0, -1.5707963267948966, 0.0, 0.0, 0.0, 0.0]","[0.0, -1.5707963267948966, 0.0, 0.0, 0.0, 0.0]",0.002,7,1
0,-1,"[1.577043440192938e-05, -1.5707830470849622, 8.374849428349762e-05, -7.228260376024309e-06, -1.985231508427887e-05, -4.6078358785450746e-05]","[-4.598732632312925e-28, 0.0, -0.0, -0.0, -0.0, -0.0]","[0.0, -1.5707963267948966, 0.0, 0.0, 0.0, 0.0]","[0.0, -1.5707963267948966, 0.0, 0.0, 0.0, 0.0]",0.002,7,1
0,1,"[2.6548785172053613e-05, -1.570766643886902, 2.080598940068512e-05, 1.6271557612412835e-07, -2.175966371709137e-05, -2.080598940068512e-05]","[0.0, 1.765453453117516e-05, -0.0, -0.0, -0.0, -0.0]","[0.05879002119914294, -1.5120063055957536, 0.05879002119914294, 0.05879002119914294, 0.05879002119914294, 0.05879002119914294]","[0.05879002119914294, -1.5120063055957536, 0.05879002119914294, 0.05879002119914294, 0.05879002119914294, 0.05879002119914294]",0.002,7,1
0,2,"[1.4128336260910146e-06, -1.570533880356681, 0.00018865266908818512, 0.00012330591168208116, 0.00010076213220600039, 0.00012420749408192933]","[0.04253968596458435, 0.20622070133686066, 0.1444878876209259, 0.07510402053594589, 0.061188485473394394, 0.06308409571647644]","[0.05936660287344685, -1.5114297239214498, 0.05936660287344685, 0.05936660287344685, 0.05936660287344685, 0.05936660287344685]","[0.05936660287344685, -1.5114297239214498, 0.05936660287344685, 0.05936660287344685, 0.05936660287344685, 0.05936660287344685]",0.002,7,1
0,3,"[0.00012812166824005544, -1.5702579650427033, 0.0003731886493127945, 0.0002891260334472179, 0.0003145298105664551, 0.0003466390771791339]","[0.057087454944849014, 0.25899288058280945, 0.17483609914779663, 0.11742975562810898, 0.10008367896080017, 0.10385636240243912]","[0.05994301779578886, -1.5108533089991076, 0.05994301779578886, 0.05994301779578886, 0.05994301779578886, 0.05994301779578886]","[0.05994301779578886, -1.5108533089991076, 0.05994301779578886, 0.05994301779578886, 0.05994301779578886, 0.05994301779578886]",0.002,7,1
0,4,"[0.00031337467953562737, -1.5697478906116267, 0.0007332007037561539, 0.00043122350659174913, 0.0005068972241133451, 0.0005953538347966969]","[0.07328076660633087, 0.27027544379234314, 0.17281174659729004, 0.1294689178466797, 0.12004562467336655, 0.12248435616493225]","[0.06051926434710513, -1.5102770624477915, 0.06051926434710513, 0.06051926434710513, 0.06051926434710513, 0.06051926434710513]","[0.06051926434710513, -1.5102770624477915, 0.06051926434710513, 0.06051926434710513, 0.06051926434710513, 0.06051926434710513]",0.002,7,1
0,5,"[0.0005470170872285962, -1.56920569789175, 0.0011232534991663101, 0.0006832319447021007, 0.0007593824993818998, 0.0008426408749073744]","[0.10260222852230072, 0.2585074305534363, 0.18394945561885834, 0.13161855936050415, 0.1321456879377365, 0.1352401226758957]","[0.06109534090880478, -1.5097009858860917, 0.06109534090880478, 0.06109534090880478, 0.06109534090880478, 0.06109534090880478]","[0.06109534090880478, -1.5097009858860917, 0.06109534090880478, 0.06109534090880478, 0.06109534090880478, 0.06109534090880478]",0.002,7,1
0,6,"[0.0009081023745238781, -1.5687079290258517, 0.0015967527972620132, 0.000956102008483839, 0.0010161598911508918, 0.00115564139559865]","[0.12763893604278564, 0.26545053720474243, 0.20403771102428436, 0.14330501854419708, 0.14992554485797882, 0.14939530193805695]","[0.061671245862774365, -1.5091250809321222, 0.061671245862774365, 0.061671245862774365, 0.061671245862774365, 0.061671245862774365]","[0.061671245862774365, -1.5091250809321222, 0.061671245862774365, 0.061671245862774365, 0.061671245862774365, 0.061671245862774365]",0.002,7,1
0,7,"[0.0013141605304554105, -1.5682345228600134, 0.0021041075335901382, 0.0014020639606933116, 0.0013186015421524644, 0.001480748294852674]","[0.1601480394601822, 0.276859313249588, 0.2245509773492813, 0.16687124967575073, 0.1687949001789093, 0.1685633659362793]","[0.06224697759138249, -1.508549349203514, 0.06224697759138249, 0.06224697759138249, 0.06224697759138249, 0.06224697759138249]","[0.06224697759138249, -1.508549349203514, 0.06224697759138249, 0.06224697759138249, 0.06224697759138249, 0.06224697759138249]",0.002,7,1
0,8,"[0.0018180289771407843, -1.5678712183474381, 0.002599541340963185, 0.0020523506351928233, 0.001564432168379426, 0.0018082979368045926]","[0.20225273072719574, 0.2544015049934387, 0.22364729642868042, 0.1946224421262741, 0.18751269578933716, 0.19047270715236664]","[0.06282253447748433, -1.5079737923174121, 0.06282253447748433, 0.06282253447748433, 0.06282253447748433, 0.06282253447748433]","[0.06282253447748433, -1.5079737923174121, 0.06282253447748433, 0.06282253447748433, 0.06282253447748433, 0.06282253447748433]",0.002,7,1
0,9,"[0.0021965985652059317, -1.5675307712848117, 0.002984348927633107, 0.002562089557311964, 0.00197796942666173, 0.002228814410045743]","[0.23210397362709045, 0.20723074674606323, 0.20086024701595306, 0.22532126307487488, 0.20175909996032715, 0.2102089524269104]","[0.06339791490442616, -1.5073984118904704, 0.06339791490442616, 0.06339791490442616, 0.06339791490442616, 0.06339791490442616]","[0.06339791490442616, -1.5073984118904704, 0.06339791490442616, 0.06339791490442616, 0.06339791490442616, 0.06339791490442616]",0.002,7,1
0,10,"[0.0026787829119712114, -1.5671992719038208, 0.00315267244447881, 0.0028156477161864757, 0.0024228666443377733, 0.002693220041692257]","[0.24502387642860413, 0.17949020862579346, 0.20321613550186157, 0.24672996997833252, 0.2212887704372406, 0.2284155786037445]","[0.06397311725604987, -1.5068232095388467, 0.06397311725604987, 0.06397311725604987, 0.06397311725604987, 0.06397311725604987]","[0.06397311725604987, -1.5068232095388467, 0.06397311725604987, 0.06397311725604987, 0.06397311725604987, 0.06397311725604987]",0.002,7,1
0,11,"[0.0030889278277754784, -1.5669086333694686, 0.0034621397601526382, 0.0032153564640502452, 0.0030578356236219406, 0.0031703785061836243]","[0.2557840943336487, 0.16758579015731812, 0.22977972030639648, 0.24843265116214752, 0.2461836040019989, 0.24560421705245972]","[0.0645481399166976, -1.506248186878199, 0.0645481399166976, 0.0645481399166976, 0.0645481399166976, 0.0645481399166976]","[0.0645481399166976, -1.506248186878199, 0.0645481399166976, 0.0645481399166976, 0.0645481399166976, 0.0645481399166976]",0.002,7,1
0,12,"[0.0035789322573691607, -1.5665875750458618, 0.003918472920553029, 0.0035262542911986827, 0.0036952183581888676, 0.0037095423322170973]","[0.2709795832633972, 0.22060313820838928, 0.23901136219501495, 0.2470744103193283, 0.2727859616279602, 0.2635935842990875]","[0.06512298127121614, -1.5056733455236804, 0.06512298127121614, 0.06512298127121614, 0.06512298127121614, 0.06512298127121614]","[0.06512298127121614, -1.5056733455236804, 0.06512298127121614, 0.06512298127121614, 0.06512298127121614, 0.06512298127121614]",0.002,7,1
0,13,"[0.0042407698929309845, -1.5661406650072713, 0.004455391560689748, 0.004038258189819288, 0.004262736067175865, 0.004294173326343298]","[0.2865966856479645, 0.25404056906700134, 0.25298863649368286, 0.2554188072681427, 0.29806530475616455, 0.28129178285598755]","[0.06569763970496163, -1.505098687089935, 0.06569763970496163, 0.06569763970496163, 0.06569763970496163, 0.06569763970496163]","[0.06569763970496163, -1.505098687089935, 0.06569763970496163, 0.06569763970496163, 0.06569763970496163, 0.06569763970496163]",0.002,7,1
0,14,"[0.004828724078834057, -1.5656319035081943, 0.0051301161395471695, 0.004715843791625929, 0.004882371053099632, 0.00489101791754365]","[0.306082159280777, 0.2620043158531189, 0.27678555250167847, 0.2779223620891571, 0.31336459517478943, 0.2981030344963074]","[0.06627211360380393, -1.5045242131910925, 0.06627211360380393, 0.06627211360380393, 0.06627211360380393, 0.06627211360380393]","[0.06627211360380393, -1.5045242131910925, 0.06627211360380393, 0.06627211360380393, 0.06627211360380393, 0.06627211360380393]",0.002,7,1
0,15,"[0.005541505292057991, -1.5650876707262178, 0.00585347810854131, 0.0055890518375854015, 0.005506984889507294, 0.00554267643019557]","[0.3256063461303711, 0.2750338017940521, 0.3053649663925171, 0.3177156448364258, 0.3285147547721863, 0.32119637727737427]","[0.06684640135413125, -1.5039499254407653, 0.06684640135413125, 0.06684640135413125, 0.06684640135413125, 0.06684640135413125]","[0.06684640135413125, -1.5039499254407653, 0.06684640135413125, 0.06684640135413125, 0.06684640135413125, 0.06684640135413125]",0.002,7,1
0,16,"[0.006354197859764099, -1.5644377719475706, 0.006518189107076466, 0.00639144956555171, 0.006113397888839245, 0.006230119615793228]","[0.34859561920166016, 0.29515278339385986, 0.3291613459587097, 0.3517226278781891, 0.3384389579296112, 0.3400845229625702]","[0.06742050134285471, -1.503375825452042, 0.06742050134285471, 0.06742050134285471, 0.06742050134285471, 0.06742050134285471]","[0.06742050134285471, -1.503375825452042, 0.06742050134285471, 0.06742050134285471, 0.06742050134285471, 0.06742050134285471]",0.002,7,1
0,17,"[0.00717535987496376, -1.5638307098164042, 0.007129494343892873, 0.007079287166259718, 0.006888861767947674, 0.006933517288416624]","[0.36996880173683167, 0.31470033526420593, 0.34407439827919006, 0.3742885887622833, 0.353569895029068, 0.3586972951889038]","[0.06799441195741276, -1.5028019148374838, 0.06799441195741276, 0.06799441195741276, 0.06799441195741276, 0.06799441195741276]","[0.06799441195741276, -1.5028019148374838, 0.06799441195741276, 0.06799441195741276, 0.06799441195741276, 0.06799441195741276]",0.002,7,1
0,18,"[0.007849962450563908, -1.563181435023882, 0.007809464131490529, 0.007701082820556593, 0.007651427760720253, 0.007644922938197851]","[0.38604044914245605, 0.33320605754852295, 0.35893842577934265, 0.38415953516960144, 0.3717413544654846, 0.37733542919158936]","[0.06856813158577582, -1.5022281952091208, 0.06856813158577582, 0.06856813158577582, 0.06856813158577582, 0.06856813158577582]","[0.06856813158577582, -1.5022281952091208, 0.06856813158577582, 0.06856813158577582, 0.06856813158577582, 0.06856813158577582]",0.002,7,1
0,19,"[0.008525620214641094, -1.5624692228487511, 0.008563820515767873, 0.008364959354064894, 0.008513707667589188, 0.008436002768576145]","[0.39856764674186707, 0.3493913412094116, 0.37190455198287964, 0.38386961817741394, 0.39506998658180237, 0.3919677436351776]","[0.06914165861645073, -1.5016546681784457, 0.06914165861645073, 0.06914165861645073, 0.06914165861645073, 0.06914165861645073]","[0.06914165861645073, -1.5016546681784457, 0.06914165861645073, 0.06914165861645073, 0.06914165861645073, 0.06914165861645073]",0.002,7,1
0,20,"[0.009319905191659927, -1.561718669054546, 0.00937205949892217, 0.009161515826843214, 0.009321765974164009, 0.009247842244803905]","[0.40655118227005005, 0.3649856746196747, 0.3845234513282776, 0.3874456286430359, 0.4179520308971405, 0.4064292013645172]","[0.06971499143848532, -1.5010813353564112, 0.06971499143848532, 0.06971499143848532, 0.06971499143848532, 0.06971499143848532]","[0.06971499143848532, -1.5010813353564112, 0.06971499143848532, 0.06971499143848532, 0.06971499143848532, 0.06971499143848532]",0.002,7,1
0,21,"[0.01015810389071703, -1.560928795752563, 0.010107819234029591, 0.010072751636169386, 0.010150497779250145, 0.010086283087730408]","[0.41900187730789185, 0.37915194034576416, 0.39829906821250916, 0.40227624773979187, 0.4312194287776947, 0.4231247007846832]","[0.07028812844147295, -1.5005081983534236, 0.07028812844147295, 0.07028812844147295, 0.07028812844147295, 0.07028812844147295]","[0.07028812844147295, -1.5005081983534236, 0.07028812844147295, 0.07028812844147295, 0.07028812844147295, 0.07028812844147295]",0.002,7,1
0,22,"[0.011074363254010677, -1.5601575442454596, 0.010977093373433888, 0.01105455934490962, 0.010945362970232964, 0.010921483859419823]","[0.43699193000793457, 0.39716094732284546, 0.41386616230010986, 0.4308933913707733, 0.4426257014274597, 0.4383161962032318]","[0.07086106801555694, -1.4999352587793395, 0.07086106801555694, 0.07086106801555694, 0.07086106801555694, 0.07086106801555694]","[0.07086106801555694, -1.4999352587793395, 0.07086106801555694, 0.07086106801555694, 0.07086106801555694, 0.07086106801555694]",0.002,7,1
0,23,"[0.012119965627789497, -1.5592893374017258, 0.011952702199117482, 0.012084289188049269, 0.011918953619897366, 0.011866666376590729]","[0.4553022086620331, 0.4154064357280731, 0.43471840023994446, 0.4594677984714508, 0.45035597681999207, 0.4556810259819031]","[0.07143380855143525, -1.4993625182434613, 0.07143380855143525, 0.07143380855143525, 0.07143380855143525, 0.07143380855143525]","[0.07143380855143525, -1.4993625182434613, 0.07143380855143525, 0.07143380855143525, 0.07143380855143525, 0.07143380855143525]",0.002,7,1
0,24,"[0.01301426813006401, -1.558421417405345, 0.012798611317769826, 0.013046546573303175, 0.012751284055411816, 0.012762716971337795]","[0.47471553087234497, 0.4345521926879883, 0.450108140707016, 0.48090478777885437, 0.46494168043136597, 0.47120219469070435]","[0.07200634844036483, -1.4987899783545318, 0.07200634844036483, 0.07200634844036483, 0.07200634844036483, 0.07200634844036483]","[0.07200634844036483, -1.4987899783545318, 0.07200634844036483, 0.07200634844036483, 0.07200634844036483, 0.07200634844036483]",0.002,7,1
0,25,"[0.013917513191699982, -1.5573680533892293, 0.013750378285543263, 0.013965173358581495, 0.013705478049814701, 0.013677970506250858]","[0.4865230619907379, 0.4529684782028198, 0.4624459147453308, 0.48853665590286255, 0.4783404767513275, 0.48464229702949524]","[0.07257868607416625, -1.4982176407207304, 0.07257868607416625, 0.07257868607416625, 0.07257868607416625, 0.07257868607416625]","[0.07257868607416625, -1.4982176407207304, 0.07257868607416625, 0.07257868607416625, 0.07257868607416625, 0.07257868607416625]",0.002,7,1
0,26,"[0.014894556254148483, -1.5564459686032315, 0.014690701161519826, 0.0149577099033813, 0.014755730517208576, 0.01469932496547699]","[0.495279997587204, 0.47113317251205444, 0.48102596402168274, 0.4951474070549011, 0.4955495595932007, 0.49853619933128357]","[0.07315081984522818, -1.4976455069496684, 0.07315081984522818, 0.07315081984522818, 0.07315081984522818, 0.07315081984522818]","[0.07315081984522818, -1.4976455069496684, 0.07315081984522818, 0.07315081984522818, 0.07315081984522818, 0.07315081984522818]",0.002,7,1
0,27,"[0.015870926901698112, -1.5554539908519764, 0.01569253603090459, 0.015950484866760206, 0.015815189108252525, 0.015690594911575317]","[0.504522442817688, 0.4887901544570923, 0.4930758476257324, 0.5006338357925415, 0.5091649293899536, 0.5093921422958374]","[0.07372274814651193, -1.4970735786483846, 0.07372274814651193, 0.07372274814651193, 0.07372274814651193, 0.07372274814651193]","[0.07372274814651193, -1.4970735786483846, 0.07372274814651193, 0.07372274814651193, 0.07372274814651193, 0.07372274814651193]",0.002,7,1
0,28,"[0.016948292031884193, -1.5544051558575411, 0.01669198671449834, 0.016885562533996534, 0.016802743077278137, 0.01678321324288845]","[0.5172494053840637, 0.5008634924888611, 0.5055811405181885, 0.5081380009651184, 0.523698091506958, 0.5222275853157043]","[0.0742944693715559, -1.4965018574233406, 0.0742944693715559, 0.0742944693715559, 0.0742944693715559, 0.0742944693715559]","[0.0742944693715559, -1.4965018574233406, 0.0742944693715559, 0.0742944693715559, 0.0742944693715559, 0.0742944693715559]",0.002,7,1
0,29,"[0.0180119127035141, -1.5533684094301243, 0.017705265675679982, 0.017913861865661573, 0.01791185513138771, 0.01781175285577774]","[0.5313567519187927, 0.5156896114349365, 0.5153905153274536, 0.5177313685417175, 0.5357236862182617, 0.535018801689148]","[0.07486598191448017, -1.4959303448804164, 0.07486598191448017, 0.07486598191448017, 0.07486598191448017, 0.07486598191448017]","[0.07486598191448017, -1.4959303448804164, 0.07486598191448017, 0.07486598191448017, 0.07486598191448017, 0.07486598191448017]",0.002,7,1
0,30,"[0.01914070174098015, -1.5522644867054005, 0.01877004304994756, 0.019027753467224073, 0.018887687474489212, 0.018939200788736343]","[0.5424600839614868, 0.5332484245300293, 0.5279633402824402, 0.5336312055587769, 0.545540988445282, 0.5451656579971313]","[0.07543728416999097, -1.4953590426249055, 0.07543728416999097, 0.07543728416999097, 0.07543728416999097, 0.07543728416999097]","[0.07543728416999097, -1.4953590426249055, 0.07543728416999097, 0.07543728416999097, 0.07543728416999097, 0.07543728416999097]",0.002,7,1
0,31,"[0.020153574645519257, -1.5510618195733805, 0.019915405903951466, 0.020164771670959425, 0.020020652562379837, 0.020018059760332108]","[0.5546339154243469, 0.5454283356666565, 0.5462689995765686, 0.551037609577179, 0.5541291832923889, 0.5581509470939636]","[0.07600837453338521, -1.4947879522615113, 0.07600837453338521, 0.07600837453338521, 0.07600837453338521, 0.07600837453338521]","[0.07600837453338521, -1.4947879522615113, 0.07600837453338521, 0.07600837453338521, 0.07600837453338521, 0.07600837453338521]",0.002,7,1
0,32,"[0.021262919530272484, -1.5498896979591628, 0.021004978810445607, 0.0212293106266479, 0.021137256175279617, 0.02122391015291214]","[0.5653519034385681, 0.5607863068580627, 0.5583531856536865, 0.5672869682312012, 0.5647007822990417, 0.5685285329818726]","[0.07657925140055495, -1.4942170753943416, 0.07657925140055495, 0.07657925140055495, 0.07657925140055495, 0.07657925140055495]","[0.07657925140055495, -1.4942170753943416, 0.07657925140055495, 0.07657925140055495, 0.07657925140055495, 0.07657925140055495]",0.002,7,1
0,33,"[0.02235192246735096, -1.5487768475762387, 0.02211314836610967, 0.022315068835876417, 0.022291531786322594, 0.022301943972706795]","[0.5715261697769165, 0.5723363161087036, 0.572147786617279, 0.5794239044189453, 0.5761618614196777, 0.577393114566803]","[0.07714991316799193, -1.4936464136269045, 0.07714991316799193, 0.07714991316799193, 0.07714991316799193, 0.07714991316799193]","[0.07714991316799193, -1.4936464136269045, 0.07714991316799193, 0.07714991316799193, 0.07714991316799193, 0.07714991316799193]",0.002,7,1
0,34,"[0.023571912199258804, -1.5475298923305054, 0.02324992815126592, 0.0234413582035522, 0.02344982698559761, 0.023527588695287704]","[0.583362340927124, 0.5796677470207214, 0.5829519033432007, 0.58500736951828, 0.5882570147514343, 0.58580082654953]","[0.0777203582327921, -1.4930759685621044, 0.0777203582327921, 0.0777203582327921, 0.0777203582327921, 0.0777203582327921]","[0.0777203582327921, -1.4930759685621044, 0.0777203582327921, 0.0777203582327921, 0.0777203582327921, 0.0777203582327921]",0.002,7,1
0,35,"[0.02480207569897175, -1.5463015691242, 0.024463955556051076, 0.024526162738464308, 0.024642962962388992, 0.024780286476016045]","[0.5921592712402344, 0.5901875495910645, 0.584068775177002, 0.5898169875144958, 0.5980319380760193, 0.5951038002967834]","[0.07829058499266005, -1.4925057418022365, 0.07829058499266005, 0.07829058499266005, 0.07829058499266005, 0.07829058499266005]","[0.07829058499266005, -1.4925057418022365, 0.07829058499266005, 0.07829058499266005, 0.07829058499266005, 0.07829058499266005]",0.002,7,1
0,36,"[0.0259508416056633, -1.5450416461429377, 0.02566081682314092, 0.025739117259643507, 0.02597036398947239, 0.025949690490961075]","[0.6019154191017151, 0.6001385450363159, 0.5908868908882141, 0.5983154773712158, 0.6075283288955688, 0.601834237575531]","[0.07886059184591358, -1.491935734948983, 0.07886059184591358, 0.07886059184591358, 0.07886059184591358, 0.07886059184591358]","[0.07886059184591358, -1.491935734948983, 0.07886059184591358, 0.07886059184591358, 0.07886059184591358, 0.07886059184591358]",0.002,7,1
0,37,"[0.027087444439530373, -1.5437681053629895, 0.02691203752626592, 0.02695707857098384, 0.027176670730113983, 0.027148956432938576]","[0.6112174987792969, 0.6093094944953918, 0.6051477789878845, 0.6107732653617859, 0.6152271032333374, 0.6085007786750793]","[0.07943037719148822, -1.4913659496034084, 0.07943037719148822, 0.07943037719148822, 0.07943037719148822, 0.07943037719148822]","[0.07943037719148822, -1.4913659496034084, 0.07943037719148822, 0.07943037719148822, 0.07943037719148822, 0.07943037719148822]",0.002,7,1
0,38,"[0.028273023664951324, -1.5424678076854725, 0.0281298796283167, 0.02822069704022212, 0.02843710035085678, 0.028440529480576515]","[0.6183382272720337, 0.6184070110321045, 0.6189314126968384, 0.6226359009742737, 0.6210331916809082, 0.6164265275001526]","[0.07999993942894161, -1.4907963873659549, 0.07999993942894161, 0.07999993942894161, 0.07999993942894161, 0.07999993942894161]","[0.07999993942894161, -1.4907963873659549, 0.07999993942894161, 0.07999993942894161, 0.07999993942894161, 0.07999993942894161]",0.002,7,1
0,39,"[0.029493236914277077, -1.5412544061294575, 0.029393974934713185, 0.029556437129638624, 0.02973823994398117, 0.029762065038084984]","[0.6249132752418518, 0.6248900294303894, 0.6255350112915039, 0.6358052492141724, 0.6271529197692871, 0.6267498731613159]","[0.08056927695845807, -1.4902270498364385, 0.08056927695845807, 0.08056927695845807, 0.08056927695845807, 0.08056927695845807]","[0.08056927695845807, -1.4902270498364385, 0.08056927695845807, 0.08056927695845807, 0.08056927695845807, 0.08056927695845807]",0.002,7,1
0,40,"[0.030751768499612808, -1.5398814671537657, 0.030644718800679982, 0.03079490243878169, 0.030973678454756737, 0.030983546748757362]","[0.6347418427467346, 0.6315705180168152, 0.6334396004676819, 0.6447651386260986, 0.635540246963501, 0.6325645446777344]","[0.08113838818085317, -1.4896579386140434, 0.08113838818085317, 0.08113838818085317, 0.08113838818085317, 0.08113838818085317]","[0.08113838818085317, -1.4896579386140434, 0.08113838818085317, 0.08113838818085317, 0.08113838818085317, 0.08113838818085317]",0.002,7,1
0,41,"[0.032038066536188126, -1.5386335302940388, 0.03199369112123662, 0.03209690629925532, 0.03225775808095932, 0.03225162625312805]","[0.6382534503936768, 0.637419581413269, 0.6384941339492798, 0.6518036723136902, 0.6402876377105713, 0.6406105160713196]","[0.08170727149757809, -1.4890890552973184, 0.08170727149757809, 0.08170727149757809, 0.08170727149757809, 0.08170727149757809]","[0.08170727149757809, -1.4890890552973184, 0.08170727149757809, 0.08170727149757809, 0.08170727149757809, 0.08170727149757809]",0.002,7,1
0,42,"[0.03330005705356598, -1.5372972723892708, 0.0332563559161585, 0.0333908039280395, 0.03362702950835228, 0.03352563828229904]","[0.6472247242927551, 0.6441079378128052, 0.6421821713447571, 0.6560917496681213, 0.6478922367095947, 0.6465951204299927]","[0.08227592531072411, -1.4885204014841724, 0.08227592531072411, 0.08227592531072411, 0.08227592531072411, 0.08227592531072411]","[0.08227592531072411, -1.4885204014841724, 0.08227592531072411, 0.08227592531072411, 0.08227592531072411, 0.08227592531072411]",0.002,7,1
0,43,"[0.03466213867068291, -1.53596996635709, 0.03460151353944951, 0.034809990520141554, 0.03491287678480148, 0.03485850989818573]","[0.6535999774932861, 0.6471978425979614, 0.6502267122268677, 0.6565313935279846, 0.6540563106536865, 0.6510102152824402]","[0.08284434802302726, -1.4879519787718694, 0.08284434802302726, 0.08284434802302726, 0.08284434802302726, 0.08284434802302726]","[0.08284434802302726, -1.4879519787718694, 0.08284434802302726, 0.08284434802302726, 0.08284434802302726, 0.08284434802302726]",0.002,7,1
0,44,"[0.035899024456739426, -1.5346822452596207, 0.03592425981630498, 0.03610329210247798, 0.036234050989151, 0.03616144135594368]","[0.6587553024291992, 0.6541059613227844, 0.6530047655105591, 0.659820020198822, 0.6589651107788086, 0.6557138562202454]","[0.08341253803787262, -1.487383788757024, 0.08341253803787262, 0.08341253803787262, 0.08341253803787262, 0.08341253803787262]","[0.08341253803787262, -1.487383788757024, 0.08341253803787262, 0.08341253803787262, 0.08341253803787262, 0.08341253803787262]",0.002,7,1
0,45,"[0.037280455231666565, -1.5333387789181252, 0.03730994859804326, 0.037508054370544386, 0.03755039721727371, 0.037435851991176605]","[0.6634346842765808, 0.660172700881958, 0.6617401242256165, 0.6670255661010742, 0.6621559262275696, 0.6623661518096924]","[0.0839804937592989, -1.4868158330355976, 0.0839804937592989, 0.0839804937592989, 0.0839804937592989, 0.0839804937592989]","[0.0839804937592989, -1.4868158330355976, 0.0839804937592989, 0.0839804937592989, 0.0839804937592989, 0.0839804937592989]",0.002,7,1
0,46,"[0.03861446678638458, -1.5319492493620892, 0.038657490407125294, 0.03888837873425288, 0.038878969848155975, 0.03877390921115875]","[0.6666955351829529, 0.6663485765457153, 0.6672196984291077, 0.6720722913742065, 0.666050374507904, 0.66621333360672]","[0.08454821359200293, -1.4862481132028935, 0.08454821359200293, 0.08454821359200293, 0.08454821359200293, 0.08454821359200293]","[0.08454821359200293, -1.4862481132028935, 0.08454821359200293, 0.08454821359200293, 0.08454821359200293, 0.08454821359200293]",0.002,7,1
0,47,"[0.04001219570636749, -1.5306044344655056, 0.04004794756044561, 0.04022972166027827, 0.0402289442718029, 0.04014148190617561]","[0.6744785904884338, 0.6709982752799988, 0.6701963543891907, 0.6744842529296875, 0.6729705929756165, 0.6722181439399719]","[0.08511569594134409, -1.4856806308535524, 0.08511569594134409, 0.08511569594134409, 0.08511569594134409, 0.08511569594134409]","[0.08511569594134409, -1.4856806308535524, 0.08511569594134409, 0.08511569594134409, 0.08511569594134409, 0.08511569594134409]",0.002,7,1
0,48,"[0.041336268186569214, -1.529238273655512, 0.041326347981588185, 0.04167143880810542, 0.041518740355968475, 0.041435450315475464]","[0.6763662695884705, 0.6767628788948059, 0.6767058968544006, 0.6758623123168945, 0.6770753264427185, 0.6782859563827515]","[0.08568293921334884, -1.4851133875815477, 0.08568293921334884, 0.08568293921334884, 0.08568293921334884, 0.08568293921334884]","[0.08568293921334884, -1.4851133875815477, 0.08568293921334884, 0.08568293921334884, 0.08568293921334884, 0.08568293921334884]",0.002,7,1
0,49,"[0.042665477842092514, -1.5278382872096081, 0.042727295552388966, 0.043036265964172316, 0.04290085285902023, 0.04278324171900749]","[0.6797295808792114, 0.679208517074585, 0.6777136921882629, 0.6776430010795593, 0.6809824109077454, 0.6829617023468018]","[0.08624994181471513, -1.4845463849801814, 0.08624994181471513, 0.08624994181471513, 0.08624994181471513, 0.08624994181471513]","[0.08624994181471513, -1.4845463849801814, 0.08624994181471513, 0.08624994181471513, 0.08624994181471513, 0.08624994181471513]",0.002,7,1
0,50,"[0.04396196827292442, -1.5265810166350384, 0.04404145876039678, 0.044458075160644484, 0.04420953243970871, 0.04409036040306091]","[0.6829385757446289, 0.6814334392547607, 0.6818289160728455, 0.6827660202980042, 0.6833232641220093, 0.6869099140167236]","[0.08681670215281696, -1.4839796246420796, 0.08681670215281696, 0.08681670215281696, 0.08681670215281696, 0.08681670215281696]","[0.08681670215281696, -1.4839796246420796, 0.08681670215281696, 0.08681670215281696, 0.08681670215281696, 0.08681670215281696]",0.002,7,1
0,51,"[0.04533492773771286, -1.5251856793514271, 0.04544431367983037, 0.04585377752270503, 0.045610345900058746, 0.04550241678953171]","[0.6822595596313477, 0.6831137537956238, 0.6848154067993164, 0.68576979637146, 0.6862521171569824, 0.6894381046295166]","[0.0873832186357088, -1.4834131081591877, 0.0873832186357088, 0.0873832186357088, 0.0873832186357088, 0.0873832186357088]","[0.0873832186357088, -1.4834131081591877, 0.0873832186357088, 0.0873832186357088, 0.0873832186357088, 0.0873832186357088]",0.002,7,1
0,52,"[0.04672855883836746, -1.5238095496645947, 0.04674750963319951, 0.04721943914379878, 0.04696511849761009, 0.046837206929922104]","[0.6847532391548157, 0.6882312893867493, 0.6855807900428772, 0.6889553070068359, 0.6890900135040283, 0.6945523023605347]","[0.08794948967213004, -1.4828468371227665, 0.08794948967213004, 0.08794948967213004, 0.08794948967213004, 0.08794948967213004]","[0.08794948967213004, -1.4828468371227665, 0.08794948967213004, 0.08794948967213004, 0.08794948967213004, 0.08794948967213004]",0.002,7,1
0,53,"[0.0481380820274353, -1.5224049624851723, 0.04817182222475225, 0.04857627927746577, 0.04831221327185631, 0.0482456348836422]","[0.6923415660858154, 0.6905690431594849, 0.6897093057632446, 0.6888987421989441, 0.6907498836517334, 0.6970388293266296]","[0.08851551367150956, -1.482280813123387, 0.08851551367150956, 0.08851551367150956, 0.08851551367150956, 0.08851551367150956]","[0.08851551367150956, -1.482280813123387, 0.08851551367150956, 0.08851551367150956, 0.08851551367150956, 0.08851551367150956]",0.002,7,1
0,54,"[0.04949876666069031, -1.5209975701621552, 0.04951078096498662, 0.04990045606579585, 0.04966311901807785, 0.04965721815824509]","[0.6941818594932556, 0.6942105293273926, 0.6910011172294617, 0.6864878535270691, 0.6948160529136658, 0.6977876424789429]","[0.08908128904397009, -1.4817150377509265, 0.08908128904397009, 0.08908128904397009, 0.08908128904397009, 0.08908128904397009]","[0.08908128904397009, -1.4817150377509265, 0.08908128904397009, 0.08908128904397009, 0.08908128904397009, 0.08908128904397009]",0.002,7,1
0,55,"[0.050871592015028, -1.5196501363864918, 0.05084258714784795, 0.05122320234265132, 0.05103792995214462, 0.051028989255428314]","[0.6952821612358093, 0.6913130879402161, 0.6917970180511475, 0.686141312122345, 0.6971059441566467, 0.6987324357032776]","[0.08964681420033266, -1.481149512594564, 0.08964681420033266, 0.08964681420033266, 0.08964681420033266, 0.08964681420033266]","[0.08964681420033266, -1.481149512594564, 0.08964681420033266, 0.08964681420033266, 0.08964681420033266, 0.08964681420033266]",0.002,7,1
0,56,"[0.05227881669998169, -1.5181777153960248, 0.05229694048036748, 0.052575870151184034, 0.052392829209566116, 0.05243545025587082]","[0.6943328976631165, 0.6905379295349121, 0.6919875741004944, 0.689017653465271, 0.6980686187744141, 0.7006431818008423]","[0.09021208755212123, -1.4805842392427753, 0.09021208755212123, 0.09021208755212123, 0.09021208755212123, 0.09021208755212123]","[0.09021208755212123, -1.4805842392427753, 0.09021208755212123, 0.09021208755212123, 0.09021208755212123, 0.09021208755212123]",0.002,7,1
0,57,"[0.05374078080058098, -1.5168782000294705, 0.05364066759218389, 0.053856058711669874, 0.05385627597570419, 0.05390610173344612]","[0.6937434077262878, 0.6914234161376953, 0.6953182220458984, 0.6952089071273804, 0.6976942420005798, 0.7009297609329224]","[0.09077710751156703, -1.4800192192833295, 0.09077710751156703, 0.09077710751156703, 0.09077710751156703, 0.09077710751156703]","[0.09077710751156703, -1.4800192192833295, 0.09077710751156703, 0.09077710751156703, 0.09077710751156703, 0.09077710751156703]",0.002,7,1
0,58,"[0.05509639531373978, -1.5154064197889348, 0.05500966707338506, 0.055264397258422804, 0.05528983101248741, 0.05529465526342392]","[0.6980195641517639, 0.6880837678909302, 0.6944270133972168, 0.6958047747612, 0.6990720629692078, 0.7007961273193359]","[0.09134187249161291, -1.4794544543032837, 0.09134187249161291, 0.09134187249161291, 0.09134187249161291, 0.09134187249161291]","[0.09134187249161291, -1.4794544543032837, 0.09134187249161291, 0.09134187249161291, 0.09134187249161291, 0.09134187249161291]",0.002,7,1
0,59,"[0.05653538927435875, -1.5140898835710068, 0.05636817613710576, 0.05656723558392329, 0.05661167949438095, 0.05670362710952759]","[0.6977792382240295, 0.683688759803772, 0.6911163926124573, 0.6955859661102295, 0.7007063031196594, 0.6978273987770081]","[0.091906380905918, -1.4788899458889786, 0.091906380905918, 0.091906380905918, 0.091906380905918, 0.091906380905918]","[0.091906380905918, -1.4788899458889786, 0.091906380905918, 0.091906380905918, 0.091906380905918, 0.091906380905918]",0.002,7,1
0,60,"[0.05795593932271004, -1.5127769348076363, 0.05783111253847295, 0.05791406213726802, 0.05812195688486099, 0.05818120390176773]","[0.6990218758583069, 0.680334210395813, 0.6926307082176208, 0.6943835020065308, 0.7003310322761536, 0.6964702010154724]","[0.09247063116886214, -1.4783256956260344, 0.09247063116886214, 0.09247063116886214, 0.09247063116886214, 0.09247063116886214]","[0.09247063116886214, -1.4783256956260344, 0.09247063116886214, 0.09247063116886214, 0.09247063116886214, 0.09247063116886214]",0.002,7,1
0,61,"[0.059356238692998886, -1.5113150377622624, 0.059203449879781544, 0.05932836114849849, 0.05949188396334648, 0.05955791100859642]","[0.6998742818832397, 0.6807710528373718, 0.6900705695152283, 0.6963675618171692, 0.699330747127533, 0.6957236528396606]","[0.09303462169555024, -1.4777617050993463, 0.09303462169555024, 0.09303462169555024, 0.09303462169555024, 0.09303462169555024]","[0.09303462169555024, -1.4777617050993463, 0.09303462169555024, 0.09303462169555024, 0.09303462169555024, 0.09303462169555024]",0.002,7,1
0,62,"[0.060734331607818604, -1.5100718897632142, 0.06056195894350225, 0.060786529178283644, 0.060959432274103165, 0.06096891313791275]","[0.6989697813987732, 0.6785863637924194, 0.690094530582428, 0.6995565295219421, 0.6948988437652588, 0.6929022073745728]","[0.09359835090181669, -1.4771979758930798, 0.09359835090181669, 0.09359835090181669, 0.09359835090181669, 0.09359835090181669]","[0.09359835090181669, -1.4771979758930798, 0.09359835090181669, 0.09359835090181669, 0.09359835090181669, 0.09359835090181669]",0.002,7,1
0,63,"[0.06203372776508331, -1.5087021489492436, 0.06189138094057256, 0.062191887492797804, 0.06234952062368393, 0.06240985170006752]","[0.6978669166564941, 0.6746733784675598, 0.6902300119400024, 0.7017499804496765, 0.6934598684310913, 0.6922960877418518]","[0.09416181720422998, -1.4766345095906666, 0.09416181720422998, 0.09416181720422998, 0.09416181720422998, 0.09416181720422998]","[0.09416181720422998, -1.4766345095906666, 0.09416181720422998, 0.09416181720422998, 0.09416181720422998, 0.09416181720422998]",0.002,7,1
0,64,"[0.06338082998991013, -1.5073072102716942, 0.06333381334413701, 0.06355230390515132, 0.06377945840358734, 0.06383170187473297]","[0.6929846405982971, 0.6707543134689331, 0.6856412887573242, 0.7001399993896484, 0.6909464597702026, 0.6904879808425903]","[0.09472501902009701, -1.4760713077747996, 0.09472501902009701, 0.09472501902009701, 0.09472501902009701, 0.09472501902009701]","[0.09472501902009701, -1.4760713077747996, 0.09472501902009701, 0.09472501902009701, 0.09472501902009701, 0.09472501902009701]",0.002,7,1
0,65,"[0.06483390927314758, -1.5059853878668328, 0.06475669542421514, 0.0649375158497314, 0.0651681199669838, 0.06516977399587631]","[0.6907984018325806, 0.6667652130126953, 0.6841031908988953, 0.6955012083053589, 0.6886222958564758, 0.6877167820930481]","[0.09528795476746764, -1.475508372027429, 0.09528795476746764, 0.09528795476746764, 0.09528795476746764, 0.09528795476746764]","[0.09528795476746764, -1.475508372027429, 0.09528795476746764, 0.09528795476746764, 0.09528795476746764, 0.09528795476746764]",0.002,7,1
0,66,"[0.06619935482740402, -1.504685678785183, 0.06606465974916631, 0.06639687597241206, 0.06654880195856094, 0.06657346338033676]","[0.6914088726043701, 0.6663097143173218, 0.6798861026763916, 0.6904970407485962, 0.6884809732437134, 0.6847373247146606]","[0.09585062286513904, -1.4749457039297575, 0.09585062286513904, 0.09585062286513904, 0.09585062286513904, 0.09585062286513904]","[0.09585062286513904, -1.4749457039297575, 0.09585062286513904, 0.09585062286513904, 0.09585062286513904, 0.09585062286513904]",0.002,7,1
0,67,"[0.06761334836483002, -1.5032786589911957, 0.06741410890688115, 0.06779877721752925, 0.06789600849151611, 0.06787150353193283]","[0.6891201734542847, 0.6650275588035583, 0.6768812537193298, 0.6856700778007507, 0.6842986941337585, 0.6795991063117981]","[0.09641302173266018, -1.4743833050622364, 0.09641302173266018, 0.09641302173266018, 0.09641302173266018, 0.09641302173266018]","[0.09641302173266018, -1.4743833050622364, 0.09641302173266018, 0.09641302173266018, 0.09641302173266018, 0.09641302173266018]",0.002,7,1
0,68,"[0.06900595873594284, -1.5020239737680932, 0.06883794466127569, 0.06919114171948237, 0.06924808025360107, 0.06921850889921188]","[0.6845093369483948, 0.66201251745224, 0.6734155416488647, 0.683367908000946, 0.6801934838294983, 0.6778323650360107]","[0.0969751497903362, -1.4738211770045604, 0.0969751497903362, 0.0969751497903362, 0.0969751497903362, 0.0969751497903362]","[0.0969751497903362, -1.4738211770045604, 0.0969751497903362, 0.0969751497903362, 0.0969751497903362, 0.0969751497903362]",0.002,7,1
0,69,"[0.07044123113155365, -1.5006298062256356, 0.07023889223207647, 0.07068042337384028, 0.07066623866558075, 0.07055008411407471]","[0.6824811697006226, 0.6596140265464783, 0.672285258769989, 0.6798271536827087, 0.6762375831604004, 0.6774449944496155]","[0.09753700545923298, -1.4732593213356635, 0.09753700545923298, 0.09753700545923298, 0.09753700545923298, 0.09753700545923298]","[0.09753700545923298, -1.4732593213356635, 0.09753700545923298, 0.09753700545923298, 0.09753700545923298, 0.09753700545923298]",0.002,7,1
0,70,"[0.07179754972457886, -1.4993446630290528, 0.07153493562807256, 0.07198552667584224, 0.07195955514907837, 0.07188885658979416]","[0.6780271530151367, 0.6590304374694824, 0.6722731590270996, 0.6784266233444214, 0.6732876300811768, 0.6759966611862183]","[0.09809858716118151, -1.472697739633715, 0.09809858716118151, 0.09809858716118151, 0.09809858716118151, 0.09809858716118151]","[0.09809858716118151, -1.472697739633715, 0.09809858716118151, 0.09809858716118151, 0.09809858716118151, 0.09809858716118151]",0.002,7,1
0,71,"[0.07309731841087341, -1.4980062928846856, 0.07291824022401983, 0.07329897462811275, 0.07323898375034332, 0.0732080414891243]","[0.6770910024642944, 0.6577761173248291, 0.6676615476608276, 0.6723189353942871, 0.6699418425559998, 0.6712730526924133]","[0.09865989331878224, -1.4721364334761142, 0.09865989331878224, 0.09865989331878224, 0.09865989331878224, 0.09865989331878224]","[0.09865989331878224, -1.4721364334761142, 0.09865989331878224, 0.09865989331878224, 0.09865989331878224, 0.09865989331878224]",0.002,7,1
0,72,"[0.0744112879037857, -1.4967205014875908, 0.07419997850526983, 0.07473127424206538, 0.07464875280857086, 0.07450549304485321]","[0.6698200702667236, 0.6574667692184448, 0.6642250418663025, 0.6668996810913086, 0.668586254119873, 0.6699770092964172]","[0.0992209223554096, -1.4715754044394869, 0.0992209223554096, 0.0992209223554096, 0.0992209223554096, 0.0992209223554096]","[0.0992209223554096, -1.4715754044394869, 0.0992209223554096, 0.0992209223554096, 0.0992209223554096, 0.0992209223554096]",0.002,7,1
0,73,"[0.07571044564247131, -1.495434046988823, 0.07557517686952764, 0.07607047140087886, 0.07591874897480011, 0.07581862062215805]","[0.6644304990768433, 0.6526684165000916, 0.659379243850708, 0.6609980463981628, 0.6647573113441467, 0.6668879985809326]","[0.09978167269521644, -1.47101465409968, 0.09978167269521644, 0.09978167269521644, 0.09978167269521644, 0.09978167269521644]","[0.09978167269521644, -1.47101465409968, 0.09978167269521644, 0.09978167269521644, 0.09978167269521644, 0.09978167269521644]",0.002,7,1
0,74,"[0.07706460356712341, -1.4941390764764328, 0.07686454454530889, 0.07733933507885737, 0.07723302394151688, 0.07710015028715134]","[0.6599019169807434, 0.6512165069580078, 0.6545805931091309, 0.6536851525306702, 0.661075234413147, 0.6640791296958923]","[0.10034214276313845, -1.4704541840317582, 0.10034214276313845, 0.10034214276313845, 0.10034214276313845, 0.10034214276313845]","[0.10034214276313845, -1.4704541840317582, 0.10034214276313845, 0.10034214276313845, 0.10034214276313845, 0.10034214276313845]",0.002,7,1
0,75,"[0.07841340452432632, -1.4927115377834816, 0.0781024138080042, 0.07866720735516353, 0.07851453125476837, 0.07840388268232346]","[0.6547715067863464, 0.6471751928329468, 0.6519155502319336, 0.6482219099998474, 0.6566702127456665, 0.659031093120575]","[0.10090233098489851, -1.4698939958099981, 0.10090233098489851, 0.10090233098489851, 0.10090233098489851, 0.10090233098489851]","[0.10090233098489851, -1.4698939958099981, 0.10090233098489851, 0.10090233098489851, 0.10090233098489851, 0.10090233098489851]",0.002,7,1
0,76,"[0.07971833646297455, -1.4914308053306122, 0.07943612733949834, 0.07998923837628169, 0.07979415357112885, 0.07970338314771652]","[0.6531041860580444, 0.6460964679718018, 0.6479557752609253, 0.6441330909729004, 0.6523107886314392, 0.6551787257194519]","[0.10146223578701119, -1.4693340910078854, 0.10146223578701119, 0.10146223578701119, 0.10146223578701119, 0.10146223578701119]","[0.10146223578701119, -1.4693340910078854, 0.10146223578701119, 0.10146223578701119, 0.10146223578701119, 0.10146223578701119]",0.002,7,1
0,77,"[0.0810290053486824, -1.490194560294487, 0.08070403734316045, 0.0812714534946899, 0.08108232915401459, 0.08106482028961182]","[0.6466041207313538, 0.6438599228858948, 0.6418598294258118, 0.6398816108703613, 0.6466338634490967, 0.6487315893173218]","[0.1020218555967871, -1.4687744711981094, 0.1020218555967871, 0.1020218555967871, 0.1020218555967871, 0.1020218555967871]","[0.1020218555967871, -1.4687744711981094, 0.1020218555967871, 0.1020218555967871, 0.1020218555967871, 0.1020218555967871]",0.002,7,1
0,78,"[0.08224175870418549, -1.488919013445713, 0.08204394975771123, 0.08249787866558833, 0.08235480636358261, 0.08232967555522919]","[0.6430652141571045, 0.6380389332771301, 0.6397823095321655, 0.6349574327468872, 0.6409112215042114, 0.6462763547897339]","[0.10258118884233744, -1.4682151379525592, 0.10258118884233744, 0.10258118884233744, 0.10258118884233744, 0.10258118884233744]","[0.10258118884233744, -1.4682151379525592, 0.10258118884233744, 0.10258118884233744, 0.10258118884233744, 0.10258118884233744]",0.002,7,1
0,79,"[0.0836266353726387, -1.4876367014697571, 0.08328658739198858, 0.08372752248730464, 0.08360684663057327, 0.08366555720567703]","[0.6355475187301636, 0.634034276008606, 0.6326982378959656, 0.6309831142425537, 0.6382262110710144, 0.641836404800415]","[0.10314023395257824, -1.4676560928423183, 0.10314023395257824, 0.10314023395257824, 0.10314023395257824, 0.10314023395257824]","[0.10314023395257824, -1.4676560928423183, 0.10314023395257824, 0.10314023395257824, 0.10314023395257824, 0.10314023395257824]",0.002,7,1
0,80,"[0.08484046906232834, -1.486280271118023, 0.08449346223940069, 0.08493725835766597, 0.08491185307502747, 0.08497150987386703]","[0.6290742754936218, 0.6303436160087585, 0.6299189329147339, 0.6267298460006714, 0.6328451037406921, 0.6333463788032532]","[0.1036989893572349, -1.4670973374376617, 0.1036989893572349, 0.1036989893572349, 0.1036989893572349, 0.1036989893572349]","[0.1036989893572349, -1.4670973374376617, 0.1036989893572349, 0.1036989893572349, 0.1036989893572349, 0.1036989893572349]",0.002,7,1
0,81,"[0.08604919165372849, -1.4850774642876168, 0.08568698564638311, 0.08607546865429683, 0.08616194128990173, 0.08620181679725647]","[0.6253033876419067, 0.6228094100952148, 0.6262897253036499, 0.6212612986564636, 0.6280995011329651, 0.6270654797554016]","[0.10425745348684658, -1.46653887330805, 0.10425745348684658, 0.10425745348684658, 0.10425745348684658, 0.10425745348684658]","[0.10425745348684658, -1.46653887330805, 0.10425745348684658, 0.10425745348684658, 0.10425745348684658, 0.10425745348684658]",0.002,7,1
0,82,"[0.08730345219373703, -1.4837783214500924, 0.08703738847841436, 0.08726219713177485, 0.08741964399814606, 0.08746567368507385]","[0.6191338896751404, 0.6174792647361755, 0.6145375967025757, 0.6166682243347168, 0.6222768425941467, 0.6210748553276062]","[0.10481562477277054, -1.465980702022126, 0.10481562477277054, 0.10481562477277054, 0.10481562477277054, 0.10481562477277054]","[0.10481562477277054, -1.465980702022126, 0.10481562477277054, 0.10481562477277054, 0.10481562477277054, 0.10481562477277054]",0.002,7,1
0,83,"[0.08857424557209015, -1.4825689804605027, 0.08822518983949834, 0.08847837030377192, 0.08870519697666168, 0.08868006616830826]","[0.6131849884986877, 0.6121827960014343, 0.6098278760910034, 0.6126548647880554, 0.6145989298820496, 0.6107606887817383]","[0.10537350164718662, -1.46542282514771, 0.10537350164718662, 0.10537350164718662, 0.10537350164718662, 0.10537350164718662]","[0.10537350164718662, -1.46542282514771, 0.10537350164718662, 0.10537350164718662, 0.10537350164718662, 0.10537350164718662]",0.002,7,1
0,84,"[0.08980795741081238, -1.481277012532093, 0.08946305910219365, 0.08966974794354243, 0.08993114531040192, 0.08998432010412216]","[0.6070950627326965, 0.6070302724838257, 0.6092284917831421, 0.6120830178260803, 0.6080645322799683, 0.6046109199523926]","[0.1059310825431016, -1.4648652442517949, 0.1059310825431016, 0.1059310825431016, 0.1059310825431016, 0.1059310825431016]","[0.1059310825431016, -1.4648652442517949, 0.1059310825431016, 0.1059310825431016, 0.1059310825431016, 0.1059310825431016]",0.002,7,1
0,85,"[0.09096256643533707, -1.4800509971431275, 0.09066611925234014, 0.09092216073956294, 0.09110884368419647, 0.09116683155298233]","[0.6011814475059509, 0.5983192324638367, 0.6052728295326233, 0.6061481833457947, 0.6007364988327026, 0.5999438166618347]","[0.10648836589435366, -1.464307960900543, 0.10648836589435366, 0.10648836589435366, 0.10648836589435366, 0.10648836589435366]","[0.10648836589435366, -1.464307960900543, 0.10648836589435366, 0.10648836589435366, 0.10648836589435366, 0.10648836589435366]",0.002,7,1
0,86,"[0.09212769567966461, -1.4788490992835541, 0.09179050127138311, 0.09206907331433101, 0.09232193976640701, 0.09231948852539062]","[0.5950472950935364, 0.5956462621688843, 0.5964009165763855, 0.6005299687385559, 0.5956385135650635, 0.5919303297996521]","[0.1070453501356167, -1.4637509766592798, 0.1070453501356167, 0.1070453501356167, 0.1070453501356167, 0.1070453501356167]","[0.1070453501356167, -1.4637509766592798, 0.1070453501356167, 0.1070453501356167, 0.1070453501356167, 0.1070453501356167]",0.002,7,1
0,87,"[0.09328246116638184, -1.4775922459414979, 0.0930865446673792, 0.09326796113934321, 0.09356939792633057, 0.0935402438044548]","[0.5882615447044373, 0.5884965062141418, 0.590305507183075, 0.5926814079284668, 0.5896329283714294, 0.5847645998001099]","[0.1076020337024048, -1.4631942930924917, 0.1076020337024048, 0.1076020337024048, 0.1076020337024048, 0.1076020337024048]","[0.1076020337024048, -1.4631942930924917, 0.1076020337024048, 0.1076020337024048, 0.1076020337024048, 0.1076020337024048]",0.002,7,1
0,88,"[0.09439611434936523, -1.4764099058559914, 0.09423619905580694, 0.09443406640972896, 0.09466034919023514, 0.09467414766550064]","[0.5818093419075012, 0.5799914598464966, 0.5846031308174133, 0.5854026675224304, 0.5819625854492188, 0.5782838463783264]","[0.10815841503107655, -1.46263791176382, 0.10815841503107655, 0.10815841503107655, 0.10815841503107655, 0.10815841503107655]","[0.10815841503107655, -1.46263791176382, 0.10815841503107655, 0.10815841503107655, 0.10815841503107655, 0.10815841503107655]",0.002,7,1
0,89,"[0.09551891684532166, -1.475263462667801, 0.09535295168031865, 0.09559742986645503, 0.0958082526922226, 0.09583812952041626]","[0.5729071497917175, 0.5749025940895081, 0.5771856307983398, 0.580291748046875, 0.574108898639679, 0.5719802379608154]","[0.10871449255883957, -1.462081834236057, 0.10871449255883957, 0.10871449255883957, 0.10871449255883957, 0.10871449255883957]","[0.10871449255883957, -1.462081834236057, 0.10871449255883957, 0.10871449255883957, 0.10871449255883957, 0.10871449255883957]",0.002,7,1
0,90,"[0.0966939777135849, -1.4741162222674866, 0.09656125703920537, 0.09680025159802241, 0.09701880812644958, 0.09694389253854752]","[0.5683385729789734, 0.5710011720657349, 0.571113646030426, 0.5709673762321472, 0.5691288709640503, 0.564616322517395]","[0.10927026472375466, -1.4615260620711419, 0.10927026472375466, 0.10927026472375466, 0.10927026472375466, 0.10927026472375466]","[0.10927026472375466, -1.4615260620711419, 0.10927026472375466, 0.10927026472375466, 0.10927026472375466, 0.10927026472375466]",0.002,7,1
0,91,"[0.09782382845878601, -1.472986453478672, 0.09774524370302373, 0.09800760328259273, 0.09816115349531174, 0.09810151904821396]","[0.5612075328826904, 0.5635288953781128, 0.5623095035552979, 0.5652627348899841, 0.5596318244934082, 0.5575001835823059]","[0.1098257299647405, -1.460970596830156, 0.1098257299647405, 0.1098257299647405, 0.1098257299647405, 0.1098257299647405]","[0.1098257299647405, -1.460970596830156, 0.1098257299647405, 0.1098257299647405, 0.1098257299647405, 0.1098257299647405]",0.002,7,1
0,92,"[0.09895211458206177, -1.4717911717346688, 0.09884626070131475, 0.0991019445606689, 0.09920979291200638, 0.09917548298835754]","[0.5546748638153076, 0.5591058731079102, 0.5578024983406067, 0.5585415363311768, 0.5515333414077759, 0.549908459186554]","[0.11038088672157781, -1.4604154400733187, 0.11038088672157781, 0.11038088672157781, 0.11038088672157781, 0.11038088672157781]","[0.11038088672157781, -1.4604154400733187, 0.11038088672157781, 0.11038088672157781, 0.11038088672157781, 0.11038088672157781]",0.002,7,1
0,93,"[0.10008138418197632, -1.4706476491740723, 0.09994107881654912, 0.1002926069447021, 0.10027332603931427, 0.10018938779830933]","[0.5445902943611145, 0.5514228343963623, 0.5508765578269958, 0.551741898059845, 0.5436010956764221, 0.5442901253700256]","[0.11093573343491375, -1.4598605933599829, 0.11093573343491375, 0.11093573343491375, 0.11093573343491375, 0.11093573343491375]","[0.11093573343491375, -1.4598605933599829, 0.11093573343491375, 0.11093573343491375, 0.11093573343491375, 0.11093573343491375]",0.002,7,1
0,94,"[0.10115240514278412, -1.4695783790997048, 0.1010368506060999, 0.10138909398999019, 0.10137399286031723, 0.10132576525211334]","[0.5384793877601624, 0.5455334186553955, 0.5466301441192627, 0.5435160398483276, 0.5347709059715271, 0.5366113185882568]","[0.11149026854626641, -1.4593060582486301, 0.11149026854626641, 0.11149026854626641, 0.11149026854626641, 0.11149026854626641]","[0.11149026854626641, -1.4593060582486301, 0.11149026854626641, 0.11149026854626641, 0.11149026854626641, 0.11149026854626641]",0.002,7,1
0,95,"[0.10226283967494965, -1.468491518204548, 0.10213071504701787, 0.1024448114582519, 0.10238347202539444, 0.1023482158780098]","[0.5333982110023499, 0.5415045022964478, 0.5387553572654724, 0.5341051816940308, 0.5302467942237854, 0.5307855606079102]","[0.11204449049802913, -1.4587518362968674, 0.11204449049802913, 0.11204449049802913, 0.11204449049802913, 0.11204449049802913]","[0.11204449049802913, -1.4587518362968674, 0.11204449049802913, 0.11204449049802913, 0.11204449049802913, 0.11204449049802913]",0.002,7,1
0,96,"[0.10328951478004456, -1.4674020421556015, 0.103217903767721, 0.10351960241284175, 0.10345425456762314, 0.1033882200717926]","[0.5256761908531189, 0.533566415309906, 0.5310162305831909, 0.5234019160270691, 0.5218612551689148, 0.5249196290969849]","[0.11259839773347476, -1.4581979290614218, 0.11259839773347476, 0.11259839773347476, 0.11259839773347476, 0.11259839773347476]","[0.11259839773347476, -1.4581979290614218, 0.11259839773347476, 0.11259839773347476, 0.11259839773347476, 0.11259839773347476]",0.002,7,1
0,97,"[0.10428714007139206, -1.4664095875671883, 0.10430699983705694, 0.10456745206799312, 0.10442639142274857, 0.1043497771024704]","[0.51871258020401, 0.5283488631248474, 0.5248842239379883, 0.5142106413841248, 0.5161719918251038, 0.5192487835884094]","[0.11315198869676027, -1.4576443380981363, 0.11315198869676027, 0.11315198869676027, 0.11315198869676027, 0.11315198869676027]","[0.11315198869676027, -1.4576443380981363, 0.11315198869676027, 0.11315198869676027, 0.11315198869676027, 0.11315198869676027]",0.002,7,1
0,98,"[0.10531008243560791, -1.465385952298977, 0.10532552400697881, 0.1056486803242187, 0.10543479025363922, 0.10538992285728455]","[0.5095424652099609, 0.5197121500968933, 0.5148857235908508, 0.5080513954162598, 0.509397029876709, 0.512844979763031]","[0.11370526183293096, -1.4570910649619655, 0.11370526183293096, 0.11370526183293096, 0.11370526183293096, 0.11370526183293096]","[0.11370526183293096, -1.4570910649619655, 0.11370526183293096, 0.11370526183293096, 0.11370526183293096, 0.11370526183293096]",0.002,7,1
0,99,"[0.10627973824739456, -1.4644061636975785, 0.1063774267779749, 0.10665146886791987, 0.10647282749414444, 0.10632521659135818]","[0.5007582306861877, 0.5118932127952576, 0.5108992457389832, 0.5001989006996155, 0.5020022988319397, 0.5061321258544922]","[0.11425821558792479, -1.4565381112069717, 0.11425821558792479, 0.11425821558792479, 0.11425821558792479, 0.11425821558792479]","[0.11425821558792479, -1.4565381112069717, 0.11425821558792479, 0.11425821558792479, 0.11425821558792479, 0.11425821558792479]",0.002,7,1
0,100,"[0.1073279082775116, -1.4633555126241227, 0.1073997656451624, 0.10757546007122798, 0.10744205862283707, 0.10734489560127258]","[0.4937174618244171, 0.5019045472145081, 0.5027545690536499, 0.4916854202747345, 0.4958435297012329, 0.49836069345474243]","[0.11481084840857694, -1.4559854783863195, 0.11481084840857694, 0.11481084840857694, 0.11481084840857694, 0.11481084840857694]","[0.11481084840857694, -1.4559854783863195, 0.11481084840857694, 0.11481084840857694, 0.11481084840857694, 0.11481084840857694]",0.002,7,1
0,101,"[0.10833040624856949, -1.4623718720725556, 0.10831815401186162, 0.10858671247448726, 0.10837747901678085, 0.1083071231842041]","[0.48692211508750916, 0.4963184893131256, 0.4937436282634735, 0.48178133368492126, 0.48848429322242737, 0.4916236102581024]","[0.11536315874262389, -1.4554331680522727, 0.11536315874262389, 0.11536315874262389, 0.11536315874262389, 0.11536315874262389]","[0.11536315874262389, -1.4554331680522727, 0.11536315874262389, 0.11536315874262389, 0.11536315874262389, 0.11536315874262389]",0.002,7,1
0,102,"[0.1092313826084137, -1.4613719296506424, 0.1093061606036585, 0.1095856863209228, 0.10933995991945267, 0.10927184671163559]","[0.48053601384162903, 0.48898452520370483, 0.486867219209671, 0.4745398461818695, 0.4808746874332428, 0.4846608340740204]","[0.11591514503870809, -1.4548811817561884, 0.11591514503870809, 0.11591514503870809, 0.11591514503870809, 0.11591514503870809]","[0.11591514503870809, -1.4548811817561884, 0.11591514503870809, 0.11591514503870809, 0.11591514503870809, 0.11591514503870809]",0.002,7,1
0,103,"[0.11014878004789352, -1.4604003739408036, 0.11030084291567022, 0.11047164976086421, 0.1102893054485321, 0.11026935279369354]","[0.4725450277328491, 0.48373860120773315, 0.4825063943862915, 0.46613484621047974, 0.47410881519317627, 0.4781512916088104]","[0.11646680574638203, -1.4543295210485145, 0.11646680574638203, 0.11646680574638203, 0.11646680574638203, 0.11646680574638203]","[0.11646680574638203, -1.4543295210485145, 0.11646680574638203, 0.11646680574638203, 0.11646680574638203, 0.11646680574638203]",0.002,7,1
0,104,"[0.11114582419395447, -1.45950502276931, 0.11120731035341436, 0.11141840993847651, 0.11119240522384644, 0.11115739494562149]","[0.4660666882991791, 0.4756910800933838, 0.4718031883239746, 0.45877644419670105, 0.4659270942211151, 0.46896445751190186]","[0.11701813931611282, -1.4537781874787838, 0.11701813931611282, 0.11701813931611282, 0.11701813931611282, 0.11701813931611282]","[0.11701813931611282, -1.4537781874787838, 0.11701813931611282, 0.11701813931611282, 0.11701813931611282, 0.11701813931611282]",0.002,7,1
0,105,"[0.11203590035438538, -1.4585655492595215, 0.11213666597475225, 0.11229126035656734, 0.11212993413209915, 0.11210706830024719]","[0.4566240906715393, 0.4662734270095825, 0.4644589126110077, 0.452668696641922, 0.4583450257778168, 0.46102598309516907]","[0.11756914419928645, -1.45322718259561, 0.11756914419928645, 0.11756914419928645, 0.11756914419928645, 0.11756914419928645]","[0.11756914419928645, -1.45322718259561, 0.11756914419928645, 0.11756914419928645, 0.11756914419928645, 0.11756914419928645]",0.002,7,1
0,106,"[0.11294141411781311, -1.4576465350440522, 0.11301786104311162, 0.11308006822552485, 0.11298434436321259, 0.11299504339694977]","[0.45028597116470337, 0.45826101303100586, 0.4543921649456024, 0.4441934823989868, 0.4519609212875366, 0.4533941149711609]","[0.11811981884821209, -1.4526765079466846, 0.11811981884821209, 0.11811981884821209, 0.11811981884821209, 0.11811981884821209]","[0.11811981884821209, -1.4526765079466846, 0.11811981884821209, 0.11811981884821209, 0.11811981884821209, 0.11811981884821209]",0.002,7,1
0,107,"[0.11382817476987839, -1.456771397297718, 0.11393911043276006, 0.11396710454907222, 0.11395277827978134, 0.11390385776758194]","[0.44332221150398254, 0.44934770464897156, 0.4470376968383789, 0.4377780556678772, 0.4454492926597595, 0.4471849799156189]","[0.11867016171612652, -1.45212616507877, 0.11867016171612652, 0.11867016171612652, 0.11867016171612652, 0.11867016171612652]","[0.11867016171612652, -1.45212616507877, 0.11867016171612652, 0.11867016171612652, 0.11867016171612652, 0.11867016171612652]",0.002,7,1
0,108,"[0.11473194509744644, -1.4559078452042122, 0.11477548280824834, 0.11480061590161128, 0.11473111063241959, 0.11483845859766006]","[0.4358459711074829, 0.44198423624038696, 0.4411288797855377, 0.4297263026237488, 0.43818342685699463, 0.4391084313392639]","[0.11922017125719844, -1.451576155537698, 0.11922017125719844, 0.11922017125719844, 0.11922017125719844, 0.11922017125719844]","[0.11922017125719844, -1.451576155537698, 0.11922017125719844, 0.11922017125719844, 0.11922017125719844, 0.11922017125719844]",0.002,7,1
0,109,"[0.11560634523630142, -1.455069826250412, 0.11564094225038701, 0.11561612665142817, 0.11567496508359909, 0.11570750921964645]","[0.4304463565349579, 0.43427661061286926, 0.4354182779788971, 0.4262462556362152, 0.42933693528175354, 0.4300485849380493]","[0.11976984592653282, -1.4510264808683637, 0.11976984592653282, 0.11976984592653282, 0.11976984592653282, 0.11976984592653282]","[0.11976984592653282, -1.4510264808683637, 0.11976984592653282, 0.11976984592653282, 0.11976984592653282, 0.11976984592653282]",0.002,7,1
0,110,"[0.1164250299334526, -1.454209179883339, 0.11652833620180303, 0.11651567995037837, 0.116428442299366, 0.11659254133701324]","[0.4217405319213867, 0.4247783124446869, 0.4257761836051941, 0.42193669080734253, 0.4216655194759369, 0.4218525290489197]","[0.12031918418017519, -1.4504771426147214, 0.12031918418017519, 0.12031918418017519, 0.12031918418017519, 0.12031918418017519]","[0.12031918418017519, -1.4504771426147214, 0.12031918418017519, 0.12031918418017519, 0.12031918418017519, 0.12031918418017519]",0.002,7,1
0,111,"[0.11727115511894226, -1.4534687858871003, 0.1172712484942835, 0.11729316293682857, 0.11729239672422409, 0.11738160252571106]","[0.4167523980140686, 0.41400787234306335, 0.4129635989665985, 0.41637030243873596, 0.4138535261154175, 0.4143331050872803]","[0.12086818447511613, -1.4499281423197805, 0.12086818447511613, 0.12086818447511613, 0.12086818447511613, 0.12086818447511613]","[0.12086818447511613, -1.4499281423197805, 0.12086818447511613, 0.12086818447511613, 0.12086818447511613, 0.12086818447511613]",0.002,7,1
0,112,"[0.11811436712741852, -1.4526557934335251, 0.1181405226336878, 0.11804298936810298, 0.11822440475225449, 0.11821343004703522]","[0.4073340594768524, 0.4050602316856384, 0.40378907322883606, 0.4090813100337982, 0.40766283869743347, 0.40635591745376587]","[0.12141684526929539, -1.4493794815256011, 0.12141684526929539, 0.12141684526929539, 0.12141684526929539, 0.12141684526929539]","[0.12141684526929539, -1.4493794815256011, 0.12141684526929539, 0.12141684526929539, 0.12141684526929539, 0.12141684526929539]",0.002,7,1
0,113,"[0.11897412687540054, -1.4517878678492089, 0.11892205873598272, 0.11883060514416499, 0.11903048306703568, 0.11898328363895416]","[0.4022860825061798, 0.39516323804855347, 0.3950170874595642, 0.4014618396759033, 0.3998067080974579, 0.3987692594528198]","[0.12196516502160637, -1.44883116177329, 0.12196516502160637, 0.12196516502160637, 0.12196516502160637, 0.12196516502160637]","[0.12196516502160637, -1.44883116177329, 0.12196516502160637, 0.12196516502160637, 0.12196516502160637, 0.12196516502160637]",0.002,7,1
0,114,"[0.11973239481449127, -1.4510651913336297, 0.11966878572572881, 0.11957399427380366, 0.11981260776519775, 0.1198020800948143]","[0.39549410343170166, 0.3861028850078583, 0.3908621072769165, 0.3932434320449829, 0.3934197723865509, 0.3904329836368561]","[0.12251314219190039, -1.4482831846029962, 0.12251314219190039, 0.12251314219190039, 0.12251314219190039, 0.12251314219190039]","[0.12251314219190039, -1.4482831846029962, 0.12251314219190039, 0.12251314219190039, 0.12251314219190039, 0.12251314219190039]",0.002,7,1
0,115,"[0.12052229046821594, -1.4502902191928406, 0.12044364610780889, 0.12032906591381831, 0.12048684060573578, 0.12062348425388336]","[0.3870754837989807, 0.38055944442749023, 0.38286876678466797, 0.38611894845962524, 0.3851267993450165, 0.3836698532104492]","[0.12306077524099104, -1.4477355515539054, 0.12306077524099104, 0.12306077524099104, 0.12306077524099104, 0.12306077524099104]","[0.12306077524099104, -1.4477355515539054, 0.12306077524099104, 0.12306077524099104, 0.12306077524099104, 0.12306077524099104]",0.002,7,1
0,116,"[0.12128493934869766, -1.4495420095375557, 0.1211016813861292, 0.12106911718334956, 0.1212858259677887, 0.12131082266569138]","[0.3815127909183502, 0.37216106057167053, 0.3751203417778015, 0.38206642866134644, 0.37748393416404724, 0.37395942211151123]","[0.12360806263065853, -1.447188264164238, 0.12360806263065853, 0.12360806263065853, 0.12360806263065853, 0.12360806263065853]","[0.12360806263065853, -1.447188264164238, 0.12360806263065853, 0.12360806263065853, 0.12360806263065853, 0.12360806263065853]",0.002,7,1
0,117,"[0.12202493846416473, -1.4488447916558762, 0.12191182771791631, 0.12186388551678462, 0.12209401279687881, 0.1221475824713707]","[0.37081798911094666, 0.36473456025123596, 0.3700196146965027, 0.37977132201194763, 0.3694952428340912, 0.3679514229297638]","[0.12415500282365388, -1.4466413239712428, 0.12415500282365388, 0.12415500282365388, 0.12415500282365388, 0.12415500282365388]","[0.12415500282365388, -1.4466413239712428, 0.12415500282365388, 0.12415500282365388, 0.12415500282365388, 0.12415500282365388]",0.002,7,1
0,118,"[0.12270358204841614, -1.4480579283884545, 0.12267142931093389, 0.12264566003765864, 0.12282960116863251, 0.1228349581360817]","[0.3647918701171875, 0.35640400648117065, 0.36148419976234436, 0.37213167548179626, 0.36200129985809326, 0.3602226972579956]","[0.12470159428370346, -1.446094732511193, 0.12470159428370346, 0.12470159428370346, 0.12470159428370346, 0.12470159428370346]","[0.12470159428370346, -1.446094732511193, 0.12470159428370346, 0.12470159428370346, 0.12470159428370346, 0.12470159428370346]",0.002,7,1
0,119,"[0.12343616038560867, -1.4473621782711525, 0.1233132521258753, 0.12326876699414058, 0.12354779243469238, 0.12353203445672989]","[0.3558427393436432, 0.34640830755233765, 0.35388293862342834, 0.36259570717811584, 0.35678791999816895, 0.3536721467971802]","[0.1252478354755131, -1.4455484913193835, 0.1252478354755131, 0.1252478354755131, 0.1252478354755131, 0.1252478354755131]","[0.1252478354755131, -1.4455484913193835, 0.1252478354755131, 0.1252478354755131, 0.1252478354755131, 0.1252478354755131]",0.002,7,1
0,120,"[0.1241506040096283, -1.4467687544277688, 0.12405330339540654, 0.12405209123577876, 0.12420947104692459, 0.12421922385692596]","[0.35077977180480957, 0.34263426065444946, 0.3494402766227722, 0.3544595241546631, 0.34774357080459595, 0.34673869609832764]","[0.1257937248647725, -1.445002601930124, 0.1257937248647725, 0.1257937248647725, 0.1257937248647725, 0.1257937248647725]","[0.1257937248647725, -1.445002601930124, 0.1257937248647725, 0.1257937248647725, 0.1257937248647725, 0.1257937248647725]",0.002,7,1
0,121,"[0.12480884790420532, -1.4460249480656167, 0.1247332731830042, 0.12471859037365718, 0.12493965774774551, 0.124928317964077]","[0.34529411792755127, 0.3346680998802185, 0.3404587209224701, 0.34637024998664856, 0.34207791090011597, 0.33936142921447754]","[0.1263392609181595, -1.444457065876737, 0.1263392609181595, 0.1263392609181595, 0.1263392609181595, 0.1263392609181595]","[0.1263392609181595, -1.444457065876737, 0.1263392609181595, 0.1263392609181595, 0.1263392609181595, 0.1263392609181595]",0.002,7,1
0,122,"[0.12543843686580658, -1.4454074811986466, 0.1254046599017542, 0.12537447988476558, 0.12562179565429688, 0.12563517689704895]","[0.33670684695243835, 0.32787764072418213, 0.3338008224964142, 0.3419840633869171, 0.3328074514865875, 0.33267277479171753]","[0.1268844421033444, -1.4439118846915522, 0.1268844421033444, 0.1268844421033444, 0.1268844421033444, 0.1268844421033444]","[0.1268844421033444, -1.4439118846915522, 0.1268844421033444, 0.1268844421033444, 0.1268844421033444, 0.1268844421033444]",0.002,7,1
0,123,"[0.1261335015296936, -1.4446924340775986, 0.12608892122377569, 0.12607721864666743, 0.12622733414173126, 0.12626336514949799]","[0.3306327164173126, 0.32126927375793457, 0.3281911015510559, 0.3357169032096863, 0.3268298804759979, 0.3268338143825531]","[0.12742926688899436, -1.4433670599059023, 0.12742926688899436, 0.12742926688899436, 0.12742926688899436, 0.12742926688899436]","[0.12742926688899436, -1.4433670599059023, 0.12742926688899436, 0.12742926688899436, 0.12742926688899436, 0.12742926688899436]",0.002,7,1
0,124,"[0.12674030661582947, -1.4440641862205048, 0.12675267854799444, 0.1267435985752563, 0.12693634629249573, 0.12694679200649261]","[0.32405582070350647, 0.3175719976425171, 0.32115355134010315, 0.3299430012702942, 0.32042932510375977, 0.3199995160102844]","[0.12797373374477752, -1.442822593050119, 0.12797373374477752, 0.12797373374477752, 0.12797373374477752, 0.12797373374477752]","[0.12797373374477752, -1.442822593050119, 0.12797373374477752, 0.12797373374477752, 0.12797373374477752, 0.12797373374477752]",0.002,7,1
0,125,"[0.12733854353427887, -1.4434210670045395, 0.12740785280336553, 0.1274091440388183, 0.1275130957365036, 0.12754032015800476]","[0.31824010610580444, 0.31176984310150146, 0.31453630328178406, 0.3211458921432495, 0.31371185183525085, 0.3135956823825836]","[0.12851784114136747, -1.4422784856535291, 0.12851784114136747, 0.12851784114136747, 0.12851784114136747, 0.12851784114136747]","[0.12851784114136747, -1.4422784856535291, 0.12851784114136747, 0.12851784114136747, 0.12851784114136747, 0.12851784114136747]",0.002,7,1
0,126,"[0.12797050178050995, -1.4428466719440003, 0.12800151506532842, 0.12803010522808833, 0.1281495988368988, 0.12815821170806885]","[0.3097470998764038, 0.30863118171691895, 0.30802401900291443, 0.3126627802848816, 0.30678823590278625, 0.30745023488998413]","[0.12906158755044736, -1.4417347392444493, 0.12906158755044736, 0.12906158755044736, 0.12906158755044736, 0.12906158755044736]","[0.12906158755044736, -1.4417347392444493, 0.12906158755044736, 0.12906158755044736, 0.12906158755044736, 0.12906158755044736]",0.002,7,1
0,127,"[0.1286676526069641, -1.4421977412751694, 0.12864667574037725, 0.12859050809826655, 0.12873771786689758, 0.12878060340881348]","[0.30309516191482544, 0.30043667554855347, 0.3024728298187256, 0.30483508110046387, 0.301525354385376, 0.30003616213798523]","[0.12960497144471436, -1.4411913553501823, 0.12960497144471436, 0.12960497144471436, 0.12960497144471436, 0.12960497144471436]","[0.12960497144471436, -1.4411913553501823, 0.12960497144471436, 0.12960497144471436, 0.12960497144471436, 0.12960497144471436]",0.002,7,1
0,128,"[0.12925396859645844, -1.4415742021850129, 0.1292503515826624, 0.12924758970227046, 0.129317045211792, 0.12935848534107208]","[0.29770627617836, 0.2956065237522125, 0.2948058843612671, 0.2956352233886719, 0.2941259443759918, 0.29314276576042175]","[0.13014799129788393, -1.4406483354970125, 0.13014799129788393, 0.13014799129788393, 0.13014799129788393, 0.13014799129788393]","[0.13014799129788393, -1.4406483354970125, 0.13014799129788393, 0.13014799129788393, 0.13014799129788393, 0.13014799129788393]",0.002,7,1
0,129,"[0.1298358291387558, -1.4410239917090912, 0.12982255617250615, 0.1298321920582275, 0.12996503710746765, 0.1298997551202774]","[0.2906966209411621, 0.2903403043746948, 0.2907654047012329, 0.2901955842971802, 0.2908840775489807, 0.28788435459136963]","[0.13069064558469398, -1.4401056812102027, 0.13069064558469398, 0.13069064558469398, 0.13069064558469398, 0.13069064558469398]","[0.13069064558469398, -1.4401056812102027, 0.13069064558469398, 0.13069064558469398, 0.13069064558469398, 0.13069064558469398]",0.002,7,1
0,130,"[0.13041970133781433, -1.4404362899116059, 0.13036758104433233, 0.13040463506665034, 0.13049925863742828, 0.13047026097774506]","[0.2850412130355835, 0.28579872846603394, 0.28721800446510315, 0.28607916831970215, 0.2839171588420868, 0.2831953167915344]","[0.13123293278090936, -1.4395633940139871, 0.13123293278090936, 0.13123293278090936, 0.13123293278090936, 0.13123293278090936]","[0.13123293278090936, -1.4395633940139871, 0.13123293278090936, 0.13123293278090936, 0.13123293278090936, 0.13123293278090936]",0.002,7,1
0,131,"[0.130953848361969, -1.439886064534523, 0.13093167940248662, 0.13099996625866694, 0.13104139268398285, 0.13101939857006073]","[0.27900931239128113, 0.28124159574508667, 0.2801226079463959, 0.28046026825904846, 0.2772316336631775, 0.2768123745918274]","[0.1317748513633259, -1.4390214754315707, 0.1317748513633259, 0.1317748513633259, 0.1317748513633259, 0.1317748513633259]","[0.1317748513633259, -1.4390214754315707, 0.1317748513633259, 0.1317748513633259, 0.1317748513633259, 0.1317748513633259]",0.002,7,1
0,132,"[0.13146479427814484, -1.4392923426679154, 0.1315696875201624, 0.13158683359112544, 0.1315395087003708, 0.13157714903354645]","[0.27339643239974976, 0.276272177696228, 0.2767156958580017, 0.2757612466812134, 0.2694035470485687, 0.27169597148895264]","[0.1323163998097749, -1.4384799269851216, 0.1323163998097749, 0.1323163998097749, 0.1323163998097749, 0.1323163998097749]","[0.1323163998097749, -1.4384799269851216, 0.1323163998097749, 0.1323163998097749, 0.1323163998097749, 0.1323163998097749]",0.002,7,1
0,133,"[0.13205763697624207, -1.4387480181506653, 0.13206321397890264, 0.1320766645618896, 0.1320744752883911, 0.13211287558078766]","[0.2663511335849762, 0.2743050158023834, 0.27017340064048767, 0.27047911286354065, 0.2629776895046234, 0.2662586271762848]","[0.13285757659912725, -1.4379387501957692, 0.13285757659912725, 0.13285757659912725, 0.13285757659912725, 0.13285757659912725]","[0.13285757659912725, -1.4379387501957692, 0.13285757659912725, 0.13285757659912725, 0.13285757659912725, 0.13285757659912725]",0.002,7,1
0,134,"[0.13253608345985413, -1.438208521609642, 0.13258678117860967, 0.1326412397572021, 0.13260392844676971, 0.13256575167179108]","[0.2598133981227875, 0.26846256852149963, 0.2654050290584564, 0.26348090171813965, 0.25964784622192383, 0.26027703285217285]","[0.13339838021129782, -1.4373979465835987, 0.13339838021129782, 0.13339838021129782, 0.13339838021129782, 0.13339838021129782]","[0.13339838021129782, -1.4373979465835987, 0.13339838021129782, 0.13339838021129782, 0.13339838021129782, 0.13339838021129782]",0.002,7,1
0,135,"[0.13309134542942047, -1.4376732420972367, 0.13316423097719365, 0.13317744314160151, 0.13313572108745575, 0.13306055963039398]","[0.25319787859916687, 0.2604531943798065, 0.2587161362171173, 0.25430959463119507, 0.25597599148750305, 0.25455161929130554]","[0.13393880912724965, -1.4368575176676468, 0.13393880912724965, 0.13393880912724965, 0.13393880912724965, 0.13393880912724965]","[0.13393880912724965, -1.4368575176676468, 0.13393880912724965, 0.13393880912724965, 0.13393880912724965, 0.13393880912724965]",0.002,7,1
0,136,"[0.13357090950012207, -1.437174217110016, 0.13357669511903936, 0.1336691814609985, 0.13361598551273346, 0.13359223306179047]","[0.2487993687391281, 0.2565602660179138, 0.25492388010025024, 0.24900184571743011, 0.2528989315032959, 0.2511157691478729]","[0.13447886182899826, -1.4363174649658983, 0.13447886182899826, 0.13447886182899826, 0.13447886182899826, 0.13447886182899826]","[0.13447886182899826, -1.4363174649658983, 0.13447886182899826, 0.13447886182899826, 0.13447886182899826, 0.13447886182899826]",0.002,7,1
0,137,"[0.13407732546329498, -1.4366632562926789, 0.1341179052935999, 0.13413695871319575, 0.13404518365859985, 0.1340494602918625]","[0.24542294442653656, 0.2531120777130127, 0.25058701634407043, 0.2432231903076172, 0.24544236063957214, 0.24679991602897644]","[0.1350185367996159, -1.4357777899952806, 0.1350185367996159, 0.1350185367996159, 0.1350185367996159, 0.1350185367996159]","[0.1350185367996159, -1.4357777899952806, 0.1350185367996159, 0.1350185367996159, 0.1350185367996159, 0.1350185367996159]",0.002,7,1
0,138,"[0.13456442952156067, -1.436232940559723, 0.13458139101137334, 0.13465432702984614, 0.13455672562122345, 0.1345490962266922]","[0.24021907150745392, 0.24857209622859955, 0.24554789066314697, 0.23865975439548492, 0.24176599085330963, 0.24266207218170166]","[0.13555783252323578, -1.4352384942716607, 0.13555783252323578, 0.13555783252323578, 0.13555783252323578, 0.13555783252323578]","[0.13555783252323578, -1.4352384942716607, 0.13555783252323578, 0.13555783252323578, 0.13555783252323578, 0.13555783252323578]",0.002,7,1
0,139,"[0.13501980900764465, -1.4357456278852005, 0.13513023058046514, 0.13517837106671138, 0.13501495122909546, 0.1349911391735077]","[0.23620212078094482, 0.241790771484375, 0.23937053978443146, 0.2354329526424408, 0.23667863011360168, 0.23665903508663177]","[0.13609674748505646, -1.43469957930984, 0.13609674748505646, 0.13609674748505646, 0.13609674748505646, 0.13609674748505646]","[0.13609674748505646, -1.43469957930984, 0.13609674748505646, 0.13609674748505646, 0.13609674748505646, 0.13609674748505646]",0.002,7,1
0,140,"[0.13548767566680908, -1.43525983512912, 0.13560516039003545, 0.13563375055279536, 0.13546288013458252, 0.13545002043247223]","[0.22978760302066803, 0.23762238025665283, 0.23486866056919098, 0.23104903101921082, 0.22961276769638062, 0.23153816163539886]","[0.13663528017134585, -1.4341610466235508, 0.13663528017134585, 0.13663528017134585, 0.13663528017134585, 0.13663528017134585]","[0.13663528017134585, -1.4341610466235508, 0.13663528017134585, 0.13663528017134585, 0.13663528017134585, 0.13663528017134585]",0.002,7,1
0,141,"[0.13595926761627197, -1.4347801816514512, 0.1360247770892542, 0.13601307451214595, 0.13598906993865967, 0.1359330266714096]","[0.22430701553821564, 0.23393018543720245, 0.23080259561538696, 0.2256317138671875, 0.2253560870885849, 0.22811436653137207]","[0.1371734290694457, -1.4336228977254508, 0.1371734290694457, 0.1371734290694457, 0.1371734290694457, 0.1371734290694457]","[0.1371734290694457, -1.4336228977254508, 0.1371734290694457, 0.1371734290694457, 0.1371734290694457, 0.1371734290694457]",0.002,7,1
0,142,"[0.1364307850599289, -1.4343649756959458, 0.13651734987367803, 0.13646428167309566, 0.13635747134685516, 0.13638366758823395]","[0.2210962027311325, 0.23126809298992157, 0.22544816136360168, 0.22044973075389862, 0.22328582406044006, 0.22455285489559174]","[0.13771119266777582, -1.4330851341271207, 0.13771119266777582, 0.13771119266777582, 0.13771119266777582, 0.13771119266777582]","[0.13771119266777582, -1.4330851341271207, 0.13771119266777582, 0.13771119266777582, 0.13771119266777582, 0.13771119266777582]",0.002,7,1
0,143,"[0.13682100176811218, -1.433937520985939, 0.13690406480898076, 0.13691596567120357, 0.13676200807094574, 0.13676948845386505]","[0.21776151657104492, 0.22203849256038666, 0.21978512406349182, 0.21568018198013306, 0.21974140405654907, 0.22050532698631287]","[0.13824856945583813, -1.4325477573390584, 0.13824856945583813, 0.13824856945583813, 0.13824856945583813, 0.13824856945583813]","[0.13824856945583813, -1.4325477573390584, 0.13824856945583813, 0.13824856945583813, 0.13824856945583813, 0.13824856945583813]",0.002,7,1
0,144,"[0.13725656270980835, -1.4335385125926514, 0.13728505769838506, 0.13738779603924556, 0.1372506469488144, 0.137160062789917]","[0.21310898661613464, 0.21681812405586243, 0.21544210612773895, 0.21124564111232758, 0.2141018509864807, 0.21664908528327942]","[0.13878555792422115, -1.4320107688706754, 0.13878555792422115, 0.13878555792422115, 0.13878555792422115, 0.13878555792422115]","[0.13878555792422115, -1.4320107688706754, 0.13878555792422115, 0.13878555792422115, 0.13878555792422115, 0.13878555792422115]",0.002,7,1
0,145,"[0.13764232397079468, -1.4331353467753907, 0.137733284627096, 0.13777856409039302, 0.13764123618602753, 0.13763949275016785]","[0.2092742919921875, 0.21329037845134735, 0.2104542851448059, 0.20699277520179749, 0.2102617472410202, 0.2139231115579605]","[0.13932215656460414, -1.4314741702302924, 0.13932215656460414, 0.13932215656460414, 0.13932215656460414, 0.13932215656460414]","[0.13932215656460414, -1.4314741702302924, 0.13932215656460414, 0.13932215656460414, 0.13932215656460414, 0.13932215656460414]",0.002,7,1
0,146,"[0.1381196826696396, -1.432715655570366, 0.13813811937441045, 0.1382186847874145, 0.13805660605430603, 0.13797703385353088]","[0.20589318871498108, 0.20802605152130127, 0.20604050159454346, 0.2021787166595459, 0.20670191943645477, 0.20872488617897034]","[0.13985836386976125, -1.4309379629251353, 0.13985836386976125, 0.13985836386976125, 0.13985836386976125, 0.13985836386976125]","[0.13985836386976125, -1.4309379629251353, 0.13985836386976125, 0.13985836386976125, 0.13985836386976125, 0.13985836386976125]",0.002,7,1
0,147,"[0.13851071894168854, -1.4323409509709855, 0.13853341737856084, 0.13862137376751704, 0.13844138383865356, 0.13843782246112823]","[0.20207594335079193, 0.20326747000217438, 0.20260518789291382, 0.19794118404388428, 0.20258347690105438, 0.20471756160259247]","[0.14039417833356588, -1.4304021484613307, 0.14039417833356588, 0.14039417833356588, 0.14039417833356588, 0.14039417833356588]","[0.14039417833356588, -1.4304021484613307, 0.14039417833356588, 0.14039417833356588, 0.14039417833356588, 0.14039417833356588]",0.002,7,1
0,148,"[0.1389181762933731, -1.4319735181382676, 0.1389544645892542, 0.13902406274761958, 0.1388195902109146, 0.1388576328754425]","[0.19867633283138275, 0.19963498413562775, 0.1994534134864807, 0.19405518472194672, 0.19892418384552002, 0.20029765367507935]","[0.14092959845099487, -1.4298667283439017, 0.14092959845099487, 0.14092959845099487, 0.14092959845099487, 0.14092959845099487]","[0.14092959845099487, -1.4298667283439017, 0.14092959845099487, 0.14092959845099487, 0.14092959845099487, 0.14092959845099487]",0.002,7,1
0,149,"[0.13928422331809998, -1.431573362355568, 0.13932830492128545, 0.13940338670697017, 0.13920144736766815, 0.13918612897396088]","[0.19399811327457428, 0.19819676876068115, 0.19509652256965637, 0.1904575079679489, 0.19362448155879974, 0.19699352979660034]","[0.14146462271813265, -1.429331704076764, 0.14146462271813265, 0.14146462271813265, 0.14146462271813265, 0.14146462271813265]","[0.14146462271813265, -1.429331704076764, 0.14146462271813265, 0.14146462271813265, 0.14146462271813265, 0.14146462271813265]",0.002,7,1
