Arnibjarnst/BoxLift/logs/ur_rtde/trajectory_dur=10.0_delay=0.2_gain=100_lh=0.05_real.csv
arm_idx,step,actual_q,actual_qd,target_q,expected_q,applied_torque,loop_time,robot_mode,safety_mode
0,-1,"[0.032946910709142685, -1.537913267766573, 0.03280765215028936, 0.03306691228833003, 0.0330667607486248, 0.03302187845110893]","[-0.04486570134758949, -0.04644190892577171, -0.045464638620615005, -0.04032949358224869, -0.042326536029577255, -0.040778566151857376]","[0.0, -1.5707963267948966, 0.0, 0.0, 0.0, 0.0]","[0.0, -1.5707963267948966, 0.0, 0.0, 0.0, 0.0]","[-0.7728703969675232, -15.076110628533968, -10.073440613606945, -4.062965496860368, 4.202140721804973, -0.18869432233420863]",0.002,7,1
0,-1,"[0.03216572105884552, -1.5388068494251748, 0.03194791475404912, 0.03223256647076411, 0.032281842082738876, 0.03221668675541878]","[-0.05923720449209213, -0.05973927676677704, -0.06230981647968292, -0.05619441717863083, -0.05717583745718002, -0.057086504995822906]","[0.0, -1.5707963267948966, 0.0, 0.0, 0.0, 0.0]","[0.0, -1.5707963267948966, 0.0, 0.0, 0.0, 0.0]","[-0.768743867168409, -14.990472579005951, -10.028524316600857, -4.061849044590121, 4.201782192133157, -0.18873977720164895]",0.002,7,1
0,-1,"[0.03101908415555954, -1.5400642373463889, 0.030689064656392873, 0.031050367946289015, 0.031102359294891357, 0.031026417389512062]","[-0.07644046097993851, -0.07260538637638092, -0.07290016114711761, -0.0768120288848877, -0.07831159234046936, -0.07703341543674469]","[0.0, -1.5707963267948966, 0.0, 0.0, 0.0, 0.0]","[0.0, -1.5707963267948966, 0.0, 0.0, 0.0, 0.0]","[-0.7628427855835351, -14.86894714152875, -9.964459814923332, -4.060250968764986, 4.201385861919578, -0.18881038490400337]",0.002,7,1
0,-1,"[0.029540961608290672, -1.5413488310626526, 0.029352490101949513, 0.02966265260662837, 0.029721802100539207, 0.029632510617375374]","[-0.0930851474404335, -0.08804700523614883, -0.08856561034917831, -0.09181546419858932, -0.09349293261766434, -0.0933106318116188]","[0.0, -1.5707963267948966, 0.0, 0.0, 0.0, 0.0]","[0.0, -1.5707963267948966, 0.0, 0.0, 0.0, 0.0]","[-0.7566856101164872, -14.741277213346187, -9.897753291384536, -4.058343747458044, 4.200820589648083, -0.1888854378823311]",0.002,7,1
0,-1,"[0.027985647320747375, -1.5429554407349606, 0.02777749696840459, 0.0280042129703979, 0.02794623374938965, 0.027961919084191322]","[-0.1104002296924591, -0.10251939296722412, -0.10316476970911026, -0.11055057495832443, -0.10926796495914459, -0.10869292169809341]","[0.0, -1.5707963267948966, 0.0, 0.0, 0.0, 0.0]","[0.0, -1.5707963267948966, 0.0, 0.0, 0.0, 0.0]","[-0.7495116244365603, -14.579266064597666, -9.812457607849932, -4.056044078748689, 4.20010854338225, -0.18898091422928193]",0.002,7,1
0,-1,"[0.027082374319434166, -1.5438340169242402, 0.02690297762026006, 0.027053757304809523, 0.026984304189682007, 0.027009019628167152]","[-0.11675527691841125, -0.11253818869590759, -0.11189983785152435, -0.11749112606048584, -0.11594235897064209, -0.11769823729991913]","[0.0, -1.5707963267948966, 0.0, 0.0, 0.0, 0.0]","[0.0, -1.5707963267948966, 0.0, 0.0, 0.0, 0.0]","[-0.7457393925327542, -14.496981243813368, -9.76847164953052, -4.054752377381119, 4.199631071498322, -0.18903119044218916]",0.002,7,1
0,-1,"[0.02511507086455822, -1.5457358074239274, 0.024991814290181935, 0.02506820737805171, 0.025000393390655518, 0.024969596415758133]","[-0.13422317802906036, -0.12820182740688324, -0.12822909653186798, -0.13270264863967896, -0.13198691606521606, -0.1343381255865097]","[0.0, -1.5707963267948966, 0.0, 0.0, 0.0, 0.0]","[0.0, -1.5707963267948966, 0.0, 0.0, 0.0, 0.0]","[-0.7374436299696696, -14.295038737044178, -9.665298590589426, -4.051966819651128, 4.1985058814253975, -0.1891495180909735]",0.002,7,1
0,-1,"[0.020334912464022636, -1.5506236118129273, 0.02031881013979131, 0.02040819704022212, 0.020252617076039314, 0.02021506242454052]","[-0.1648484468460083, -0.16092462837696075, -0.1627303808927536, -0.16826415061950684, -0.1618073582649231, -0.16160331666469574]","[0.0, -1.5707963267948966, 0.0, 0.0, 0.0, 0.0]","[0.0, -1.5707963267948966, 0.0, 0.0, 0.0, 0.0]","[-0.7195703514323915, -13.816012002974515, -9.417185350953243, -4.045260115605578, 4.195247841723465, -0.18943816140209394]",0.002,7,1
0,-1,"[0.017512742429971695, -1.5532799188843747, 0.01761800447572881, 0.01765696584667964, 0.017491253092885017, 0.017476744949817657]","[-0.18262842297554016, -0.17574015259742737, -0.17952729761600494, -0.18340197205543518, -0.18057659268379211, -0.17910534143447876]","[0.0, -1.5707963267948966, 0.0, 0.0, 0.0, 0.0]","[0.0, -1.5707963267948966, 0.0, 0.0, 0.0, 0.0]","[-0.7104359672490161, -13.545138481255325, -9.273780339946416, -4.041417721631417, 4.193133120287887, -0.18961277163556095]",0.002,7,1
0,-1,"[0.014257794246077538, -1.5561671632206817, 0.014548126851217091, 0.014470382327697706, 0.01432567834854126, 0.014289293438196182]","[-0.17205052077770233, -0.1411571204662323, -0.15875382721424103, -0.1683618575334549, -0.17291520535945892, -0.16940093040466309]","[0.0, -1.5707963267948966, 0.0, 0.0, 0.0, 0.0]","[0.0, -1.5707963267948966, 0.0, 0.0, 0.0, 0.0]","[0.7855930163418197, 2.6166655277338275, 0.019781419324211402, -3.4553703624297034, 4.538898497680101, 0.2715091378782398]",0.002,7,1
0,-1,"[0.012560570612549782, -1.557803777312376, 0.012875858937398732, 0.012712760562560987, 0.01272620540112257, 0.01271938905119896]","[-0.15858697891235352, -0.1587424874305725, -0.16348108649253845, -0.16724400222301483, -0.15692991018295288, -0.1583186239004135]","[0.0, -1.5707963267948966, 0.0, 0.0, 0.0, 0.0]","[0.0, -1.5707963267948966, 0.0, 0.0, 0.0, 0.0]","[0.7783413046665522, 2.793540528721815, 0.10977764982558669, -3.4583516439792517, 4.542620920476274, 0.271388002790453]",0.002,7,1
0,-1,"[0.011365140788257122, -1.5589449063739558, 0.011716667805806935, 0.011499329204223585, 0.01148080825805664, 0.011495989747345448]","[-0.1492728441953659, -0.1514132022857666, -0.1514243632555008, -0.1499980092048645, -0.15429289638996124, -0.15322592854499817]","[0.0, -1.5707963267948966, 0.0, 0.0, 0.0, 0.0]","[0.0, -1.5707963267948966, 0.0, 0.0, 0.0, 0.0]","[0.7733412347775566, 2.9138203956730484, 0.1703413434924297, -3.460550809189024, 4.545281481944237, 0.2713006683170543]",0.002,7,1
0,-1,"[0.010136701166629791, -1.560035092090704, 0.01053935686220342, 0.01026706277813716, 0.010367019101977348, 0.010344970971345901]","[-0.14450058341026306, -0.14067955315113068, -0.1450231671333313, -0.1453953981399536, -0.14501313865184784, -0.14602090418338776]","[0.0, -1.5707963267948966, 0.0, 0.0, 0.0, 0.0]","[0.0, -1.5707963267948966, 0.0, 0.0, 0.0, 0.0]","[0.7686884405643364, 3.031753508011235, 0.23044691985028698, -3.462645000130677, 4.547759144358274, 0.2712142939130164]",0.002,7,1
0,-1,"[0.008695452474057674, -1.5613686696491023, 0.00909597078432256, 0.008960290546081495, 0.008965079672634602, 0.00895829126238823]","[-0.1332903504371643, -0.12917408347129822, -0.1328076273202896, -0.13090375065803528, -0.13638193905353546, -0.13532330095767975]","[0.0, -1.5707963267948966, 0.0, 0.0, 0.0, 0.0]","[0.0, -1.5707963267948966, 0.0, 0.0, 0.0, 0.0]","[0.7635503876109444, 3.1656194825420645, 0.297677740007515, -3.465083330725612, 4.550552649879567, 0.2711115389790358]",0.002,7,1
0,-1,"[0.006558750290423632, -1.5636033339290698, 0.0068543593036096695, 0.0065650182911376476, 0.006717043463140726, 0.006690126843750477]","[-0.11661477386951447, -0.11704891175031662, -0.11884403973817825, -0.11650773882865906, -0.11732533574104309, -0.11792819947004318]","[0.0, -1.5707963267948966, 0.0, 0.0, 0.0, 0.0]","[0.0, -1.5707963267948966, 0.0, 0.0, 0.0, 0.0]","[0.7553860308722982, 3.398762016066783, 0.41558142277176735, -3.4689990606734944, 4.554898880347524, 0.2709367251090372]",0.002,7,1
0,-1,"[0.003666570642963052, -1.566595454034843, 0.003928963338033498, 0.0038028198429564952, 0.0038967966102063656, 0.003870050422847271]","[-0.0872063860297203, -0.09487936645746231, -0.09122750163078308, -0.08801187574863434, -0.08841797709465027, -0.09146518260240555]","[0.0, -1.5707963267948966, 0.0, 0.0, 0.0, 0.0]","[0.0, -1.5707963267948966, 0.0, 0.0, 0.0, 0.0]","[0.7457034055059453, 3.7094511574538376, 0.5718771338506461, -3.4739270461343037, 4.560062920602766, 0.2707025153330437]",0.002,7,1
0,-1,"[0.002418767660856247, -1.5680370142548163, 0.0025404135333459976, 0.0024822193333129405, 0.0025507528334856033, 0.0025626816786825657]","[-0.06816128641366959, -0.08049651235342026, -0.07550942897796631, -0.06911958754062653, -0.07156822830438614, -0.07249381393194199]","[0.0, -1.5707963267948966, 0.0, 0.0, 0.0, 0.0]","[0.0, -1.5707963267948966, 0.0, 0.0, 0.0, 0.0]","[0.7416398640404487, 3.853954132223911, 0.644710931087384, -3.4761100499026405, 4.562230226164824, 0.2705944010094225]",0.002,7,1
0,-1,"[0.001665016752667725, -1.5688980034650122, 0.0017159620868127945, 0.0017494398304442882, 0.0017901527462527156, 0.0018129028612747788]","[-0.05789834260940552, -0.07002619653940201, -0.0614083930850029, -0.057897429913282394, -0.06146087870001793, -0.06146964430809021]","[0.0, -1.5707963267948966, 0.0, 0.0, 0.0, 0.0]","[0.0, -1.5707963267948966, 0.0, 0.0, 0.0, 0.0]","[0.7391937613114163, 3.9481805421705145, 0.6908910239976944, -3.477472832871761, 4.563547754476039, 0.2705251080202663]",0.002,7,1
0,-1,"[0.0010900661582127213, -1.5696161848357697, 0.0010598341571252945, 0.0011007028767089366, 0.001146990805864334, 0.0011368074920028448]","[-0.0464775487780571, -0.05438418313860893, -0.04812018573284149, -0.04748985171318054, -0.04837803915143013, -0.0492631271481514]","[0.0, -1.5707963267948966, 0.0, 0.0, 0.0, 0.0]","[0.0, -1.5707963267948966, 0.0, 0.0, 0.0, 0.0]","[0.7372708599862918, 4.026865151956892, 0.7279940478630971, -3.47859329379604, 4.564597723518041, 0.27046968693952467]",0.002,7,1
0,-1,"[0.0006792113999836147, -1.570063130264618, 0.0006678740130823257, 0.000717921847961378, 0.0006645210087299347, 0.0006928987568244338]","[-0.035567060112953186, -0.0399954579770565, -0.03895965963602066, -0.038094233721494675, -0.03825072944164276, -0.03817998245358467]","[0.0, -1.5707963267948966, 0.0, 0.0, 0.0, 0.0]","[0.0, -1.5707963267948966, 0.0, 0.0, 0.0, 0.0]","[0.7360504136511097, 4.073692569112044, 0.7515860794020668, -3.479286200373074, 4.565249113691841, 0.2704317912122914]",0.002,7,1
0,-1,"[0.0003025531768798828, -1.570529533583187, 0.000226322804586232, 0.0003170210072021007, 0.000354766845703125, 0.00032563877175562084]","[-0.025310134515166283, -0.026827963069081306, -0.02650735154747963, -0.02614622376859188, -0.025514675304293633, -0.025786826387047768]","[0.0, -1.5707963267948966, 0.0, 0.0, 0.0, 0.0]","[0.0, -1.5707963267948966, 0.0, 0.0, 0.0, 0.0]","[0.734989697922344, 4.115936680889824, 0.7737085007628051, -3.479910460718521, 4.5658173116490985, 0.27039849783736347]",0.002,7,1
0,-1,"[7.91561760706827e-05, -1.5707515937140961, 2.271333803349762e-05, 5.285322155756944e-05, 3.772131458390504e-05, 2.1595440557575785e-05]","[-0.008582493290305138, -0.011140876449644566, -0.011042997241020203, -0.009954654611647129, -0.01026578713208437, -0.009353778325021267]","[0.0, -1.5707963267948966, 0.0, 0.0, 0.0, 0.0]","[0.0, -1.5707963267948966, 0.0, 0.0, 0.0, 0.0]","[0.7342397958082798, 4.146150875128924, 0.7892321263830331, -3.480357944404557, 4.56621156131961, 0.2703721375763202]",0.002,7,1
0,-1,"[8.530163904652e-05, -1.570829530755514, -1.935720501933247e-05, 6.477415051264757e-05, 0.00011444091796875, 6.170940469019115e-05]","[0.00627656327560544, -0.02126067690551281, -0.0088201267644763, 0.0005355155444703996, 0.0022398256696760654, 0.001177102909423411]","[0.0, -1.5707963267948966, 0.0, 0.0, 0.0, 0.0]","[0.0, -1.5707963267948966, 0.0, 0.0, 0.0, 0.0]","[9.776633775402059e-20, -3.7711455624194836, -3.77308530721604, -3.774582744581107, 4.400844722461883, 0.03987156229758211]",0.002,7,1
0,-1,"[7.766032649669796e-05, -1.570841451684469, -1.4781951904296875e-05, 4.0932292602491316e-05, 0.00011154222738696262, 9.181673522107303e-05]","[0.000719240924809128, 0.011410142295062542, 0.0019308527698740363, 7.211113484117959e-07, 0.0003738125669769943, 0.00044066322152502835]","[0.0, -1.5707963267948966, 0.0, 0.0, 0.0, 0.0]","[0.0, -1.5707963267948966, 0.0, 0.0, 0.0, 0.0]","[-2.760353402877738e-19, -3.7709273113348405, -3.7735561411898333, -3.7745835668716046, 4.400844438740551, 0.039870707537734786]",0.002,7,1
0,-1,"[7.024699152680114e-05, -1.5707560342601319, 3.7495289937794496e-05, 3.187238659663194e-05, 0.00011445869313320145, 6.7603585193865e-05]","[9.097610018216074e-05, 0.004621685948222876, 0.0006453415262512863, 3.6480654482223384e-15, -0.00023986390442587435, 0.00017804093658924103]","[0.0, -1.5707963267948966, 0.0, 0.0, 0.0, 0.0]","[0.0, -1.5707963267948966, 0.0, 0.0, 0.0, 0.0]","[6.548333960245416e-20, -3.775592763253475, -3.7750838285915154, -3.774581999800969, 4.400844246536479, 0.03987230635839402]",0.002,7,1
0,-1,"[9.09505324671045e-05, -1.570803781548971, 1.6514454976856996e-05, 1.554071392817491e-05, 9.602832869859412e-05, 8.397991041420028e-05]","[8.122892904793844e-05, 0.00044575060019269586, 0.0010887151584029198, -9.564445235810126e-08, -0.0005606386112049222, -9.038067946676165e-05]","[0.0, -1.5707963267948966, 0.0, 0.0, 0.0, 0.0]","[0.0, -1.5707963267948966, 0.0, 0.0, 0.0, 0.0]","[-1.4046353981762963e-19, -3.7742156262917828, -3.774373254556503, -3.7745816674196373, 4.400844169370471, 0.03987263426842289]",0.002,7,1
0,-1,"[9.093284461414441e-05, -1.57075463968825, 8.885060445606996e-06, 2.2931689880323347e-05, 0.0001368539669783786, 6.318092346191406e-05]","[3.7635611079167575e-05, 0.0006908633513376117, 0.00038663827581331134, -2.0627740011334466e-18, -0.0008893702179193497, -0.0001598715753061697]","[0.0, -1.5707963267948966, 0.0, 0.0, 0.0, 0.0]","[0.0, -1.5707963267948966, 0.0, 0.0, 0.0, 0.0]","[2.458087131390142e-19, -3.776605348820302, -3.775720241163269, -3.7745815225337322, 4.400844471191503, 0.03987278974557532]",0.002,7,1
0,-1,"[9.415531530976295e-05, -1.5708114109435023, 2.9865895406544496e-05, 5.285322155756944e-05, 8.4032813902013e-05, 3.785848093684763e-05]","[2.373804454691708e-05, 6.062642455875717e-19, 0.00016089860582724214, -0.00043606548570096493, -0.0006637598853558302, -0.0005585228791460395]","[0.0, -1.5707963267948966, 0.0, 0.0, 0.0, 0.0]","[0.0, -1.5707963267948966, 0.0, 0.0, 0.0, 0.0]","[1.2137159089444634e-19, -3.772217001738343, -3.7739191309974154, -3.7745832007222146, 4.4008441030191525, 0.039871098275467115]",0.002,7,1
0,-1,"[7.023811485851184e-05, -1.5708114109435023, 4.116688863575746e-06, -9.016399719286028e-06, 3.0296898330561817e-05, 4.829714089282788e-05]","[2.153271452698391e-06, -0.00011552429350558668, 0.00011547922622412443, -0.0005700585898011923, -0.0009608105174265802, -0.0006976828444749117]","[0.0, -1.5707963267948966, 0.0, 0.0, 0.0, 0.0]","[0.0, -1.5707963267948966, 0.0, 0.0, 0.0, 0.0]","[2.430773627563641e-20, -3.770278740262921, -3.773050139440291, -3.7745854818955964, 4.4008428992013044, 0.039868799348349304]",0.002,7,1
0,-1,"[6.580734043382108e-05, -1.5707920023918014, 3.701845277959137e-05, 2.9130572936963972e-05, 0.00010046291572507471, 5.122416405356489e-05]","[1.2557189823970485e-17, -1.9716753186724278e-13, 0.00012008520570816472, -0.0003522479091770947, -0.0004499520582612604, -0.0009613409638404846]","[0.0, -1.5707963267948966, 0.0, 0.0, 0.0, 0.0]","[0.0, -1.5707963267948966, 0.0, 0.0, 0.0, 0.0]","[-1.740408688326884e-19, -3.776096439978577, -3.775586309597713, -3.7745826696717937, 4.400843202522669, 0.039871613209859096]",0.002,7,1
0,-1,"[8.658139267936349e-05, -1.570787568222233, 2.080598940068512e-05, 3.819047894282335e-05, 2.0146362658124417e-06, 3.2488151191500947e-06]","[7.322954399746973e-29, 0.000626648252364248, 0.00010594887135084718, -0.0006334936479106545, -0.0008871807367540896, -0.0007318873540498316]","[0.0, -1.5707963267948966, 0.0, 0.0, 0.0, 0.0]","[0.0, -1.5707963267948966, 0.0, 0.0, 0.0, 0.0]","[4.0222991114128712e-19, -3.7797335755273367, -3.777055370467375, -3.7745827329340003, 4.40084249162386, 0.039871532497894664]",0.002,7,1
0,-1,"[4.472482396522537e-05, -1.570733479293569, 8.885060445606996e-06, 5.452215161128038e-05, -6.024037496388246e-06, 2.2659560272586532e-05]","[4.270513121968453e-40, 0.0003081127651967108, 9.479008440393955e-05, -0.0003951840626541525, -0.0004883692599833012, -0.0005808843416161835]","[0.0, -1.5707963267948966, 0.0, 0.0, 0.0, 0.0]","[0.0, -1.5707963267948966, 0.0, 0.0, 0.0, 0.0]","[7.445835264623108e-20, -3.774802204410935, -3.7751736866595316, -3.7745848048080273, 4.400842603800888, 0.03986948122883748]",0.002,7,1
0,-1,"[9.860380669124424e-05, -1.5708023510374964, 2.557436098271637e-05, 4.692668579053816e-06, 4.814672138309106e-05, 4.0581231587566435e-05]","[0.0, -0.0002496377856004983, 7.146498683141544e-05, -0.00032805470982566476, -0.0003310760366730392, -0.0004709106869995594]","[0.0, -1.5707963267948966, 0.0, 0.0, 0.0, 0.0]","[0.0, -1.5707963267948966, 0.0, 0.0, 0.0, 0.0]","[4.740313596599979e-20, -3.7741717503295016, -3.7744719479168065, -3.77458471894805, 4.400842432209575, 0.03986956699749164]",0.002,7,1
0,-1,"[6.249213038245216e-05, -1.5708309612669886, -2.8245342491572956e-06, 2.9130572936963972e-05, -1.1269246236622621e-05, 4.9461188609711826e-05]","[0.0, -0.0007933249580673873, 5.2198323828633875e-05, -0.00020861240045633167, -0.000287324539385736, -0.0002907171146944165]","[0.0, -1.5707963267948966, 0.0, 0.0, 0.0, 0.0]","[0.0, -1.5707963267948966, 0.0, 0.0, 0.0, 0.0]","[8.537434499736368e-20, -3.7732479511705974, -3.7737620027417744, -3.7745854080906427, 4.400841906407575, 0.03986887978974885]",0.002,7,1
0,-1,"[7.770848606014624e-05, -1.5708548031248988, 8.885060445606996e-06, 4.0813083312940535e-05, 3.0315062758745626e-05, 4.060806895722635e-05]","[0.0, -0.0005275834701023996, 3.570248736650683e-05, -0.00015747967700008303, -0.00022477931634057313, -0.00020012447203043848]","[0.0, -1.5707963267948966, 0.0, 0.0, 0.0, 0.0]","[0.0, -1.5707963267948966, 0.0, 0.0, 0.0, 0.0]","[-1.539890802062139e-19, -3.7729854680409507, -3.7744737433162534, -3.774586514347497, 4.400844160059067, 0.03986774499326772]",0.002,7,1
0,-1,"[7.462501525878906e-05, -1.5707906049541016, 2.9865895406544496e-05, 1.6271557612412835e-07, 1.1018864825018682e-05, 1.966379932127893e-05]","[-0.00017198457499034703, -1.038359528138244e-06, 4.3919812014792114e-05, -0.00015617877943441272, -0.00018931385420728475, -0.0001895575987873599]","[0.0, -1.5707963267948966, 0.0, 0.0, 0.0, 0.0]","[0.0, -1.5707963267948966, 0.0, 0.0, 0.0, 0.0]","[2.5672894479078613e-20, -3.774535124471896, -3.775286791580697, -3.7745851440873484, 4.400843020382419, 0.03986914254743088]",0.002,7,1
0,-1,"[3.40738297381904e-05, -1.5706930619529267, 4.116688863575746e-06, -2.9878025390672747e-05, -1.1269246236622621e-05, -4.6078358785450746e-05]","[-0.000396729534259066, 0.0007010533008724451, 1.0172671863983851e-05, -0.00014457401994150132, -0.00015308629372157156, -0.00014404584362637252]","[0.0, -1.5707963267948966, 0.0, 0.0, 0.0, 0.0]","[0.0, -1.5707963267948966, 0.0, 0.0, 0.0, 0.0]","[-4.9150617048564e-19, -3.780559425506631, -3.777209365560825, -3.774582929828125, 4.4008426278741055, 0.03987132975523865]",0.002,7,1
0,-1,"[4.615783836925402e-05, -1.5707951200054886, 7.993379701787262e-05, -2.069891009526259e-05, 4.6661298256367445e-05, 3.319853021821473e-06]","[-0.0003671204613056034, 0.0004596644139382988, 9.443393332933536e-13, -0.00012707641872111708, -0.0001357659202767536, -0.00014486617874354124]","[0.0, -1.5707963267948966, 0.0, 0.0, 0.0, 0.0]","[0.0, -1.5707963267948966, 0.0, 0.0, 0.0, 0.0]","[-3.067502107930928e-19, -3.7788554934710024, -3.776777267642903, -3.7745834118341826, 4.40084329702816, 0.03987087568136149]",0.002,7,1
0,-1,"[7.462501525878906e-05, -1.5707980595030726, -4.76837158203125e-06, 3.366052593989366e-05, 3.468715658527799e-05, -2.080598940068512e-05]","[-0.00035658091655932367, -0.0003759594983421266, 1.401298464324817e-44, -9.448649507248774e-05, -6.852392107248306e-05, -0.00010415162978461012]","[0.0, -1.5707963267948966, 0.0, 0.0, 0.0, 0.0]","[0.0, -1.5707963267948966, 0.0, 0.0, 0.0, 0.0]","[-2.91560589807205e-19, -3.7778059626825433, -3.7764730982468757, -3.774584566409592, 4.400842752685234, 0.03986971998924816]",0.002,7,1
0,-1,"[6.68525681248866e-05, -1.5708066425719203, 2.366701234990387e-05, -1.6288166381883684e-05, 4.819488458451815e-05, -2.9865895406544496e-05]","[-0.0006626520771533251, 4.034994708490558e-05, -0.0, -9.707685239845887e-05, -9.773171768756583e-05, -0.00010512644803384319]","[0.0, -1.5707963267948966, 0.0, 0.0, 0.0, 0.0]","[0.0, -1.5707963267948966, 0.0, 0.0, 0.0, 0.0]","[-8.445679490288923e-20, -3.7753597735640554, -3.7748518805729936, -3.774584067562903, 4.40084235487383, 0.039870216717119995]",0.002,7,1
0,-1,"[8.010101009858772e-05, -1.5707531881383439, 4.9893056051075746e-05, 7.097303356928819e-05, 2.2792815798311494e-05, -2.5097523824513246e-05]","[-0.00034811958903446794, 0.00010482576908543706, -0.0, -7.435349107254297e-05, -0.00014532983186654747, -8.422166138188913e-05]","[0.0, -1.5707963267948966, 0.0, 0.0, 0.0, 0.0]","[0.0, -1.5707963267948966, 0.0, 0.0, 0.0, 0.0]","[2.7677773488754013e-20, -3.772654517384696, -3.774071507998736, -3.774585223534402, 4.400842899604889, 0.039869060170915675]",0.002,7,1
0,-1,"[7.128334254957736e-05, -1.5708142719664515, -2.842638423317112e-05, 1.2083644531202253e-05, 4.8194888222496957e-05, -1.3176594869435121e-05]","[-0.00020757285528816283, 4.979967176479971e-13, -0.0, -7.911905413493514e-05, -0.00011853086471091956, -3.3921097042366455e-07]","[0.0, -1.5707963267948966, 0.0, 0.0, 0.0, 0.0]","[0.0, -1.5707963267948966, 0.0, 0.0, 0.0, 0.0]","[1.97222605499487e-20, -3.774032657997446, -3.774546709568623, -3.774584303505281, 4.400842753392713, 0.039869982405123655]",0.002,7,1
0,-1,"[5.170917575014755e-05, -1.5707934659770508, 4.9893056051075746e-05, 3.366052593989366e-05, -3.0819569722950746e-05, -2.9865895406544496e-05]","[-0.00014788159751333296, 3.896301107427196e-26, -0.0, -8.31043507787399e-05, -0.00010007781384047121, -1.716050634654586e-15]","[0.0, -1.5707963267948966, 0.0, 0.0, 0.0, 0.0]","[0.0, -1.5707963267948966, 0.0, 0.0, 0.0, 0.0]","[-3.257333854657254e-20, -3.7764393977910076, -3.775845369167555, -3.7745844877594443, 4.400843155210775, 0.03986979967128327]",0.002,7,1
0,-1,"[8.90445699042175e-06, -1.5707861465274, 0.0, -1.1758213378953997e-05, -4.4171010152638246e-05, 3.337860107421875e-06]","[-0.00011863920371979475, 2.272198509462308e-37, -0.0, -3.3869730486912886e-07, -8.829555008560419e-05, -1.3296110455803387e-22]","[0.0, -1.5707963267948966, 0.0, 0.0, 0.0, 0.0]","[0.0, -1.5707963267948966, 0.0, 0.0, 0.0, 0.0]","[-1.3609633637607935e-19, -3.7799956303895246, -3.7771709859079428, -3.774583542021991, 4.40084202196966, 0.039870718062826736]",0.002,7,1
0,-1,"[3.983211354352534e-05, -1.5707756739905854, 3.606477846318512e-05, 5.166112866206163e-05, -6.372133363896637e-05, 1.5240837456076406e-05]","[-2.8314010705798864e-05, 3.746740549104288e-05, -0.0, -2.624256640172771e-14, -9.479455911787227e-05, -3.046292940123152e-10]","[0.0, -1.5707963267948966, 0.0, 0.0, 0.0, 0.0]","[0.0, -1.5707963267948966, 0.0, 0.0, 0.0, 0.0]","[1.109283322633878e-19, -3.77671398541311, -3.7756044855108213, -3.774585505192084, 4.400843196363451, 0.03986878204658924]",0.002,7,1
0,-1,"[4.732227171189152e-05, -1.5707486730865021, 3.2726918355763246e-05, 4.692668579053816e-06, 6.775188376195729e-05, 1.0833091437234543e-05]","[-1.8447708498570137e-05, 4.881148925051093e-05, -0.0, -7.140023808460683e-05, -6.083915286581032e-05, -2.1701493341604014e-30]","[0.0, -1.5707963267948966, 0.0, 0.0, 0.0, 0.0]","[0.0, -1.5707963267948966, 0.0, 0.0, 0.0, 0.0]","[-2.449023299828092e-20, -3.7742170931619645, -3.7746598600718517, -3.7745846883666316, 4.400842432105509, 0.03986959744604451]",0.002,7,1
0,-1,"[4.732227171189152e-05, -1.5707830351642151, 2.557436098271637e-05, -3.27390483398915e-05, -3.0819569722950746e-05, 4.057216574437916e-05]","[-1.5848827388253994e-05, 2.7519681111698446e-07, -0.0, -6.457014387706295e-05, -5.490119292517193e-05, -7.168286242315029e-40]","[0.0, -1.5707963267948966, 0.0, 0.0, 0.0, 0.0]","[0.0, -1.5707963267948966, 0.0, 0.0, 0.0, 0.0]","[-1.6739447261082483e-19, -3.7762667515282846, -3.7756044084377653, -3.774583154018419, 4.4008415079450875, 0.03987111434425355]",0.002,7,1
0,-1,"[6.379318074323237e-05, -1.5707621854602003, 6.6105519429982e-05, 4.692668579053816e-06, 4.3832536903209984e-05, 3.337860107421875e-06]","[-1.3891830349166412e-05, 2.888696048690952e-22, -0.0, -3.8903435779502615e-06, -5.001940735382959e-05, -0.0]","[0.0, -1.5707963267948966, 0.0, 0.0, 0.0, 0.0]","[0.0, -1.5707963267948966, 0.0, 0.0, 0.0, 0.0]","[-1.1611444451136557e-20, -3.773840080644133, -3.775185786596907, -3.774584375229642, 4.400842039803931, 0.03986990666399273]",0.002,7,1
0,-1,"[-1.732503072560121e-06, -1.5707696033772045, -2.849902375601232e-05, -4.367237426805559e-06, -1.0792409078419496e-05, -5.3707753316700746e-05]","[-1.1423347132222261e-05, 0.0, -0.0, -9.956543544197134e-23, -4.982229998441928e-21, -0.0]","[0.0, -1.5707963267948966, 0.0, 0.0, 0.0, 0.0]","[0.0, -1.5707963267948966, 0.0, 0.0, 0.0, 0.0]","[2.4465769131664665e-19, -3.774391715900638, -3.775737421853412, -3.7745847117928375, 4.400842748422163, 0.03986957267820396]",0.002,7,1
0,-1,"[2.658367156982422e-05, -1.5708261928954066, 4.655519594365387e-05, 7.434482238721785e-06, -1.0792409078419496e-05, -2.557436098271637e-05]","[-1.0252223546558525e-05, 0.0, -0.0, -2.14733797878446e-33, -1.0745225599214002e-31, -0.0]","[0.0, -1.5707963267948966, 0.0, 0.0, 0.0, 0.0]","[0.0, -1.5707963267948966, 0.0, 0.0, 0.0, 0.0]","[-5.2751892601920803e-20, -3.775535440707359, -3.775475304540357, -3.7745836523235092, 4.400843334393129, 0.03987063762478611]",0.002,7,1
0,-1,"[5.4975509556243196e-05, -1.5707740497658342, 1.3653432027638246e-05, -7.34746966557509e-06, -6.024037496388246e-06, 3.320122004879522e-06]","[-8.169231784094233e-12, 0.0, -0.0, -1.6637756796774986e-40, -8.325495329736035e-39, -0.0]","[0.0, -1.5707963267948966, 0.0, 0.0, 0.0, 0.0]","[0.0, -1.5707963267948966, 0.0, 0.0, 0.0, 0.0]","[-1.5512159386237556e-19, -3.77108131786333, -3.773092347321124, -3.7745864701555196, 4.400842341204657, 0.03986780509401188]",0.002,7,1
0,-1,"[2.968692933791317e-05, -1.5708023510374964, 6.977711812794496e-06, -4.367237426805559e-06, 2.2792815798311494e-05, 1.2402543688949663e-05]","[-9.0005400363583e-42, 0.0, -0.0, -0.0, -0.0, -0.0]","[0.0, -1.5707963267948966, 0.0, 0.0, 0.0, 0.0]","[0.0, -1.5707963267948966, 0.0, 0.0, 0.0, 0.0]","[3.657362534790961e-19, -3.777238437562325, -3.7759067671686637, -3.774582693160491, 4.400843238422395, 0.03987159382420874]",0.002,7,1
0,1,"[1.0112762538483366e-05, -1.5707905871207295, 1.1746083394825746e-05, 1.2083644531202253e-05, 3.917523645213805e-05, -8.885060445606996e-06]","[0.0, 0.0, -0.0, -0.0, -0.0, -0.0]","[0.04418479434657463, -1.5266115324483218, 0.04418479434657463, 0.04418479434657463, 0.04418479434657463, 0.04418479434657463]","[0.04418479434657463, -1.5266115324483218, 0.04418479434657463, 0.04418479434657463, 0.04418479434657463, 0.04418479434657463]","[6.652444980092871e-20, -3.7739082651537696, -3.7744223167249467, -3.774585205819246, 4.40084343191637, 0.039869080729398196]",0.002,7,1
0,2,"[3.8504600524902344e-05, -1.570688546901085, 0.00013715425600224762, 2.9130572936963972e-05, 4.664659354602918e-05, 3.4892560506705195e-05]","[0.008997474797070026, 0.11334681510925293, 0.07216808199882507, 0.03325534984469414, 0.02534867450594902, 0.027478618547320366]","[0.04461996713404648, -1.52617635966085, 0.04461996713404648, 0.04461996713404648, 0.04461996713404648, 0.04461996713404648]","[0.04461996713404648, -1.52617635966085, 0.04461996713404648, 0.04461996713404648, 0.04461996713404648, 0.04461996713404648]","[3.1447115969041084, 30.17135885663181, 15.777773002451667, -2.5142934651685063, 5.108779602236485, 1.0270231162023546]",0.002,7,1
0,3,"[1.7742037016432732e-05, -1.5705447059920807, 0.000188175831929982, 0.00011686861004633897, 0.00017277238657698035, 0.00015750691818539053]","[0.01393492054194212, 0.1346636414527893, 0.08785872906446457, 0.05316036194562912, 0.04378330707550049, 0.045471757650375366]","[0.045055069432306895, -1.5257412573625897, 0.045055069432306895, 0.045055069432306895, 0.045055069432306895, 0.045055069432306895]","[0.045055069432306895, -1.5257412573625897, 0.045055069432306895, 0.045055069432306895, 0.045055069432306895, 0.045055069432306895]","[3.1104330941472087, 29.78130114773834, 15.553620578992428, -2.5280759627501546, 5.1003625561795385, 1.01595666634466]",0.002,7,1
0,4,"[9.415214299224317e-05, -1.5703225594810029, 0.0003412405597131851, 0.00021831571545405382, 0.00021497011766768992, 0.00018604446086101234]","[0.018488388508558273, 0.12532567977905273, 0.0851791575551033, 0.05224119871854782, 0.04721812531352043, 0.04653158411383629]","[0.045490100553995036, -1.5253062262409016, 0.045490100553995036, 0.045490100553995036, 0.045490100553995036, 0.045490100553995036]","[0.045490100553995036, -1.5253062262409016, 0.045490100553995036, 0.045490100553995036, 0.045490100553995036, 0.045490100553995036]","[3.1071981162014843, 29.724082014866898, 15.522948390604068, -2.529124461545675, 5.098876057697103, 1.0146505479008023]",0.002,7,1
0,5,"[0.0002570668875705451, -1.570117176776268, 0.0005634466754358414, 0.00028686105694575303, 0.0003245355619583279, 0.0003046264755539596]","[0.031933434307575226, 0.11687180399894714, 0.08410675823688507, 0.050348687916994095, 0.0493030771613121, 0.04999547451734543]","[0.04592505981186254, -1.524871266983034, 0.04592505981186254, 0.04592505981186254, 0.04592505981186254, 0.04592505981186254]","[0.04592505981186254, -1.524871266983034, 0.04592505981186254, 0.04592505981186254, 0.04592505981186254, 0.04592505981186254]","[3.103513962291787, 29.644467463490365, 15.479722649556706, -2.53070695916068, 5.09699868718329, 1.0129649044876483]",0.002,7,1
0,6,"[0.00030695198802277446, -1.569869518662319, 0.000729862843648732, 0.00043098508801264757, 0.0003865571634378284, 0.0004615897196345031]","[0.04204396903514862, 0.11936678737401962, 0.08951695263385773, 0.05649319291114807, 0.0556461364030838, 0.056480661034584045]","[0.0463599465187745, -1.524436380276122, 0.0463599465187745, 0.0463599465187745, 0.0463599465187745, 0.0463599465187745]","[0.0463599465187745, -1.524436380276122, 0.0463599465187745, 0.0463599465187745, 0.0463599465187745, 0.0463599465187745]","[3.098697527910299, 29.551878230864002, 15.428091469148491, -2.532516671345846, 5.094681585306499, 1.0109090712146738]",0.002,7,1
0,7,"[0.0004611795302480459, -1.5696955633214493, 0.0009177366839807632, 0.0005671220966796398, 0.0005307789542712271, 0.0005786290275864303]","[0.05541221797466278, 0.1240861713886261, 0.0933094397187233, 0.0657162144780159, 0.061271313577890396, 0.06215781345963478]","[0.0467947599877107, -1.5240015668071858, 0.0467947599877107, 0.0467947599877107, 0.0467947599877107, 0.0467947599877107]","[0.0467947599877107, -1.5240015668071858, 0.0467947599877107, 0.0467947599877107, 0.0467947599877107, 0.0467947599877107]","[3.093009268487055, 29.44431820280034, 15.36918953353893, -2.5348522597323644, 5.0920699143956485, 1.008486014972289]",0.002,7,1
0,8,"[0.0006064020562916994, -1.5694182879854743, 0.001134220753804982, 0.0007155376621703624, 0.0006087684305384755, 0.0006776055670343339]","[0.07714251428842545, 0.10247305780649185, 0.08459355682134628, 0.07298210263252258, 0.06972155719995499, 0.07049695402383804]","[0.047229499531766576, -1.52356682726313, 0.047229499531766576, 0.047229499531766576, 0.047229499531766576, 0.047229499531766576]","[0.047229499531766576, -1.52356682726313, 0.047229499531766576, 0.047229499531766576, 0.047229499531766576, 0.047229499531766576]","[3.0859245066521215, 29.329717349362532, 15.304782815635814, -2.537435073683535, 5.089090223614293, 1.0056967684328602]",0.002,7,1
0,9,"[0.0007448965916410089, -1.569301165673398, 0.0012853781329553726, 0.0009044843861083507, 0.0007456655730493367, 0.0008992802468128502]","[0.08881844580173492, 0.06874794512987137, 0.06695063412189484, 0.08006760478019714, 0.0803111270070076, 0.08195407688617706]","[0.047664164464154356, -1.5231321623307421, 0.047664164464154356, 0.047664164464154356, 0.047664164464154356, 0.047664164464154356]","[0.047664164464154356, -1.5231321623307421, 0.047664164464154356, 0.047664164464154356, 0.047664164464154356, 0.047664164464154356]","[3.0783673456169574, 29.193628096157024, 15.229567823660284, -2.5404652798734935, 5.085700922219054, 1.0025479757330993]",0.002,7,1
0,10,"[0.0009336555958725512, -1.5692141962102433, 0.0014084021197717789, 0.0010695892521361827, 0.0009153482969850302, 0.0009850735077634454]","[0.09404075890779495, 0.06146600842475891, 0.0861499086022377, 0.08918190002441406, 0.08900515735149384, 0.08810149878263474]","[0.048098754098204126, -1.5226975726966925, 0.048098754098204126, 0.048098754098204126, 0.048098754098204126, 0.048098754098204126]","[0.048098754098204126, -1.5226975726966925, 0.048098754098204126, 0.048098754098204126, 0.048098754098204126, 0.048098754098204126]","[3.069044514024423, 29.05946427655229, 15.153363521405542, -2.543855945786688, 5.082074375386973, 0.9990463220057798]",0.002,7,1
0,11,"[0.0011078729294240475, -1.5689534030719479, 0.0015648047076624039, 0.0011910635181884288, 0.001115407794713974, 0.0012070866068825126]","[0.09951647371053696, 0.09575240314006805, 0.10454347729682922, 0.09810812026262283, 0.09740246832370758, 0.09692651778459549]","[0.048533267747364967, -1.5222630590475317, 0.048533267747364967, 0.048533267747364967, 0.048533267747364967, 0.048533267747364967]","[0.048533267747364967, -1.5222630590475317, 0.048533267747364967, 0.048533267747364967, 0.048533267747364967, 0.048533267747364967]","[3.0585007810167824, 28.916583313176048, 15.071972423985885, -2.5475114283034923, 5.078040987417192, 0.9951880236661258]",0.002,7,1
0,12,"[0.0012771760812029243, -1.5688453718651836, 0.001748387013570607, 0.00139419614758296, 0.0012866916367784142, 0.0014303490752354264]","[0.10527893155813217, 0.10619699209928513, 0.10394151508808136, 0.10644132643938065, 0.10671301931142807, 0.1052548810839653]","[0.048967704725205966, -1.5218286220696906, 0.048967704725205966, 0.048967704725205966, 0.048967704725205966, 0.048967704725205966]","[0.048967704725205966, -1.5218286220696906, 0.048967704725205966, 0.048967704725205966, 0.048967704725205966, 0.048967704725205966]","[3.047566753419977, 28.74808047410875, 14.978640864542674, -2.55132324015483, 5.073462737669213, 0.990990783750976]",0.002,7,1
0,13,"[0.0015360524412244558, -1.5686489206603547, 0.0020430723773401382, 0.001574082965515089, 0.001546572777442634, 0.0016176566714420915]","[0.11059053987264633, 0.10974904894828796, 0.10696457326412201, 0.11078643053770065, 0.11594827473163605, 0.11358354240655899]","[0.049402064345417336, -1.5213942624494792, 0.049402064345417336, 0.049402064345417336, 0.049402064345417336, 0.049402064345417336]","[0.049402064345417336, -1.5213942624494792, 0.049402064345417336, 0.049402064345417336, 0.049402064345417336, 0.049402064345417336]","[3.035299251221322, 28.57817383829278, 14.881518543616822, -2.5557124335872023, 5.068756773480205, 0.9864538343333921]",0.002,7,1
0,14,"[0.0017420639051124454, -1.5684237641147156, 0.0022261778460901382, 0.0018349128910521983, 0.0018350683385506272, 0.0019157686037942767]","[0.11876077204942703, 0.11518534272909164, 0.11375431716442108, 0.11694373935461044, 0.12696479260921478, 0.1225539892911911]","[0.04983634592181149, -1.5209599808730851, 0.04983634592181149, 0.04983634592181149, 0.04983634592181149, 0.04983634592181149]","[0.04983634592181149, -1.5209599808730851, 0.04983634592181149, 0.04983634592181149, 0.04983634592181149, 0.04983634592181149]","[3.022443603708145, 28.387562127976565, 14.77296175116022, -2.560245352406142, 5.063602041599877, 0.9815844088380022]",0.002,7,1
0,15,"[0.0020280294120311737, -1.568095372091495, 0.002523247395650685, 0.0020792919346313, 0.002096349373459816, 0.002139482880011201]","[0.12860919535160065, 0.12317997217178345, 0.12464385479688644, 0.12624607980251312, 0.1331028938293457, 0.13166125118732452]","[0.05027054876832418, -1.5205257780265724, 0.05027054876832418, 0.05027054876832418, 0.05027054876832418, 0.05027054876832418]","[0.05027054876832418, -1.5205257780265724, 0.05027054876832418, 0.05027054876832418, 0.05027054876832418, 0.05027054876832418]","[3.008536449327381, 28.186390451571796, 14.660031180586815, -2.56513653968355, 5.0581815225237845, 0.976389774779422]",0.002,7,1
0,16,"[0.0023609017953276634, -1.567835958009102, 0.002751652394429982, 0.0024257141300658702, 0.002302458044141531, 0.0023914913181215525]","[0.13629776239395142, 0.12846867740154266, 0.13491086661815643, 0.13649457693099976, 0.14198268949985504, 0.13878436386585236]","[0.05070467219901544, -1.5200916545958811, 0.05070467219901544, 0.05070467219901544, 0.05070467219901544, 0.05070467219901544]","[0.05070467219901544, -1.5200916545958811, 0.05070467219901544, 0.05070467219901544, 0.05070467219901544, 0.05070467219901544]","[2.9943682233707127, 27.962930456074574, 14.534954331685851, -2.5703563185401617, 5.052346769007995, 0.9708708330698793]",0.002,7,1
0,17,"[0.0025909203104674816, -1.5676138413003464, 0.0030925909625452164, 0.002770348186157179, 0.0025983001105487347, 0.002688151318579912]","[0.14553123712539673, 0.1421656608581543, 0.14728407561779022, 0.14734797179698944, 0.1486327350139618, 0.14725230634212494]","[0.051138715528070866, -1.5196576112668256, 0.051138715528070866, 0.051138715528070866, 0.051138715528070866, 0.051138715528070866]","[0.051138715528070866, -1.5196576112668256, 0.051138715528070866, 0.051138715528070866, 0.051138715528070866, 0.051138715528070866]","[2.979085276671137, 27.734900818620627, 14.406738560876464, -2.5761410826974975, 5.0463721175631004, 0.9650337755622498]",0.002,7,1
0,18,"[0.0029521838296204805, -1.5673783880523224, 0.003312412892476857, 0.003016038531921339, 0.0029170450288802385, 0.003000096185132861]","[0.1599181890487671, 0.14655321836471558, 0.15220771729946136, 0.15827198326587677, 0.15633666515350342, 0.15537692606449127]","[0.051572678069802536, -1.519223648725094, 0.051572678069802536, 0.051572678069802536, 0.051572678069802536, 0.051572678069802536]","[0.051572678069802536, -1.519223648725094, 0.051572678069802536, 0.051572678069802536, 0.051572678069802536, 0.051572678069802536]","[2.9628555736821367, 27.49631116958246, 14.270676147084643, -2.582132386549494, 5.040077054970543, 0.9588873529119433]",0.002,7,1
0,19,"[0.003301772754639387, -1.5670034152320405, 0.0036266485797327164, 0.003324909801147413, 0.0032535679638385773, 0.0033447633031755686]","[0.16437430679798126, 0.15343056619167328, 0.15716205537319183, 0.16553111374378204, 0.16312646865844727, 0.1630123257637024]","[0.05200655913865015, -1.5187897676562465, 0.05200655913865015, 0.05200655913865015, 0.05200655913865015, 0.05200655913865015]","[0.05200655913865015, -1.5187897676562465, 0.05200655913865015, 0.05200655913865015, 0.05200655913865015, 0.05200655913865015]","[2.945473931949479, 27.249973938255525, 14.131748671093565, -2.58822119942699, 5.033267234378231, 0.9524277675717884]",0.002,7,1
0,20,"[0.0035895570181310177, -1.5667455804399033, 0.003996197377340138, 0.0036232906528930187, 0.0036774335894733667, 0.003666988341137767]","[0.17142480611801147, 0.16018085181713104, 0.16407571732997894, 0.16824348270893097, 0.17265066504478455, 0.17108158767223358]","[0.05244035804918214, -1.5183559687457144, 0.05244035804918214, 0.05244035804918214, 0.05244035804918214, 0.05244035804918214]","[0.05244035804918214, -1.5183559687457144, 0.05244035804918214, 0.05244035804918214, 0.05244035804918214, 0.05244035804918214]","[2.9279708310089108, 26.979878254453887, 13.980657198938253, -2.5946391378287355, 5.026154492379959, 0.9456729184642543]",0.002,7,1
0,21,"[0.003904686076566577, -1.5664005440524598, 0.004301373158590138, 0.003946467036865187, 0.004008099902421236, 0.004047773312777281]","[0.17770534753799438, 0.16713036596775055, 0.16904465854167938, 0.17474301159381866, 0.18148162961006165, 0.17834976315498352]","[0.05287407411609672, -1.5179222526787999, 0.05287407411609672, 0.05287407411609672, 0.05287407411609672, 0.05287407411609672]","[0.05287407411609672, -1.5179222526787999, 0.05287407411609672, 0.05287407411609672, 0.05287407411609672, 0.05287407411609672]","[2.9091660729356876, 26.70743678775512, 13.825629283306274, -2.6012710201435536, 5.018766340858293, 0.9386206498218493]",0.002,7,1
0,22,"[0.004300655331462622, -1.5660781127265473, 0.004673782979146779, 0.00437728940930171, 0.004392615985125303, 0.004416767507791519]","[0.18762384355068207, 0.17563867568969727, 0.17922428250312805, 0.18288041651248932, 0.19068652391433716, 0.183915376663208]","[0.05330770665422299, -1.5174886201406736, 0.05330770665422299, 0.05330770665422299, 0.05330770665422299, 0.05330770665422299]","[0.05330770665422299, -1.5174886201406736, 0.05330770665422299, 0.05330770665422299, 0.05330770665422299, 0.05330770665422299]","[2.8899336558886475, 26.41951209676922, 13.663920016034172, -2.6083249330816063, 5.011063349134249, 0.9312786021573962]",0.002,7,1
0,23,"[0.0047338781878352165, -1.5656344441561778, 0.005067173634664357, 0.004818006152770948, 0.004736812319606543, 0.0048200166784226894]","[0.19552724063396454, 0.18202809989452362, 0.18759062886238098, 0.19291268289089203, 0.19735921919345856, 0.1943039894104004]","[0.05374125497852198, -1.5170550718163747, 0.05374125497852198, 0.05374125497852198, 0.05374125497852198, 0.05374125497852198]","[0.05374125497852198, -1.5170550718163747, 0.05374125497852198, 0.05374125497852198, 0.05374125497852198, 0.05374125497852198]","[2.8699346586231327, 26.121520736545953, 13.495328405990879, -2.615759887799886, 5.00322242801548, 0.923656084900382]",0.002,7,1
0,24,"[0.005165804643183947, -1.56524711967025, 0.005445305501119435, 0.0052925783344726085, 0.005208809860050678, 0.005287542473524809]","[0.20358045399188995, 0.19105495512485504, 0.19626206159591675, 0.2058734893798828, 0.2042066603899002, 0.2042810469865799]","[0.05417471840408779, -1.5166216083908088, 0.05417471840408779, 0.05417471840408779, 0.05417471840408779, 0.05417471840408779]","[0.05417471840408779, -1.5166216083908088, 0.05417471840408779, 0.05417471840408779, 0.05417471840408779, 0.05417471840408779]","[2.8497611308683037, 25.80385750811493, 13.317375224599822, -2.6235053004626163, 4.995031472066708, 0.9157570961081981]",0.002,7,1
0,25,"[0.005626634228974581, -1.564813644891121, 0.005947891865865529, 0.005721731776855421, 0.005591957829892635, 0.005686256568878889]","[0.2129395306110382, 0.20056334137916565, 0.2049024999141693, 0.21687562763690948, 0.21086294949054718, 0.21199984848499298]","[0.05460809624614861, -1.516188230548748, 0.05460809624614861, 0.05460809624614861, 0.05460809624614861, 0.05460809624614861]","[0.05460809624614861, -1.516188230548748, 0.05460809624614861, 0.05460809624614861, 0.05460809624614861, 0.05460809624614861]","[2.8283852153918403, 25.482080487226483, 13.136271721624524, -2.631405518981353, 4.9865947513343425, 0.9075880321732754]",0.002,7,1
0,26,"[0.005968919023871422, -1.5644672972014924, 0.006325546895162404, 0.006192131633422804, 0.006116405129432678, 0.006107782479375601]","[0.2188892960548401, 0.20785266160964966, 0.21129925549030304, 0.22386136651039124, 0.219651460647583, 0.21889355778694153]","[0.05504138782006785, -1.5157549389748286, 0.05504138782006785, 0.05504138782006785, 0.05504138782006785, 0.05504138782006785]","[0.05504138782006785, -1.5157549389748286, 0.05504138782006785, 0.05504138782006785, 0.05504138782006785, 0.05504138782006785]","[2.8068655496874078, 25.14375908247471, 12.945204280623104, -2.639658776300479, 4.977810138609499, 0.8991497965548072]",0.002,7,1
0,27,"[0.006496368441730738, -1.5639676752365013, 0.006758515034810841, 0.006596370334289503, 0.006506612058728933, 0.006548119708895683]","[0.22417108714580536, 0.21615199744701385, 0.22059088945388794, 0.22624406218528748, 0.2286500632762909, 0.2260313630104065]","[0.055474592441345186, -1.5153217343535514, 0.055474592441345186, 0.055474592441345186, 0.055474592441345186, 0.055474592441345186]","[0.055474592441345186, -1.5153217343535514, 0.055474592441345186, 0.055474592441345186, 0.055474592441345186, 0.055474592441345186]","[2.7837935466693278, 24.807163824739483, 12.754938820717763, -2.648046186645917, 4.968807127890582, 0.8904498046040775]",0.002,7,1
0,28,"[0.006985535845160484, -1.5635913026383896, 0.0072358290301721695, 0.007036014194152784, 0.0070794266648590565, 0.006987378466874361]","[0.22956877946853638, 0.2244192212820053, 0.2265460193157196, 0.2299073338508606, 0.23540885746479034, 0.23319952189922333]","[0.0559077094256177, -1.5148886173692788, 0.0559077094256177, 0.0559077094256177, 0.0559077094256177, 0.0559077094256177]","[0.0559077094256177, -1.5148886173692788, 0.0559077094256177, 0.0559077094256177, 0.0559077094256177, 0.0559077094256177]","[2.760961660557573, 24.448064758710807, 12.553895916871745, -2.6567547809560077, 4.959384980329601, 0.8814944966138389]",0.002,7,1
0,29,"[0.00736222742125392, -1.5631308567574997, 0.007711712514058888, 0.007573886508605909, 0.007459936197847128, 0.007462725508958101]","[0.2373783141374588, 0.23110446333885193, 0.2363024652004242, 0.23509052395820618, 0.2430485486984253, 0.24197818338871002]","[0.05634073808866088, -1.5144555887062356, 0.05634073808866088, 0.05634073808866088, 0.05634073808866088, 0.05634073808866088]","[0.05634073808866088, -1.5144555887062356, 0.05634073808866088, 0.05634073808866088, 0.05634073808866088, 0.05634073808866088]","[2.7367622533963987, 24.089356735606223, 12.350490828362277, -2.6655763781766972, 4.949775603996403, 0.8722919785811392]",0.002,7,1
0,30,"[0.007927512750029564, -1.56261402767662, 0.00819427171816045, 0.008073850268981886, 0.007923902943730354, 0.007963442243635654]","[0.24596722424030304, 0.2397836595773697, 0.2417040765285492, 0.24402570724487305, 0.2504739761352539, 0.24936817586421967]","[0.05677367774638972, -1.514022649048507, 0.05677367774638972, 0.05677367774638972, 0.05677367774638972, 0.05677367774638972]","[0.05677367774638972, -1.514022649048507, 0.05677367774638972, 0.05677367774638972, 0.05677367774638972, 0.05677367774638972]","[2.7126096038534584, 23.714553366156657, 12.139290047320365, -2.6750120441651513, 4.940038343357829, 0.8628494602688602]",0.002,7,1
0,31,"[0.008419529534876347, -1.5621503054029127, 0.008740727101461232, 0.008600278491638136, 0.008468056097626686, 0.008486967533826828]","[0.2547592222690582, 0.249105304479599, 0.2494909018278122, 0.2535974979400635, 0.25641053915023804, 0.25609272718429565]","[0.05720652771485992, -1.5135897990800367, 0.05720652771485992, 0.05720652771485992, 0.05720652771485992, 0.05720652771485992]","[0.05720652771485992, -1.5135897990800367, 0.05720652771485992, 0.05720652771485992, 0.05720652771485992, 0.05720652771485992]","[2.6879110910968516, 23.327685024564726, 11.922139958873347, -2.6845141836730235, 4.929939353233903, 0.8531711715840786]",0.002,7,1
0,32,"[0.008969919756054878, -1.5615923193148156, 0.009214703236715138, 0.009110017413757276, 0.008997170254588127, 0.008983015082776546]","[0.2621009647846222, 0.2589748203754425, 0.25515517592430115, 0.26098600029945374, 0.2645285427570343, 0.2613382935523987]","[0.057639287310268766, -1.5131570394846279, 0.057639287310268766, 0.057639287310268766, 0.057639287310268766, 0.057639287310268766]","[0.057639287310268766, -1.5131570394846279, 0.057639287310268766, 0.057639287310268766, 0.057639287310268766, 0.057639287310268766]","[2.662392779847803, 22.935441116386205, 11.70032955505652, -2.694222028209886, 4.919640960809369, 0.8432647669888674]",0.002,7,1
0,33,"[0.00947248563170433, -1.5610718785649915, 0.009747807179586232, 0.0096553999134521, 0.009491226635873318, 0.009494111873209476]","[0.2667433023452759, 0.26134994626045227, 0.262606680393219, 0.2691790759563446, 0.2697935402393341, 0.2716464698314667]","[0.05807195584895635, -1.5127243709459401, 0.05807195584895635, 0.05807195584895635, 0.05807195584895635, 0.05807195584895635]","[0.05807195584895635, -1.5127243709459401, 0.05807195584895635, 0.05807195584895635, 0.05807195584895635, 0.05807195584895635]","[2.636523657307279, 22.530276986773323, 11.47353852395455, -2.704126985071893, 4.909024880774075, 0.8331320124354415]",0.002,7,1
0,34,"[0.010041307657957077, -1.5605528627387066, 0.010263744984762013, 0.010202570552490187, 0.010148589499294758, 0.010089199058711529]","[0.27404817938804626, 0.26860833168029785, 0.2702425718307495, 0.27372533082962036, 0.27821093797683716, 0.2797314524650574]","[0.05850453264740661, -1.51229179414749, 0.05850453264740661, 0.05850453264740661, 0.05850453264740661, 0.05850453264740661]","[0.05850453264740661, -1.51229179414749, 0.05850453264740661, 0.05850453264740661, 0.05850453264740661, 0.05850453264740661]","[2.610109189977123, 22.11848954850402, 11.24166685055312, -2.714384882728584, 4.898258612560354, 0.8227827016568576]",0.002,7,1
0,35,"[0.010556858032941818, -1.5599965837648888, 0.010891262684957326, 0.010747595424316359, 0.010654517449438572, 0.010631438344717026]","[0.2806106209754944, 0.2746831476688385, 0.27643418312072754, 0.27999839186668396, 0.2846473455429077, 0.28506332635879517]","[0.05893701702224843, -1.511859309772648, 0.05893701702224843, 0.05893701702224843, 0.05893701702224843, 0.05893701702224843]","[0.05893701702224843, -1.511859309772648, 0.05893701702224843, 0.05893701702224843, 0.05893701702224843, 0.05893701702224843]","[2.5828216650169735, 21.700794277767695, 11.00660244594447, -2.724669599383268, 4.887219855792218, 0.8122248562164791]",0.002,7,1
0,36,"[0.011083893477916718, -1.5594445255449791, 0.011341873799459279, 0.011414929027221632, 0.011284369975328445, 0.011269798502326012]","[0.28788524866104126, 0.2852964401245117, 0.28236037492752075, 0.2860395908355713, 0.28946027159690857, 0.2908441126346588]","[0.059369408290256664, -1.5114269185046398, 0.059369408290256664, 0.059369408290256664, 0.059369408290256664, 0.059369408290256664]","[0.059369408290256664, -1.5114269185046398, 0.059369408290256664, 0.059369408290256664, 0.059369408290256664, 0.059369408290256664]","[2.5556339151710152, 21.2692877132371, 10.763096718701867, -2.735377662735864, 4.875987863277775, 0.8014609031140515]",0.002,7,1
0,37,"[0.011688239872455597, -1.5588596642813464, 0.011951271687642873, 0.01192287980999751, 0.011849142611026764, 0.011766353622078896]","[0.2936161458492279, 0.28869739174842834, 0.28837060928344727, 0.2921796441078186, 0.29603084921836853, 0.29817813634872437]","[0.05980170576835331, -1.5109946210265432, 0.05980170576835331, 0.05980170576835331, 0.05980170576835331, 0.05980170576835331]","[0.05980170576835331, -1.5109946210265432, 0.05980170576835331, 0.05980170576835331, 0.05980170576835331, 0.05980170576835331]","[2.5273325260870605, 20.83641062355357, 10.520560266837471, -2.7462730904711066, 4.8646498193326035, 0.7905013846705982]",0.002,7,1
0,38,"[0.012280742637813091, -1.5582590841552992, 0.012577358876363576, 0.012594981784484816, 0.012465748935937881, 0.012391796335577965]","[0.29947391152381897, 0.29659155011177063, 0.29343855381011963, 0.2997432053089142, 0.3043912649154663, 0.30572420358657837]","[0.060233908773608465, -1.510562418021288, 0.060233908773608465, 0.060233908773608465, 0.060233908773608465, 0.060233908773608465]","[0.060233908773608465, -1.510562418021288, 0.060233908773608465, 0.060233908773608465, 0.060233908773608465, 0.060233908773608465]","[2.4990587021909945, 20.390080526104892, 10.269281932637812, -2.7573060520407315, 4.85292812087353, 0.7793428822054623]",0.002,7,1
0,39,"[0.012979745864868164, -1.5576714438251038, 0.013211075459615529, 0.013203545207641554, 0.013056876137852669, 0.013064732775092125]","[0.30666255950927734, 0.30278480052948, 0.29978448152542114, 0.30574512481689453, 0.3092934489250183, 0.31172284483909607]","[0.060666016623241524, -1.510130310171655, 0.060666016623241524, 0.060666016623241524, 0.060666016623241524, 0.060666016623241524]","[0.060666016623241524, -1.510130310171655, 0.060666016623241524, 0.060666016623241524, 0.060666016623241524, 0.060666016623241524]","[2.470378988940281, 19.93541842289338, 10.013298336937346, -2.7686650098488337, 4.8411669157540365, 0.7680069950849666]",0.002,7,1
0,40,"[0.013607406057417393, -1.5570643993890663, 0.013762299214498341, 0.01388196527447505, 0.0137114766985178, 0.013676838018000126]","[0.31177815794944763, 0.31235164403915405, 0.30623844265937805, 0.3127461373806, 0.3149905800819397, 0.31866565346717834]","[0.061098028634622194, -1.5096982981602745, 0.061098028634622194, 0.061098028634622194, 0.061098028634622194, 0.061098028634622194]","[0.061098028634622194, -1.5096982981602745, 0.061098028634622194, 0.061098028634622194, 0.061098028634622194, 0.061098028634622194]","[2.4411706342133574, 19.475368334293737, 9.753937283140619, -2.780203694931939, 4.829164237679367, 0.756489916218422]",0.002,7,1
0,41,"[0.014258677139878273, -1.5564026099494477, 0.014356438313619435, 0.014489694232604933, 0.01431023795157671, 0.014317309483885765]","[0.31901806592941284, 0.32065749168395996, 0.3157534599304199, 0.3189886510372162, 0.3209160268306732, 0.32452067732810974]","[0.06152994412527155, -1.509266382669625, 0.06152994412527155, 0.06152994412527155, 0.06152994412527155, 0.06152994412527155]","[0.06152994412527155, -1.509266382669625, 0.06152994412527155, 0.06152994412527155, 0.06152994412527155, 0.06152994412527155]","[2.4113099797698636, 19.010231374454186, 9.492846699584781, -2.7919373039210487, 4.817023503031297, 0.7447981671773383]",0.002,7,1
0,42,"[0.014875552617013454, -1.555730466996767, 0.015040222798482716, 0.015115423793456984, 0.014988237991929054, 0.014955584891140461]","[0.32635536789894104, 0.3247767984867096, 0.3228149116039276, 0.3239521384239197, 0.3258432447910309, 0.3287394642829895]","[0.06196176241286319, -1.5088345643820333, 0.06196176241286319, 0.06196176241286319, 0.06196176241286319, 0.06196176241286319]","[0.06196176241286319, -1.5088345643820333, 0.06196176241286319, 0.06196176241286319, 0.06196176241286319, 0.06196176241286319]","[2.3813908413224496, 18.53388359662634, 9.225860179097793, -2.8038475398903278, 4.804621807927675, 0.7329387216571949]",0.002,7,1
0,43,"[0.015531215816736221, -1.5550782096436997, 0.015708748494283498, 0.01580755292858882, 0.01567217707633972, 0.015595630742609501]","[0.33060911297798157, 0.3314167857170105, 0.3277839124202728, 0.32676592469215393, 0.33225834369659424, 0.33401063084602356]","[0.062393482815224256, -1.5084028439796724, 0.062393482815224256, 0.062393482815224256, 0.062393482815224256, 0.062393482815224256]","[0.062393482815224256, -1.5084028439796724, 0.062393482815224256, 0.062393482815224256, 0.062393482815224256, 0.062393482815224256]","[2.3511907384795334, 18.04897549803533, 8.953229441422295, -2.8158942985728825, 4.792033951855593, 0.7209207361190091]",0.002,7,1
0,44,"[0.01617753691971302, -1.5544719950160761, 0.01634246507753545, 0.016451163882873487, 0.01629503443837166, 0.016349539160728455]","[0.3375130891799927, 0.3343237340450287, 0.33191484212875366, 0.33061400055885315, 0.341023713350296, 0.3409145772457123]","[0.06282510465033653, -1.50797122214456, 0.06282510465033653, 0.06282510465033653, 0.06282510465033653, 0.06282510465033653]","[0.06282510465033653, -1.50797122214456, 0.06282510465033653, 0.06282510465033653, 0.06282510465033653, 0.06282510465033653]","[2.320439546168752, 17.560505171977443, 8.678345240875068, -2.8282025795350823, 4.77936422369466, 0.7087491969953478]",0.002,7,1
0,45,"[0.016920028254389763, -1.5537538540414353, 0.016969982777730763, 0.01715509473767085, 0.017012597993016243, 0.016956260427832603]","[0.3426625728607178, 0.34120646119117737, 0.3401432931423187, 0.33606722950935364, 0.3464541435241699, 0.34731587767601013]","[0.06325662723633747, -1.507539699558559, 0.06325662723633747, 0.06325662723633747, 0.06325662723633747, 0.06325662723633747]","[0.06325662723633747, -1.507539699558559, 0.06325662723633747, 0.06325662723633747, 0.06325662723633747, 0.06325662723633747]","[2.2890099591598143, 17.071261261918337, 8.402564705671715, -2.840732838576744, 4.766556073262179, 0.696429307766252]",0.002,7,1
0,46,"[0.01759946718811989, -1.5529989705285807, 0.017636601124898732, 0.017767472858093214, 0.01764695905148983, 0.017700836062431335]","[0.3476541340351105, 0.34362176060676575, 0.34275200963020325, 0.34234365820884705, 0.3516947329044342, 0.3527577519416809]","[0.0636880498915214, -1.5071082769033752, 0.0636880498915214, 0.0636880498915214, 0.0636880498915214, 0.0636880498915214]","[0.0636880498915214, -1.5071082769033752, 0.0636880498915214, 0.0636880498915214, 0.0636880498915214, 0.0636880498915214]","[2.2575975468083995, 16.56899047840951, 8.121343159733005, -2.8533680427721, 4.753553998282465, 0.6839668474800948]",0.002,7,1
0,47,"[0.018300114199519157, -1.5523246687701722, 0.018355671559469044, 0.01850513994183345, 0.01841488666832447, 0.01842361129820347]","[0.3527955114841461, 0.34956443309783936, 0.3507955074310303, 0.35046038031578064, 0.35681793093681335, 0.35875818133354187]","[0.06411937193434043, -1.506676954860556, 0.06411937193434043, 0.06411937193434043, 0.06411937193434043, 0.06411937193434043]","[0.06411937193434043, -1.506676954860556, 0.06411937193434043, 0.06411937193434043, 0.06411937193434043, 0.06411937193434043]","[2.2261337803038272, 16.058030462257125, 7.835389680146896, -2.8661698699237137, 4.740345033423479, 0.6713706818899293]",0.002,7,1
0,48,"[0.01906024105846882, -1.5516512107900162, 0.01910573640932256, 0.0191616254993896, 0.019134679809212685, 0.019152045249938965]","[0.36024239659309387, 0.35574421286582947, 0.35477572679519653, 0.35765573382377625, 0.3628479242324829, 0.3622223138809204]","[0.06455059268340568, -1.506245734111491, 0.06455059268340568, 0.06455059268340568, 0.06455059268340568, 0.06455059268340568]","[0.06455059268340568, -1.506245734111491, 0.06455059268340568, 0.06455059268340568, 0.06455059268340568, 0.06455059268340568]","[2.1939006631021725, 15.547509803140546, 7.547706952853947, -2.8791677967200573, 4.727109372673419, 0.6586482990436373]",0.002,7,1
0,49,"[0.019770335406064987, -1.5509344276836892, 0.01980477968324834, 0.01988784849133296, 0.019810089841485023, 0.019850358366966248]","[0.3653966188430786, 0.3598533868789673, 0.36219534277915955, 0.3639072775840759, 0.3673907220363617, 0.36897504329681396]","[0.06498171145748827, -1.5058146153374083, 0.06498171145748827, 0.06498171145748827, 0.06498171145748827, 0.06498171145748827]","[0.06498171145748827, -1.5058146153374083, 0.06498171145748827, 0.06498171145748827, 0.06498171145748827, 0.06498171145748827]","[2.161396069317949, 15.031936783075299, 7.256796018457356, -2.8923176947860063, 4.713704279596112, 0.6458012376503007]",0.002,7,1
0,50,"[0.0204799585044384, -1.5501365915736933, 0.020561997090474904, 0.020625277156494093, 0.020570609718561172, 0.02063192054629326]","[0.3700990676879883, 0.366123229265213, 0.3675536811351776, 0.3701106607913971, 0.3716876804828644, 0.373627245426178]","[0.06541272757552037, -1.5053835992193763, 0.06541272757552037, 0.06541272757552037, 0.06541272757552037, 0.06541272757552037]","[0.06541272757552037, -1.5053835992193763, 0.06541272757552037, 0.06541272757552037, 0.06541272757552037, 0.06541272757552037]","[2.1286874032240792, 14.510122413250727, 6.963562773439753, -2.905713536842099, 4.700242390641402, 0.6328380686694793]",0.002,7,1
0,51,"[0.021255824714899063, -1.5494506985745211, 0.02122813860048467, 0.021312518710754347, 0.021406814455986023, 0.02138478122651577]","[0.37553057074546814, 0.3697830140590668, 0.37271925806999207, 0.3762970268726349, 0.37790387868881226, 0.37765923142433167]","[0.06584364035659639, -1.5049526864383003, 0.06584364035659639, 0.06584364035659639, 0.06584364035659639, 0.06584364035659639]","[0.06584364035659639, -1.5049526864383003, 0.06584364035659639, 0.06584364035659639, 0.06584364035659639, 0.06584364035659639]","[2.0960868010007125, 13.97699448696784, 6.664670557668483, -2.9191728831599857, 4.686586189531253, 0.6197692542231766]",0.002,7,1
0,52,"[0.022043198347091675, -1.5486279011568804, 0.022042576466695607, 0.022071047420165968, 0.022095870226621628, 0.02217605523765087]","[0.38115617632865906, 0.37279707193374634, 0.37820911407470703, 0.3839474618434906, 0.3821622133255005, 0.3819538950920105]","[0.06627444911997396, -1.5045218776749225, 0.06627444911997396, 0.06627444911997396, 0.06627444911997396, 0.06627444911997396]","[0.06627444911997396, -1.5045218776749225, 0.06627444911997396, 0.06627444911997396, 0.06627444911997396, 0.06627444911997396]","[2.0622507201105957, 13.451730159193094, 6.369242692925508, -2.932741042963892, 4.672854776870112, 0.6065915524944041]",0.002,7,1
0,53,"[0.02278563380241394, -1.547882317831256, 0.022771183644429982, 0.022766633624694776, 0.022897496819496155, 0.022922830656170845]","[0.38566359877586365, 0.3766687512397766, 0.3814500868320465, 0.3889894485473633, 0.3885456919670105, 0.38648277521133423]","[0.06670515318507503, -1.5040911736098215, 0.06670515318507503, 0.06670515318507503, 0.06670515318507503, 0.06670515318507503]","[0.06670515318507503, -1.5040911736098215, 0.06670515318507503, 0.06670515318507503, 0.06670515318507503, 0.06670515318507503]","[2.029338867653707, 12.907823609841712, 6.063983262505786, -2.946577138958107, 4.65903288314943, 0.5933227585166706]",0.002,7,1
0,54,"[0.02352665178477764, -1.5471206375262518, 0.023504082356588185, 0.023544474239013624, 0.023698732256889343, 0.023710133507847786]","[0.391722172498703, 0.38090312480926514, 0.38512805104255676, 0.39369288086891174, 0.3941589593887329, 0.39077216386795044]","[0.06713575187148693, -1.5036605749234095, 0.06713575187148693, 0.06713575187148693, 0.06713575187148693, 0.06713575187148693]","[0.06713575187148693, -1.5036605749234095, 0.06713575187148693, 0.06713575187148693, 0.06713575187148693, 0.06713575187148693]","[1.9953562563539964, 12.369568035633753, 5.761478206325159, -2.9604651054708557, 4.64510690503448, 0.5799576350667494]",0.002,7,1
0,55,"[0.024337781593203545, -1.5463192474893113, 0.024314228688375294, 0.024313612575195265, 0.02450428530573845, 0.02449858747422695]","[0.3956429064273834, 0.38393911719322205, 0.3884017765522003, 0.3976629376411438, 0.3963395953178406, 0.39514806866645813]","[0.06756624449896355, -1.503230082295933, 0.06756624449896355, 0.06756624449896355, 0.06756624449896355, 0.06756624449896355]","[0.06756624449896355, -1.503230082295933, 0.06756624449896355, 0.06756624449896355, 0.06756624449896355, 0.06756624449896355]","[1.9611803807311552, 11.8268484543581, 5.456618396798777, -2.9745496984459896, 4.631149012142049, 0.5665104787202208]",0.002,7,1
0,56,"[0.0251772440969944, -1.5455662173083802, 0.02511769929994756, 0.025110526675842237, 0.025337569415569305, 0.025319229811429977]","[0.40192341804504395, 0.38825997710227966, 0.3938579261302948, 0.40260282158851624, 0.4010966420173645, 0.3988858461380005]","[0.0679966303874262, -1.5027996964074704, 0.0679966303874262, 0.0679966303874262, 0.0679966303874262, 0.0679966303874262]","[0.0679966303874262, -1.5027996964074704, 0.0679966303874262, 0.0679966303874262, 0.0679966303874262, 0.0679966303874262]","[1.9270999404467193, 11.276244314459497, 5.147129635031411, -2.98874722260245, 4.617073242690522, 0.5529858689666693]",0.002,7,1
0,57,"[0.025963816791772842, -1.544708253150322, 0.025895420704976857, 0.025922341937683058, 0.026075081899762154, 0.026165960356593132]","[0.4062112867832184, 0.3939334750175476, 0.3964013159275055, 0.40717339515686035, 0.4046095013618469, 0.40106648206710815]","[0.06842690885696494, -1.5023694179379317, 0.06842690885696494, 0.06842690885696494, 0.06842690885696494, 0.06842690885696494]","[0.06842690885696494, -1.5023694179379317, 0.06842690885696494, 0.06842690885696494, 0.06842690885696494, 0.06842690885696494]","[1.8924422998919574, 10.727040896353461, 4.837630785835013, -3.003098167316537, 4.6029729703708995, 0.5393890377539855]",0.002,7,1
0,58,"[0.026790209114551544, -1.5439824026874085, 0.026706520711080373, 0.02672354757275386, 0.026956696063280106, 0.0269575584679842]","[0.41086211800575256, 0.3944069743156433, 0.404338538646698, 0.41155654191970825, 0.4095034599304199, 0.40562334656715393]","[0.0688570792278394, -1.5019392475670572, 0.0688570792278394, 0.0688570792278394, 0.0688570792278394, 0.0688570792278394]","[0.0688570792278394, -1.5019392475670572, 0.0688570792278394, 0.0688570792278394, 0.0688570792278394, 0.0688570792278394]","[1.858068192476758, 10.167922446800606, 4.524531294779226, -3.017604868248543, 4.588808553268325, 0.5257272587763853]",0.002,7,1
0,59,"[0.027584735304117203, -1.5431412824294348, 0.027533833180562794, 0.027527256602905226, 0.02782260626554489, 0.027790499851107597]","[0.4136223793029785, 0.3987940847873688, 0.4076355993747711, 0.41586965322494507, 0.41081422567367554, 0.4106193780899048]","[0.0692871408204801, -1.5015091859744165, 0.0692871408204801, 0.0692871408204801, 0.0692871408204801, 0.0692871408204801]","[0.0692871408204801, -1.5015091859744165, 0.0692871408204801, 0.0692871408204801, 0.0692871408204801, 0.0692871408204801]","[1.8226888689153982, 9.616331890492766, 4.213052009978705, -3.0321946141807437, 4.57460401665975, 0.5120022645312793]",0.002,7,1
0,60,"[0.02834142930805683, -1.5423010450652619, 0.028341118489400685, 0.028389616603515577, 0.02863347716629505, 0.028625786304473877]","[0.41869479417800903, 0.4029731750488281, 0.41401195526123047, 0.4194715619087219, 0.41689443588256836, 0.4150877892971039]","[0.06971709295548933, -1.5010792338394072, 0.06971709295548933, 0.06971709295548933, 0.06971709295548933, 0.06971709295548933]","[0.06971709295548933, -1.5010792338394072, 0.06971709295548933, 0.06971709295548933, 0.06971709295548933, 0.06971709295548933]","[1.7876981061047164, 9.053550028409118, 3.896996969003524, -3.0468684141980984, 4.560286748302918, 0.4982253817448938]",0.002,7,1
0,61,"[0.029186459258198738, -1.5414672058871766, 0.029186073933736623, 0.02924625455822749, 0.02954585663974285, 0.029469424858689308]","[0.42163628339767456, 0.4073735475540161, 0.41458892822265625, 0.4251645505428314, 0.41980066895484924, 0.4188709557056427]","[0.07014693495364233, -1.5006493918412542, 0.07014693495364233, 0.07014693495364233, 0.07014693495364233, 0.07014693495364233]","[0.07014693495364233, -1.5006493918412542, 0.07014693495364233, 0.07014693495364233, 0.07014693495364233, 0.07014693495364233]","[1.7524531191415966, 8.489475278379416, 3.580349220971349, -3.061718067434274, 4.545994649535132, 0.48440101414389614]",0.002,7,1
0,62,"[0.03003297932446003, -1.5406275403550644, 0.03003865877260381, 0.03006701051678462, 0.030376380309462547, 0.030315205454826355]","[0.4267044961452484, 0.4082470238208771, 0.4205069839954376, 0.4294866919517517, 0.42326101660728455, 0.4207766652107239]","[0.07057666613588828, -1.5002196606590084, 0.07057666613588828, 0.07057666613588828, 0.07057666613588828, 0.07057666613588828]","[0.07057666613588828, -1.5002196606590084, 0.07057666613588828, 0.07057666613588828, 0.07057666613588828, 0.07057666613588828]","[1.7169372172791322, 7.923670309507626, 3.262182388503609, -3.0766206620026306, 4.531614732745145, 0.470534561478386]",0.002,7,1
0,63,"[0.03086725063621998, -1.5397959922305127, 0.030867878590719044, 0.030987425441406202, 0.03119894303381443, 0.031139053404331207]","[0.4305121898651123, 0.413674533367157, 0.42289257049560547, 0.43366506695747375, 0.4286397099494934, 0.4262011647224426]","[0.07100628582335153, -1.499790040971545, 0.07100628582335153, 0.07100628582335153, 0.07100628582335153, 0.07100628582335153]","[0.07100628582335153, -1.499790040971545, 0.07100628582335153, 0.07100628582335153, 0.07100628582335153, 0.07100628582335153]","[1.6812853318408632, 7.355795336766448, 2.942821549178128, -3.0916472418816405, 4.517237887917286, 0.45663113334049066]",0.002,7,1
0,64,"[0.031789787113666534, -1.5389513795128842, 0.031807724629537404, 0.0318646866032104, 0.032091643661260605, 0.032084859907627106]","[0.4353310465812683, 0.41657310724258423, 0.4254155158996582, 0.43842145800590515, 0.4290195405483246, 0.42961040139198303]","[0.07143579333733246, -1.4993605334575641, 0.07143579333733246, 0.07143579333733246, 0.07143579333733246, 0.07143579333733246]","[0.07143579333733246, -1.4993605334575641, 0.07143579333733246, 0.07143579333733246, 0.07143579333733246, 0.07143579333733246]","[1.6453199156707285, 6.787988576023432, 2.623548360267253, -3.1068217453809384, 4.502896726460466, 0.44269824861852075]",0.002,7,1
0,65,"[0.03263627737760544, -1.5380610165051003, 0.03262168565859014, 0.0327804523655395, 0.03293229639530182, 0.032915614545345306]","[0.4402987062931061, 0.41847294569015503, 0.4301544725894928, 0.443465918302536, 0.43349939584732056, 0.43259283900260925]","[0.07186518799930869, -1.498931138795588, 0.07186518799930869, 0.07186518799930869, 0.07186518799930869, 0.07186518799930869]","[0.07186518799930869, -1.498931138795588, 0.07186518799930869, 0.07186518799930869, 0.07186518799930869, 0.07186518799930869]","[1.609412193816295, 6.215516581100253, 2.300674503927772, -3.1220181158471543, 4.48844997975408, 0.4287438345375537]",0.002,7,1
0,66,"[0.03354760259389877, -1.5372009512833138, 0.03350526491274053, 0.033691568965576124, 0.03371699899435043, 0.033783841878175735]","[0.4415898025035858, 0.4239702522754669, 0.43249452114105225, 0.44568949937820435, 0.43514367938041687, 0.4352364242076874]","[0.07229446913093615, -1.4985018576639604, 0.07229446913093615, 0.07229446913093615, 0.07229446913093615, 0.07229446913093615]","[0.07229446913093615, -1.4985018576639604, 0.07229446913093615, 0.07229446913093615, 0.07229446913093615, 0.07229446913093615]","[1.5732421539260817, 5.642232303224518, 1.9793792491031883, -3.1373336551582454, 4.474051779613914, 0.41476768197784003]",0.002,7,1
0,67,"[0.03439711779356003, -1.5363835667124768, 0.034319702778951466, 0.03460137426342769, 0.0346645824611187, 0.03469599038362503]","[0.4430728852748871, 0.42498114705085754, 0.4354303181171417, 0.44595015048980713, 0.43819713592529297, 0.43696585297584534]","[0.07272363605405009, -1.4980726907408464, 0.07272363605405009, 0.07272363605405009, 0.07272363605405009, 0.07272363605405009]","[0.07272363605405009, -1.4980726907408464, 0.07272363605405009, 0.07272363605405009, 0.07272363605405009, 0.07272363605405009]","[1.5369069150041184, 5.0688013336264355, 1.656719149917949, -3.152743773826712, 4.459682284976285, 0.40077985117054027]",0.002,7,1
0,68,"[0.03532939776778221, -1.5355129067650815, 0.035282437001363576, 0.03550021230664058, 0.03559108078479767, 0.035562075674533844]","[0.4470347762107849, 0.43198734521865845, 0.4357071816921234, 0.4476790428161621, 0.44065091013908386, 0.44008803367614746]","[0.07315268809066618, -1.4976436387042305, 0.07315268809066618, 0.07315268809066618, 0.07315268809066618, 0.07315268809066618]","[0.07315268809066618, -1.4976436387042305, 0.07315268809066618, 0.07315268809066618, 0.07315268809066618, 0.07315268809066618]","[1.4998650884206204, 4.500672740283701, 1.3369962710499348, -3.1682054608850483, 4.445294255931167, 0.38678333452536073]",0.002,7,1
0,69,"[0.036223843693733215, -1.5345646154931565, 0.03616696992983037, 0.036371155376098585, 0.03647466376423836, 0.03640729561448097]","[0.44943296909332275, 0.4323093295097351, 0.43923017382621765, 0.44647857546806335, 0.4436725974082947, 0.4428297281265259]","[0.07358162456298162, -1.4972147022319149, 0.07358162456298162, 0.07358162456298162, 0.07358162456298162, 0.07358162456298162]","[0.07358162456298162, -1.4972147022319149, 0.07358162456298162, 0.07358162456298162, 0.07358162456298162, 0.07358162456298162]","[1.4632787704596955, 3.9242854867715957, 1.0119334395779256, -3.1836975394237146, 4.430836756410627, 0.3727867364977273]",0.002,7,1
0,70,"[0.03719902038574219, -1.5337918040207406, 0.0371325651751917, 0.037329478854797316, 0.03737515211105347, 0.037261977791786194]","[0.45050305128097534, 0.4370194375514984, 0.4444126784801483, 0.4485705494880676, 0.4474436342716217, 0.4467770755290985]","[0.07401044479337612, -1.4967858820015205, 0.07401044479337612, 0.07401044479337612, 0.07401044479337612, 0.07401044479337612]","[0.07401044479337612, -1.4967858820015205, 0.07401044479337612, 0.07401044479337612, 0.07401044479337612, 0.07401044479337612]","[1.426715998861102, 3.3442292421157234, 0.6868893673163989, -3.199240428917171, 4.4164023897142295, 0.35879302443117983]",0.002,7,1
0,71,"[0.03813707455992699, -1.5328387816301365, 0.03796893755067998, 0.03825382768597407, 0.038276489824056625, 0.03817040100693703]","[0.45632949471473694, 0.43988484144210815, 0.4471692740917206, 0.44871440529823303, 0.4493780732154846, 0.4489598870277405]","[0.07443914810441309, -1.4963571786904835, 0.07443914810441309, 0.07443914810441309, 0.07443914810441309, 0.07443914810441309]","[0.07443914810441309, -1.4963571786904835, 0.07443914810441309, 0.07443914810441309, 0.07443914810441309, 0.07443914810441309]","[1.3892735302946746, 2.775656975472827, 0.3644501008700658, -3.214915546196289, 4.402083532288975, 0.3448094485365709]",0.002,7,1
0,72,"[0.039009030908346176, -1.5319724579206486, 0.03888541856874639, 0.03919343530621333, 0.03921359404921532, 0.039077796041965485]","[0.45845282077789307, 0.4452543258666992, 0.45245033502578735, 0.45210590958595276, 0.45170313119888306, 0.45202547311782837]","[0.07486773381884058, -1.495928592976056, 0.07486773381884058, 0.07486773381884058, 0.07486773381884058, 0.07486773381884058]","[0.07486773381884058, -1.495928592976056, 0.07486773381884058, 0.07486773381884058, 0.07486773381884058, 0.07486773381884058]","[1.3522347917703037, 2.197455393856192, 0.04094061244995739, -3.230585509847063, 4.3877272349586995, 0.3308413907948138]",0.002,7,1
0,73,"[0.03993215411901474, -1.5311670687845726, 0.03979474702943975, 0.040146394366882276, 0.0400368794798851, 0.03995611518621445]","[0.4599059224128723, 0.44955942034721375, 0.4521715044975281, 0.4566669762134552, 0.4539160132408142, 0.45545974373817444]","[0.07529620125959248, -1.495500125535304, 0.07529620125959248, 0.07529620125959248, 0.07529620125959248, 0.07529620125959248]","[0.07529620125959248, -1.495500125535304, 0.07529620125959248, 0.07529620125959248, 0.07529620125959248, 0.07529620125959248]","[1.3147615500530963, 1.6244545251237468, -0.2819880444876741, -3.2463220635030146, 4.373418160750561, 0.3168937740478017]",0.002,7,1
0,74,"[0.04083070531487465, -1.5301849407008667, 0.04071551958192998, 0.04112474500622554, 0.04099658131599426, 0.040845345705747604]","[0.4631405174732208, 0.4527042508125305, 0.45551103353500366, 0.45850232243537903, 0.45692911744117737, 0.4585515260696411]","[0.07572454974978947, -1.4950717770451072, 0.07572454974978947, 0.07572454974978947, 0.07572454974978947, 0.07572454974978947]","[0.07572454974978947, -1.4950717770451072, 0.07572454974978947, 0.07572454974978947, 0.07572454974978947, 0.07572454974978947]","[1.2768488381968477, 1.0570671254475488, -0.6027484202587017, -3.2621378340713942, 4.359266809808169, 0.3029713604369469]",0.002,7,1
0,75,"[0.041732750833034515, -1.5292826530388375, 0.04164010683168584, 0.041997237796447706, 0.041854146867990494, 0.04177318885922432]","[0.46316778659820557, 0.45553404092788696, 0.45976993441581726, 0.45927342772483826, 0.4598400890827179, 0.4624437689781189]","[0.07615277861274017, -1.4946435481821565, 0.07615277861274017, 0.07615277861274017, 0.07615277861274017, 0.07615277861274017]","[0.07615277861274017, -1.4946435481821565, 0.07615277861274017, 0.07615277861274017, 0.07615277861274017, 0.07615277861274017]","[1.2396145028200432, 0.4771287187762079, -0.9277551994806004, -3.277905691099507, 4.344954678619994, 0.28908195786801566]",0.002,7,1
0,76,"[0.04268283769488335, -1.528296784763672, 0.042518440877096, 0.04298333703961177, 0.04280052334070206, 0.04270120710134506]","[0.46387794613838196, 0.4569378197193146, 0.4579755663871765, 0.4590685963630676, 0.46313875913619995, 0.4654211699962616]","[0.07658088717194218, -1.4942154396229543, 0.07658088717194218, 0.07658088717194218, 0.07658088717194218, 0.07658088717194218]","[0.07658088717194218, -1.4942154396229543, 0.07658088717194218, 0.07658088717194218, 0.07658088717194218, 0.07658088717194218]","[1.2018613788874397, -0.09556247261780526, -1.2501074817582194, -3.293729374864138, 4.330827604252339, 0.275227454230857]",0.002,7,1
0,77,"[0.043625663965940475, -1.5274063062718888, 0.043488327656881154, 0.04392377912487788, 0.04367443546652794, 0.043603550642728806]","[0.46689721941947937, 0.46204671263694763, 0.46195435523986816, 0.4602046012878418, 0.46622470021247864, 0.46942955255508423]","[0.07700887475108316, -1.4937874520438135, 0.07700887475108316, 0.07700887475108316, 0.07700887475108316, 0.07700887475108316]","[0.07700887475108316, -1.4937874520438135, 0.07700887475108316, 0.07700887475108316, 0.07700887475108316, 0.07700887475108316]","[1.1642262222097308, -0.671869734176817, -1.5726471419450294, -3.309562898055312, 4.316661794694123, 0.2614159542828751]",0.002,7,1
0,78,"[0.04448455199599266, -1.5265157532742997, 0.044421021138326466, 0.04479806005444331, 0.044615816324949265, 0.04453631490468979]","[0.4700530767440796, 0.46158894896507263, 0.46390432119369507, 0.4593276083469391, 0.46648091077804565, 0.46987199783325195]","[0.07743674067404187, -1.4933595861208546, 0.07743674067404187, 0.07743674067404187, 0.07743674067404187, 0.07743674067404187]","[0.07743674067404187, -1.4933595861208546, 0.07743674067404187, 0.07743674067404187, 0.07743674067404187, 0.07743674067404187]","[1.1262095959693847, -1.2417839097987087, -1.894189430526189, -3.3254259948363853, 4.30263508021828, 0.24765042524965306]",0.002,7,1
0,79,"[0.045429978519678116, -1.5255638037673016, 0.045311752949849904, 0.04576556264843745, 0.04555191844701767, 0.0454007163643837]","[0.46884942054748535, 0.4650724530220032, 0.46420273184776306, 0.46265682578086853, 0.46903103590011597, 0.4716414511203766]","[0.07786448426488929, -1.4929318425300073, 0.07786448426488929, 0.07786448426488929, 0.07786448426488929, 0.07786448426488929]","[0.07786448426488929, -1.4929318425300073, 0.07786448426488929, 0.07786448426488929, 0.07786448426488929, 0.07786448426488929]","[1.0879408116431468, -1.8087479145556222, -2.2137343744316698, -3.341319376196581, 4.2886812431988375, 0.23393506132688677]",0.002,7,1
0,80,"[0.04636431485414505, -1.5246437799981614, 0.04623109499086553, 0.04671887933697505, 0.04646213352680206, 0.04640240594744682]","[0.47279036045074463, 0.46732574701309204, 0.46649906039237976, 0.46486037969589233, 0.4691983461380005, 0.4746895730495453]","[0.07829210484788961, -1.492504221947007, 0.07829210484788961, 0.07829210484788961, 0.07829210484788961, 0.07829210484788961]","[0.07829210484788961, -1.492504221947007, 0.07829210484788961, 0.07829210484788961, 0.07829210484788961, 0.07829210484788961]","[1.0497390289695043, -2.377312222518121, -2.532739558161352, -3.35720806002034, 4.274767746315858, 0.22027680578201134]",0.002,7,1
0,81,"[0.04738086089491844, -1.5237336506000538, 0.04718524614442998, 0.047638459796569776, 0.04735857993364334, 0.04734297841787338]","[0.47550639510154724, 0.4700801968574524, 0.469277560710907, 0.46769052743911743, 0.47199252247810364, 0.4750514626502991]","[0.07871960174750138, -1.4920767250473952, 0.07871960174750138, 0.07871960174750138, 0.07871960174750138, 0.07871960174750138]","[0.07871960174750138, -1.4920767250473952, 0.07871960174750138, 0.07871960174750138, 0.07871960174750138, 0.07871960174750138]","[1.0113245204723813, -2.9420480959608915, -2.8504632309274394, -3.3730991143793263, 4.260964571354921, 0.20668196645793188]",0.002,7,1
0,82,"[0.04826202988624573, -1.5227823716453095, 0.04812986055483037, 0.048553748721740675, 0.04835275933146477, 0.048297520726919174]","[0.47427839040756226, 0.47123241424560547, 0.4689978361129761, 0.46659746766090393, 0.4728076756000519, 0.47797298431396484]","[0.07914697428837855, -1.491649352506518, 0.07914697428837855, 0.07914697428837855, 0.07914697428837855, 0.07914697428837855]","[0.07914697428837855, -1.491649352506518, 0.07914697428837855, 0.07914697428837855, 0.07914697428837855, 0.07914697428837855]","[0.9728168191775661, -3.504628879196837, -3.1675424534300687, -3.3889813390713472, 4.247258304728361, 0.1931524797728626]",0.002,7,1
0,83,"[0.049256596714258194, -1.5218590956977387, 0.048964802418844044, 0.04946260034527583, 0.049294501543045044, 0.04924546554684639]","[0.47614485025405884, 0.4699256718158722, 0.47033312916755676, 0.46657538414001465, 0.47437113523483276, 0.4778110384941101]","[0.07957422179537149, -1.4912221049995251, 0.07957422179537149, 0.07957422179537149, 0.07957422179537149, 0.07957422179537149]","[0.07957422179537149, -1.4912221049995251, 0.07957422179537149, 0.07957422179537149, 0.07957422179537149, 0.07957422179537149]","[0.9343390910068751, -4.067535773610631, -3.4840631927749888, -3.404866424433313, 4.233567304618209, 0.17969373181524803]",0.002,7,1
0,84,"[0.05019993707537651, -1.5209119778922577, 0.049942795430318654, 0.050329728717468214, 0.050238676369190216, 0.05018119886517525]","[0.4766296148300171, 0.47140318155288696, 0.4730055034160614, 0.4679501950740814, 0.4772230386734009, 0.47918757796287537]","[0.08000134359352813, -1.4907949832013685, 0.08000134359352813, 0.08000134359352813, 0.08000134359352813, 0.08000134359352813]","[0.08000134359352813, -1.4907949832013685, 0.08000134359352813, 0.08000134359352813, 0.08000134359352813, 0.08000134359352813]","[0.8954050815806225, -4.622665770078967, -3.7955687195502534, -3.420778027992373, 4.2201021850538245, 0.1663093830797003]",0.002,7,1
0,85,"[0.05116985738277435, -1.5199796718410035, 0.05084115663637334, 0.051247163409851026, 0.051262397319078445, 0.051126230508089066]","[0.4787048399448395, 0.47111496329307556, 0.4712724983692169, 0.47048431634902954, 0.4784500300884247, 0.4788479208946228]","[0.08042833900809497, -1.4903679877868017, 0.08042833900809497, 0.08042833900809497, 0.08042833900809497, 0.08042833900809497]","[0.08042833900809497, -1.4903679877868017, 0.08042833900809497, 0.08042833900809497, 0.08042833900809497, 0.08042833900809497]","[0.8567704488109067, -5.180691069515458, -4.10983129915541, -3.4366251711748728, 4.206653234953427, 0.15300658295841718]",0.002,7,1
0,86,"[0.05213947221636772, -1.5190202978304406, 0.051819626485006154, 0.052205129260681105, 0.052093733102083206, 0.05209512636065483]","[0.47802457213401794, 0.4722815752029419, 0.47535213828086853, 0.47147002816200256, 0.48118841648101807, 0.48076802492141724]","[0.08085520736451816, -1.4899411194303784, 0.08085520736451816, 0.08085520736451816, 0.08085520736451816, 0.08085520736451816]","[0.08085520736451816, -1.4899411194303784, 0.08085520736451816, 0.08085520736451816, 0.08085520736451816, 0.08085520736451816]","[0.8178070867814149, -5.732418678113101, -4.420016758906535, -3.452504902868799, 4.19330831154231, 0.1397876436345461]",0.002,7,1
0,87,"[0.05307149514555931, -1.5180783805302163, 0.05275184312929326, 0.05310909330334468, 0.05309302359819412, 0.05315203592181206]","[0.4792770445346832, 0.47255492210388184, 0.47599169611930847, 0.4768531024456024, 0.47975531220436096, 0.4810886085033417]","[0.08128194798844461, -1.489514378806452, 0.08128194798844461, 0.08128194798844461, 0.08128194798844461, 0.08128194798844461]","[0.08128194798844461, -1.489514378806452, 0.08128194798844461, 0.08128194798844461, 0.08128194798844461, 0.08128194798844461]","[0.7790385028347733, -6.285280705984163, -4.731207804949073, -3.468232959345149, 4.180096439230641, 0.12666161437426665]",0.002,7,1
0,88,"[0.05408863350749016, -1.5171273325434704, 0.05367929140199834, 0.054028673762939405, 0.05401991680264473, 0.05407408997416496]","[0.48129013180732727, 0.4743545949459076, 0.4775258004665375, 0.48059380054473877, 0.48088401556015015, 0.480611115694046]","[0.08170856020572298, -1.4890877665891735, 0.08170856020572298, 0.08170856020572298, 0.08170856020572298, 0.08170856020572298]","[0.08170856020572298, -1.4890877665891735, 0.08170856020572298, 0.08170856020572298, 0.08170856020572298, 0.08170856020572298]","[0.7400124180457582, -6.832232158430607, -5.038959628904973, -3.484029872850109, 4.166974177361338, 0.11362744140485326]",0.002,7,1
0,89,"[0.05499199405312538, -1.516167526399233, 0.05463105836977178, 0.05495087682690425, 0.05500905588269234, 0.05503760650753975]","[0.48233461380004883, 0.47167855501174927, 0.4767546057701111, 0.482916921377182, 0.48097947239875793, 0.4798683822154999]","[0.0821350433424048, -1.4886612834524917, 0.0821350433424048, 0.0821350433424048, 0.0821350433424048, 0.0821350433424048]","[0.0821350433424048, -1.4886612834524917, 0.0821350433424048, 0.0821350433424048, 0.0821350433424048, 0.0821350433424048]","[0.7009408638773775, -7.376310612551823, -5.3449054286556335, -3.499752332995347, 4.1540061189907425, 0.10069051991716346]",0.002,7,1
0,90,"[0.05607007071375847, -1.5152205762318154, 0.055649582539693654, 0.05588285505261226, 0.055940911173820496, 0.05600990727543831]","[0.48126456141471863, 0.47158515453338623, 0.47664231061935425, 0.4828945994377136, 0.48239412903785706, 0.4796960651874542]","[0.0825613967247455, -1.488234930070151, 0.0825613967247455, 0.0825613967247455, 0.0825613967247455, 0.0825613967247455]","[0.0825613967247455, -1.488234930070151, 0.0825613967247455, 0.0825613967247455, 0.0825613967247455, 0.0825613967247455]","[0.661881628853283, -7.9181341661505575, -5.6497321019584845, -3.515446004377105, 4.141100136771271, 0.08785600401287652]",0.002,7,1
0,91,"[0.05697232857346535, -1.51430098832164, 0.056557480488912404, 0.05684451639141841, 0.056974977254867554, 0.05698481947183609]","[0.48324453830718994, 0.4703003466129303, 0.4749068319797516, 0.483819842338562, 0.4833363890647888, 0.478363573551178]","[0.0829876196792055, -1.4878087071156911, 0.0829876196792055, 0.0829876196792055, 0.0829876196792055, 0.0829876196792055]","[0.0829876196792055, -1.4878087071156911, 0.0829876196792055, 0.0829876196792055, 0.0829876196792055, 0.0829876196792055]","[0.6228254059953229, -8.457025281776694, -5.953837895978761, -3.531034858853418, 4.1283108926354695, 0.07512902943608155]",0.002,7,1
0,92,"[0.05794217810034752, -1.5133328598788758, 0.057477776204244435, 0.05781225740399165, 0.05790935829281807, 0.05797993391752243]","[0.4847603142261505, 0.468283087015152, 0.4780363440513611, 0.4830799400806427, 0.4822424352169037, 0.4792545437812805]","[0.08341371153245129, -1.4873826152624452, 0.08341371153245129, 0.08341371153245129, 0.08341371153245129, 0.08341371153245129]","[0.08341371153245129, -1.4873826152624452, 0.08341371153245129, 0.08341371153245129, 0.08341371153245129, 0.08341371153245129]","[0.5834224413813591, -8.98698213760285, -6.2522734540695835, -3.5466708874888555, 4.115673119394587, 0.06251023804804391]",0.002,7,1
0,93,"[0.05887123942375183, -1.5124158424190064, 0.05848533311952764, 0.058798356647155714, 0.05890717729926109, 0.05897500365972519]","[0.48421213030815125, 0.47036272287368774, 0.4763292670249939, 0.4831410348415375, 0.48193806409835815, 0.47880297899246216]","[0.08383967161135646, -1.48695665518354, 0.08383967161135646, 0.08383967161135646, 0.08383967161135646, 0.08383967161135646]","[0.08383967161135646, -1.48695665518354, 0.08383967161135646, 0.08383967161135646, 0.08383967161135646, 0.08383967161135646]","[0.5441738556319378, -9.516930624299324, -6.550010940370719, -3.562158263645063, 4.1031766361046005, 0.05000752423763963]",0.002,7,1
0,94,"[0.05981728807091713, -1.511438013320305, 0.059437100087301076, 0.05971960603680415, 0.05985124409198761, 0.0599786601960659]","[0.48233187198638916, 0.47123223543167114, 0.47859305143356323, 0.48593035340309143, 0.48262038826942444, 0.47804757952690125]","[0.08426549924300272, -1.4865308275518938, 0.08426549924300272, 0.08426549924300272, 0.08426549924300272, 0.08426549924300272]","[0.08426549924300272, -1.4865308275518938, 0.08426549924300272, 0.08426549924300272, 0.08426549924300272, 0.08426549924300272]","[0.5048552371945793, -10.041189078715952, -6.846363190759318, -3.577593194080844, 4.0907355325431105, 0.03762272383696292]",0.002,7,1
0,95,"[0.060763776302337646, -1.5105286848596116, 0.060412232075826466, 0.060684724445007276, 0.06083157658576965, 0.06095552816987038]","[0.484063059091568, 0.4692392647266388, 0.479036420583725, 0.4866079092025757, 0.4794325828552246, 0.4779241979122162]","[0.0846911937546811, -1.4861051330402155, 0.0846911937546811, 0.0846911937546811, 0.0846911937546811, 0.0846911937546811]","[0.0846911937546811, -1.4861051330402155, 0.0846911937546811, 0.0846911937546811, 0.0846911937546811, 0.0846911937546811]","[0.4656291769623486, -10.564307558229094, -7.140481490849913, -3.5929449063087544, 4.078510277134491, 0.02535989239197435]",0.002,7,1
0,96,"[0.06173459440469742, -1.5095488180271168, 0.06137401262392217, 0.061587734813354444, 0.061851099133491516, 0.06186861917376518]","[0.4812066853046417, 0.46944740414619446, 0.47728827595710754, 0.48550301790237427, 0.48058563470840454, 0.47745630145072937]","[0.08511675447389287, -1.4856795723210037, 0.08511675447389287, 0.08511675447389287, 0.08511675447389287, 0.08511675447389287]","[0.08511675447389287, -1.4856795723210037, 0.08511675447389287, 0.08511675447389287, 0.08511675447389287, 0.08511675447389287]","[0.4261867596698844, -11.078402731833238, -7.430951731686683, -3.60824231604408, 4.066405569312593, 0.013221917751536829]",0.002,7,1
0,97,"[0.06269218027591705, -1.508655210291483, 0.062255207692281544, 0.06263868391003413, 0.06282684952020645, 0.06284508854150772]","[0.480465829372406, 0.4680865406990051, 0.4769378900527954, 0.48275914788246155, 0.48143133521080017, 0.4755840599536896]","[0.0855421807283507, -1.4852541460665458, 0.0855421807283507, 0.0855421807283507, 0.0855421807283507, 0.0855421807283507]","[0.0855421807283507, -1.4852541460665458, 0.0855421807283507, 0.0855421807283507, 0.0855421807283507, 0.0855421807283507]","[0.3869673835024677, -11.593070685750845, -7.720455800208018, -3.6234926638006306, 4.0544291350306505, 0.0012122173411354548]",0.002,7,1
0,98,"[0.06369539350271225, -1.5076377552798768, 0.06326324144472295, 0.06359808027233882, 0.06378265470266342, 0.06385765969753265]","[0.48233461380004883, 0.4666326940059662, 0.4751567542552948, 0.4813985228538513, 0.47827062010765076, 0.47650742530822754]","[0.08596747184597962, -1.484828854948917, 0.08596747184597962, 0.08596747184597962, 0.08596747184597962, 0.08596747184597962]","[0.08596747184597962, -1.484828854948917, 0.08596747184597962, 0.08596747184597962, 0.08596747184597962, 0.08596747184597962]","[0.3473306381832145, -12.094194959054123, -8.002928930570073, -3.6386198291489626, 4.042630890250756, -0.010664187941462865]",0.002,7,1
0,99,"[0.06461921334266663, -1.5066913229278107, 0.06425601640810186, 0.06455616533245845, 0.0647970587015152, 0.06477594375610352]","[0.48184195160865784, 0.46667376160621643, 0.47566860914230347, 0.48341605067253113, 0.47825098037719727, 0.4773045778274536]","[0.0863926271549182, -1.4844036996399783, 0.0863926271549182, 0.0863926271549182, 0.0863926271549182, 0.0863926271549182]","[0.0863926271549182, -1.4844036996399783, 0.0863926271549182, 0.0863926271549182, 0.0863926271549182, 0.0863926271549182]","[0.308281586730731, -12.603436480661646, -8.289230701399246, -3.6535662398699205, 4.030866109573948, -0.02240240012575745]",0.002,7,1
0,100,"[0.06560125201940536, -1.505727009182312, 0.065254036580221, 0.06559257089581294, 0.0657535046339035, 0.06571445614099503]","[0.4793919026851654, 0.4677257239818573, 0.47412359714508057, 0.4834376275539398, 0.47693586349487305, 0.47593334317207336]","[0.08681764598351958, -1.483978680811377, 0.08681764598351958, 0.08681764598351958, 0.08681764598351958, 0.08681764598351958]","[0.08681764598351958, -1.483978680811377, 0.08681764598351958, 0.08681764598351958, 0.08681764598351958, 0.08681764598351958]","[0.2690183405547957, -13.102003604158973, -8.570606072588413, -3.668501378845635, 4.0192873055184535, -0.034003349519867145]",0.002,7,1
0,101,"[0.06655044853687286, -1.5048621010831376, 0.06620532671083623, 0.06660239278759761, 0.0666363388299942, 0.06670311093330383]","[0.48014751076698303, 0.4674907624721527, 0.4736548662185669, 0.4815807044506073, 0.47566381096839905, 0.47283539175987244]","[0.08724252766035244, -1.4835537991345442, 0.08724252766035244, 0.08724252766035244, 0.08724252766035244, 0.08724252766035244]","[0.08724252766035244, -1.4835537991345442, 0.08724252766035244, 0.08724252766035244, 0.08724252766035244, 0.08724252766035244]","[0.22981438563207413, -13.596931492469658, -8.849660451008283, -3.6832204481253052, 4.007796311267387, -0.045460067248681305]",0.002,7,1
0,102,"[0.06752534955739975, -1.5038902026465912, 0.06712848344911748, 0.06752745687451167, 0.06763097643852234, 0.06760800629854202]","[0.4770505428314209, 0.4668678045272827, 0.4733915328979492, 0.48035088181495667, 0.4721461236476898, 0.4722953736782074]","[0.08766727151420217, -1.4831290552806944, 0.08766727151420217, 0.08766727151420217, 0.08766727151420217, 0.08766727151420217]","[0.08766727151420217, -1.4831290552806944, 0.08766727151420217, 0.08766727151420217, 0.08766727151420217, 0.08766727151420217]","[0.19028921577689717, -14.077801089718676, -9.121989314953389, -3.697839273971196, 3.996647712899654, -0.05677121705522845]",0.002,7,1
0,103,"[0.06848840415477753, -1.5029188406518479, 0.06814176241029912, 0.06849448263134761, 0.06857515871524811, 0.06855788826942444]","[0.47606250643730164, 0.467765212059021, 0.4719714820384979, 0.47770050168037415, 0.4724956154823303, 0.47197026014328003]","[0.08809187687407186, -1.4827044499208246, 0.08809187687407186, 0.08809187687407186, 0.08809187687407186, 0.08809187687407186]","[0.08809187687407186, -1.4827044499208246, 0.08809187687407186, 0.08809187687407186, 0.08809187687407186, 0.08809187687407186]","[0.15113090209081415, -14.561097917693568, -9.393645790681495, -3.71246489306749, 3.9856132072586368, -0.06793498739708057]",0.002,7,1
0,104,"[0.0694371834397316, -1.5019545716098328, 0.06904107729067022, 0.06952755033459468, 0.06949549168348312, 0.0694563090801239]","[0.47415924072265625, 0.46717312932014465, 0.47205594182014465, 0.47180259227752686, 0.4707808494567871, 0.471280962228775]","[0.0885163430691834, -1.4822799837257132, 0.0885163430691834, 0.0885163430691834, 0.0885163430691834, 0.0885163430691834]","[0.0885163430691834, -1.4822799837257132, 0.0885163430691834, 0.0885163430691834, 0.0885163430691834, 0.0885163430691834]","[0.11210750331219277, -15.041296731094484, -9.664494433767654, -3.7268434808560422, 3.974639138514179, -0.07894498919578388]",0.002,7,1
0,105,"[0.07042384147644043, -1.501035453086235, 0.07001287141908819, 0.07048408567395015, 0.07049218565225601, 0.07044121623039246]","[0.47483065724372864, 0.467090904712677, 0.47211700677871704, 0.4696933925151825, 0.4702107012271881, 0.47072938084602356]","[0.08894066942897857, -1.481855657365918, 0.08894066942897857, 0.08894066942897857, 0.08894066942897857, 0.08894066942897857]","[0.08894066942897857, -1.481855657365918, 0.08894066942897857, 0.08894066942897857, 0.08894066942897857, 0.08894066942897857]","[0.07299001626283408, -15.51239043093224, -9.929116908146833, -3.7410851836762222, 3.9638737479043136, -0.0898007729270748]",0.002,7,1
0,106,"[0.07141892611980438, -1.5000843417695542, 0.07100183168520147, 0.0714530187794189, 0.07134563475847244, 0.07129108905792236]","[0.47347307205200195, 0.46720847487449646, 0.47139570116996765, 0.47065961360931396, 0.4697210192680359, 0.46834611892700195]","[0.08936485528312, -1.4814314715117765, 0.08936485528312, 0.08936485528312, 0.08936485528312, 0.08936485528312]","[0.08936485528312, -1.4814314715117765, 0.08936485528312, 0.08936485528312, 0.08936485528312, 0.08936485528312]","[0.03396879592979207, -15.976617253988792, -10.19145921203317, -3.7553068878412716, 3.9532762419421594, -0.10049960586172245]",0.002,7,1
0,107,"[0.07226361334323883, -1.499183939104416, 0.07194930711855108, 0.07245509206738276, 0.0723433867096901, 0.0722697526216507]","[0.4714433550834656, 0.4689813256263733, 0.4715932011604309, 0.46816396713256836, 0.46803218126296997, 0.469592809677124]","[0.08978889996149231, -1.4810074268334041, 0.08978889996149231, 0.08978889996149231, 0.08978889996149231, 0.08978889996149231]","[0.08978889996149231, -1.4810074268334041, 0.08978889996149231, 0.08978889996149231, 0.08978889996149231, 0.08978889996149231]","[-0.004932070257930965, -16.4378453251055, -10.451693118509546, -3.769201066686207, 3.942866041910575, -0.11103658134997074]",0.002,7,1
0,108,"[0.07318459451198578, -1.4982393693974991, 0.07287866273988897, 0.07336608945812984, 0.073220394551754, 0.07311941683292389]","[0.46976438164711, 0.46919405460357666, 0.4681428074836731, 0.4676668643951416, 0.46729281544685364, 0.46863898634910583]","[0.09021280279420313, -1.4805835240006935, 0.09021280279420313, 0.09021280279420313, 0.09021280279420313, 0.09021280279420313]","[0.09021280279420313, -1.4805835240006935, 0.09021280279420313, 0.09021280279420313, 0.09021280279420313, 0.09021280279420313]","[-0.04381055248215704, -16.888605114835165, -10.706506224939774, -3.783128656563313, 3.932572891042875, -0.12141232072870174]",0.002,7,1
0,109,"[0.0741761177778244, -1.4972656157663842, 0.07378846803774053, 0.07427923261608882, 0.07413338869810104, 0.0740543007850647]","[0.46609318256378174, 0.4677888751029968, 0.4676092863082886, 0.4654451608657837, 0.46534907817840576, 0.46904101967811584]","[0.09063656311158419, -1.4801597636833124, 0.09063656311158419, 0.09063656311158419, 0.09063656311158419, 0.09063656311158419]","[0.09063656311158419, -1.4801597636833124, 0.09063656311158419, 0.09063656311158419, 0.09063656311158419, 0.09063656311158419]","[-0.08253134991598743, -17.33633310299529, -10.958647088704549, -3.796832180314036, 3.9226052818286683, -0.131621747779687]",0.002,7,1
0,110,"[0.07509773969650269, -1.4963362973979493, 0.0747154394732874, 0.07524864255871577, 0.075034499168396, 0.07504068315029144]","[0.4666452407836914, 0.46641790866851807, 0.4660723805427551, 0.4639401137828827, 0.46627071499824524, 0.4683453142642975]","[0.09106018024419235, -1.4797361465507042, 0.09106018024419235, 0.09106018024419235, 0.09106018024419235, 0.09106018024419235]","[0.09106018024419235, -1.4797361465507042, 0.09106018024419235, 0.09106018024419235, 0.09106018024419235, 0.09106018024419235]","[-0.12106261122792428, -17.779953246571626, -11.207782937784474, -3.810418618614348, 3.9127735426691084, -0.14166314615508835]",0.002,7,1
0,111,"[0.07600293308496475, -1.4954382491162796, 0.07565337816347295, 0.0761989790150146, 0.07600553333759308, 0.07587820291519165]","[0.4633585214614868, 0.46529102325439453, 0.4632105231285095, 0.45679783821105957, 0.4651374816894531, 0.46763160824775696]","[0.0914836535228107, -1.4793126732720858, 0.0914836535228107, 0.0914836535228107, 0.0914836535228107, 0.0914836535228107]","[0.0914836535228107, -1.4793126732720858, 0.0914836535228107, 0.0914836535228107, 0.0914836535228107, 0.0914836535228107]","[-0.1595308026280724, -18.21456060669371, -11.452750360479191, -3.8237944711387897, 3.903062130525326, -0.15153400389957233]",0.002,7,1
0,112,"[0.0769771933555603, -1.4944685262492676, 0.07656747499574834, 0.07709579050030513, 0.07695941627025604, 0.0768505409359932]","[0.46316808462142944, 0.46677371859550476, 0.4620286822319031, 0.4543404281139374, 0.4645717442035675, 0.46651315689086914]","[0.09190698227844955, -1.478889344516447, 0.09190698227844955, 0.09190698227844955, 0.09190698227844955, 0.09190698227844955]","[0.09190698227844955, -1.478889344516447, 0.09190698227844955, 0.09190698227844955, 0.09190698227844955, 0.09190698227844955]","[-0.19783842771384097, -18.641193842309324, -11.693905590349601, -3.8371183493281156, 3.893516329937584, -0.16123395747242159]",0.002,7,1
