Arnibjarnst/BoxLift/logs/ur_rtde/trajectory_dur=10.0_delay=0.0_gain=100_lh=0.05_real.csv
arm_idx,step,actual_q,actual_qd,target_q,expected_q,loop_time,robot_mode,safety_mode
0,-1,"[-0.02405435243715459, -1.5947700939574183, -0.02386944182217121, -0.02405758321795659, -0.024131123219625294, -0.024088684712545216]","[0.04527697339653969, 0.048782095313072205, 0.04811673238873482, 0.04551786929368973, 0.045866820961236954, 0.04740585759282112]","[0.0, -1.5707963267948966, 0.0, 0.0, 0.0, 0.0]","[0.0, -1.5707963267948966, 0.0, 0.0, 0.0, 0.0]",0.002,7,1
0,-1,"[-0.023171726857320607, -1.593865533868307, -0.0230259969830513, -0.023234681492187548, -0.023247543965474904, -0.02320558229555303]","[0.06144903600215912, 0.06239593029022217, 0.0626613050699234, 0.06262262165546417, 0.06306889653205872, 0.06334210187196732]","[0.0, -1.5707963267948966, 0.0, 0.0, 0.0, 0.0]","[0.0, -1.5707963267948966, 0.0, 0.0, 0.0, 0.0]",0.002,7,1
0,-1,"[-0.02218801179994756, -1.5928880176939906, -0.022011343389749527, -0.022160128956176806, -0.022291485463277638, -0.022255722676412404]","[0.07692483812570572, 0.0746646523475647, 0.07435925304889679, 0.07679717242717743, 0.07802764326334, 0.07795815914869308]","[0.0, -1.5707963267948966, 0.0, 0.0, 0.0, 0.0]","[0.0, -1.5707963267948966, 0.0, 0.0, 0.0, 0.0]",0.002,7,1
0,-1,"[-0.02159291902651006, -1.5922204456725062, -0.02136683464050293, -0.021550135021545458, -0.021607224141256154, -0.021682564412252248]","[0.08382037281990051, 0.08292138576507568, 0.0831882432103157, 0.08506667613983154, 0.08784909546375275, 0.08681246638298035]","[0.0, -1.5707963267948966, 0.0, 0.0, 0.0, 0.0]","[0.0, -1.5707963267948966, 0.0, 0.0, 0.0, 0.0]",0.002,7,1
0,-1,"[-0.02045613924135381, -1.5912095508971156, -0.020305316895246506, -0.0204044145396729, -0.020446125661031544, -0.020513836537496388]","[0.09577707946300507, 0.09470921754837036, 0.0948370024561882, 0.09821457415819168, 0.10009624809026718, 0.09927798807621002]","[0.0, -1.5707963267948966, 0.0, 0.0, 0.0, 0.0]","[0.0, -1.5707963267948966, 0.0, 0.0, 0.0, 0.0]",0.002,7,1
0,-1,"[-0.01872569719423467, -1.5895616016783656, -0.018601441755890846, -0.018592075710632372, -0.018777195607320607, -0.018690411244527638]","[0.11319068819284439, 0.11308474838733673, 0.11097515374422073, 0.10974609851837158, 0.11504412442445755, 0.1151939332485199]","[0.0, -1.5707963267948966, 0.0, 0.0, 0.0, 0.0]","[0.0, -1.5707963267948966, 0.0, 0.0, 0.0, 0.0]",0.002,7,1
0,-1,"[-0.017807785664693654, -1.5885669193663539, -0.01770917698740959, -0.017715649013855028, -0.017759148274556935, -0.01777202287782842]","[0.12018467485904694, 0.12009689956903458, 0.11803849786520004, 0.11751341074705124, 0.12058081477880478, 0.12266787886619568]","[0.0, -1.5707963267948966, 0.0, 0.0, 0.0, 0.0]","[0.0, -1.5707963267948966, 0.0, 0.0, 0.0, 0.0]",0.002,7,1
0,-1,"[-0.016534153615133107, -1.5873023472227992, -0.01641341857612133, -0.016410426502563524, -0.016518894826070607, -0.016504589711324513]","[0.1297995001077652, 0.13233201205730438, 0.12862080335617065, 0.12877602875232697, 0.13088186085224152, 0.13093148171901703]","[0.0, -1.5707963267948966, 0.0, 0.0, 0.0, 0.0]","[0.0, -1.5707963267948966, 0.0, 0.0, 0.0, 0.0]",0.002,7,1
0,-1,"[-0.013446633015767873, -1.5841332874693812, -0.013362083584070206, -0.013393597011901903, -0.013367954884664357, -0.01333934465517217]","[0.15130366384983063, 0.1536339372396469, 0.14947138726711273, 0.1512516438961029, 0.154302179813385, 0.15127046406269073]","[0.0, -1.5707963267948966, 0.0, 0.0, 0.0, 0.0]","[0.0, -1.5707963267948966, 0.0, 0.0, 0.0, 0.0]",0.002,7,1
0,-1,"[-0.012129131947652638, -1.5828806362547816, -0.01208969485014677, -0.012138561611511278, -0.012139145527974904, -0.012080017720357716]","[0.16090096533298492, 0.15489952266216278, 0.1557815968990326, 0.15812967717647552, 0.15959632396697998, 0.1569288969039917]","[0.0, -1.5707963267948966, 0.0, 0.0, 0.0, 0.0]","[0.0, -1.5707963267948966, 0.0, 0.0, 0.0, 0.0]",0.002,7,1
0,-1,"[-0.010450665150777638, -1.581247945825094, -0.010390465147793293, -0.010431961422302294, -0.010366264973775685, -0.010274235402242482]","[0.1426527351140976, 0.12667439877986908, 0.1371297985315323, 0.1424981653690338, 0.1443280577659607, 0.14070580899715424]","[0.0, -1.5707963267948966, 0.0, 0.0, 0.0, 0.0]","[0.0, -1.5707963267948966, 0.0, 0.0, 0.0, 0.0]",0.002,7,1
0,-1,"[-0.008733574544088185, -1.579519887963766, -0.008738752454519272, -0.008847908382751513, -0.008678261433736623, -0.008654419575826466]","[0.1314045488834381, 0.13482306897640228, 0.1329651027917862, 0.13529326021671295, 0.13130073249340057, 0.13132598996162415]","[0.0, -1.5707963267948966, 0.0, 0.0, 0.0, 0.0]","[0.0, -1.5707963267948966, 0.0, 0.0, 0.0, 0.0]",0.002,7,1
0,-1,"[-0.007023159657613576, -1.5778142414488734, -0.007049481850117445, -0.007085399036743212, -0.0069688002215784195, -0.006895367299215138]","[0.11959131062030792, 0.11665820330381393, 0.11781401932239532, 0.12308427691459656, 0.11762801557779312, 0.11645320057868958]","[0.0, -1.5707963267948966, 0.0, 0.0, 0.0, 0.0]","[0.0, -1.5707963267948966, 0.0, 0.0, 0.0, 0.0]",0.002,7,1
0,-1,"[-0.005625549946920216, -1.57641663173818, -0.005711670033633709, -0.005747274761535692, -0.005602661763326466, -0.005528752003804982]","[0.10505679994821548, 0.10550107061862946, 0.10723665356636047, 0.1114436611533165, 0.10639362782239914, 0.10560131818056107]","[0.0, -1.5707963267948966, 0.0, 0.0, 0.0, 0.0]","[0.0, -1.5707963267948966, 0.0, 0.0, 0.0, 0.0]",0.002,7,1
0,-1,"[-0.0035288969623010757, -1.5741635761656703, -0.003454697085544467, -0.0034737151912231923, -0.0033414999591272476, -0.0032542387591760757]","[0.08296480029821396, 0.08358517289161682, 0.08596628159284592, 0.08411408215761185, 0.0811384990811348, 0.0800253301858902]","[0.0, -1.5707963267948966, 0.0, 0.0, 0.0, 0.0]","[0.0, -1.5707963267948966, 0.0, 0.0, 0.0, 0.0]",0.002,7,1
0,-1,"[-0.0025466124164026382, -1.5731994114317835, -0.0024951528757810593, -0.0025139612010498524, -0.0024445692645471695, -0.0023878256427209976]","[0.07248146831989288, 0.0701625868678093, 0.07490888237953186, 0.07329142838716507, 0.0691237822175026, 0.06931997090578079]","[0.0, -1.5707963267948966, 0.0, 0.0, 0.0, 0.0]","[0.0, -1.5707963267948966, 0.0, 0.0, 0.0, 0.0]",0.002,7,1
0,-1,"[-0.0016840139972131851, -1.572312971154684, -0.0015916371485218406, -0.0016146463206787587, -0.0015352408038538101, -0.0014818350421350601]","[0.05782990902662277, 0.05805946886539459, 0.05863844230771065, 0.05871140956878662, 0.055601879954338074, 0.05612725019454956]","[0.0, -1.5707963267948966, 0.0, 0.0, 0.0, 0.0]","[0.0, -1.5707963267948966, 0.0, 0.0, 0.0, 0.0]",0.002,7,1
0,-1,"[-0.0007517973529260757, -1.5713650188841761, -0.0005506229354068637, -0.0006898206523437977, -0.0006325880633752945, -0.0006836096393030289]","[0.03787119686603546, 0.035228680819272995, 0.03673533350229263, 0.03793523088097572, 0.03751862794160843, 0.03576837107539177]","[0.0, -1.5707963267948966, 0.0, 0.0, 0.0, 0.0]","[0.0, -1.5707963267948966, 0.0, 0.0, 0.0, 0.0]",0.002,7,1
0,-1,"[-0.0004270712481897476, -1.5710960827269496, -0.0003496241697575897, -0.00043602407489018447, -0.0004380385028284195, -0.00037843385805302887]","[0.03022245317697525, 0.028347378596663475, 0.029443835839629173, 0.028551200404763222, 0.029039716348052025, 0.028722338378429413]","[0.0, -1.5707963267948966, 0.0, 0.0, 0.0, 0.0]","[0.0, -1.5707963267948966, 0.0, 0.0, 0.0, 0.0]",0.002,7,1
0,-1,"[-0.00025064149965459137, -1.570895334283346, -0.00012026845070067793, -0.0001369279674072743, -0.00013333955873662262, -0.00018579164613896637]","[0.01869560219347477, 0.016287991777062416, 0.017763741314411163, 0.017202746123075485, 0.016020242124795914, 0.01583481952548027]","[0.0, -1.5707963267948966, 0.0, 0.0, 0.0, 0.0]","[0.0, -1.5707963267948966, 0.0, 0.0, 0.0, 0.0]",0.002,7,1
0,-1,"[-7.993379701787262e-05, -1.5707696690900157, -4.820585309062153e-05, -5.205095324711806e-05, -4.560152162724762e-05, -6.41981707971695e-05]","[0.010959414765238762, 0.008095790632069111, 0.009789236821234226, 0.010013006627559662, 0.008639199659228325, 0.008180778473615646]","[0.0, -1.5707963267948966, 0.0, 0.0, 0.0, 0.0]","[0.0, -1.5707963267948966, 0.0, 0.0, 0.0, 0.0]",0.002,7,1
0,-1,"[-6.467500795537262e-05, -1.5707696512984803, -1.0252000720356591e-05, -5.467355761723525e-05, -2.7958546773731996e-05, -4.750887026006012e-05]","[-0.0033471528440713882, -0.007070848252624273, -0.008707329630851746, -0.005664946511387825, -0.007445644121617079, -0.006238643545657396]","[0.0, -1.5707963267948966, 0.0, 0.0, 0.0, 0.0]","[0.0, -1.5707963267948966, 0.0, 0.0, 0.0, 0.0]",0.002,7,1
0,-1,"[-0.00014382997621709137, -1.5708548031248988, -7.486343383789062e-05, -7.195890460209853e-05, -0.000119511281148732, -0.00012284914125615387]","[-1.051458919931747e-08, -0.011299227364361286, -0.002339029684662819, -7.033358997432515e-05, -0.00021938057034276426, -4.899473537989252e-08]","[0.0, -1.5707963267948966, 0.0, 0.0, 0.0, 0.0]","[0.0, -1.5707963267948966, 0.0, 0.0, 0.0, 0.0]",0.002,7,1
0,-1,"[-6.896654237920075e-05, -1.5709010563292445, -9.183645306620747e-05, -7.183969531254775e-05, -7.325807680302887e-05, -0.0001061598407190445]","[-8.226563122458552e-22, -0.004438226576894522, -0.0010562015231698751, -1.9535313366958462e-09, -5.473775946396309e-11, -2.4786187798976676e-16]","[0.0, -1.5707963267948966, 0.0, 0.0, 0.0, 0.0]","[0.0, -1.5707963267948966, 0.0, 0.0, 0.0, 0.0]",0.002,7,1
0,-1,"[-6.467500795537262e-05, -1.5709268055357875, -8.727036765776575e-05, -4.2991047241258684e-05, -4.7985707418263246e-05, -5.990663637334137e-05]","[-4.797470523588122e-33, -0.0008236796129494905, -0.0008799044881016016, -1.5136134660299525e-16, 0.0009101115283556283, -1.9204556835785e-23]","[0.0, -1.5707963267948966, 0.0, 0.0, 0.0, 0.0]","[0.0, -1.5707963267948966, 0.0, 0.0, 0.0, 0.0]",0.002,7,1
0,-1,"[-6.0383473531544496e-05, -1.5709191761412562, -9.409690392203629e-05, -0.00010211885485844618, -8.994737734013825e-05, -9.709993471318512e-05]","[-2.802596928649634e-44, -0.00023554294602945447, -0.00032476126216351986, -1.1727611691520845e-23, 0.000537210376933217, 0.0004449534753803164]","[0.0, -1.5707963267948966, 0.0, 0.0, 0.0, 0.0]","[0.0, -1.5707963267948966, 0.0, 0.0, 0.0, 0.0]",0.002,7,1
0,-1,"[-0.00013143221010381012, -1.5708819828429164, -7.028818072285503e-05, -3.560007128911025e-05, -7.931386129200746e-06, -9.838734762013246e-06]","[0.0, 0.0003244265099056065, -0.00021019065752625465, -9.086656907845022e-31, 0.0011061627883464098, 0.00045473669888451695]","[0.0, -1.5707963267948966, 0.0, 0.0, 0.0, 0.0]","[0.0, -1.5707963267948966, 0.0, 0.0, 0.0, 0.0]",0.002,7,1
0,-1,"[-0.0001061598407190445, -1.570850511590475, -6.580031185876578e-05, -5.94419291992665e-05, -7.325807680302887e-05, -5.6568776265919496e-05]","[0.0, 0.00045886955922469497, -0.00012779382814187557, 0.000419124320615083, 0.0007600433309562504, 0.0005898812669329345]","[0.0, -1.5707963267948966, 0.0, 0.0, 0.0, 0.0]","[0.0, -1.5707963267948966, 0.0, 0.0, 0.0, 0.0]",0.002,7,1
0,-1,"[-6.467500795537262e-05, -1.5708819828429164, -0.00010318978456780314, -5.205095324711806e-05, -3.701845277959137e-05, -1.4607106344044496e-05]","[0.0, 0.00030388354207389057, -0.0001033370426739566, 0.0004089285503141582, 0.0016884396318346262, 0.0005903127603232861]","[0.0, -1.5707963267948966, 0.0, 0.0, 0.0, 0.0]","[0.0, -1.5707963267948966, 0.0, 0.0, 0.0, 0.0]",0.002,7,1
0,-1,"[-0.0001137892352502945, -1.5708819828429164, -8.401394006796181e-05, -6.850183520512587e-05, -6.658235658818512e-05, -1.4607106344044496e-05]","[0.0, 0.00012975366553291678, -0.00011092040222138166, 0.0003748408635146916, 0.0008352173608727753, 0.0009819988626986742]","[0.0, -1.5707963267948966, 0.0, 0.0, 0.0, 0.0]","[0.0, -1.5707963267948966, 0.0, 0.0, 0.0, 0.0]",0.002,7,1
0,-1,"[-2.748170961552887e-05, -1.5709358654417933, -8.274316496681422e-05, -6.850183520512587e-05, 2.384185791015625e-06, -4.941621889287262e-05]","[0.0003238054923713207, -2.4310995286214165e-05, -9.441787551622838e-05, 0.00035821812343783677, 0.0007424912764690816, 0.0007941981311887503]","[0.0, -1.5707963267948966, 0.0, 0.0, 0.0, 0.0]","[0.0, -1.5707963267948966, 0.0, 0.0, 0.0, 0.0]",0.002,7,1
0,-1,"[-0.00010186830629521637, -1.5709072552123011, -6.11919240327552e-05, -3.560007128911025e-05, 2.384185791015625e-05, -6.562868227177887e-05]","[0.0002751279389485717, -4.318243327361415e-07, -5.729038821300492e-05, 0.0004529116558842361, 0.0008540045819245279, 0.0007466017850674689]","[0.0, -1.5707963267948966, 0.0, 0.0, 0.0, 0.0]","[0.0, -1.5707963267948966, 0.0, 0.0, 0.0, 0.0]",0.002,7,1
0,-1,"[-8.1364308492482e-05, -1.570902486840719, -9.182732173940167e-05, -4.918993029789931e-05, -1.3176594869435121e-05, 0.0]","[0.0002650880778674036, -6.0813160965742965e-24, 3.332928099553101e-05, 0.0005301907076500356, 0.0004531675949692726, 0.0004454990557860583]","[0.0, -1.5707963267948966, 0.0, 0.0, 0.0, 0.0]","[0.0, -1.5707963267948966, 0.0, 0.0, 0.0, 0.0]",0.002,7,1
0,-1,"[-5.799928774052887e-05, -1.57086243251943, -8.401394006796181e-05, -1.6288166381883684e-05, -2.9865895406544496e-05, -1.3653432027638246e-05]","[0.00044534768676385283, -3.546428000316825e-35, 3.987029776908457e-05, 0.00041843942017294466, 0.00031652458710595965, 0.0003475769190117717]","[0.0, -1.5707963267948966, 0.0, 0.0, 0.0, 0.0]","[0.0, -1.5707963267948966, 0.0, 0.0, 0.0, 0.0]",0.002,7,1
0,-1,"[-7.7549611226857e-05, -1.5708862743773402, -0.00010776841372717172, 4.692668579053816e-06, 1.0912895049841609e-05, 2.9038923457846977e-05]","[0.0004967349814251065, 0.0, 3.912682950613089e-05, 0.00028808179195038974, 0.0002490869374014437, 0.00026541322586126626]","[0.0, -1.5707963267948966, 0.0, 0.0, 0.0, 0.0]","[0.0, -1.5707963267948966, 0.0, 0.0, 0.0, 0.0]",0.002,7,1
0,-1,"[-4.083315004521637e-05, -1.5709411106505335, -8.726119995117188e-05, -2.6983073730946217e-06, -4.750887026006012e-05, 1.7108915926655754e-05]","[0.0005977418622933328, 0.00017841855878941715, 4.7996036300901324e-05, 0.0002581966109573841, 0.00014834979083389044, 0.00016129155119415373]","[0.0, -1.5707963267948966, 0.0, 0.0, 0.0, 0.0]","[0.0, -1.5707963267948966, 0.0, 0.0, 0.0, 0.0]",0.002,7,1
0,-1,"[-2.462068666631012e-05, -1.5708862743773402, -8.401394006796181e-05, -2.367914233403212e-05, -1.0315571920216371e-05, 3.3016212910297327e-06]","[0.0009098008740693331, 0.0001543694525025785, 5.695761865354143e-05, 0.00022591599554289132, 0.00015715979679953307, 0.00013955970644019544]","[0.0, -1.5707963267948966, 0.0, 0.0, 0.0, 0.0]","[0.0, -1.5707963267948966, 0.0, 0.0, 0.0, 0.0]",0.002,7,1
0,-1,"[-3.415742983037262e-05, -1.5708862743773402, -9.183645306620747e-05, -5.8369045593309465e-05, -6.024037496388246e-06, 3.3563419492566027e-06]","[0.0008884046692401171, 0.00015361836994998157, 5.293742287904024e-05, 0.00015443986922036856, 0.00017840758664533496, 0.00014118901162873954]","[0.0, -1.5707963267948966, 0.0, 0.0, 0.0, 0.0]","[0.0, -1.5707963267948966, 0.0, 0.0, 0.0, 0.0]",0.002,7,1
0,-1,"[-4.178682436162262e-05, -1.570902486840719, -7.94388834037818e-05, 2.114355053706163e-05, 1.4086681403568946e-05, -3.701845277959137e-05]","[0.0004125844279769808, 0.00013122409291099757, 0.00010280590504407883, 0.00012432897347025573, 0.0002087272296193987, 0.00012204771337565035]","[0.0, -1.5707963267948966, 0.0, 0.0, 0.0, 0.0]","[0.0, -1.5707963267948966, 0.0, 0.0, 0.0, 0.0]",0.002,7,1
0,-1,"[-5.070363179981996e-06, -1.5709144077696742, -6.758139352314174e-05, -1.1758213378953997e-05, 2.1338464648579247e-06, -2.557436098271637e-05]","[0.0002449874300509691, 0.0001145259229815565, 0.00010841060429811478, 0.00010664937872206792, 0.00016329018399119377, 0.00012538577720988542]","[0.0, -1.5707963267948966, 0.0, 0.0, 0.0, 0.0]","[0.0, -1.5707963267948966, 0.0, 0.0, 0.0, 0.0]",0.002,7,1
0,-1,"[1.1344432095938828e-05, -1.570841451684469, -6.29425048828125e-05, 1.661359753413194e-05, 5.6272030633408576e-05, 1.7108915926655754e-05]","[0.00017395024769939482, 0.0002444066049065441, 0.00012845295714214444, 9.337113442597911e-05, 0.00016091046563815325, 0.0001280084252357483]","[0.0, -1.5707963267948966, 0.0, 0.0, 0.0, 0.0]","[0.0, -1.5707963267948966, 0.0, 0.0, 0.0, 0.0]",0.002,7,1
0,-1,"[2.6665522909752326e-06, -1.570871492425436, -5.556979158427566e-05, -1.1758213378953997e-05, -2.175966371709137e-05, -4.116688863575746e-06]","[0.00013485232193488628, 0.0008325333474203944, 0.0002424612030154094, 9.963585762307048e-05, 0.0001365036005154252, 0.00012803147546947002]","[0.0, -1.5707963267948966, 0.0, 0.0, 0.0, 0.0]","[0.0, -1.5707963267948966, 0.0, 0.0, 0.0, 0.0]",0.002,7,1
0,-1,"[2.7649180992739275e-05, -1.5708371601500453, -7.208396709756926e-05, 4.2839641235303816e-05, -1.4607106344044496e-05, -2.9865895406544496e-05]","[0.00011010523303411901, 0.0009714188636280596, 0.00022635975619778037, 8.970898488769308e-05, 0.00011852601892314851, 0.00010954808385577053]","[0.0, -1.5707963267948966, 0.0, 0.0, 0.0, 0.0]","[0.0, -1.5707963267948966, 0.0, 0.0, 0.0, 0.0]",0.002,7,1
0,-1,"[-5.513826479131012e-05, -1.5708219013609828, -6.29425048828125e-05, -4.465997729496962e-05, 1.9556044208002277e-05, -4.178682436162262e-05]","[9.303249680669978e-05, 0.0004672122304327786, 0.00021281663794070482, 8.15772800706327e-05, 0.00010473277507117018, 0.00011470081517472863]","[0.0, -1.5707963267948966, 0.0, 0.0, 0.0, 0.0]","[0.0, -1.5707963267948966, 0.0, 0.0, 0.0, 0.0]",0.002,7,1
0,-1,"[-4.178682436162262e-05, -1.570850511590475, -0.00010323524475097656, 4.692668579053816e-06, -2.6051198140919496e-05, -2.080598940068512e-05]","[8.054384670685977e-05, 0.00035805528750643134, 0.00020180060528218746, 7.479741907445714e-05, 9.381536801811308e-05, 0.00010173592454520985]","[0.0, -1.5707963267948966, 0.0, 0.0, 0.0, 0.0]","[0.0, -1.5707963267948966, 0.0, 0.0, 0.0, 0.0]",0.002,7,1
0,-1,"[-1.699129213506012e-05, -1.5708667240538539, -2.0863071767962538e-05, -2.820909533696181e-05, 7.261527935042977e-05, -2.557436098271637e-05]","[7.101151277311146e-05, 0.00023524684365838766, 0.00022261646518018097, 6.905839836690575e-05, 8.49592688609846e-05, 9.140403562923893e-05]","[0.0, -1.5707963267948966, 0.0, 0.0, 0.0, 0.0]","[0.0, -1.5707963267948966, 0.0, 0.0, 0.0, 0.0]",0.002,7,1
0,-1,"[-6.276765932256012e-05, -1.5708638630309046, 1.732503072560121e-06, -3.7269001342821184e-05, -1.7468129293263246e-05, 5.764007437392138e-05]","[6.030561780789867e-05, 0.000900551734957844, 0.0005768719711340964, 6.193045555846766e-05, 7.44212738936767e-05, 7.932027074275538e-05]","[0.0, -1.5707963267948966, 0.0, 0.0, 0.0, 0.0]","[0.0, -1.5707963267948966, 0.0, 0.0, 0.0, 0.0]",0.002,7,1
0,-1,"[-1.699129213506012e-05, -1.5708395443358363, -1.101810994441621e-06, -3.7269001342821184e-05, 5.1951396017102525e-05, 2.4409293473581783e-05]","[5.4797983466414735e-05, 0.0009536595898680389, 0.0005539075937122107, 3.2874421407314e-08, 7.980936788953841e-05, 8.504462311975658e-05]","[0.0, -1.5707963267948966, 0.0, 0.0, 0.0, 0.0]","[0.0, -1.5707963267948966, 0.0, 0.0, 0.0, 0.0]",0.002,7,1
0,-1,"[1.4543533325195312e-05, -1.5708142719664515, -4.818188972421922e-05, -4.465997729496962e-05, -6.024037496388246e-06, -4.116688863575746e-06]","[5.240493919700384e-05, 0.0007971081067807972, 0.0004905057139694691, 9.150722714290627e-12, 7.72437488194555e-05, 8.173469541361555e-05]","[0.0, -1.5707963267948966, 0.0, 0.0, 0.0, 0.0]","[0.0, -1.5707963267948966, 0.0, 0.0, 0.0, 0.0]",0.002,7,1
0,-1,"[1.888275073724799e-05, -1.5708261928954066, -6.014495374984108e-05, 2.114355053706163e-05, 1.5240668290061876e-05, 2.7179718017578125e-05]","[4.633468415704556e-05, 1.8006006996529322e-07, 0.0006032711826264858, 1.9735460856087464e-22, 6.956733705010265e-05, 7.318915595533326e-05]","[0.0, -1.5707963267948966, 0.0, 0.0, 0.0, 0.0]","[0.0, -1.5707963267948966, 0.0, 0.0, 0.0, 0.0]",0.002,7,1
0,-1,"[-3.7495289937794496e-05, -1.570834299127096, -4.0860177250579e-05, -4.644811663823134e-05, -6.024037496388246e-06, -1.3653432027638246e-05]","[4.25052348873578e-05, 1.4087813178792916e-20, 0.0005732770077884197, 9.984066911081983e-31, 3.5193758172492873e-13, 3.0312676244648173e-05]","[0.0, -1.5707963267948966, 0.0, 0.0, 0.0, 0.0]","[0.0, -1.5707963267948966, 0.0, 0.0, 0.0, 0.0]",0.002,7,1
0,-1,"[3.2013085728976876e-05, -1.5708066425719203, 2.557436098271637e-05, 2.114355053706163e-05, -4.9893056051075746e-05, 4.0860177250579e-05]","[7.144666192004934e-09, 1.4787741892218416e-35, 0.00028252872289158404, 3.2978718578805975e-40, 1.1624962270634228e-22, 2.6697554858401418e-05]","[0.0, -1.5707963267948966, 0.0, 0.0, 0.0, 0.0]","[0.0, -1.5707963267948966, 0.0, 0.0, 0.0, 0.0]",0.002,7,1
0,-1,"[1.577043440192938e-05, -1.5708219013609828, -3.6284924135543406e-05, 3.0203456542921003e-05, -2.175966371709137e-05, 3.337860107421875e-06]","[1.34991039437176e-27, 0.0, 0.00016096781473606825, 0.0, 9.832563365938518e-13, 2.324915476492606e-05]","[0.0, -1.5707963267948966, 0.0, 0.0, 0.0, 0.0]","[0.0, -1.5707963267948966, 0.0, 0.0, 0.0, 0.0]",0.002,7,1
0,-1,"[-6.024037496388246e-06, -1.5708476505675257, -1.0251998901367188e-05, -1.6288166381883684e-05, -2.6051198140919496e-05, 3.170967102050781e-05]","[7.872245341450172e-39, 0.0, 4.033435834571719e-05, 0.0, 7.618357352302966e-20, 2.1577043298748322e-05]","[0.0, -1.5707963267948966, 0.0, 0.0, 0.0, 0.0]","[0.0, -1.5707963267948966, 0.0, 0.0, 0.0, 0.0]",0.002,7,1
0,-1,"[6.482053140643984e-05, -1.570871492425436, -1.1467927834019065e-06, 2.9130572936963972e-05, -2.175966371709137e-05, -7.788287561538709e-07]","[0.0, 0.0, 2.8741229471052065e-05, 0.0, 1.6430586076471683e-30, 8.486527747209038e-08]","[0.0, -1.5707963267948966, 0.0, 0.0, 0.0, 0.0]","[0.0, -1.5707963267948966, 0.0, 0.0, 0.0, 0.0]",0.002,7,1
0,-1,"[1.888275073724799e-05, -1.5708023510374964, 6.024037496388246e-06, 1.828252758784288e-05, -6.753603090459137e-05, -1.3653432027638246e-05]","[0.0, 0.0, 2.4119710360537283e-05, 0.0, 1.2730561130248957e-37, 6.575435454372197e-15]","[0.0, -1.5707963267948966, 0.0, 0.0, 0.0, 0.0]","[0.0, -1.5707963267948966, 0.0, 0.0, 0.0, 0.0]",0.002,7,1
0,-1,"[-1.3653432027638246e-05, -1.5707980595030726, -4.366385837784037e-05, 1.2083644531202253e-05, -2.6051198140919496e-05, -1.794496645146637e-05]","[0.0, 0.0, 7.889165259651956e-14, 0.0, 0.0, 9.259382756779933e-27]","[0.0, -1.5707963267948966, 0.0, 0.0, 0.0, 0.0]","[0.0, -1.5707963267948966, 0.0, 0.0, 0.0, 0.0]",0.002,7,1
0,-1,"[1.5815359802218154e-05, -1.5708519421019496, -1.9345163309480995e-05, -4.367237426805559e-06, -1.4607106344044496e-05, -3.4634266988575746e-05]","[0.0, 0.0, 3.429198865379274e-23, 0.0, 0.0, 1.0987800466512896e-32]","[0.0, -1.5707963267948966, 0.0, 0.0, 0.0, 0.0]","[0.0, -1.5707963267948966, 0.0, 0.0, 0.0, 0.0]",0.002,7,1
0,-1,"[-3.7495289937794496e-05, -1.5708304844298304, -2.847158793883864e-05, 1.2083644531202253e-05, -6.658235658818512e-05, 1.2578963833220769e-05]","[0.0, 0.0, 1.9997992032543585e-34, 0.0, 0.0, 8.513448690158994e-40]","[0.0, -1.5707963267948966, 0.0, 0.0, 0.0, 0.0]","[0.0, -1.5707963267948966, 0.0, 0.0, 0.0, 0.0]",0.002,7,1
0,-1,"[-1.732503072560121e-06, -1.5708385906615199, -4.3675900087691844e-05, -4.918993029789931e-05, 6.4373016357421875e-06, 2.4385213691857643e-05]","[0.0, 0.0, 0.0, 0.0, 0.0, 0.0]","[0.0, -1.5707963267948966, 0.0, 0.0, 0.0, 0.0]","[0.0, -1.5707963267948966, 0.0, 0.0, 0.0, 0.0]",0.002,7,1
0,1,"[-4.178682436162262e-05, -1.5708519421019496, 3.4634266988575746e-05, -2.081811938481337e-05, 1.404285376338521e-05, -7.788287561538709e-07]","[0.0, 0.0, -0.0, 0.0, 6.140598998172209e-05, 0.0]","[0.0004387367163421333, -1.5703575900785545, 0.0004387367163421333, 0.0004387367163421333, 0.0004387367163421333, 0.0004387367163421333]","[0.0004387367163421333, -1.5703575900785545, 0.0004387367163421333, 0.0004387367163421333, 0.0004387367163421333, 0.0004387367163421333]",0.002,7,1
0,2,"[7.005214229138801e-06, -1.5708476505675257, -1.93451651284704e-05, 2.4481410644483503e-05, -6.024037496388246e-06, 7.94915195001522e-06]","[0.0, 0.0, -0.0, 0.0, 5.8991088735638186e-05, 0.0]","[0.0008774727395818924, -1.5699188540553146, 0.0008774727395818924, 0.0008774727395818924, 0.0008774727395818924, 0.0008774727395818924]","[0.0008774727395818924, -1.5699188540553146, 0.0008774727395818924, 0.0008774727395818924, 0.0008774727395818924, 0.0008774727395818924]",0.002,7,1
0,3,"[1.8856560927815735e-05, -1.5708385906615199, -3.169774936395697e-05, -6.289899859623915e-05, -2.175966371709137e-05, -2.271333803349762e-05]","[0.0, 0.0, -0.0, 0.0, 5.8227527915732935e-05, 0.0]","[0.0013162073766179979, -1.5694801194182786, 0.0013162073766179979, 0.0013162073766179979, 0.0013162073766179979, 0.0013162073766179979]","[0.0013162073766179979, -1.5694801194182786, 0.0013162073766179979, 0.0013162073766179979, 0.0013162073766179979, 0.0013162073766179979]",0.002,7,1
0,4,"[-2.1282826558888246e-05, -1.570789174442627, -2.3932458134368062e-05, -9.016399719286028e-06, 9.760115972312633e-06, 4.8489571781829e-05]","[1.1120903677108718e-11, 0.001902744872495532, 0.0021455404348671436, 0.0, 0.003237906377762556, 5.865853381692432e-06]","[0.0017549399343513602, -1.5690413868605453, 0.0017549399343513602, 0.0017549399343513602, 0.0017549399343513602, 0.0017549399343513602]","[0.0017549399343513602, -1.5690413868605453, 0.0017549399343513602, 0.0017549399343513602, 0.0017549399343513602, 0.0017549399343513602]",0.002,7,1
0,5,"[2.6226043701171875e-06, -1.5708185635008753, 1.732503072560121e-06, 5.023061718745225e-05, 5.0830840336857364e-05, 3.169774936395697e-05]","[0.0022190334275364876, 0.0012006352189928293, 0.0014656642451882362, 2.858239724901068e-07, 0.002194885164499283, 0.0017262541223317385]","[0.002193669719686175, -1.5686026570752103, 0.002193669719686175, 0.002193669719686175, 0.002193669719686175, 0.002193669719686175]","[0.002193669719686175, -1.5686026570752103, 0.002193669719686175, 0.002193669719686175, 0.002193669719686175, 0.002193669719686175]",0.002,7,1
0,6,"[-1.889864076787262e-05, -1.5708023510374964, 1.3653432027638246e-05, 2.9249782226514753e-05, -1.889864076787262e-05, 3.170967102050781e-05]","[0.0021258904598653316, 0.0037595946341753006, 0.0014581417199224234, 0.0024775522761046886, 0.0021165169309824705, 0.0029953974299132824]","[0.0026323960395310173, -1.5681639307553656, 0.0026323960395310173, 0.0026323960395310173, 0.0026323960395310173, 0.0026323960395310173]","[0.0026323960395310173, -1.5681639307553656, 0.0026323960395310173, 0.0026323960395310173, 0.0026323960395310173, 0.0026323960395310173]",0.002,7,1
0,7,"[1.888275073724799e-05, -1.5707934659770508, 1.3653432027638246e-05, 2.7223224304151472e-05, 1.4042854672879912e-05, 3.62396240234375e-05]","[0.001975098391994834, 0.0046781012788414955, 0.00362741039134562, 0.004104559309780598, 0.0032218394335359335, 0.004129507578909397]","[0.003071118200799937, -1.5677252085940967, 0.003071118200799937, 0.003071118200799937, 0.003071118200799937, 0.003071118200799937]","[0.003071118200799937, -1.5677252085940967, 0.003071118200799937, 0.003071118200799937, 0.003071118200799937, 0.003071118200799937]",0.002,7,1
0,8,"[2.3265361960511655e-05, -1.5707577720753143, -2.8507711249403656e-05, 2.7342433593702253e-05, 2.5963783627958037e-05, 0.00010237217065878212]","[0.0019295606762170792, 0.004024660214781761, 0.004240257199853659, 0.0037328945472836494, 0.004528209567070007, 0.00410034554079175]","[0.0035098355104135528, -1.567286491284483, 0.0035098355104135528, 0.0035098355104135528, 0.0035098355104135528, 0.0035098355104135528]","[0.0035098355104135528, -1.567286491284483, 0.0035098355104135528, 0.0035098355104135528, 0.0035098355104135528, 0.0035098355104135528]",0.002,7,1
0,9,"[-1.255665914356996e-06, -1.5706916540915081, 1.1746083394825746e-05, 2.9249782226514753e-05, 9.123372728936374e-05, -1.4607106344044496e-05]","[0.0024707827251404524, 0.003227733075618744, 0.0039973449893295765, 0.0032710751984268427, 0.005636030342429876, 0.003960206639021635]","[0.00394854727530015, -1.5668477795195963, 0.00394854727530015, 0.00394854727530015, 0.00394854727530015, 0.00394854727530015]","[0.00394854727530015, -1.5668477795195963, 0.00394854727530015, 0.00394854727530015, 0.00394854727530015, 0.00394854727530015]",0.002,7,1
0,10,"[5.488371607498266e-05, -1.570803781548971, 2.7958546773731996e-05, 2.2812480590772566e-05, 6.9397923653014e-05, 5.8650970458984375e-05]","[0.003669489175081253, 0.004420909099280834, 0.005111317615956068, 0.0038320941384881735, 0.0058865961618721485, 0.0042388420552015305]","[0.00438725280239677, -1.5664090739924998, 0.00438725280239677, 0.00438725280239677, 0.00438725280239677, 0.00438725280239677]","[0.00438725280239677, -1.5664090739924998, 0.00438725280239677, 0.00438725280239677, 0.00438725280239677, 0.00438725280239677]",0.002,7,1
0,11,"[4.6161938371369615e-05, -1.570766643886902, 4.0356312887013246e-05, 6.763517346186632e-05, 3.692531754495576e-05, 7.510185241699219e-05]","[0.005798856727778912, 0.007447327487170696, 0.006543056573718786, 0.006648535840213299, 0.006222036201506853, 0.0060182418674230576]","[0.004825951398650312, -1.5659703753962462, 0.004825951398650312, 0.004825951398650312, 0.004825951398650312, 0.004825951398650312]","[0.004825951398650312, -1.5659703753962462, 0.004825951398650312, 0.004825951398650312, 0.004825951398650312, 0.004825951398650312]",0.002,7,1
0,12,"[7.124003604985774e-05, -1.5707411934384545, 0.00010663667787724762, 2.2812480590772566e-05, 0.00011563872976694256, 4.673004150390625e-05]","[0.006688182707875967, 0.008808450773358345, 0.00918678380548954, 0.009114383719861507, 0.007156314793974161, 0.0075952741317451]","[0.005264642371018622, -1.565531684423878, 0.005264642371018622, 0.005264642371018622, 0.005264642371018622, 0.005264642371018622]","[0.005264642371018622, -1.565531684423878, 0.005264642371018622, 0.005264642371018622, 0.005264642371018622, 0.005264642371018622]",0.002,7,1
0,13,"[4.6193599700927734e-05, -1.5707184833339234, 6.41981707971695e-05, 7.2165126464796e-05, 7.82012939453125e-05, 9.465217590332031e-05]","[0.006645582150667906, 0.010528428480029106, 0.009697646833956242, 0.009472228586673737, 0.00891493633389473, 0.01032757293432951]","[0.005703325026471591, -1.565093001768425, 0.005703325026471591, 0.005703325026471591, 0.005703325026471591, 0.005703325026471591]","[0.005703325026471591, -1.565093001768425, 0.005703325026471591, 0.005703325026471591, 0.005703325026471591, 0.005703325026471591]",0.002,7,1
0,14,"[8.208460349123925e-05, -1.5706900522748874, 0.00011903444399052887, 9.147703137202257e-05, 0.00013067721738480031, 0.0001412343990523368]","[0.007640534546226263, 0.012171175330877304, 0.010519871488213539, 0.009996352717280388, 0.011883210390806198, 0.011357997544109821]","[0.006141998671992247, -1.5646543281229044, 0.006141998671992247, 0.006141998671992247, 0.006141998671992247, 0.006141998671992247]","[0.006141998671992247, -1.5646543281229044, 0.006141998671992247, 0.006141998671992247, 0.006141998671992247, 0.006141998671992247]",0.002,7,1
0,15,"[0.00014764803927391768, -1.5706526862380379, 0.00014287630190068512, 0.00017444669689936632, 0.00014610135986004025, 0.00012612342834472656]","[0.010214163921773434, 0.01333603635430336, 0.01365108322352171, 0.011974291875958443, 0.012234744615852833, 0.012573817744851112]","[0.006580662614577854, -1.5642156641803187, 0.006580662614577854, 0.006580662614577854, 0.006580662614577854, 0.006580662614577854]","[0.006580662614577854, -1.5642156641803187, 0.006580662614577854, 0.006580662614577854, 0.006580662614577854, 0.006580662614577854]",0.002,7,1
0,16,"[0.0001224773732246831, -1.5706915148515073, 0.00012427965273076325, 0.0001777845570067882, 0.00013300799764692783, 0.00017547607421875]","[0.011775478720664978, 0.015753619372844696, 0.014838991686701775, 0.014458969235420227, 0.014343195594847202, 0.0148640600964427]","[0.0070193161612410035, -1.5637770106336555, 0.0070193161612410035, 0.0070193161612410035, 0.0070193161612410035, 0.0070193161612410035]","[0.0070193161612410035, -1.5637770106336555, 0.0070193161612410035, 0.0070193161612410035, 0.0070193161612410035, 0.0070193161612410035]",0.002,7,1
0,17,"[0.00017055343778338283, -1.57060464847412, 0.00018197694887334137, 0.00012592851605219835, 0.0002718029136303812, 0.0002251577388960868]","[0.013578608632087708, 0.017102863639593124, 0.017334632575511932, 0.017844276502728462, 0.015549756586551666, 0.01627027429640293]","[0.0074579586190107105, -1.563338368175886, 0.0074579586190107105, 0.0074579586190107105, 0.0074579586190107105, 0.0074579586190107105]","[0.0074579586190107105, -1.563338368175886, 0.0074579586190107105, 0.0074579586190107105, 0.0074579586190107105, 0.0074579586190107105]",0.002,7,1
0,18,"[0.00017058849334716797, -1.570622519855835, 0.00016051927675420075, 0.00022117673840327257, 0.0002467632293701172, 0.00024746943381614983]","[0.015867454931139946, 0.01811477541923523, 0.019249362871050835, 0.019016683101654053, 0.017291048541665077, 0.019324932247400284]","[0.007896589294933507, -1.5628997374999631, 0.007896589294933507, 0.007896589294933507, 0.007896589294933507, 0.007896589294933507]","[0.007896589294933507, -1.5628997374999631, 0.007896589294933507, 0.007896589294933507, 0.007896589294933507, 0.007896589294933507]",0.002,7,1
0,19,"[0.00023055076599121094, -1.5705612052737088, 0.00021630922426396637, 0.000297232265136671, 0.0003278074145782739, 0.000300259591313079]","[0.017312532290816307, 0.01960565894842148, 0.020409857854247093, 0.019198069348931313, 0.018877742812037468, 0.01977003738284111]","[0.008335207496074538, -1.562461119298822, 0.008335207496074538, 0.008335207496074538, 0.008335207496074538, 0.008335207496074538]","[0.008335207496074538, -1.562461119298822, 0.008335207496074538, 0.008335207496074538, 0.008335207496074538, 0.008335207496074538]",0.002,7,1
0,20,"[0.0002872965415008366, -1.5705701067530136, 0.000268284474508107, 0.0003143984028319835, 0.00032660961733199656, 0.0003198099147994071]","[0.018659837543964386, 0.019892483949661255, 0.02114548720419407, 0.01886303536593914, 0.017313655465841293, 0.018363850191235542]","[0.008773812529518655, -1.5620225142653779, 0.008773812529518655, 0.008773812529518655, 0.008773812529518655, 0.008773812529518655]","[0.008773812529518655, -1.5620225142653779, 0.008773812529518655, 0.008773812529518655, 0.008773812529518655, 0.008773812529518655]",0.002,7,1
0,21,"[0.00027419746038503945, -1.570469685135624, 0.00036317506899052887, 0.0003482538410644054, 0.0003385305462870747, 0.00033164024353027344]","[0.019639907404780388, 0.020052064210176468, 0.022391121834516525, 0.018451470881700516, 0.016987694427371025, 0.017676109448075294]","[0.009212403702371514, -1.561583923092525, 0.009212403702371514, 0.009212403702371514, 0.009212403702371514, 0.009212403702371514]","[0.009212403702371514, -1.561583923092525, 0.009212403702371514, 0.009212403702371514, 0.009212403702371514, 0.009212403702371514]",0.002,7,1
0,22,"[0.00035933381877839565, -1.5704665941051026, 0.00039941469301396637, 0.0003692346760253429, 0.0004041252250317484, 0.0004051637661177665]","[0.019749781116843224, 0.021554984152317047, 0.02362768165767193, 0.018635209649801254, 0.016962643712759018, 0.018228117376565933]","[0.009650980321760663, -1.561145346473136, 0.009650980321760663, 0.009650980321760663, 0.009650980321760663, 0.009650980321760663]","[0.009650980321760663, -1.561145346473136, 0.009650980321760663, 0.009650980321760663, 0.009650980321760663, 0.009650980321760663]",0.002,7,1
0,23,"[0.000391004461562261, -1.5704665941051026, 0.00043517747987920075, 0.00044576703991694444, 0.00040205431287176907, 0.00045308590051718056]","[0.022725390270352364, 0.022815870121121407, 0.024515027180314064, 0.019378572702407837, 0.01804393343627453, 0.018665386363863945]","[0.010089541694836647, -1.56070678510006, 0.010089541694836647, 0.010089541694836647, 0.010089541694836647, 0.010089541694836647]","[0.010089541694836647, -1.56070678510006, 0.010089541694836647, 0.010089541694836647, 0.010089541694836647, 0.010089541694836647]",0.002,7,1
0,24,"[0.00045965382014401257, -1.5703617171132755, 0.0004747549640100601, 0.00046972810711665147, 0.0005088386824354529, 0.00044251393410377204]","[0.024373169988393784, 0.02386024221777916, 0.025894755497574806, 0.020068030804395676, 0.0189502090215683, 0.019828567281365395]","[0.010528087128774092, -1.5602682396661225, 0.010528087128774092, 0.010528087128774092, 0.010528087128774092, 0.010528087128774092]","[0.010528087128774092, -1.5602682396661225, 0.010528087128774092, 0.010528087128774092, 0.010528087128774092, 0.010528087128774092]",0.002,7,1
0,25,"[0.0004781381576322019, -1.5703167099894308, 0.0005224386798303726, 0.0005106168934325694, 0.0005154848331585526, 0.0005370571743696928]","[0.02467089332640171, 0.025532657280564308, 0.026707429438829422, 0.02090047113597393, 0.020221827551722527, 0.021414367482066154]","[0.010966615930772807, -1.5598297108641237, 0.010966615930772807, 0.010966615930772807, 0.010966615930772807, 0.010966615930772807]","[0.010966615930772807, -1.5598297108641237, 0.010966615930772807, 0.010966615930772807, 0.010966615930772807, 0.010966615930772807]",0.002,7,1
0,26,"[0.0005513451178558171, -1.5702613190263328, 0.0006244818316858414, 0.0005745130726317882, 0.0005593299865722656, 0.0005397796630859375]","[0.026408281177282333, 0.02689334750175476, 0.02858803980052471, 0.02212589420378208, 0.0216103233397007, 0.022475825622677803]","[0.01140512740805887, -1.5593911993868377, 0.01140512740805887, 0.01140512740805887, 0.01140512740805887, 0.01140512740805887]","[0.01140512740805887, -1.5593911993868377, 0.01140512740805887, 0.01140512740805887, 0.01140512740805887, 0.01140512740805887]",0.002,7,1
0,27,"[0.0005951201892457902, -1.5701682743131933, 0.0006335417376917007, 0.0006483036228637218, 0.0005843696417286992, 0.0005410289741121233]","[0.02725285105407238, 0.028733989223837852, 0.029765086248517036, 0.023670250549912453, 0.022873610258102417, 0.022788558155298233]","[0.011843620867885736, -1.5589527059270107, 0.011843620867885736, 0.011843620867885736, 0.011843620867885736, 0.011843620867885736]","[0.011843620867885736, -1.5589527059270107, 0.011843620867885736, 0.011843620867885736, 0.011843620867885736, 0.011843620867885736]",0.002,7,1
0,28,"[0.0006799653056077659, -1.5701293100467701, 0.0006907621966760757, 0.0006783443638305187, 0.0006696429336443543, 0.0006554126739501953]","[0.028536101803183556, 0.031229298561811447, 0.03136058896780014, 0.02481299638748169, 0.024589743465185165, 0.024805335327982903]","[0.01228209561753532, -1.5585142311773612, 0.01228209561753532, 0.01228209561753532, 0.01228209561753532, 0.01228209561753532]","[0.01228209561753532, -1.5585142311773612, 0.01228209561753532, 0.01228209561753532, 0.01228209561753532, 0.01228209561753532]",0.002,7,1
0,29,"[0.0006878548301756382, -1.5700484384181728, 0.0007656256305139664, 0.0006765562244872569, 0.0007296380936168134, 0.0007124852854758501]","[0.03148418292403221, 0.03308248892426491, 0.03176751360297203, 0.026962583884596825, 0.026484103873372078, 0.027422180399298668]","[0.012720550964319092, -1.5580757758305774, 0.012720550964319092, 0.012720550964319092, 0.012720550964319092, 0.012720550964319092]","[0.012720550964319092, -1.5580757758305774, 0.012720550964319092, 0.012720550964319092, 0.012720550964319092, 0.012720550964319092]",0.002,7,1
0,30,"[0.0007794182747602463, -1.569992747190856, 0.0008729139911096695, 0.0007862287708739757, 0.0008063669083639979, 0.0007936382316984236]","[0.03326953202486038, 0.03396114706993103, 0.03547412157058716, 0.029531653970479965, 0.02841196581721306, 0.029589414596557617]","[0.01315898621557918, -1.5576373405793174, 0.01315898621557918, 0.01315898621557918, 0.01315898621557918, 0.01315898621557918]","[0.01315898621557918, -1.5576373405793174, 0.01315898621557918, 0.01315898621557918, 0.01315898621557918, 0.01315898621557918]",0.002,7,1
0,31,"[0.0008109005866572261, -1.5699417427861881, 0.000935856495992482, 0.0008627611347655773, 0.000808286655228585, 0.0008128049084916711]","[0.03434310108423233, 0.037222884595394135, 0.037363920360803604, 0.032024893909692764, 0.03031320683658123, 0.03016461245715618]","[0.013597400678689451, -1.5571989261162071, 0.013597400678689451, 0.013597400678689451, 0.013597400678689451, 0.013597400678689451]","[0.013597400678689451, -1.5571989261162071, 0.013597400678689451, 0.013597400678689451, 0.013597400678689451, 0.013597400678689451]",0.002,7,1
0,32,"[0.0009275911725126207, -1.5698862594184284, 0.0010212103473108414, 0.0008353429981688976, 0.0008850154699757695, 0.0008775615715421736]","[0.036058682948350906, 0.040780115872621536, 0.037751730531454086, 0.032105494290590286, 0.03256535157561302, 0.03136858716607094]","[0.014035793661056617, -1.5567605331338399, 0.014035793661056617, 0.014035793661056617, 0.014035793661056617, 0.014035793661056617]","[0.014035793661056617, -1.5567605331338399, 0.014035793661056617, 0.014035793661056617, 0.014035793661056617, 0.014035793661056617]",0.002,7,1
0,33,"[0.0009996111039072275, -1.5696989506580685, 0.0010750929461877945, 0.0009614664265136241, 0.0009241342777386308, 0.0009645120007917285]","[0.03873521462082863, 0.04113483801484108, 0.041312601417303085, 0.03344060108065605, 0.034899745136499405, 0.03481188789010048]","[0.014474164470121325, -1.5563221623247752, 0.014474164470121325, 0.014474164470121325, 0.014474164470121325, 0.014474164470121325]","[0.014474164470121325, -1.5563221623247752, 0.014474164470121325, 0.014474164470121325, 0.014474164470121325, 0.014474164470121325]",0.002,7,1
0,34,"[0.0010270788334310055, -1.5696897342898701, 0.001218144093648732, 0.0010709005543212413, 0.0010249433107674122, 0.0010333966929465532]","[0.03996618837118149, 0.04291509836912155, 0.043637294322252274, 0.03628978878259659, 0.03661036491394043, 0.03760058432817459]","[0.014912512413359249, -1.5558838143815372, 0.014912512413359249, 0.014912512413359249, 0.014912512413359249, 0.014912512413359249]","[0.014912512413359249, -1.5558838143815372, 0.014912512413359249, 0.014912512413359249, 0.014912512413359249, 0.014912512413359249]",0.002,7,1
0,35,"[0.0011394284665584564, -1.5695818498828267, 0.0012176672564905289, 0.0011047559925536632, 0.0011253413977101445, 0.001079559326171875]","[0.04175598919391632, 0.046294525265693665, 0.04353347793221474, 0.03840862587094307, 0.03910257667303085, 0.03889813646674156]","[0.015350836798282188, -1.5554454899966144, 0.015350836798282188, 0.015350836798282188, 0.015350836798282188, 0.015350836798282188]","[0.015350836798282188, -1.5554454899966144, 0.015350836798282188, 0.015350836798282188, 0.015350836798282188, 0.015350836798282188]",0.002,7,1
0,36,"[0.0012158503523096442, -1.5695022862967853, 0.0013230482684534195, 0.0011846262165526866, 0.001206299290060997, 0.0011805915273725986]","[0.04424848034977913, 0.0480952113866806, 0.04580257460474968, 0.04160534590482712, 0.04185459390282631, 0.040982067584991455]","[0.01578913693243915, -1.5550071898624573, 0.01578913693243915, 0.01578913693243915, 0.01578913693243915, 0.01578913693243915]","[0.01578913693243915, -1.5550071898624573, 0.01578913693243915, 0.01578913693243915, 0.01578913693243915, 0.01578913693243915]",0.002,7,1
0,37,"[0.0013902906794101, -1.5694047588952635, 0.001485172902242482, 0.0012848812290648937, 0.001363574992865324, 0.0012505234917625785]","[0.04625025764107704, 0.05221303924918175, 0.04828660190105438, 0.04421410709619522, 0.04403456673026085, 0.04378575086593628]","[0.016227412123417467, -1.5545689146714792, 0.016227412123417467, 0.016227412123417467, 0.016227412123417467, 0.016227412123417467]","[0.016227412123417467, -1.5545689146714792, 0.016227412123417467, 0.016227412123417467, 0.016227412123417467, 0.016227412123417467]",0.002,7,1
0,38,"[0.001424086862243712, -1.569289405746833, 0.0015886465655725601, 0.001387162799499464, 0.001390859135426581, 0.0013767194468528032]","[0.04814942926168442, 0.050465986132621765, 0.05242849886417389, 0.04527241736650467, 0.0459556058049202, 0.04635953903198242]","[0.01666566167884386, -1.5541306651160527, 0.01666566167884386, 0.01666566167884386, 0.01666566167884386, 0.01666566167884386]","[0.01666566167884386, -1.5541306651160527, 0.01666566167884386, 0.01666566167884386, 0.01666566167884386, 0.01666566167884386]",0.002,7,1
0,39,"[0.0015082425670698285, -1.569144048528262, 0.001618687306539357, 0.001457496280334425, 0.0014216718263924122, 0.0015057855052873492]","[0.051095783710479736, 0.05525784566998482, 0.05206998810172081, 0.047147929668426514, 0.04848571494221687, 0.049573298543691635]","[0.017103884906385567, -1.553692441888511, 0.017103884906385567, 0.017103884906385567, 0.017103884906385567, 0.017103884906385567]","[0.017103884906385567, -1.553692441888511, 0.017103884906385567, 0.017103884906385567, 0.017103884906385567, 0.017103884906385567]",0.002,7,1
0,40,"[0.0016487231478095055, -1.5690643361634393, 0.0017569700824182632, 0.00156967222180171, 0.0016278948169201612, 0.0015476655680686235]","[0.053485654294490814, 0.05803938955068588, 0.05371132493019104, 0.05047891288995743, 0.05088606849312782, 0.051274776458740234]","[0.017542081113751395, -1.5532542456811451, 0.017542081113751395, 0.017542081113751395, 0.017542081113751395, 0.017542081113751395]","[0.017542081113751395, -1.5532542456811451, 0.017542081113751395, 0.017542081113751395, 0.017542081113751395, 0.017542081113751395]",0.002,7,1
0,41,"[0.0017371916910633445, -1.568969829390273, 0.001859013234273732, 0.001706524486206007, 0.0016544548561796546, 0.0016270226333290339]","[0.05539621040225029, 0.05995269864797592, 0.057948023080825806, 0.053124092519283295, 0.05398329719901085, 0.05532602593302727]","[0.017980249608692853, -1.5528160771862036, 0.017980249608692853, 0.017980249608692853, 0.017980249608692853, 0.017980249608692853]","[0.017980249608692853, -1.5528160771862036, 0.017980249608692853, 0.017980249608692853, 0.017980249608692853, 0.017980249608692853]",0.002,7,1
0,42,"[0.001901958486996591, -1.5688199575855215, 0.001988236104146779, 0.0017723280140380382, 0.0018203849904239178, 0.0017774073639884591]","[0.057635895907878876, 0.061554789543151855, 0.05906473472714424, 0.055634040385484695, 0.05735798180103302, 0.05699555203318596]","[0.018418389699005232, -1.5523779370958912, 0.018418389699005232, 0.018418389699005232, 0.018418389699005232, 0.018418389699005232]","[0.018418389699005232, -1.5523779370958912, 0.018418389699005232, 0.018418389699005232, 0.018418389699005232, 0.018418389699005232]",0.002,7,1
0,43,"[0.0019848174415528774, -1.568712079697736, 0.0021551291095178726, 0.0018936830708007335, 0.0019349484937265515, 0.0018970086239278316]","[0.06035204976797104, 0.06427279859781265, 0.06126110255718231, 0.05875980108976364, 0.05712607502937317, 0.0578983835875988]","[0.01885650069252868, -1.5519398261023678, 0.01885650069252868, 0.01885650069252868, 0.01885650069252868, 0.01885650069252868]","[0.01885650069252868, -1.5519398261023678, 0.01885650069252868, 0.01885650069252868, 0.01885650069252868, 0.01885650069252868]",0.002,7,1
0,44,"[0.00212573679164052, -1.5685261525544156, 0.0022872130023401382, 0.0020086008259276866, 0.0020160824060440063, 0.002050104085355997]","[0.06252241879701614, 0.06583774834871292, 0.06393039971590042, 0.06033003330230713, 0.059735506772994995, 0.06076895073056221]","[0.01929458189714932, -1.5515017448977473, 0.01929458189714932, 0.01929458189714932, 0.01929458189714932, 0.01929458189714932]","[0.01929458189714932, -1.5515017448977473, 0.01929458189714932, 0.01929458189714932, 0.01929458189714932, 0.01929458189714932]",0.002,7,1
0,45,"[0.00220852461643517, -1.5684570181513955, 0.0024283568011682632, 0.0021460491367797374, 0.002134862821549177, 0.002153577748686075]","[0.06553208827972412, 0.06787412613630295, 0.06552174687385559, 0.06276537477970123, 0.06524592638015747, 0.06538525968790054]","[0.01973263262080034, -1.5510636941740963, 0.01973263262080034, 0.01973263262080034, 0.01973263262080034, 0.01973263262080034]","[0.01973263262080034, -1.5510636941740963, 0.01973263262080034, 0.01973263262080034, 0.01973263262080034, 0.01973263262080034]",0.002,7,1
0,46,"[0.0023897856008261442, -1.5682875365349283, 0.002530399953023732, 0.00225631772961421, 0.0022597608622163534, 0.0022854232229292393]","[0.06908915191888809, 0.07127627730369568, 0.06807024031877518, 0.06582015752792358, 0.06735844910144806, 0.06477396935224533]","[0.020170652171463074, -1.5506256746234335, 0.020170652171463074, 0.020170652171463074, 0.020170652171463074, 0.020170652171463074]","[0.020170652171463074, -1.5506256746234335, 0.020170652171463074, 0.020170652171463074, 0.020170652171463074, 0.020170652171463074]",0.002,7,1
0,47,"[0.0025741509161889553, -1.5681153030930837, 0.0026505629168909195, 0.002458973521850538, 0.0024660781491547823, 0.0024384879507124424]","[0.06873011589050293, 0.07273124158382416, 0.07034339010715485, 0.0684720054268837, 0.06908592581748962, 0.0684121698141098]","[0.0206086398571681, -1.5501876869377285, 0.0206086398571681, 0.0206086398571681, 0.0206086398571681, 0.0206086398571681]","[0.0206086398571681, -1.5501876869377285, 0.0206086398571681, 0.0206086398571681, 0.0206086398571681, 0.0206086398571681]",0.002,7,1
0,48,"[0.0026078138034790754, -1.5679754817723115, 0.0028441588031213882, 0.002548380489013624, 0.0025558113120496273, 0.002552113961428404]","[0.07397284358739853, 0.07451075315475464, 0.07336752116680145, 0.07127272337675095, 0.0720495879650116, 0.07187411189079285]","[0.02104659498599634, -1.5497497318089002, 0.02104659498599634, 0.02104659498599634, 0.02104659498599634, 0.02104659498599634]","[0.02104659498599634, -1.5497497318089002, 0.02104659498599634, 0.02104659498599634, 0.02104659498599634, 0.02104659498599634]",0.002,7,1
0,49,"[0.002833607140928507, -1.5678391896984358, 0.002934281026021779, 0.002741976375244093, 0.0027701121289283037, 0.0027217292226850986]","[0.07843150198459625, 0.07942195236682892, 0.07688062638044357, 0.07460917532444, 0.07520145922899246, 0.07496612519025803]","[0.021484516866080144, -1.5493118099288163, 0.021484516866080144, 0.021484516866080144, 0.021484516866080144, 0.021484516866080144]","[0.021484516866080144, -1.5493118099288163, 0.021484516866080144, 0.021484516866080144, 0.021484516866080144, 0.021484516866080144]",0.002,7,1
0,50,"[0.0029570499900728464, -1.5676951615935941, 0.00309926668276006, 0.0029323536106566905, 0.002890686970204115, 0.0029063557740300894]","[0.07850590348243713, 0.07838960736989975, 0.07853803038597107, 0.07790326327085495, 0.078369140625, 0.07735138386487961]","[0.0219224048056044, -1.5488739219892922, 0.0219224048056044, 0.0219224048056044, 0.0219224048056044, 0.0219224048056044]","[0.0219224048056044, -1.5488739219892922, 0.0219224048056044, 0.0219224048056044, 0.0219224048056044, 0.0219224048056044]",0.002,7,1
0,51,"[0.003162297885864973, -1.5675481218243768, 0.003300491963521779, 0.003012819881103468, 0.003033573040738702, 0.0030107498168945312]","[0.08255187422037125, 0.08024371415376663, 0.08017411828041077, 0.08054669946432114, 0.0806109681725502, 0.08011575043201447]","[0.02236025811280759, -1.548436068682089, 0.02236025811280759, 0.02236025811280759, 0.02236025811280759, 0.02236025811280759]","[0.02236025811280759, -1.548436068682089, 0.02236025811280759, 0.02236025811280759, 0.02236025811280759, 0.02236025811280759]",0.002,7,1
0,52,"[0.003338851034641266, -1.567359089418762, 0.0034902731524866226, 0.0032189327427367687, 0.0032401131466031075, 0.003270659362897277]","[0.08527497947216034, 0.0868014246225357, 0.08534140884876251, 0.08246513456106186, 0.08298556506633759, 0.08252913504838943]","[0.022798076095982937, -1.5479982506989136, 0.022798076095982937, 0.022798076095982937, 0.022798076095982937, 0.022798076095982937]","[0.022798076095982937, -1.5479982506989136, 0.022798076095982937, 0.022798076095982937, 0.022798076095982937, 0.022798076095982937]",0.002,7,1
0,53,"[0.0035057091154158115, -1.5672374866301944, 0.003625218068258107, 0.0033940511890868663, 0.003444500034675002, 0.0034234856721013784]","[0.08773019164800644, 0.08599351346492767, 0.08569896966218948, 0.08893232047557831, 0.08429937064647675, 0.08591604977846146]","[0.023235858063479446, -1.547560468731417, 0.023235858063479446, 0.023235858063479446, 0.023235858063479446, 0.023235858063479446]","[0.023235858063479446, -1.547560468731417, 0.023235858063479446, 0.023235858063479446, 0.023235858063479446, 0.023235858063479446]",0.002,7,1
0,54,"[0.0036871270276606083, -1.5670396536919107, 0.0037768522845667007, 0.0035453277775268077, 0.0036380253732204437, 0.0035614394582808018]","[0.09063718467950821, 0.08955538272857666, 0.09030964225530624, 0.08922190964221954, 0.09034948796033859, 0.08908087760210037]","[0.023673603323703017, -1.5471227234711935, 0.023673603323703017, 0.023673603323703017, 0.023673603323703017, 0.023673603323703017]","[0.023673603323703017, -1.5471227234711935, 0.023673603323703017, 0.023673603323703017, 0.023673603323703017, 0.023673603323703017]",0.002,7,1
0,55,"[0.003832044778391719, -1.566826728904136, 0.00396901765932256, 0.0037296253391723155, 0.003711037104949355, 0.00374120706692338]","[0.09375113993883133, 0.09224358946084976, 0.0925794243812561, 0.09412052482366562, 0.09116850048303604, 0.09138078987598419]","[0.02411131118511755, -1.5466850156097791, 0.02411131118511755, 0.02411131118511755, 0.02411131118511755, 0.02411131118511755]","[0.02411131118511755, -1.5466850156097791, 0.02411131118511755, 0.02411131118511755, 0.02411131118511755, 0.02411131118511755]",0.002,7,1
0,56,"[0.004056524019688368, -1.5666842398098488, 0.004149262105123341, 0.003950520152709913, 0.0039726304821670055, 0.003928604070097208]","[0.09569486975669861, 0.09501069039106369, 0.0946887657046318, 0.09572308510541916, 0.09561896324157715, 0.09411298483610153]","[0.02454898095624604, -1.5462473458386505, 0.02454898095624604, 0.02454898095624604, 0.02454898095624604, 0.02454898095624604]","[0.02454898095624604, -1.5462473458386505, 0.02454898095624604, 0.02454898095624604, 0.02454898095624604, 0.02454898095624604]",0.002,7,1
0,57,"[0.004318540915846825, -1.5664429904757817, 0.0044053236590784195, 0.004128976459167433, 0.004180882591754198, 0.00412968173623085]","[0.10090676695108414, 0.09737538546323776, 0.09628809243440628, 0.09884192794561386, 0.1000111922621727, 0.09774899482727051]","[0.024986611945671616, -1.545809714849225, 0.024986611945671616, 0.024986611945671616, 0.024986611945671616, 0.024986611945671616]","[0.024986611945671616, -1.545809714849225, 0.024986611945671616, 0.024986611945671616, 0.024986611945671616, 0.024986611945671616]",0.002,7,1
0,58,"[0.004473478067666292, -1.5662343537299712, 0.004595581685201466, 0.004353328342102003, 0.004377591889351606, 0.004309358540922403]","[0.10131953656673431, 0.10065601021051407, 0.10076751559972763, 0.10231737792491913, 0.10057608038187027, 0.10002024471759796]","[0.025424203462038705, -1.545372123332858, 0.025424203462038705, 0.025424203462038705, 0.025424203462038705, 0.025424203462038705]","[0.025424203462038705, -1.545372123332858, 0.025424203462038705, 0.025424203462038705, 0.025424203462038705, 0.025424203462038705]",0.002,7,1
0,59,"[0.0047223810106515884, -1.566087481831648, 0.004750076924459279, 0.004575176829956007, 0.004573271609842777, 0.004529895726591349]","[0.10795975476503372, 0.10313054174184799, 0.10358604788780212, 0.10457020998001099, 0.10367162525653839, 0.10592059046030045]","[0.025861754814054082, -1.5449345719808425, 0.025861754814054082, 0.025861754814054082, 0.025861754814054082, 0.025861754814054082]","[0.025861754814054082, -1.5449345719808425, 0.025861754814054082, 0.025861754814054082, 0.025861754814054082, 0.025861754814054082]",0.002,7,1
0,60,"[0.004983887076377869, -1.5658924042112012, 0.0050233046161096695, 0.004831596011779737, 0.004764492157846689, 0.00479274382814765]","[0.1074238047003746, 0.10449377447366714, 0.10631532967090607, 0.10762377828359604, 0.10757387429475784, 0.10776455700397491]","[0.026299265310487988, -1.5444970614844085, 0.026299265310487988, 0.026299265310487988, 0.026299265310487988, 0.026299265310487988]","[0.026299265310487988, -1.5444970614844085, 0.026299265310487988, 0.026299265310487988, 0.026299265310487988, 0.026299265310487988]",0.002,7,1
0,61,"[0.005141121800988913, -1.5656166703305026, 0.00518972078432256, 0.005055590266845655, 0.005010340828448534, 0.004964862018823624]","[0.11224815994501114, 0.11015535891056061, 0.10943722724914551, 0.11299282312393188, 0.11094047874212265, 0.1129997968673706]","[0.02673673426017517, -1.5440595925347214, 0.02673673426017517, 0.02673673426017517, 0.02673673426017517, 0.02673673426017517]","[0.02673673426017517, -1.5440595925347214, 0.02673673426017517, 0.02673673426017517, 0.02673673426017517, 0.02673673426017517]",0.002,7,1
0,62,"[0.005319980438798666, -1.5654109788923343, 0.005460564290181935, 0.005261941547058058, 0.005250939168035984, 0.00523937214165926]","[0.1153101697564125, 0.10967718064785004, 0.11135104298591614, 0.1126791313290596, 0.11427611857652664, 0.11490154266357422]","[0.027174160972016047, -1.5436221658228806, 0.027174160972016047, 0.027174160972016047, 0.027174160972016047, 0.027174160972016047]","[0.027174160972016047, -1.5436221658228806, 0.027174160972016047, 0.027174160972016047, 0.027174160972016047, 0.027174160972016047]",0.002,7,1
0,63,"[0.005638622213155031, -1.5651935020326455, 0.00570089021791631, 0.005506320590637159, 0.005450942553579807, 0.005453620105981827]","[0.11662646383047104, 0.11641240864992142, 0.116411492228508, 0.11745420843362808, 0.11717171967029572, 0.11775072664022446]","[0.027611544754977735, -1.5431847820399187, 0.027611544754977735, 0.027611544754977735, 0.027611544754977735, 0.027611544754977735]","[0.027611544754977735, -1.5431847820399187, 0.027611544754977735, 0.027611544754977735, 0.027611544754977735, 0.027611544754977735]",0.002,7,1
0,64,"[0.005871107801795006, -1.564983499036618, 0.005957428609029591, 0.005749984378478956, 0.005723924376070499, 0.0056815482676029205]","[0.11977022141218185, 0.1179811954498291, 0.11710633337497711, 0.11846213787794113, 0.1190335601568222, 0.11978694051504135]","[0.028048884918095193, -1.5427474418768015, 0.028048884918095193, 0.028048884918095193, 0.028048884918095193, 0.028048884918095193]","[0.028048884918095193, -1.5427474418768015, 0.028048884918095193, 0.028048884918095193, 0.028048884918095193, 0.028048884918095193]",0.002,7,1
0,65,"[0.0061362129636108875, -1.5647181070274492, 0.0061944166766565445, 0.005965157146118116, 0.0059437016025185585, 0.0058957957662642]","[0.12278023362159729, 0.12174637615680695, 0.12179744988679886, 0.1219545230269432, 0.12406518310308456, 0.12431881576776505]","[0.028486180770472276, -1.5423101460244242, 0.028486180770472276, 0.028486180770472276, 0.028486180770472276, 0.028486180770472276]","[0.028486180770472276, -1.5423101460244242, 0.028486180770472276, 0.028486180770472276, 0.028486180770472276, 0.028486180770472276]",0.002,7,1
0,66,"[0.0063467686995863914, -1.5644242663732548, 0.006433788930074513, 0.006228371257446241, 0.006197080016136169, 0.006176804192364216]","[0.12571795284748077, 0.1244555190205574, 0.1249527633190155, 0.12351366877555847, 0.12423784285783768, 0.12515056133270264]","[0.02892343162128283, -1.5418728951736138, 0.02892343162128283, 0.02892343162128283, 0.02892343162128283, 0.02892343162128283]","[0.02892343162128283, -1.5418728951736138, 0.02892343162128283, 0.02892343162128283, 0.02892343162128283, 0.02892343162128283]",0.002,7,1
0,67,"[0.006647052709013224, -1.5642098745195945, 0.006674114857808888, 0.006522460574768019, 0.006482306867837906, 0.006457481998950243]","[0.1297394335269928, 0.12766094505786896, 0.12771831452846527, 0.1276937872171402, 0.12967237830162048, 0.12934644520282745]","[0.029360636779771816, -1.5414356900151247, 0.029360636779771816, 0.029360636779771816, 0.029360636779771816, 0.029360636779771816]","[0.029360636779771816, -1.5414356900151247, 0.029360636779771816, 0.029360636779771816, 0.029360636779771816, 0.029360636779771816]",0.002,7,1
0,68,"[0.006919672712683678, -1.563974373308458, 0.006925884877340138, 0.0067362028309325694, 0.0067130522802472115, 0.006688437890261412]","[0.1304178535938263, 0.13057059049606323, 0.1306113302707672, 0.1308458149433136, 0.1311306357383728, 0.1327047348022461]","[0.029797795555256364, -1.5409985312396401, 0.029797795555256364, 0.029797795555256364, 0.029797795555256364, 0.029797795555256364]","[0.029797795555256364, -1.5409985312396401, 0.029797795555256364, 0.029797795555256364, 0.029797795555256364, 0.029797795555256364]",0.002,7,1
0,69,"[0.00716727040708065, -1.563696755827852, 0.007315460835592091, 0.007019682521484327, 0.006969963666051626, 0.007010362576693296]","[0.13548584282398224, 0.1360100507736206, 0.13221682608127594, 0.1337021142244339, 0.13328108191490173, 0.13549157977104187]","[0.030234907257126884, -1.5405614195377697, 0.030234907257126884, 0.030234907257126884, 0.030234907257126884, 0.030234907257126884]","[0.030234907257126884, -1.5405614195377697, 0.030234907257126884, 0.030234907257126884, 0.030234907257126884, 0.030234907257126884]",0.002,7,1
0,70,"[0.0074595119804143906, -1.563455203348287, 0.007483307515279591, 0.007283254260681105, 0.0072746495716273785, 0.007244585081934929]","[0.13733434677124023, 0.13566309213638306, 0.13634972274303436, 0.1371251940727234, 0.1364576369524002, 0.1396045982837677]","[0.030671971194848137, -1.5401243556000483, 0.030671971194848137, 0.030671971194848137, 0.030671971194848137, 0.030671971194848137]","[0.030671971194848137, -1.5401243556000483, 0.030671971194848137, 0.030671971194848137, 0.030671971194848137, 0.030671971194848137]",0.002,7,1
0,71,"[0.007707288488745689, -1.5631285219318052, 0.007771317158834279, 0.00766710817303462, 0.007609352935105562, 0.00752932857722044]","[0.1398213803768158, 0.13908787071704865, 0.14286985993385315, 0.13995793461799622, 0.13955232501029968, 0.14212605357170105]","[0.031108986677960353, -1.5396873401169362, 0.031108986677960353, 0.031108986677960353, 0.031108986677960353, 0.031108986677960353]","[0.031108986677960353, -1.5396873401169362, 0.031108986677960353, 0.031108986677960353, 0.031108986677960353, 0.031108986677960353]",0.002,7,1
0,72,"[0.007986389100551605, -1.5628612230396648, 0.008085552846090138, 0.007890625590942335, 0.007889428175985813, 0.007866528816521168]","[0.14281383156776428, 0.14254683256149292, 0.14345860481262207, 0.14198537170886993, 0.1460089236497879, 0.14486397802829742]","[0.03154595301608032, -1.5392503737788163, 0.03154595301608032, 0.03154595301608032, 0.03154595301608032, 0.03154595301608032]","[0.03154595301608032, -1.5392503737788163, 0.03154595301608032, 0.03154595301608032, 0.03154595301608032, 0.03154595301608032]",0.002,7,1
0,73,"[0.008295347914099693, -1.5626482658884306, 0.00833160081972295, 0.008187218303344679, 0.008203914389014244, 0.008121476508677006]","[0.14640037715435028, 0.1463606357574463, 0.14538730680942535, 0.1473844349384308, 0.14642386138439178, 0.14790712296962738]","[0.031982869518902446, -1.5388134572759942, 0.031982869518902446, 0.031982869518902446, 0.031982869518902446, 0.031982869518902446]","[0.031982869518902446, -1.5388134572759942, 0.031982869518902446, 0.031982869518902446, 0.031982869518902446, 0.031982869518902446]",0.002,7,1
0,74,"[0.008607111871242523, -1.5622734923711796, 0.00862437883485967, 0.008536382312438917, 0.008421100676059723, 0.00838843360543251]","[0.14826150238513947, 0.14979755878448486, 0.1500025987625122, 0.1485673189163208, 0.15057332813739777, 0.1516055166721344]","[0.03241973549619986, -1.5383765912986966, 0.03241973549619986, 0.03241973549619986, 0.03241973549619986, 0.03241973549619986]","[0.03241973549619986, -1.5383765912986966, 0.03241973549619986, 0.03241973549619986, 0.03241973549619986, 0.03241973549619986]",0.002,7,1
0,75,"[0.008916113525629044, -1.5619857742315908, 0.00899821916689092, 0.008828564281127882, 0.008790593594312668, 0.008680978789925575]","[0.15269659459590912, 0.15336178243160248, 0.1516808420419693, 0.1518506109714508, 0.15392199158668518, 0.15683405101299286]","[0.03285655025782554, -1.537939776537071, 0.03285655025782554, 0.03285655025782554, 0.03285655025782554, 0.03285655025782554]","[0.03285655025782554, -1.537939776537071, 0.03285655025782554, 0.03285655025782554, 0.03285655025782554, 0.03285655025782554]",0.002,7,1
0,76,"[0.00919509306550026, -1.5616647510654111, 0.009244743977681935, 0.009191675777099562, 0.009145054034888744, 0.008995769545435905]","[0.15550805628299713, 0.15446750819683075, 0.15286654233932495, 0.15417665243148804, 0.1584799736738205, 0.1575457751750946]","[0.03329331311371334, -1.5375030136811831, 0.03329331311371334, 0.03329331311371334, 0.03329331311371334, 0.03329331311371334]","[0.03329331311371334, -1.5375030136811831, 0.03329331311371334, 0.03329331311371334, 0.03329331311371334, 0.03329331311371334]",0.002,7,1
0,77,"[0.00956401601433754, -1.561364521538355, 0.0095751921283167, 0.009490295047424269, 0.00943632610142231, 0.00936149712651968]","[0.15843519568443298, 0.1581229269504547, 0.1554812490940094, 0.15672682225704193, 0.1593814343214035, 0.16240453720092773]","[0.03373002337387915, -1.5370663034210175, 0.03373002337387915, 0.03373002337387915, 0.03373002337387915, 0.03373002337387915]","[0.03373002337387915, -1.5370663034210175, 0.03373002337387915, 0.03373002337387915, 0.03373002337387915, 0.03373002337387915]",0.002,7,1
0,78,"[0.009876105934381485, -1.561061686170735, 0.009897534047262013, 0.009761734599731398, 0.009657786227762699, 0.009652378037571907]","[0.16155287623405457, 0.1626480370759964, 0.16221532225608826, 0.15983548760414124, 0.16259559988975525, 0.1644797921180725]","[0.03416668034842189, -1.5366296464464746, 0.03416668034842189, 0.03416668034842189, 0.03416668034842189, 0.03416668034842189]","[0.03416668034842189, -1.5366296464464746, 0.03416668034842189, 0.03416668034842189, 0.03416668034842189, 0.03416668034842189]",0.002,7,1
0,79,"[0.010196822695434093, -1.5606959883919735, 0.010193649922506154, 0.010173245067260694, 0.010072932578623295, 0.010035027749836445]","[0.16469675302505493, 0.16485659778118134, 0.16240578889846802, 0.16290991008281708, 0.16805514693260193, 0.16858738660812378]","[0.03460328334752473, -1.5361930434473718, 0.03460328334752473, 0.03460328334752473, 0.03460328334752473, 0.03460328334752473]","[0.03460328334752473, -1.5361930434473718, 0.03460328334752473, 0.03460328334752473, 0.03460328334752473, 0.03460328334752473]",0.002,7,1
0,80,"[0.010528734885156155, -1.560350932446756, 0.010590378438131154, 0.01045803605999751, 0.010367065668106079, 0.01030790340155363]","[0.16729755699634552, 0.16755232214927673, 0.16548603773117065, 0.16710880398750305, 0.16946987807750702, 0.16972734034061432]","[0.035039831681456066, -1.5357564951134406, 0.035039831681456066, 0.035039831681456066, 0.035039831681456066, 0.035039831681456066]","[0.035039831681456066, -1.5357564951134406, 0.035039831681456066, 0.035039831681456066, 0.035039831681456066, 0.035039831681456066]",0.002,7,1
0,81,"[0.010872099548578262, -1.5600732474452634, 0.01091033617128545, 0.01085011541333003, 0.010737464763224125, 0.010648091323673725]","[0.1730152666568756, 0.17221759259700775, 0.16791310906410217, 0.1707429736852646, 0.17103984951972961, 0.17145101726055145]","[0.03547632466057065, -1.5353200021343258, 0.03547632466057065, 0.03547632466057065, 0.03547632466057065, 0.03547632466057065]","[0.03547632466057065, -1.5353200021343258, 0.03547632466057065, 0.03547632466057065, 0.03547632466057065, 0.03547632466057065]",0.002,7,1
0,82,"[0.011240849271416664, -1.5597299237600346, 0.011199776326314748, 0.011182351703308058, 0.011102015152573586, 0.011063911952078342]","[0.1725664734840393, 0.17733848094940186, 0.1698630303144455, 0.1735285520553589, 0.1739637702703476, 0.17517557740211487]","[0.035912761595310705, -1.5348835651995858, 0.035912761595310705, 0.035912761595310705, 0.035912761595310705, 0.035912761595310705]","[0.035912761595310705, -1.5348835651995858, 0.035912761595310705, 0.035912761595310705, 0.035912761595310705, 0.035912761595310705]",0.002,7,1
0,83,"[0.011597496457397938, -1.559340101932623, 0.011586014424459279, 0.011575861568115187, 0.011482788249850273, 0.011406942270696163]","[0.17526936531066895, 0.18001730740070343, 0.17451852560043335, 0.17604903876781464, 0.1770717352628708, 0.1795150637626648]","[0.03634914179620697, -1.5344471849986896, 0.03634914179620697, 0.03634914179620697, 0.03634914179620697, 0.03634914179620697]","[0.03634914179620697, -1.5344471849986896, 0.03634914179620697, 0.03634914179620697, 0.03634914179620697, 0.03634914179620697]",0.002,7,1
0,84,"[0.011993708088994026, -1.5589830980500956, 0.011922184620992482, 0.011859102840087843, 0.011819425038993359, 0.011712886393070221]","[0.17898699641227722, 0.18047446012496948, 0.1781972348690033, 0.17745913565158844, 0.18166734278202057, 0.18285685777664185]","[0.03678546457387983, -1.5340108622210167, 0.03678546457387983, 0.03678546457387983, 0.03678546457387983, 0.03678546457387983]","[0.03678546457387983, -1.5340108622210167, 0.03678546457387983, 0.03678546457387983, 0.03678546457387983, 0.03678546457387983]",0.002,7,1
0,85,"[0.012280497699975967, -1.5586860620281477, 0.012256924306051076, 0.012267037028930616, 0.012125620618462563, 0.012091917917132378]","[0.18202738463878632, 0.18405410647392273, 0.17903421819210052, 0.17957517504692078, 0.1876591444015503, 0.18635006248950958]","[0.037221729239040366, -1.5335745975558561, 0.037221729239040366, 0.037221729239040366, 0.037221729239040366, 0.037221729239040366]","[0.037221729239040366, -1.5335745975558561, 0.037221729239040366, 0.037221729239040366, 0.037221729239040366, 0.037221729239040366]",0.002,7,1
0,86,"[0.012636277824640274, -1.5582976213521142, 0.012643162404195607, 0.012641950244567823, 0.012489228509366512, 0.012503244914114475]","[0.18454821407794952, 0.18824225664138794, 0.1828780472278595, 0.1839694082736969, 0.18839199841022491, 0.18968310952186584]","[0.03765793510249147, -1.533138391692405, 0.03765793510249147, 0.03765793510249147, 0.03765793510249147, 0.03765793510249147]","[0.03765793510249147, -1.533138391692405, 0.03765793510249147, 0.03765793510249147, 0.03765793510249147, 0.03765793510249147]",0.002,7,1
0,87,"[0.013072643429040909, -1.5579286471805354, 0.013022724782125294, 0.012965841884277296, 0.012935824692249298, 0.012832793407142162]","[0.18811291456222534, 0.19223278760910034, 0.1856107860803604, 0.18723587691783905, 0.1910698562860489, 0.19315999746322632]","[0.03809408147512893, -1.5327022453197676, 0.03809408147512893, 0.03809408147512893, 0.03809408147512893, 0.03809408147512893]","[0.03809408147512893, -1.5327022453197676, 0.03809408147512893, 0.03809408147512893, 0.03809408147512893, 0.03809408147512893]",0.002,7,1
0,88,"[0.013457932509481907, -1.5574754637530823, 0.013378445302144826, 0.01336483537640376, 0.013291104696691036, 0.01324938703328371]","[0.19010433554649353, 0.19281429052352905, 0.18848897516727448, 0.19063284993171692, 0.1944359838962555, 0.19780129194259644]","[0.03853016766794253, -1.532266159126954, 0.03853016766794253, 0.03853016766794253, 0.03853016766794253, 0.03853016766794253]","[0.03853016766794253, -1.532266159126954, 0.03853016766794253, 0.03853016766794253, 0.03853016766794253, 0.03853016766794253]",0.002,7,1
0,89,"[0.013829795643687248, -1.557153095757105, 0.013777081166402638, 0.01380567132916255, 0.013608603738248348, 0.013626349158585072]","[0.19402115046977997, 0.19538387656211853, 0.19201721251010895, 0.19193138182163239, 0.19762447476387024, 0.19940128922462463]","[0.03896619299201709, -1.5318301338028795, 0.03896619299201709, 0.03896619299201709, 0.03896619299201709, 0.03896619299201709]","[0.03896619299201709, -1.5318301338028795, 0.03896619299201709, 0.03896619299201709, 0.03896619299201709, 0.03896619299201709]",0.002,7,1
0,90,"[0.014274924993515015, -1.5567406828380008, 0.014178101216451466, 0.014166160220764112, 0.014054827392101288, 0.014034360647201538]","[0.19699916243553162, 0.19907061755657196, 0.19719547033309937, 0.19448606669902802, 0.20091289281845093, 0.20220139622688293]","[0.03940215675853362, -1.531394170036363, 0.03940215675853362, 0.03940215675853362, 0.03940215675853362, 0.03940215675853362]","[0.03940215675853362, -1.531394170036363, 0.03940215675853362, 0.03940215675853362, 0.03940215675853362, 0.03940215675853362]",0.002,7,1
0,91,"[0.014616291970014572, -1.5563398965499182, 0.014575783406392873, 0.014543338412902784, 0.01448733638972044, 0.014433258213102818]","[0.1998351812362671, 0.20483513176441193, 0.1983964443206787, 0.1976729929447174, 0.2029874324798584, 0.20378431677818298]","[0.03983805827877034, -1.5309582685161263, 0.03983805827877034, 0.03983805827877034, 0.03983805827877034, 0.03983805827877034]","[0.03983805827877034, -1.5309582685161263, 0.03983805827877034, 0.03983805827877034, 0.03983805827877034, 0.03983805827877034]",0.002,7,1
0,92,"[0.015070323832333088, -1.5559113028324028, 0.014937702809469044, 0.015002890224121046, 0.014858393929898739, 0.014837740920484066]","[0.20195549726486206, 0.20475204288959503, 0.20065739750862122, 0.2012699991464615, 0.2045392543077469, 0.20696087181568146]","[0.04027389686410387, -1.5305224299307927, 0.04027389686410387, 0.04027389686410387, 0.04027389686410387, 0.04027389686410387]","[0.04027389686410387, -1.5305224299307927, 0.04027389686410387, 0.04027389686410387, 0.04027389686410387, 0.04027389686410387]",0.002,7,1
0,93,"[0.01549441833049059, -1.555545021114387, 0.015305344258443654, 0.015416308040283155, 0.015320011414587498, 0.01520795002579689]","[0.20371060073375702, 0.2092086374759674, 0.2023806869983673, 0.20292463898658752, 0.20837119221687317, 0.20897093415260315]","[0.04070967182601018, -1.5300866549688863, 0.04070967182601018, 0.04070967182601018, 0.04070967182601018, 0.04070967182601018]","[0.04070967182601018, -1.5300866549688863, 0.04070967182601018, 0.04070967182601018, 0.04070967182601018, 0.04070967182601018]",0.002,7,1
0,94,"[0.015880731865763664, -1.5550804317793627, 0.015779797230855763, 0.01583032190289302, 0.015695663169026375, 0.01564885303378105]","[0.20735611021518707, 0.2127237468957901, 0.206574946641922, 0.20764918625354767, 0.2129829376935959, 0.21383081376552582]","[0.041145382476065785, -1.5296509443188309, 0.041145382476065785, 0.041145382476065785, 0.041145382476065785, 0.041145382476065785]","[0.041145382476065785, -1.5296509443188309, 0.041145382476065785, 0.041145382476065785, 0.041145382476065785, 0.041145382476065785]",0.002,7,1
0,95,"[0.016351161524653435, -1.5546813917211075, 0.016131226216451466, 0.016234202975891066, 0.016148889437317848, 0.016059797257184982]","[0.211690753698349, 0.2130531221628189, 0.21146830916404724, 0.21112656593322754, 0.21537090837955475, 0.21633608639240265]","[0.0415810281259488, -1.5292152986689478, 0.0415810281259488, 0.0415810281259488, 0.0415810281259488, 0.0415810281259488]","[0.0415810281259488, -1.5292152986689478, 0.0415810281259488, 0.0415810281259488, 0.0415810281259488, 0.0415810281259488]",0.002,7,1
0,96,"[0.01671757362782955, -1.554297437225916, 0.016608540211812794, 0.01665000497784419, 0.016622493043541908, 0.01656969077885151]","[0.21534839272499084, 0.21614088118076324, 0.21511055529117584, 0.2130413055419922, 0.21709682047367096, 0.2188461720943451]","[0.04201660808744002, -1.5287797187074565, 0.04201660808744002, 0.04201660808744002, 0.04201660808744002, 0.04201660808744002]","[0.04201660808744002, -1.5287797187074565, 0.04201660808744002, 0.04201660808744002, 0.04201660808744002, 0.04201660808744002]",0.002,7,1
0,97,"[0.017174750566482544, -1.5538249865970393, 0.01702005067934209, 0.01704232274975581, 0.016971401870250702, 0.016989445313811302]","[0.21678291261196136, 0.2189481556415558, 0.2168523371219635, 0.21494589745998383, 0.2200598269701004, 0.22174616158008575]","[0.042452121672424015, -1.5283442051224725, 0.042452121672424015, 0.042452121672424015, 0.042452121672424015, 0.042452121672424015]","[0.042452121672424015, -1.5283442051224725, 0.042452121672424015, 0.042452121672424015, 0.042452121672424015, 0.042452121672424015]",0.002,7,1
0,98,"[0.017602665349841118, -1.5533676587841292, 0.017449680958883107, 0.01749853670086665, 0.01746162213385105, 0.017411958426237106]","[0.21781855821609497, 0.21954868733882904, 0.21916617453098297, 0.2193956971168518, 0.22216975688934326, 0.22452345490455627]","[0.042887568192890205, -1.5279087586020064, 0.042887568192890205, 0.042887568192890205, 0.042887568192890205, 0.042887568192890205]","[0.042887568192890205, -1.5279087586020064, 0.042887568192890205, 0.042887568192890205, 0.042887568192890205, 0.042887568192890205]",0.002,7,1
0,99,"[0.018083976581692696, -1.5529072035900136, 0.017981831227437794, 0.01800469934429927, 0.017844529822468758, 0.017896618694067]","[0.22127966582775116, 0.2219751626253128, 0.2237125188112259, 0.22361117601394653, 0.2240600734949112, 0.2263740450143814]","[0.043322946960933965, -1.5274733798339626, 0.043322946960933965, 0.043322946960933965, 0.043322946960933965, 0.043322946960933965]","[0.043322946960933965, -1.5274733798339626, 0.043322946960933965, 0.043322946960933965, 0.043322946960933965, 0.043322946960933965]",0.002,7,1
0,100,"[0.018490677699446678, -1.5524839882603665, 0.018346611653463185, 0.018371863956115675, 0.018351178616285324, 0.018380947411060333]","[0.22348552942276, 0.225807324051857, 0.22705389559268951, 0.22585006058216095, 0.22732876241207123, 0.23021048307418823]","[0.04375825728875771, -1.5270380695061387, 0.04375825728875771, 0.04375825728875771, 0.04375825728875771, 0.04375825728875771]","[0.04375825728875771, -1.5270380695061387, 0.04375825728875771, 0.04375825728875771, 0.04375825728875771, 0.04375825728875771]",0.002,7,1
0,101,"[0.018966952338814735, -1.5520043310574074, 0.01881581941713506, 0.018827720279357862, 0.018864136189222336, 0.01883680373430252]","[0.22757309675216675, 0.23079422116279602, 0.2285735309123993, 0.22908759117126465, 0.2308691442012787, 0.2318248748779297]","[0.04419349848867195, -1.5266028283062245, 0.04419349848867195, 0.04419349848867195, 0.04419349848867195, 0.04419349848867195]","[0.04419349848867195, -1.5266028283062245, 0.04419349848867195, 0.04419349848867195, 0.04419349848867195, 0.04419349848867195]",0.002,7,1
0,102,"[0.019437024369835854, -1.551547135492303, 0.019309822713033498, 0.01924411832775874, 0.019262289628386497, 0.01927892491221428]","[0.23215724527835846, 0.2328043282032013, 0.23186402022838593, 0.23184648156166077, 0.23321931064128876, 0.23404820263385773]","[0.04462866987309642, -1.5261676569218001, 0.04462866987309642, 0.04462866987309642, 0.04462866987309642, 0.04462866987309642]","[0.04462866987309642, -1.5261676569218001, 0.04462866987309642, 0.04462866987309642, 0.04462866987309642, 0.04462866987309642]",0.002,7,1
0,103,"[0.01990385353565216, -1.551134330486395, 0.01971465746034795, 0.01972775041546626, 0.01971752941608429, 0.019788898527622223]","[0.23307636380195618, 0.23513904213905334, 0.2361510992050171, 0.23464825749397278, 0.234932079911232, 0.23629632592201233]","[0.04506377075456115, -1.5257325560403354, 0.04506377075456115, 0.04506377075456115, 0.04506377075456115, 0.04506377075456115]","[0.04506377075456115, -1.5257325560403354, 0.04506377075456115, 0.04506377075456115, 0.04506377075456115, 0.04506377075456115]",0.002,7,1
0,104,"[0.020367594435811043, -1.5505958788893004, 0.020208183919088185, 0.02020518362011714, 0.02023150399327278, 0.020228303968906403]","[0.23427936434745789, 0.23660579323768616, 0.23733150959014893, 0.23701715469360352, 0.23682846128940582, 0.23777204751968384]","[0.04549880044570755, -1.525297526349189, 0.04549880044570755, 0.04549880044570755, 0.04549880044570755, 0.04549880044570755]","[0.04549880044570755, -1.525297526349189, 0.04549880044570755, 0.04549880044570755, 0.04549880044570755, 0.04549880044570755]",0.002,7,1
0,105,"[0.020810971036553383, -1.5500698436847706, 0.020650211964742482, 0.020664020175598097, 0.020716078579425812, 0.020686602219939232]","[0.23883040249347687, 0.2404738962650299, 0.23998422920703888, 0.23982572555541992, 0.24003897607326508, 0.2388191968202591]","[0.04593375825928948, -1.524862568535607, 0.04593375825928948, 0.04593375825928948, 0.04593375825928948, 0.04593375825928948]","[0.04593375825928948, -1.524862568535607, 0.04593375825928948, 0.04593375825928948, 0.04593375825928948, 0.04593375825928948]",0.002,7,1
0,106,"[0.021339012309908867, -1.5495987974903365, 0.021164719258443654, 0.02118472635235591, 0.021204879507422447, 0.021241912618279457]","[0.240682452917099, 0.24164234101772308, 0.24245621263980865, 0.24330516159534454, 0.24395497143268585, 0.24097901582717896]","[0.04636864350817435, -1.5244276832867223, 0.04636864350817435, 0.04636864350817435, 0.04636864350817435, 0.04636864350817435]","[0.04636864350817435, -1.5244276832867223, 0.04636864350817435, 0.04636864350817435, 0.04636864350817435, 0.04636864350817435]",0.002,7,1
0,107,"[0.021838659420609474, -1.5490979303470631, 0.021624390278951466, 0.02164284765209956, 0.021691691130399704, 0.021708181127905846]","[0.24192416667938232, 0.24192538857460022, 0.2461979240179062, 0.24835403263568878, 0.24511146545410156, 0.2442198246717453]","[0.04680345550534421, -1.5239928712895523, 0.04680345550534421, 0.04680345550534421, 0.04680345550534421, 0.04680345550534421]","[0.04680345550534421, -1.5239928712895523, 0.04680345550534421, 0.04680345550534421, 0.04680345550534421, 0.04680345550534421]",0.002,7,1
0,108,"[0.02227606251835823, -1.5486435548267146, 0.022166077290670216, 0.022083087558410597, 0.02216418832540512, 0.02216336689889431]","[0.24315884709358215, 0.24487030506134033, 0.2457726001739502, 0.2502250671386719, 0.24822434782981873, 0.24651160836219788]","[0.04723819356389685, -1.5235581332309998, 0.04723819356389685, 0.04723819356389685, 0.04723819356389685, 0.04723819356389685]","[0.04723819356389685, -1.5235581332309998, 0.04723819356389685, 0.04723819356389685, 0.04723819356389685, 0.04723819356389685]",0.002,7,1
0,109,"[0.02280736155807972, -1.5481320836446066, 0.022608582173482716, 0.022606058711669874, 0.022679541260004044, 0.02269655093550682]","[0.24759730696678162, 0.24650278687477112, 0.24827681481838226, 0.2525489330291748, 0.2504115700721741, 0.24898338317871094]","[0.04767285699704684, -1.5231234697978497, 0.04767285699704684, 0.04767285699704684, 0.04767285699704684, 0.04767285699704684]","[0.04767285699704684, -1.5231234697978497, 0.04767285699704684, 0.04767285699704684, 0.04767285699704684, 0.04767285699704684]",0.002,7,1
0,110,"[0.02329408749938011, -1.5475950085422774, 0.02314931551088506, 0.023082657451293898, 0.023172777146100998, 0.02324477583169937]","[0.25021058320999146, 0.24785247445106506, 0.2511744499206543, 0.2553556561470032, 0.25321877002716064, 0.25178489089012146]","[0.04810744511812663, -1.5226888816767699, 0.04810744511812663, 0.04810744511812663, 0.04810744511812663, 0.04810744511812663]","[0.04810744511812663, -1.5226888816767699, 0.04810744511812663, 0.04810744511812663, 0.04810744511812663, 0.04810744511812663]",0.002,7,1
0,111,"[0.02383863739669323, -1.5470911108753462, 0.023611370717183888, 0.02357880651440425, 0.023701954632997513, 0.023718424141407013]","[0.24992170929908752, 0.25044962763786316, 0.252179890871048, 0.2573530077934265, 0.25553032755851746, 0.25419265031814575]","[0.048541957240587706, -1.522254369554309, 0.048541957240587706, 0.048541957240587706, 0.048541957240587706, 0.048541957240587706]","[0.048541957240587706, -1.522254369554309, 0.048541957240587706, 0.048541957240587706, 0.048541957240587706, 0.048541957240587706]",0.002,7,1
0,112,"[0.024291248992085457, -1.5465796396932383, 0.02412444749941045, 0.02414218961682124, 0.024161599576473236, 0.024222202599048615]","[0.25276392698287964, 0.2518440783023834, 0.25469279289245605, 0.2586907744407654, 0.2586948573589325, 0.25530698895454407]","[0.048976392678001544, -1.521819934116895, 0.048976392678001544, 0.048976392678001544, 0.048976392678001544, 0.048976392678001544]","[0.048976392678001544, -1.521819934116895, 0.048976392678001544, 0.048976392678001544, 0.048976392678001544, 0.048976392678001544]",0.002,7,1
0,113,"[0.024827012792229652, -1.5460713201067229, 0.024615112935201466, 0.024593158359191847, 0.02478809468448162, 0.02474663220345974]","[0.2571154534816742, 0.2549755275249481, 0.2565285265445709, 0.2606904208660126, 0.259140282869339, 0.2574958801269531]","[0.049410750744060795, -1.5213855760508357, 0.049410750744060795, 0.049410750744060795, 0.049410750744060795, 0.049410750744060795]","[0.049410750744060795, -1.5213855760508357, 0.049410750744060795, 0.049410750744060795, 0.049410750744060795, 0.049410750744060795]",0.002,7,1
0,114,"[0.025303920730948448, -1.5455316019109269, 0.025131050740377248, 0.025113149280212355, 0.02526736631989479, 0.02530817873775959]","[0.26016756892204285, 0.2576220631599426, 0.2583315968513489, 0.26414772868156433, 0.2619616985321045, 0.2578594982624054]","[0.04984503075258035, -1.5209512960423162, 0.04984503075258035, 0.04984503075258035, 0.04984503075258035, 0.04984503075258035]","[0.04984503075258035, -1.5209512960423162, 0.04984503075258035, 0.04984503075258035, 0.04984503075258035, 0.04984503075258035]",0.002,7,1
0,115,"[0.025843298062682152, -1.544928527703025, 0.025722328816549123, 0.02555958806958003, 0.025794466957449913, 0.02580983191728592]","[0.25983792543411255, 0.2598051428794861, 0.2600143253803253, 0.2673720419406891, 0.26477378606796265, 0.25950321555137634]","[0.050279232017498385, -1.5205170947773983, 0.050279232017498385, 0.050279232017498385, 0.050279232017498385, 0.050279232017498385]","[0.050279232017498385, -1.5205170947773983, 0.050279232017498385, 0.050279232017498385, 0.050279232017498385, 0.050279232017498385]",0.002,7,1
0,116,"[0.02630499377846718, -1.544434444313385, 0.02626210847963506, 0.026137037868164015, 0.02628183737397194, 0.02633778005838394]","[0.262408971786499, 0.2618058919906616, 0.2638092339038849, 0.26941627264022827, 0.2664511203765869, 0.2628401517868042]","[0.0507133538528775, -1.520082972942019, 0.0507133538528775, 0.0507133538528775, 0.0507133538528775, 0.0507133538528775]","[0.0507133538528775, -1.520082972942019, 0.0507133538528775, 0.0507133538528775, 0.0507133538528775, 0.0507133538528775]",0.002,7,1
0,117,"[0.02679632417857647, -1.5438859083554526, 0.026769463215963185, 0.026695294971130323, 0.026851225644350052, 0.026886994019150734]","[0.26540812849998474, 0.26259946823120117, 0.26832571625709534, 0.2718987464904785, 0.26937147974967957, 0.26780152320861816]","[0.05114739557290577, -1.5196489312219907, 0.05114739557290577, 0.05114739557290577, 0.05114739557290577, 0.05114739557290577]","[0.05114739557290577, -1.5196489312219907, 0.05114739557290577, 0.05114739557290577, 0.05114739557290577, 0.05114739557290577]",0.002,7,1
0,118,"[0.027412407100200653, -1.5433583197048684, 0.027343098317281544, 0.02720753728833003, 0.027382470667362213, 0.02745901420712471]","[0.2683269679546356, 0.265606552362442, 0.26939645409584045, 0.27410319447517395, 0.2689535319805145, 0.26923391222953796]","[0.05158135649189781, -1.5192149703029987, 0.05158135649189781, 0.05158135649189781, 0.05158135649189781, 0.05158135649189781]","[0.05158135649189781, -1.5192149703029987, 0.05158135649189781, 0.05158135649189781, 0.05158135649189781, 0.05158135649189781]",0.002,7,1
0,119,"[0.02788688987493515, -1.542765823458769, 0.027845207844869435, 0.02772144853558345, 0.02793470025062561, 0.028032001107931137]","[0.2713658809661865, 0.26923173666000366, 0.27225786447525024, 0.2752537429332733, 0.2708851397037506, 0.2711465358734131]","[0.05201523592429592, -1.5187810908706005, 0.05201523592429592, 0.05201523592429592, 0.05201523592429592, 0.05201523592429592]","[0.05201523592429592, -1.5187810908706005, 0.05201523592429592, 0.05201523592429592, 0.05201523592429592, 0.05201523592429592]",0.002,7,1
0,120,"[0.028421297669410706, -1.542262965147831, 0.02841073671449834, 0.028267069453857374, 0.028565557673573494, 0.028563160449266434]","[0.27137935161590576, 0.27022936940193176, 0.27377089858055115, 0.27769264578819275, 0.2750623822212219, 0.27206671237945557]","[0.05244903318467109, -1.5183472936102254, 0.05244903318467109, 0.05244903318467109, 0.05244903318467109, 0.05244903318467109]","[0.05244903318467109, -1.5183472936102254, 0.05244903318467109, 0.05244903318467109, 0.05244903318467109, 0.05244903318467109]",0.002,7,1
0,121,"[0.029003292322158813, -1.5416989859989663, 0.02892190614809209, 0.028869672412536573, 0.02904370054602623, 0.029081610962748528]","[0.2764659821987152, 0.2732502520084381, 0.27561965584754944, 0.28073957562446594, 0.27408695220947266, 0.2723132371902466]","[0.05288274758772415, -1.5179135792071725, 0.05288274758772415, 0.05288274758772415, 0.05288274758772415, 0.05288274758772415]","[0.05288274758772415, -1.5179135792071725, 0.05288274758772415, 0.05288274758772415, 0.05288274758772415, 0.05288274758772415]",0.002,7,1
0,122,"[0.029528731480240822, -1.5411607784083863, 0.029521767293111623, 0.0293850141712646, 0.02960030548274517, 0.029642023146152496]","[0.2775863707065582, 0.27462905645370483, 0.278605580329895, 0.2821415960788727, 0.2773149013519287, 0.2747834324836731]","[0.05331637844828681, -1.5174799483466097, 0.05331637844828681, 0.05331637844828681, 0.05331637844828681, 0.05331637844828681]","[0.05331637844828681, -1.5174799483466097, 0.05331637844828681, 0.05331637844828681, 0.05331637844828681, 0.05331637844828681]",0.002,7,1
0,123,"[0.03009537234902382, -1.5405382861248036, 0.03009063402284795, 0.029985828990600538, 0.0302048958837986, 0.030126070603728294]","[0.27834245562553406, 0.2752075493335724, 0.28163087368011475, 0.28364765644073486, 0.27780357003211975, 0.2755715847015381]","[0.053749925081322765, -1.5170464017135739, 0.053749925081322765, 0.053749925081322765, 0.053749925081322765, 0.053749925081322765]","[0.053749925081322765, -1.5170464017135739, 0.053749925081322765, 0.053749925081322765, 0.053749925081322765, 0.053749925081322765]",0.002,7,1
0,124,"[0.03062259964644909, -1.5399795987508078, 0.03066713014711553, 0.030599876041076612, 0.030794568359851837, 0.030764974653720856]","[0.28038835525512695, 0.2758770287036896, 0.2810211479663849, 0.2852577269077301, 0.2782200574874878, 0.2779815196990967]","[0.05418338680192879, -1.5166129399929678, 0.05418338680192879, 0.05418338680192879, 0.05418338680192879, 0.05418338680192879]","[0.05418338680192879, -1.5166129399929678, 0.05418338680192879, 0.05418338680192879, 0.05418338680192879, 0.05418338680192879]",0.002,7,1
0,125,"[0.031201742589473724, -1.5393738609603425, 0.031235520039693654, 0.031160636539123487, 0.031365808099508286, 0.03135443851351738]","[0.2814667224884033, 0.2776987552642822, 0.282250314950943, 0.2867818772792816, 0.2806820571422577, 0.2796911299228668]","[0.05461676292533576, -1.5161795638695608, 0.05461676292533576, 0.05461676292533576, 0.05461676292533576, 0.05461676292533576]","[0.05461676292533576, -1.5161795638695608, 0.05461676292533576, 0.05461676292533576, 0.05461676292533576, 0.05461676292533576]",0.002,7,1
0,126,"[0.031776443123817444, -1.5388702613166352, 0.03178245226015264, 0.0317503648945312, 0.03191826492547989, 0.031906139105558395]","[0.2853180766105652, 0.2813265919685364, 0.28300926089286804, 0.2888544201850891, 0.2808438837528229, 0.2812594771385193]","[0.0550500527669098, -1.5157462740279868, 0.0550500527669098, 0.0550500527669098, 0.0550500527669098, 0.0550500527669098]","[0.0550500527669098, -1.5157462740279868, 0.0550500527669098, 0.0550500527669098, 0.0550500527669098, 0.0550500527669098]",0.002,7,1
0,127,"[0.03223416581749916, -1.5383075711182137, 0.032337490712301076, 0.032281680698059034, 0.03249145671725273, 0.032484687864780426]","[0.2885948419570923, 0.28086966276168823, 0.2859445810317993, 0.2895231246948242, 0.2845380902290344, 0.28174319863319397]","[0.05548325564215335, -1.5153130711527432, 0.05548325564215335, 0.05548325564215335, 0.05548325564215335, 0.05548325564215335]","[0.05548325564215335, -1.5153130711527432, 0.05548325564215335, 0.05548325564215335, 0.05548325564215335, 0.05548325564215335]",0.002,7,1
0,128,"[0.03283849358558655, -1.5376915347627182, 0.03296786943544561, 0.03293458997692866, 0.03299673646688461, 0.033037133514881134]","[0.28635549545288086, 0.2813733220100403, 0.2853206694126129, 0.29314181208610535, 0.2868099510669708, 0.2846807837486267]","[0.05591637086670621, -1.5148799559281902, 0.05591637086670621, 0.05591637086670621, 0.05591637086670621, 0.05591637086670621]","[0.05591637086670621, -1.5148799559281902, 0.05591637086670621, 0.05591637086670621, 0.05591637086670621, 0.05591637086670621]",0.002,7,1
0,129,"[0.03341004624962807, -1.5371696141413231, 0.033515278493062794, 0.03347305833782954, 0.033630866557359695, 0.03357163816690445]","[0.28833478689193726, 0.28536462783813477, 0.28753894567489624, 0.29112592339515686, 0.28563192486763, 0.2844032347202301]","[0.05634939775634666, -1.5144469290385498, 0.05634939775634666, 0.05634939775634666, 0.05634939775634666, 0.05634939775634666]","[0.05634939775634666, -1.5144469290385498, 0.05634939775634666, 0.05634939775634666, 0.05634939775634666, 0.05634939775634666]",0.002,7,1
0,130,"[0.03398765251040459, -1.5365689259818573, 0.03416473070253545, 0.03408305227246089, 0.0341833233833313, 0.03420902416110039]","[0.2895662486553192, 0.2873470187187195, 0.2880733907222748, 0.2922104001045227, 0.2875881791114807, 0.286398708820343]","[0.05678233562699254, -1.514013991167904, 0.05678233562699254, 0.05678233562699254, 0.05678233562699254, 0.05678233562699254]","[0.05678233562699254, -1.514013991167904, 0.05678233562699254, 0.05678233562699254, 0.05678233562699254, 0.05678233562699254]",0.002,7,1
0,131,"[0.03461473062634468, -1.535998110925295, 0.03472310701479131, 0.03468577444042964, 0.03477627411484718, 0.034726332873106]","[0.29064616560935974, 0.29028287529945374, 0.28968238830566406, 0.29279977083206177, 0.28953951597213745, 0.2877751290798187]","[0.057215183794702286, -1.5135811430001942, 0.057215183794702286, 0.057215183794702286, 0.057215183794702286, 0.057215183794702286]","[0.057215183794702286, -1.5135811430001942, 0.057215183794702286, 0.057215183794702286, 0.057215183794702286, 0.057215183794702286]",0.002,7,1
0,132,"[0.0352390855550766, -1.5353614290109654, 0.035270039235250294, 0.03529135763134761, 0.03536713495850563, 0.03528539091348648]","[0.2948184609413147, 0.2908147871494293, 0.29155418276786804, 0.2941669225692749, 0.2910397946834564, 0.290399968624115]","[0.05764794157567609, -1.5131483852192205, 0.05764794157567609, 0.05764794157567609, 0.05764794157567609, 0.05764794157567609]","[0.05764794157567609, -1.5131483852192205, 0.05764794157567609, 0.05764794157567609, 0.05764794157567609, 0.05764794157567609]",0.002,7,1
0,133,"[0.035873644053936005, -1.534826186751463, 0.03589517274965459, 0.0359152990528564, 0.03592798858880997, 0.03589130565524101]","[0.29477792978286743, 0.29207614064216614, 0.291452020406723, 0.29450398683547974, 0.2932645082473755, 0.2908841371536255]","[0.058080608286256906, -1.5127157185086397, 0.058080608286256906, 0.058080608286256906, 0.058080608286256906, 0.058080608286256906]","[0.058080608286256906, -1.5127157185086397, 0.058080608286256906, 0.058080608286256906, 0.058080608286256906, 0.058080608286256906]",0.002,7,1
0,134,"[0.03641859441995621, -1.5342209388366719, 0.03654462495912725, 0.036485715503356886, 0.03653614968061447, 0.036483537405729294]","[0.29876887798309326, 0.29441002011299133, 0.29453569650650024, 0.296142041683197, 0.29451167583465576, 0.2935490906238556]","[0.058513183242931546, -1.512283143551965, 0.058513183242931546, 0.058513183242931546, 0.058513183242931546, 0.058513183242931546]","[0.058513183242931546, -1.512283143551965, 0.058513183242931546, 0.058513183242931546, 0.058513183242931546, 0.058513183242931546]",0.002,7,1
0,135,"[0.037014029920101166, -1.5336411085775872, 0.03706819215883428, 0.03713683664288325, 0.03714977204799652, 0.037057556211948395]","[0.2966158092021942, 0.2937835156917572, 0.2960902154445648, 0.29821616411209106, 0.2953701615333557, 0.29536545276641846]","[0.05894566576233181, -1.5118506610325648, 0.05894566576233181, 0.05894566576233181, 0.05894566576233181, 0.05894566576233181]","[0.05894566576233181, -1.5118506610325648, 0.05894566576233181, 0.05894566576233181, 0.05894566576233181, 0.05894566576233181]",0.002,7,1
0,136,"[0.03758837655186653, -1.533017599289753, 0.03769857088197881, 0.03776316225018306, 0.0377546027302742, 0.037625983357429504]","[0.29698827862739563, 0.2949400544166565, 0.29650792479515076, 0.29770392179489136, 0.29554587602615356, 0.2965884804725647]","[0.0593780551612355, -1.511418271633661, 0.0593780551612355, 0.0593780551612355, 0.0593780551612355, 0.0593780551612355]","[0.0593780551612355, -1.511418271633661, 0.0593780551612355, 0.0593780551612355, 0.0593780551612355, 0.0593780551612355]",0.002,7,1
0,137,"[0.03820677474141121, -1.5324747350863, 0.03831655183901006, 0.038334770793579054, 0.038259319961071014, 0.0382179394364357]","[0.298544704914093, 0.29698458313941956, 0.29867663979530334, 0.2979293763637543, 0.2967057526111603, 0.297069787979126]","[0.05981035075656752, -1.510985976038329, 0.05981035075656752, 0.05981035075656752, 0.05981035075656752, 0.05981035075656752]","[0.05981035075656752, -1.510985976038329, 0.05981035075656752, 0.05981035075656752, 0.05981035075656752, 0.05981035075656752]",0.002,7,1
0,138,"[0.03876121714711189, -1.5318658922663708, 0.03885776201357061, 0.03896085798229976, 0.03893991559743881, 0.03881796821951866]","[0.29972901940345764, 0.300086110830307, 0.2997664511203766, 0.29820454120635986, 0.2965579628944397, 0.29878056049346924]","[0.060242551865401006, -1.5105537749294955, 0.060242551865401006, 0.060242551865401006, 0.060242551865401006, 0.060242551865401006]","[0.060242551865401006, -1.5105537749294955, 0.060242551865401006, 0.060242551865401006, 0.060242551865401006, 0.060242551865401006]",0.002,7,1
0,139,"[0.03942594304680824, -1.531325140302517, 0.03948432603944951, 0.039540215129516554, 0.039432112127542496, 0.03943605348467827]","[0.3015512228012085, 0.2973549962043762, 0.30076339840888977, 0.29806432127952576, 0.30010488629341125, 0.30117273330688477]","[0.06067465780495828, -1.5101216689899384, 0.06067465780495828, 0.06067465780495828, 0.06067465780495828, 0.06067465780495828]","[0.06067465780495828, -1.5101216689899384, 0.06067465780495828, 0.06067465780495828, 0.06067465780495828, 0.06067465780495828]",0.002,7,1
0,140,"[0.040061671286821365, -1.530695305471756, 0.04012614885439092, 0.040233774776123, 0.04006125405430794, 0.03999815508723259]","[0.30244606733322144, 0.30107712745666504, 0.2994438111782074, 0.29824191331863403, 0.3009531497955322, 0.3023107349872589]","[0.0611066678926121, -1.5096896589022846, 0.0611066678926121, 0.0611066678926121, 0.0611066678926121, 0.0611066678926121]","[0.0611066678926121, -1.5096896589022846, 0.0611066678926121, 0.0611066678926121, 0.0611066678926121, 0.0611066678926121]",0.002,7,1
0,141,"[0.04058967903256416, -1.5300629150918503, 0.040709797536031544, 0.0408060985752563, 0.04068567231297493, 0.040609609335660934]","[0.30435842275619507, 0.3019566535949707, 0.3029741048812866, 0.30019235610961914, 0.3016195297241211, 0.30226173996925354]","[0.0615385814458866, -1.50925774534901, 0.0615385814458866, 0.0615385814458866, 0.0615385814458866, 0.0615385814458866]","[0.0615385814458866, -1.50925774534901, 0.0615385814458866, 0.0615385814458866, 0.0615385814458866, 0.0615385814458866]",0.002,7,1
0,142,"[0.041288238018751144, -1.5295504008284588, 0.041336838399068654, 0.04145876943554683, 0.04130331054329872, 0.041209541261196136]","[0.3027796745300293, 0.30193501710891724, 0.3039917051792145, 0.30128738284111023, 0.29999467730522156, 0.3036988079547882]","[0.0619703977824584, -1.5088259290124382, 0.0619703977824584, 0.0619703977824584, 0.0619703977824584, 0.0619703977824584]","[0.0619703977824584, -1.5088259290124382, 0.0619703977824584, 0.0619703977824584, 0.0619703977824584, 0.0619703977824584]",0.002,7,1
