Arnibjarnst/BoxLift/logs/ur_rtde/trajectory_dur=5.0_delay=0.2_gain=100_lh=0.05_real.csv
arm_idx,step,actual_q,actual_qd,target_q,expected_q,applied_torque,loop_time,robot_mode,safety_mode
0,-1,"[0.07004816085100174, -1.5007645276239892, 0.06999713579286748, 0.07014517366375728, 0.07020130008459091, 0.07019075751304626]","[-0.03935978561639786, -0.03934857249259949, -0.041326433420181274, -0.035562969744205475, -0.03690290451049805, -0.0360969640314579]","[0.0, -1.5707963267948966, 0.0, 0.0, 0.0, 0.0]","[0.0, -1.5707963267948966, 0.0, 0.0, 0.0, 0.0]","[-0.8503986883732921, -18.860722726070996, -12.012924829680127, -4.04953888121176, 4.111461339506779, -0.18740912436662685]",0.002,7,1
0,-1,"[0.06936802715063095, -1.5016050648740311, 0.06916743913759404, 0.06941513597454829, 0.06950061023235321, 0.06942646950483322]","[-0.05349838733673096, -0.05685943365097046, -0.056170545518398285, -0.05113259702920914, -0.0511353462934494, -0.05199611932039261]","[0.0, -1.5707963267948966, 0.0, 0.0, 0.0, 0.0]","[0.0, -1.5707963267948966, 0.0, 0.0, 0.0, 0.0]","[-0.8447576717014271, -18.7831952242532, -11.97330386420513, -4.048733811300723, 4.11222126445351, -0.18743390890381764]",0.002,7,1
0,-1,"[0.06692298501729965, -1.5040414866856118, 0.06674319902528936, 0.0670129495808105, 0.06714563071727753, 0.06712069362401962]","[-0.08775978535413742, -0.08470764011144638, -0.08498824387788773, -0.08449964225292206, -0.08885400742292404, -0.08717900514602661]","[0.0, -1.5707963267948966, 0.0, 0.0, 0.0, 0.0]","[0.0, -1.5707963267948966, 0.0, 0.0, 0.0, 0.0]","[-0.8270656383843922, -18.544499191040096, -11.847806846640479, -4.046107812637156, 4.114773872135983, -0.18751769334125912]",0.002,7,1
0,-1,"[0.0650734156370163, -1.5057233434966584, 0.06500369707216436, 0.06518427907910151, 0.065302774310112, 0.06525972485542297]","[-0.10340821743011475, -0.10177481919527054, -0.10209574550390244, -0.10456957668066025, -0.10667692124843597, -0.1055266484618187]","[0.0, -1.5707963267948966, 0.0, 0.0, 0.0, 0.0]","[0.0, -1.5707963267948966, 0.0, 0.0, 0.0, 0.0]","[-0.8148657365875169, -18.37707023003966, -11.75778009299991, -4.044009105925348, 4.1166109334093814, -0.18757945421481104]",0.002,7,1
0,-1,"[0.06127277761697769, -1.5095450033298512, 0.061165634785787404, 0.06134264051403804, 0.06134840101003647, 0.061362940818071365]","[-0.13462521135807037, -0.1307801753282547, -0.12886418402194977, -0.13601751625537872, -0.1326073706150055, -0.13478827476501465]","[0.0, -1.5707963267948966, 0.0, 0.0, 0.0, 0.0]","[0.0, -1.5707963267948966, 0.0, 0.0, 0.0, 0.0]","[-0.7887251217994933, -17.998351492683025, -11.55864265645921, -4.039357337804024, 4.120055227379284, -0.18772318943434382]",0.002,7,1
0,-1,"[0.058701757341623306, -1.5122122925570984, 0.0586321989642542, 0.05879883348431392, 0.058758821338415146, 0.05872257426381111]","[-0.15246456861495972, -0.14996185898780823, -0.14849555492401123, -0.15157829225063324, -0.15179088711738586, -0.15321186184883118]","[0.0, -1.5707963267948966, 0.0, 0.0, 0.0, 0.0]","[0.0, -1.5707963267948966, 0.0, 0.0, 0.0, 0.0]","[-0.7720884573516125, -17.745056529506265, -11.428328077401295, -4.036077002139482, 4.121865744887961, -0.1878222417159274]",0.002,7,1
0,-1,"[0.05546513944864273, -1.5154002469829102, 0.05545217195619756, 0.05557553350415034, 0.05540549382567406, 0.05536783114075661]","[-0.17092275619506836, -0.17119160294532776, -0.16859127581119537, -0.1737956404685974, -0.17163744568824768, -0.17233701050281525]","[0.0, -1.5707963267948966, 0.0, 0.0, 0.0, 0.0]","[0.0, -1.5707963267948966, 0.0, 0.0, 0.0, 0.0]","[-0.7522503042206097, -17.423757543953293, -11.260656832896164, -4.031898341424263, 4.123901204717695, -0.18795250575825537]",0.002,7,1
0,-1,"[0.04936567321419716, -1.5214183677783986, 0.049425903950826466, 0.0494726139255981, 0.04933641105890274, 0.049274083226919174]","[-0.20351189374923706, -0.20381160080432892, -0.20556052029132843, -0.20930199325084686, -0.20631276071071625, -0.20317932963371277]","[0.0, -1.5707963267948966, 0.0, 0.0, 0.0, 0.0]","[0.0, -1.5707963267948966, 0.0, 0.0, 0.0, 0.0]","[-0.7184682931531716, -16.818919462867775, -10.943419699002003, -4.024644863778604, 4.12711806855971, -0.1882136299475789]",0.002,7,1
0,-1,"[0.04765547811985016, -1.5230226044407864, 0.04777747789491826, 0.04775063573803706, 0.04769911989569664, 0.04758136719465256]","[-0.21296630799770355, -0.21252630650997162, -0.21442033350467682, -0.22038443386554718, -0.21484507620334625, -0.21089774370193481]","[0.0, -1.5707963267948966, 0.0, 0.0, 0.0, 0.0]","[0.0, -1.5707963267948966, 0.0, 0.0, 0.0, 0.0]","[-0.7099730343437738, -16.655468785627384, -10.858167604307084, -4.022542198464966, 4.127753041664734, -0.18828738055228586]",0.002,7,1
0,-1,"[0.04543137177824974, -1.525243566637375, 0.045600716267721, 0.045535607928893995, 0.045497260987758636, 0.04543463513255119]","[-0.22669275104999542, -0.2247651368379593, -0.22529155015945435, -0.22561177611351013, -0.22482004761695862, -0.22273142635822296]","[0.0, -1.5707963267948966, 0.0, 0.0, 0.0, 0.0]","[0.0, -1.5707963267948966, 0.0, 0.0, 0.0, 0.0]","[-0.6993023757906884, -16.436561098000176, -10.743520284505307, -4.019841281100247, 4.128467341000408, -0.18838768164246245]",0.002,7,1
0,-1,"[0.042660634964704514, -1.5279797923615952, 0.04278737703432256, 0.04270748674359126, 0.04275577515363693, 0.0427241176366806]","[-0.23963339626789093, -0.23961341381072998, -0.24089877307415009, -0.23898465931415558, -0.24230937659740448, -0.23968030512332916]","[0.0, -1.5707963267948966, 0.0, 0.0, 0.0, 0.0]","[0.0, -1.5707963267948966, 0.0, 0.0, 0.0, 0.0]","[-0.6845745088181314, -16.115580187748897, -10.57527033679579, -4.015885264361981, 4.129302787048896, -0.1885400045197639]",0.002,7,1
0,-1,"[0.03445388749241829, -1.536022027289011, 0.03461343446840459, 0.034384532565734816, 0.03455318138003349, 0.03461695462465286]","[-0.26800963282585144, -0.2584884464740753, -0.26428112387657166, -0.2633135914802551, -0.2687295377254486, -0.269659161567688]","[0.0, -1.5707963267948966, 0.0, 0.0, 0.0, 0.0]","[0.0, -1.5707963267948966, 0.0, 0.0, 0.0, 0.0]","[0.8986570001666903, 0.5251785660727164, -1.0201332427827086, -3.416204091390929, 4.481599680802201, 0.2727507048494171]",0.002,7,1
0,-1,"[0.03092302195727825, -1.5393630501678963, 0.031096760426656544, 0.030921979541442823, 0.03099759668111801, 0.03100656531751156]","[-0.24605682492256165, -0.24825434386730194, -0.249074786901474, -0.24153238534927368, -0.25072500109672546, -0.24955938756465912]","[0.0, -1.5707963267948966, 0.0, 0.0, 0.0, 0.0]","[0.0, -1.5707963267948966, 0.0, 0.0, 0.0, 0.0]","[0.8757236318831603, 0.8777906227713308, -0.8439034375308183, -3.423359458738707, 4.4931629003086115, 0.27256280466473]",0.002,7,1
0,-1,"[0.027567636221647263, -1.5429066878608246, 0.027727905903951466, 0.02757350980725093, 0.02755647338926792, 0.027663875371217728]","[-0.23604510724544525, -0.23520362377166748, -0.2307722270488739, -0.23114705085754395, -0.23384717106819153, -0.23528502881526947]","[0.0, -1.5707963267948966, 0.0, 0.0, 0.0, 0.0]","[0.0, -1.5707963267948966, 0.0, 0.0, 0.0, 0.0]","[0.8544825676429209, 1.2400305744754188, -0.6646254049157885, -3.430143154052813, 4.503717327062274, 0.27236655802797555]",0.002,7,1
0,-1,"[0.024000849574804306, -1.5464961857399722, 0.02411824861635381, 0.02403966962780757, 0.023887328803539276, 0.023951152339577675]","[-0.21783551573753357, -0.2181144803762436, -0.2148735672235489, -0.21844764053821564, -0.21805690228939056, -0.2183474749326706]","[0.0, -1.5707963267948966, 0.0, 0.0, 0.0, 0.0]","[0.0, -1.5707963267948966, 0.0, 0.0, 0.0, 0.0]","[0.8334119956296135, 1.6239853219125207, -0.47509019528020424, -3.437275388082922, 4.5143179492767445, 0.27214821246923165]",0.002,7,1
0,-1,"[0.01819627173244953, -1.5523442339948197, 0.01848155656923467, 0.01838950693096919, 0.018257051706314087, 0.018274106085300446]","[-0.19024597108364105, -0.19365651905536652, -0.19257518649101257, -0.19681838154792786, -0.1897270679473877, -0.19013047218322754]","[0.0, -1.5707963267948966, 0.0, 0.0, 0.0, 0.0]","[0.0, -1.5707963267948966, 0.0, 0.0, 0.0, 0.0]","[0.8035390508256244, 2.2183567267029494, -0.17993512540101175, -3.4481673337018015, 4.529538578713783, 0.27177904770694356]",0.002,7,1
0,-1,"[0.014606423676013947, -1.5559677949971338, 0.014849011098043263, 0.014752193088195753, 0.014730473980307579, 0.014656659215688705]","[-0.17118439078330994, -0.17142201960086823, -0.17314086854457855, -0.17484024167060852, -0.17275331914424896, -0.17131254076957703]","[0.0, -1.5707963267948966, 0.0, 0.0, 0.0, 0.0]","[0.0, -1.5707963267948966, 0.0, 0.0, 0.0, 0.0]","[0.7866679236172684, 2.5931555967343614, 0.00852702994467558, -3.4548429288813067, 4.538257825335274, 0.2715295423595393]",0.002,7,1
0,-1,"[0.012963010929524899, -1.5575984504869957, 0.013216797505513966, 0.013072176570556593, 0.01305701769888401, 0.013058475218713284]","[-0.16050325334072113, -0.16370518505573273, -0.1651153564453125, -0.16562823951244354, -0.16104139387607574, -0.1616348773241043]","[0.0, -1.5707963267948966, 0.0, 0.0, 0.0, 0.0]","[0.0, -1.5707963267948966, 0.0, 0.0, 0.0, 0.0]","[0.7793731033681313, 2.7704004487440437, 0.09619618894759219, -3.457865911710778, 4.542038452332491, 0.2714087146939266]",0.002,7,1
0,-1,"[0.011026442050933838, -1.5594611217132588, 0.01129466692079717, 0.011117859477661085, 0.01115899346768856, 0.011175553314387798]","[-0.1501491814851761, -0.15652987360954285, -0.15577851235866547, -0.1517999917268753, -0.15086384117603302, -0.15282931923866272]","[0.0, -1.5707963267948966, 0.0, 0.0, 0.0, 0.0]","[0.0, -1.5707963267948966, 0.0, 0.0, 0.0, 0.0]","[0.7717222500532956, 2.9612214187615438, 0.1933655207623466, -3.461198894888105, 4.546066890937437, 0.27127094155637793]",0.002,7,1
0,-1,"[0.009273392148315907, -1.5611832302859803, 0.009465996419088185, 0.009375615710876417, 0.009458327665925026, 0.009444577619433403]","[-0.1381697654724121, -0.14307402074337006, -0.14060653746128082, -0.1381710320711136, -0.13835397362709045, -0.139274001121521]","[0.0, -1.5707963267948966, 0.0, 0.0, 0.0, 0.0]","[0.0, -1.5707963267948966, 0.0, 0.0, 0.0, 0.0]","[0.7649763922372996, 3.1397975689424595, 0.28256614777493705, -3.464245044215629, 4.54963352559824, 0.271142825992713]",0.002,7,1
0,-1,"[0.007738317828625441, -1.5628221615082403, 0.007911507283345998, 0.007749720210693312, 0.00791142787784338, 0.007894213311374187]","[-0.1258121281862259, -0.13002139329910278, -0.12986475229263306, -0.12302885204553604, -0.128617063164711, -0.12863785028457642]","[0.0, -1.5707963267948966, 0.0, 0.0, 0.0, 0.0]","[0.0, -1.5707963267948966, 0.0, 0.0, 0.0, 0.0]","[0.7590340180404693, 3.3085214908041416, 0.36813469556307976, -3.467019165397841, 4.552766235746544, 0.271019543598614]",0.002,7,1
0,-1,"[0.005623036064207554, -1.564874514737614, 0.005762879048482716, 0.005612416858337355, 0.005777228623628616, 0.005848465021699667]","[-0.10704256594181061, -0.11269400268793106, -0.11185766756534576, -0.10508598387241364, -0.10748791694641113, -0.11117005348205566]","[0.0, -1.5707963267948966, 0.0, 0.0, 0.0, 0.0]","[0.0, -1.5707963267948966, 0.0, 0.0, 0.0, 0.0]","[0.7516511740158649, 3.529285355277428, 0.4799477019999163, -3.470645168507608, 4.556702758686498, 0.27085239558715846]",0.002,7,1
0,-1,"[0.0029994507785886526, -1.5676866269535203, 0.0030930677997034195, 0.0030572849461059093, 0.0031646769493818283, 0.003185742301866412]","[-0.07794907689094543, -0.08525941520929337, -0.0800669863820076, -0.07837234437465668, -0.08145006000995636, -0.0801398903131485]","[0.0, -1.5707963267948966, 0.0, 0.0, 0.0, 0.0]","[0.0, -1.5707963267948966, 0.0, 0.0, 0.0, 0.0]","[0.7431760904517246, 3.8113344806702347, 0.6204532170248191, -3.475170753581774, 4.561324321688584, 0.2706395545828691]",0.002,7,1
0,-1,"[0.001900900388136506, -1.5688820928665628, 0.0019114653216760757, 0.001939221019409132, 0.002057346748188138, 0.0020103573333472013]","[-0.06293704360723495, -0.06813063472509384, -0.06517183780670166, -0.06273569911718369, -0.06362514942884445, -0.06343072652816772]","[0.0, -1.5707963267948966, 0.0, 0.0, 0.0, 0.0]","[0.0, -1.5707963267948966, 0.0, 0.0, 0.0, 0.0]","[0.7396422937203992, 3.9432490615908113, 0.6861498671713226, -3.4771426867438175, 4.56324056137454, 0.27054093538724877]",0.002,7,1
0,-1,"[0.0013280801940709352, -1.5695376486149435, 0.0013030211078088882, 0.0013879972645263194, 0.0014758107718080282, 0.0014647531788796186]","[-0.0523441806435585, -0.060428738594055176, -0.054086118936538696, -0.053381722420454025, -0.0547785721719265, -0.05433804914355278]","[0.0, -1.5707963267948966, 0.0, 0.0, 0.0, 0.0]","[0.0, -1.5707963267948966, 0.0, 0.0, 0.0, 0.0]","[0.7379486199364067, 4.005907330939785, 0.7171656747196975, -3.478103887814384, 4.564152607678549, 0.2704902951374214]",0.002,7,1
0,-1,"[0.0007096030749380589, -1.5701021512835105, 0.0006592909442346695, 0.000758810634277296, 0.0007679176633246243, 0.0007764387410134077]","[-0.038320668041706085, -0.04158375412225723, -0.04056727886199951, -0.0377490296959877, -0.04029368981719017, -0.04244951531291008]","[0.0, -1.5707963267948966, 0.0, 0.0, 0.0, 0.0]","[0.0, -1.5707963267948966, 0.0, 0.0, 0.0, 0.0]","[0.736063159903418, 4.0804855680297605, 0.754174252153246, -3.4791884278788614, 4.565172974797402, 0.2704343230055334]",0.002,7,1
0,-1,"[9.057390343514271e-06, -1.5708776913084925, -5.388522185967304e-05, 1.9951457641553816e-05, 8.273467392427847e-05, 6.771087646484375e-05]","[-0.006757684983313084, -0.008126475848257542, -0.007845344953238964, -0.007433539722114801, -0.0075376322492957115, -0.006924852263182402]","[0.0, -1.5707963267948966, 0.0, 0.0, 0.0, 0.0]","[0.0, -1.5707963267948966, 0.0, 0.0, 0.0, 0.0]","[0.7340610076454026, 4.160150693946948, 0.7947774199772386, -3.4804126939429976, 4.566278603569293, 0.27036809953287894]",0.002,7,1
0,-1,"[5.3682953875977546e-05, -1.5709463558592738, -9.633663285057992e-05, 2.2812480590772566e-05, 0.0001144589768955484, 0.00011286258813925087]","[0.0060575841926038265, -0.010392364114522934, -0.0033005971927195787, 5.472241809911793e-06, 0.0003926933859474957, 0.0011180061846971512]","[0.0, -1.5707963267948966, 0.0, 0.0, 0.0, 0.0]","[0.0, -1.5707963267948966, 0.0, 0.0, 0.0, 0.0]","[5.821029202803572e-19, -3.7568328287896966, -3.7676593946094328, -3.7745874320457977, 4.40084432441514, 0.03986669590543579]",0.002,7,1
0,-1,"[9.088516526389867e-05, -1.5708819828429164, -6.176044553285465e-05, 0.00012592851605219835, 9.80257973424159e-05, 0.00010833263513632119]","[-0.00035608489997684956, 0.004668248351663351, 0.004000513348728418, -3.650588041637093e-06, -0.0003004706231877208, 0.00043130875565111637]","[0.0, -1.5707963267948966, 0.0, 0.0, 0.0, 0.0]","[0.0, -1.5707963267948966, 0.0, 0.0, 0.0, 0.0]","[-1.6049754406093425e-19, -3.768039645038282, -3.771856552578979, -3.7745833981058325, 4.400844353837248, 0.0398708764345747]",0.002,7,1
0,-1,"[0.00011945946607738733, -1.5707934659770508, -2.86102294921875e-06, 5.571424450678819e-05, 0.00010703512816689909, 4.220008850097656e-05]","[-1.4941588233341463e-05, 0.002241650829091668, 0.0015964364865794778, 0.0003289325104560703, -0.0005304498481564224, -3.6640318285208195e-05]","[0.0, -1.5707963267948966, 0.0, 0.0, 0.0, 0.0]","[0.0, -1.5707963267948966, 0.0, 0.0, 0.0, 0.0]","[-1.0126417437177763e-19, -3.774278864120973, -3.774507777046986, -3.7745829595309366, 4.400843662350577, 0.039871332184715245]",0.002,7,1
0,-1,"[0.00015649104898329824, -1.570834299127096, 6.024037496388246e-06, 5.285322155756944e-05, 5.435943603515625e-05, 5.4030417231842875e-05]","[-1.2271036956111708e-33, -8.631200034869835e-05, 0.0002202105097239837, -0.00045360339572653174, -0.0009739549714140594, -0.0005863549886271358]","[0.0, -1.5707963267948966, 0.0, 0.0, 0.0, 0.0]","[0.0, -1.5707963267948966, 0.0, 0.0, 0.0, 0.0]","[-2.1264983411633068e-19, -3.7713071397463436, -3.7732468845429, -3.774582803457052, 4.400842681777925, 0.0398714824438387]",0.002,7,1
0,-1,"[9.41826292546466e-05, -1.5708981953062953, 1.3176594869435121e-05, 0.00010220586743159288, 0.0001206765155075118, 8.139133569784462e-05]","[0.0, -0.0008076701778918505, 0.00011088840255979449, -0.000550301163457334, -0.0007367765065282583, -0.0006933201802894473]","[0.0, -1.5707963267948966, 0.0, 0.0, 0.0, 0.0]","[0.0, -1.5707963267948966, 0.0, 0.0, 0.0, 0.0]","[-4.100435626050396e-19, -3.770505691539254, -3.773205806055438, -3.7745840581782373, 4.400843463788953, 0.039870231587491194]",0.002,7,1
0,-1,"[0.0001268896012334153, -1.570850511590475, -2.86102294921875e-06, 1.542150463862413e-05, 3.762817505048588e-05, 7.221698615467176e-05]","[0.0, -0.00036993774119764566, 8.096177771221846e-05, -0.0005808043642900884, -0.000995640060864389, -0.0007781879976391792]","[0.0, -1.5707963267948966, 0.0, 0.0, 0.0, 0.0]","[0.0, -1.5707963267948966, 0.0, 0.0, 0.0, 0.0]","[-8.656176276668355e-20, -3.769573172196261, -3.771821817191481, -3.7745849231015796, 4.400844611780349, 0.03986932607750867]",0.002,7,1
0,-1,"[5.8027508202940226e-05, -1.570786229973539, 2.557436098271637e-05, 4.832326855463975e-05, 8.716583397472277e-05, 4.846548836212605e-05]","[-7.832232950022444e-05, 0.0003583699290174991, 7.603096310049295e-05, -0.000395774666685611, -0.0007856868323870003, -0.0007873509312048554]","[0.0, -1.5707963267948966, 0.0, 0.0, 0.0, 0.0]","[0.0, -1.5707963267948966, 0.0, 0.0, 0.0, 0.0]","[1.6934568827826085e-19, -3.773339491919323, -3.77423372835069, -3.774584560181444, 4.400842752093945, 0.039869726208017854]",0.002,7,1
0,-1,"[3.305769132566638e-05, -1.5708519421019496, -2.86102294921875e-06, 1.542150463862413e-05, 3.47435379808303e-05, 1.805329338822048e-05]","[-6.817364192102104e-05, 0.00022446076036430895, 6.623852823395282e-05, -0.000378734985133633, -0.00039033658686093986, -0.0005105439340695739]","[0.0, -1.5707963267948966, 0.0, 0.0, 0.0, 0.0]","[0.0, -1.5707963267948966, 0.0, 0.0, 0.0, 0.0]","[-3.192296778995272e-21, -3.7716415134890653, -3.7737951122693207, -3.7745844771517145, 4.400842431837114, 0.03986980862991354]",0.002,7,1
0,-1,"[6.246566772460938e-05, -1.5708919964232386, 1.255665914356996e-06, 1.9951457641553816e-05, 4.740205440612044e-06, 2.257132473459933e-05]","[-6.019454667693935e-05, -0.0007542315870523453, 4.401324622449465e-05, -0.0003944149939343333, -0.00030234470614232123, -0.0002727087994571775]","[0.0, -1.5707963267948966, 0.0, 0.0, 0.0, 0.0]","[0.0, -1.5707963267948966, 0.0, 0.0, 0.0, 0.0]","[1.1690316122543488e-19, -3.774138177503171, -3.774224521106599, -3.7745847242468105, 4.400842985051251, 0.039869563183212185]",0.002,7,1
0,-1,"[8.216891001211479e-05, -1.570796628991598, 1.794496645146637e-05, 1.661359753413194e-05, 0.00010066632239613682, 4.54807304777205e-05]","[-6.838268745923415e-05, -0.000496665365062654, 4.008978066849522e-05, -0.00037108606193214655, -0.00023473783221561462, -0.00027989523368887603]","[0.0, -1.5707963267948966, 0.0, 0.0, 0.0, 0.0]","[0.0, -1.5707963267948966, 0.0, 0.0, 0.0, 0.0]","[-5.433987258286948e-20, -3.7729119115816054, -3.773307155383965, -3.7745854385447917, 4.400843075866474, 0.03986884203865263]",0.002,7,1
0,-1,"[0.00011176129919476807, -1.5707818112435525, 9.137788881474762e-05, -4.367237426805559e-06, 2.5805837140069343e-05, 1.52587890625e-05]","[-0.0004204462456982583, -3.71654995459709e-17, 4.304548565414734e-05, -0.0001599564275238663, -0.00011756594176404178, -0.00018711596203502268]","[0.0, -1.5707963267948966, 0.0, 0.0, 0.0, 0.0]","[0.0, -1.5707963267948966, 0.0, 0.0, 0.0, 0.0]","[1.7687727115313274e-19, -3.7733386223886325, -3.7742328588199996, -3.7745836906507533, 4.400842441610359, 0.03987059516901616]",0.002,7,1
0,-1,"[0.00010734939860412851, -1.570778564815857, 1.6514454976856996e-05, -9.135609008836809e-06, 3.926166391465813e-05, -1.3653432027638246e-05]","[-0.0003991379344370216, 0.00036898019607178867, 1.5663295016565826e-06, -0.00012453834642656147, -0.00013605081767309457, -0.00013945343380328268]","[0.0, -1.5707963267948966, 0.0, 0.0, 0.0, 0.0]","[0.0, -1.5707963267948966, 0.0, 0.0, 0.0, 0.0]","[-8.572672393831127e-20, -3.7702411056946588, -3.7730125048720287, -3.774586634952525, 4.400843474727594, 0.03986761779307559]",0.002,7,1
0,-1,"[1.2252332453499548e-05, -1.5708562336363734, 1.732503072560121e-06, -7.005155596928603e-05, -5.2754079000294496e-05, 2.4385213691857643e-05]","[-0.00038723854231648147, 0.00015775015344843268, 6.808393655306126e-16, -0.0001312782260356471, -0.0001401119661750272, -0.00012074215192114934]","[0.0, -1.5707963267948966, 0.0, 0.0, 0.0, 0.0]","[0.0, -1.5707963267948966, 0.0, 0.0, 0.0, 0.0]","[-9.372101096833e-20, -3.773220449765485, -3.774114686196852, -3.7745862188910055, 4.400842837345607, 0.03986805996610764]",0.002,7,1
0,-1,"[8.654594421386719e-05, -1.5708300075926722, -1.9300008716527373e-05, -3.7269001342821184e-05, 5.113778752274811e-05, 1.52587890625e-05]","[-0.0003233666648156941, -0.0001533899048808962, 3.970439010264405e-27, -0.0001145665009971708, -0.0001257044350495562, -0.00011422478564782068]","[0.0, -1.5707963267948966, 0.0, 0.0, 0.0, 0.0]","[0.0, -1.5707963267948966, 0.0, 0.0, 0.0, 0.0]","[-3.2872147203099663e-19, -3.7706257599008883, -3.7725179815899517, -3.774587284877269, 4.400843084993497, 0.03986696167913599]",0.002,7,1
0,-1,"[2.972353104269132e-05, -1.5708428821959437, -4.068915222887881e-05, 4.5581454894971785e-05, 5.8943507610820234e-05, 4.082417581230402e-05]","[-0.00029674742836505175, -0.00019065903325099498, 2.3154329951898757e-38, -0.00011856714991154149, -0.00014436511264648288, -0.00010959996870951727]","[0.0, -1.5707963267948966, 0.0, 0.0, 0.0, 0.0]","[0.0, -1.5707963267948966, 0.0, 0.0, 0.0, 0.0]","[3.6734677413173683e-19, -3.7718032104307126, -3.773695432119776, -3.7745850331282322, 4.400843111969094, 0.03986925074680274]",0.002,7,1
0,-1,"[4.1779519960982725e-05, -1.570834299127096, 1.732503072560121e-06, -7.228260376024309e-06, 3.4773347579175606e-05, -2.9865895406544496e-05]","[-0.0004922491498291492, -0.00011366765102138743, -0.0, -0.00011586124310269952, -0.0001120681845350191, -9.267167479265481e-05]","[0.0, -1.5707963267948966, 0.0, 0.0, 0.0, 0.0]","[0.0, -1.5707963267948966, 0.0, 0.0, 0.0, 0.0]","[-1.3782958995210765e-19, -3.7700740110584396, -3.7727741255746237, -3.7745865554834888, 4.40084315773662, 0.03986771276876777]",0.002,7,1
0,-1,"[7.118749635992572e-05, -1.5708099804320277, 8.885060445606996e-06, -2.820909533696181e-05, -1.7468129293263246e-05, 2.7179718017578125e-05]","[-0.0008472083136439323, -7.462512466543096e-18, -0.0, -9.33435294427909e-05, -8.158889977494255e-05, -7.36997535568662e-05]","[0.0, -1.5707963267948966, 0.0, 0.0, 0.0, 0.0]","[0.0, -1.5707963267948966, 0.0, 0.0, 0.0, 0.0]","[-6.86003629457071e-20, -3.7757355150412995, -3.774571797220249, -3.7745853636175406, 4.400841945587235, 0.03986892075783253]",0.002,7,1
0,-1,"[-2.686177388966371e-06, -1.5708066425719203, 4.178682436162262e-05, 2.114355053706163e-05, 6.4373016357421875e-06, -3.4634266988575746e-05]","[-6.673451396523034e-14, -5.838632950562529e-31, -0.0, -8.557756518712267e-05, -7.240039121825248e-05, -6.727302388753742e-05]","[0.0, -1.5707963267948966, 0.0, 0.0, 0.0, 0.0]","[0.0, -1.5707963267948966, 0.0, 0.0, 0.0, 0.0]","[-2.214676828437225e-19, -3.771310737439401, -3.7732504822359574, -3.7745859263176733, 4.400842867438691, 0.039868346664135614]",0.002,7,1
0,-1,"[2.6601079298416153e-05, -1.5708304844298304, 5.513826479131012e-05, -9.135609008836809e-06, 1.5605448425048962e-05, 2.4385213691857643e-05]","[-3.8917442031043803e-25, -3.4051552683093055e-42, -0.0, -7.988095603650436e-05, -7.923139492049813e-05, -6.25942848273553e-05]","[0.0, -1.5707963267948966, 0.0, 0.0, 0.0, 0.0]","[0.0, -1.5707963267948966, 0.0, 0.0, 0.0, 0.0]","[-1.2447227742060136e-19, -3.776569123056783, -3.7751873929981445, -3.774584099077643, 4.400842123654213, 0.0398701804968072]",0.002,7,1
0,-1,"[2.6566263841232285e-05, -1.5708548031248988, -3.1616826163372025e-05, 4.692668579053816e-06, 6.4373016357421875e-06, -2.9865895406544496e-05]","[-2.2695415578908463e-36, 0.0, -0.0, -5.100253110867925e-05, -7.282106525963172e-05, -5.869107440048538e-07]","[0.0, -1.5707963267948966, 0.0, 0.0, 0.0, 0.0]","[0.0, -1.5707963267948966, 0.0, 0.0, 0.0, 0.0]","[-4.940375499552054e-19, -3.7691678915341167, -3.7724620448933317, -3.7745860462054006, 4.400843755590894, 0.039868227337146296]",0.002,7,1
0,-1,"[3.097494118264876e-05, -1.5708519421019496, 3.2726918355763246e-05, 3.377973522944444e-05, 9.369850886287168e-06, -2.080598940068512e-05]","[0.0, 0.0, -0.0, -4.977323349482365e-13, -6.493950786534697e-05, -1.2657961102094758e-17]","[0.0, -1.5707963267948966, 0.0, 0.0, 0.0, 0.0]","[0.0, -1.5707963267948966, 0.0, 0.0, 0.0, 0.0]","[2.4893638643265376e-19, -3.7687728631040103, -3.77273233996686, -3.774586713687793, 4.400842689237224, 0.039867562126512934]",0.002,7,1
0,-1,"[7.993973849806935e-05, -1.5708519421019496, 2.9865895406544496e-05, -4.656732592778212e-05, 8.159422577591613e-05, -5.547200338185121e-06]","[0.0, 0.0, -0.0, -8.317296795627316e-31, -3.9028018826697125e-14, -2.1151933166389442e-35]","[0.0, -1.5707963267948966, 0.0, 0.0, 0.0, 0.0]","[0.0, -1.5707963267948966, 0.0, 0.0, 0.0, 0.0]","[1.3636072397936661e-21, -3.7750364040969937, -3.7748938449950504, -3.7745852067845447, 4.40084275193206, 0.03986907966276914]",0.002,7,1
0,-1,"[6.36404292890802e-05, -1.5707934659770508, 8.885060445606996e-06, -4.367237426805559e-06, 1.386404073855374e-05, -1.794496645146637e-05]","[0.0, 0.0, -0.0, -1.5116290554371767e-35, -7.093157504679233e-19, -3.84426615509013e-40]","[0.0, -1.5707963267948966, 0.0, 0.0, 0.0, 0.0]","[0.0, -1.5707963267948966, 0.0, 0.0, 0.0, 0.0]","[1.7705066888903917e-19, -3.7735513727610432, -3.7746594631762465, -3.7745842914710264, 4.4008437296981215, 0.03987000270280973]",0.002,7,1
0,-1,"[7.556259515695274e-05, -1.5708023510374964, -2.3836171749280766e-05, -1.6288166381883684e-05, 4.390525646158494e-05, 1.52587890625e-05]","[0.0, 0.0, -0.0, -7.707141553786494e-44, -3.588392287196309e-27, -0.0]","[0.0, -1.5707963267948966, 0.0, 0.0, 0.0, 0.0]","[0.0, -1.5707963267948966, 0.0, 0.0, 0.0, 0.0]","[2.466228656569195e-20, -3.7678311612073068, -3.7715530225332183, -3.774586861842455, 4.400843050847256, 0.03986738597406469]",0.002,7,1
0,-1,"[5.926656740484759e-05, -1.5708562336363734, -1.640651134948712e-05, -2.081811938481337e-05, 2.285242226207629e-05, -3.4634266988575746e-05]","[0.0, 0.0, -0.0, -0.0, -1.8153495607253265e-35, -0.0]","[0.0, -1.5707963267948966, 0.0, 0.0, 0.0, 0.0]","[0.0, -1.5707963267948966, 0.0, 0.0, 0.0, 0.0]","[-1.3021746036508841e-19, -3.769227365375535, -3.7728066573792436, -3.774585854005771, 4.4008417773369715, 0.039868431135738146]",0.002,7,1
0,-1,"[3.852200825349428e-05, -1.5708099804320277, 2.9865895406544496e-05, -1.1758213378953997e-05, 4.84084157506004e-05, -2.557436098271637e-05]","[0.0, 0.0, -0.0, -7.236155215650797e-05, -0.0, -0.0]","[0.0, -1.5707963267948966, 0.0, 0.0, 0.0, 0.0]","[0.0, -1.5707963267948966, 0.0, 0.0, 0.0, 0.0]","[-1.7534367829745942e-20, -3.7725644400240896, -3.7738388613155958, -3.7745860433564933, 4.400843727642087, 0.039868226257504816]",0.002,7,1
0,-1,"[-6.024037496388246e-06, -1.5707980595030726, 1.3653432027638246e-05, -4.367237426805559e-06, -3.415742983037262e-05, -2.557436098271637e-05]","[-2.338097692700103e-05, 0.0, -0.0, -6.411389767890796e-05, -0.0, -0.0]","[0.0, -1.5707963267948966, 0.0, 0.0, 0.0, 0.0]","[0.0, -1.5707963267948966, 0.0, 0.0, 0.0, 0.0]","[-2.6619706087722122e-20, -3.7727969083870976, -3.7740713296786037, -3.7745850452142697, 4.40084194582186, 0.0398692399804016]",0.002,7,1
0,-1,"[5.797622179670725e-06, -1.5708304844298304, 1.3653432027638246e-05, 7.315272949171003e-06, -2.4143849508106996e-05, -1.3653432027638246e-05]","[-2.0457942810025997e-05, -1.667113792791497e-05, -0.0, -5.542723010876216e-05, -0.0, -0.0]","[0.0, -1.5707963267948966, 0.0, 0.0, 0.0, 0.0]","[0.0, -1.5707963267948966, 0.0, 0.0, 0.0, 0.0]","[4.3322137016392857e-20, -3.7723447183444923, -3.7740468476035645, -3.774585622170754, 4.400841993306434, 0.039868664882267306]",0.002,7,1
0,-1,"[3.849593849736266e-05, -1.5707980595030726, -1.0260562703479081e-05, 3.366052593989366e-05, -2.652803529912262e-05, -8.885060445606996e-06]","[-1.215133882404018e-09, -1.5730691302451305e-05, -0.0, -5.2211657020961866e-05, -0.0, -0.0]","[0.0, -1.5707963267948966, 0.0, 0.0, 0.0, 0.0]","[0.0, -1.5707963267948966, 0.0, 0.0, 0.0, 0.0]","[-2.146475786932228e-19, -3.772594353239219, -3.773488589670586, -3.774586924553661, 4.400842745372938, 0.03986735145108823]",0.002,7,1
0,-1,"[1.014888403005898e-05, -1.5708428821959437, -4.072536830790341e-05, -7.228260376024309e-06, -1.732503072560121e-06, -7.788287561538709e-07]","[-7.086273746395658e-21, -2.8475171347963624e-05, -0.0, -4.196229212993785e-07, -0.0, -0.0]","[0.0, -1.5707963267948966, 0.0, 0.0, 0.0, 0.0]","[0.0, -1.5707963267948966, 0.0, 0.0, 0.0, 0.0]","[1.1679738550460466e-19, -3.7702926368768455, -3.772850182070642, -3.774586958427583, 4.400843654265028, 0.039867290012443615]",0.002,7,1
0,1,"[5.162777233636007e-05, -1.570610270708432, 0.00011998811830693512, 9.028493847651475e-05, 0.00011339998309267685, 0.00012654304737225175]","[0.01737503707408905, 0.18341034650802612, 0.12818464636802673, 0.060384560376405716, 0.042882904410362244, 0.050003353506326675]","[0.08765894793109064, -1.4831373788638058, 0.08765894793109064, 0.08765894793109064, 0.08765894793109064, 0.08765894793109064]","[0.08765894793109064, -1.4831373788638058, 0.08765894793109064, 0.08765894793109064, 0.08765894793109064, 0.08765894793109064]","[6.240476287534589, 63.590841849214755, 35.02629548105976, -1.2728754635319828, 5.804296172883766, 1.9985978903139514]",0.002,7,1
0,2,"[0.0057708751410245895, -1.564478180171438, 0.006295029317037404, 0.005951328868530226, 0.0058353375643491745, 0.0058770570904016495]","[0.29954370856285095, 0.2724084258079529, 0.2838844656944275, 0.30146875977516174, 0.29216599464416504, 0.2950771152973175]","[0.08850819476859928, -1.4822881320262973, 0.08850819476859928, 0.08850819476859928, 0.08850819476859928, 0.08850819476859928]","[0.08850819476859928, -1.4822881320262973, 0.08850819476859928, 0.08850819476859928, 0.08850819476859928, 0.08850819476859928]","[5.060853355423495, 48.894563099013894, 26.643146968405645, -1.728634999826093, 5.441833622627368, 1.589314988210274]",0.002,7,1
0,3,"[0.026531746610999107, -1.5436994184604664, 0.026768986378804982, 0.026582642192504835, 0.02675580233335495, 0.026729797944426537]","[0.5419085025787354, 0.5235288143157959, 0.5315253138542175, 0.5417168736457825, 0.5413197875022888, 0.5365697145462036]","[0.08935688209272531, -1.4814394447021713, 0.08935688209272531, 0.08935688209272531, 0.08935688209272531, 0.08935688209272531]","[0.08935688209272531, -1.4814394447021713, 0.08935688209272531, 0.08935688209272531, 0.08935688209272531, 0.08935688209272531]","[3.117620492125706, 21.254585737792336, 10.983676367718706, -2.504975032379694, 4.711095084009333, 0.8487186121243242]",0.002,7,1
0,4,"[0.047806065529584885, -1.5230638732067128, 0.04766685167421514, 0.04809670030560298, 0.047928232699632645, 0.04786764457821846]","[0.6278166174888611, 0.603277325630188, 0.6104713082313538, 0.6099373698234558, 0.6217120885848999, 0.6249961853027344]","[0.09020500453840717, -1.4805913222564895, 0.09020500453840717, 0.09020500453840717, 0.09020500453840717, 0.09020500453840717]","[0.09020500453840717, -1.4805913222564895, 0.09020500453840717, 0.09020500453840717, 0.09020500453840717, 0.09020500453840717]","[1.6070071817975813, -0.3843004215430357, -1.2712490405017776, -3.142569938660108, 4.159727108860912, 0.2840598037213692]",0.002,7,1
0,5,"[0.07782624661922455, -1.4938525420478364, 0.07725459734071904, 0.07788817464794917, 0.07775380462408066, 0.07765468209981918]","[0.6004703044891357, 0.5999566912651062, 0.5952712893486023, 0.5921622514724731, 0.599190354347229, 0.602557897567749]","[0.09105255674415423, -1.4797437700507423, 0.09105255674415423, 0.09105255674415423, 0.09105255674415423, 0.09105255674415423]","[0.09105255674415423, -1.4797437700507423, 0.09105255674415423, 0.09105255674415423, 0.09105255674415423, 0.09105255674415423]","[-0.580509811031368, -25.85151894037193, -15.749256502562007, -3.984052291519682, 3.57838858942832, -0.3672277838080368]",0.002,7,1
0,6,"[0.11584740877151489, -1.4557765138200303, 0.11532241502870733, 0.11563221990551753, 0.1157580092549324, 0.11571226269006729]","[0.3464094400405884, 0.3506394326686859, 0.35128188133239746, 0.34876134991645813, 0.34737125039100647, 0.3490244150161743]","[0.09189953335208066, -1.4788967934428159, 0.09189953335208066, 0.09189953335208066, 0.09189953335208066, 0.09189953335208066]","[0.09189953335208066, -1.4788967934428159, 0.09189953335208066, 0.09189953335208066, 0.09189953335208066, 0.09189953335208066]","[-3.802620710896517, -49.508045168496466, -29.347035219138842, -4.915075662225152, 3.1763754553537256, -0.9453133218766838]",0.002,7,1
0,7,"[0.12573698163032532, -1.4454183739474793, 0.12551719347109014, 0.1255519825169067, 0.12576432526111603, 0.12574723362922668]","[0.18356968462467194, 0.19089804589748383, 0.18906044960021973, 0.18575401604175568, 0.18018752336502075, 0.1803213208913803]","[0.0927459290079393, -1.4780503977869572, 0.0927459290079393, 0.0927459290079393, 0.0927459290079393, 0.0927459290079393]","[0.0927459290079393, -1.4780503977869572, 0.0927459290079393, 0.0927459290079393, 0.0927459290079393, 0.0927459290079393]","[-4.374597633844254, -51.310750454138415, -30.401655704922973, -5.0152107559972885, 3.1918169646974777, -0.9692540203246522]",0.002,7,1
0,8,"[0.12898597121238708, -1.4417608839324494, 0.12909204164613897, 0.12897150098767085, 0.12903036177158356, 0.12902505695819855]","[0.06405069679021835, 0.06735482066869736, 0.06503206491470337, 0.06453943252563477, 0.06341230124235153, 0.06546001881361008]","[0.09359173836115567, -1.4772045884337408, 0.09359173836115567, 0.09359173836115567, 0.09359173836115567, 0.09359173836115567]","[0.09359173836115567, -1.4772045884337408, 0.09359173836115567, 0.09359173836115567, 0.09359173836115567, 0.09359173836115567]","[-4.204997124304006, -49.056265729835125, -29.097135655545067, -4.937096952272829, 3.263818050753583, -0.893529240197934]",0.002,7,1
0,9,"[0.1269364058971405, -1.4440174859813233, 0.12679559389223272, 0.127025766963623, 0.12704339623451233, 0.12693482637405396]","[-0.12065505236387253, -0.12796807289123535, -0.12330956757068634, -0.11784093081951141, -0.11959800124168396, -0.11885681748390198]","[0.09443695606486147, -1.476359370730035, 0.09443695606486147, 0.09443695606486147, 0.09443695606486147, 0.09443695606486147]","[0.09443695606486147, -1.476359370730035, 0.09443695606486147, 0.09443695606486147, 0.09443695606486147, 0.09443695606486147]","[-2.885693532737224, -39.29360405211964, -23.438135665950398, -4.55977020661809, 3.4916296888190215, -0.6146130155383062]",0.002,7,1
0,10,"[0.118793785572052, -1.4520827692798157, 0.11881000200380498, 0.11889366685833735, 0.11865141242742538, 0.11865449696779251]","[-0.2217034101486206, -0.2076377123594284, -0.21141475439071655, -0.21978846192359924, -0.21655471622943878, -0.21861132979393005]","[0.09528157677592872, -1.4755147500189678, 0.09528157677592872, 0.09528157677592872, 0.09528157677592872, 0.09528157677592872]","[0.09528157677592872, -1.4755147500189678, 0.09528157677592872, 0.09528157677592872, 0.09528157677592872, 0.09528157677592872]","[-1.2895128997174294, -27.504086382074252, -16.629459598375064, -4.114190169742701, 3.7634737471061284, -0.29365052816198295]",0.002,7,1
0,11,"[0.10657589882612228, -1.463907704954483, 0.10697919527162725, 0.10666505872692866, 0.10658996552228928, 0.10659023374319077]","[-0.2550753653049469, -0.2468869388103485, -0.251569539308548, -0.25687071681022644, -0.25239312648773193, -0.2505858838558197]","[0.09612559515500335, -1.4746707316398933, 0.09612559515500335, 0.09612559515500335, 0.09612559515500335, 0.09612559515500335]","[0.09612559515500335, -1.4746707316398933, 0.09612559515500335, 0.09612559515500335, 0.09612559515500335, 0.09612559515500335]","[0.22503901375590504, -14.658923659433132, -9.263163370981916, -3.6659126694297637, 4.08446241313113, 0.04613756632292096]",0.002,7,1
0,12,"[0.09236770123243332, -1.4776342448643227, 0.09279758134950811, 0.09239010393109126, 0.0924941897392273, 0.09253303706645966]","[-0.20869040489196777, -0.20728528499603271, -0.20646385848522186, -0.20616166293621063, -0.20525190234184265, -0.20799924433231354]","[0.09696900586653895, -1.4738273209283577, 0.09696900586653895, 0.09696900586653895, 0.09696900586653895, 0.09696900586653895]","[0.09696900586653895, -1.4738273209283577, 0.09696900586653895, 0.09696900586653895, 0.09696900586653895, 0.09696900586653895]","[1.3221416764040859, -3.00495190998049, -2.6405747080782023, -3.307965586192033, 4.408054984626458, 0.34360894218686133]",0.002,7,1
0,13,"[0.08363325148820877, -1.4869820860079308, 0.08379632631410772, 0.08375708639111323, 0.08365003764629364, 0.08363690227270126]","[-0.11854348331689835, -0.12163328379392624, -0.12131203711032867, -0.120635986328125, -0.11660537868738174, -0.11519034206867218]","[0.09781180357883058, -1.4729845232160659, 0.09781180357883058, 0.09781180357883058, 0.09781180357883058, 0.09781180357883058]","[0.09781180357883058, -1.4729845232160659, 0.09781180357883058, 0.09781180357883058, 0.09781180357883058, 0.09781180357883058]","[1.6708091183296312, 2.2158435599256894, 0.27882459520538116, -3.1798115501871127, 4.570595984828544, 0.46713392624044203]",0.002,7,1
0,14,"[0.08055558800697327, -1.4901964229396363, 0.0806954542743128, 0.08065585672344966, 0.08062025904655457, 0.08059226721525192]","[-0.04528321325778961, -0.04608531668782234, -0.04614482447504997, -0.047901254147291183, -0.04385653883218765, -0.043884679675102234]","[0.09865398296404841, -1.472142343830848, 0.09865398296404841, 0.09865398296404841, 0.09865398296404841, 0.09865398296404841]","[0.09865398296404841, -1.472142343830848, 0.09865398296404841, 0.09865398296404841, 0.09865398296404841, 0.09865398296404841]","[1.6516582670141853, 2.83805527454275, 0.6030484878511326, -3.1817394377026886, 4.599795175920891, 0.4752988107285995]",0.002,7,1
0,15,"[0.08132580667734146, -1.4893686559847374, 0.0813987890826624, 0.08119778215374751, 0.08131870627403259, 0.08131682872772217]","[0.058615025132894516, 0.059141289442777634, 0.05660904571413994, 0.053386390209198, 0.05422801896929741, 0.05449957773089409]","[0.0994955386982715, -1.4713007880966251, 0.0994955386982715, 0.0994955386982715, 0.0994955386982715, 0.0994955386982715]","[0.0994955386982715, -1.4713007880966251, 0.0994955386982715, 0.0994955386982715, 0.0994955386982715, 0.0994955386982715]","[1.238293752109677, -0.9934185166528677, -1.6063064840901728, -3.322942368970458, 4.509696778678386, 0.3654761026200421]",0.002,7,1
0,16,"[0.08446821570396423, -1.4862424370697518, 0.08440953889955694, 0.08427266656842036, 0.08432453870773315, 0.08444306254386902]","[0.1049453616142273, 0.09660511463880539, 0.10200042277574539, 0.10731477290391922, 0.10460107773542404, 0.1046489030122757]","[0.10033646546152125, -1.4704598613333753, 0.10033646546152125, 0.10033646546152125, 0.10033646546152125, 0.10033646546152125]","[0.10033646546152125, -1.4704598613333753, 0.10033646546152125, 0.10033646546152125, 0.10033646546152125, 0.10033646546152125]","[0.8414964062305729, -5.165075412071122, -3.986669376621789, -3.459359012561248, 4.40213698590031, 0.2537927171389621]",0.002,7,1
0,17,"[0.09313176572322845, -1.4776548084667702, 0.0930717627154749, 0.09305231153454585, 0.09318074584007263, 0.09314120560884476]","[0.1359596848487854, 0.12899050116539001, 0.13452759385108948, 0.1381698101758957, 0.13440090417861938, 0.13478966057300568]","[0.10117675793779526, -1.4696195688571012, 0.10117675793779526, 0.10117675793779526, 0.10117675793779526, 0.10117675793779526]","[0.10117675793779526, -1.4696195688571012, 0.10117675793779526, 0.10117675793779526, 0.10117675793779526, 0.10117675793779526]","[0.032964539922811405, -13.425390630829053, -8.696519927604989, -3.7277908711748045, 4.190178718086945, 0.038255943944177445]",0.002,7,1
0,18,"[0.09716791659593582, -1.4736931932023545, 0.09705669084657842, 0.09720365583386226, 0.0972508117556572, 0.09720271825790405]","[0.13100697100162506, 0.12798936665058136, 0.1279844045639038, 0.13111713528633118, 0.1274474561214447, 0.1291016787290573]","[0.10201641081510086, -1.4687799159797956, 0.10201641081510086, 0.10201641081510086, 0.10201641081510086, 0.10201641081510086]","[0.10201641081510086, -1.4687799159797956, 0.10201641081510086, 0.10201641081510086, 0.10201641081510086, 0.10201641081510086]","[-0.24700030273020035, -16.195457585244338, -10.273435263179795, -3.815766819582156, 4.119322152189188, -0.030709021586273345]",0.002,7,1
0,19,"[0.10354401916265488, -1.4676208657077332, 0.10331088701357061, 0.1035967308231811, 0.10345929861068726, 0.10340379178524017]","[0.09770245105028152, 0.09888748079538345, 0.09906353056430817, 0.09689977020025253, 0.09844766557216644, 0.10030095279216766]","[0.10285541878548858, -1.467940908009408, 0.10285541878548858, 0.10285541878548858, 0.10285541878548858, 0.10285541878548858]","[0.10285541878548858, -1.467940908009408, 0.10285541878548858, 0.10285541878548858, 0.10285541878548858, 0.10285541878548858]","[-0.7296218303318587, -20.618490515778518, -12.795271109199934, -3.9615441288218967, 4.010035127133963, -0.1412827902451926]",0.002,7,1
0,20,"[0.10777036100625992, -1.4633371469429513, 0.10769302049745733, 0.10774151861157222, 0.10772040486335754, 0.10770133137702942]","[0.0560828261077404, 0.06305486708879471, 0.059968069195747375, 0.055358126759529114, 0.05863744392991066, 0.05913406237959862]","[0.10369377654508585, -1.4671025502498107, 0.10369377654508585, 0.10369377654508585, 0.10369377654508585, 0.10369377654508585]","[0.10369377654508585, -1.4671025502498107, 0.10369377654508585, 0.10369377654508585, 0.10369377654508585, 0.10369377654508585]","[-0.8118919298823147, -21.459820193018032, -13.256369484060585, -3.9790754597673414, 3.987299025921672, -0.15311752585863275]",0.002,7,1
0,21,"[0.10970848053693771, -1.461007335489132, 0.10967618623842412, 0.10969416677441401, 0.10967350006103516, 0.10972103476524353]","[0.009466424584388733, 0.01243529561907053, 0.012040190398693085, 0.009068499319255352, 0.009573683142662048, 0.009146961383521557]","[0.10453147879413045, -1.466264848000766, 0.10453147879413045, 0.10453147879413045, 0.10453147879413045, 0.10453147879413045]","[0.10453147879413045, -1.466264848000766, 0.10453147879413045, 0.10453147879413045, 0.10453147879413045, 0.10453147879413045]","[-0.7124781303422908, -20.73225187268026, -12.819025367996826, -3.943422140289596, 4.002883284343157, -0.1253151779166577]",0.002,7,1
0,22,"[0.10953423380851746, -1.4612516549280663, 0.10949069658388311, 0.10947660982098384, 0.10944153368473053, 0.10948440432548523]","[-0.016676736995577812, -0.019913194701075554, -0.01958785392343998, -0.014970446936786175, -0.014797218143939972, -0.015430307947099209]","[0.10536852023700408, -1.4654278065578925, 0.10536852023700408, 0.10536852023700408, 0.10536852023700408, 0.10536852023700408]","[0.10536852023700408, -1.4654278065578925, 0.10536852023700408, 0.10536852023700408, 0.10536852023700408, 0.10536852023700408]","[-0.5093456322021916, -19.053076858200686, -11.8494063444888, -3.880402086356152, 4.043028159897458, -0.07716525187270948]",0.002,7,1
0,23,"[0.10859264433383942, -1.4622841340354462, 0.1085432211505335, 0.10876004278149409, 0.1087663471698761, 0.1086874008178711]","[-0.02782926708459854, -0.02883928082883358, -0.02813132293522358, -0.027621781453490257, -0.028225509449839592, -0.02649529092013836]","[0.1062048955822657, -1.464591431212631, 0.1062048955822657, 0.1062048955822657, 0.1062048955822657, 0.1062048955822657]","[0.1062048955822657, -1.464591431212631, 0.1062048955822657, 0.1062048955822657, 0.1062048955822657, 0.1062048955822657]","[-0.2689975161777966, -17.013683499888124, -10.674236368172423, -3.8066435430805106, 4.092427056719601, -0.020637437624919486]",0.002,7,1
0,24,"[0.10733422636985779, -1.4635238584927102, 0.10727912584413701, 0.1074257332035522, 0.10744933038949966, 0.1073947548866272]","[-0.03151063993573189, -0.029395930469036102, -0.031373921781778336, -0.03503315895795822, -0.03431467339396477, -0.03374769911170006]","[0.10704059954268516, -1.4637557272522115, 0.10704059954268516, 0.10704059954268516, 0.10704059954268516, 0.10704059954268516]","[0.10704059954268516, -1.4637557272522115, 0.10704059954268516, 0.10704059954268516, 0.10704059954268516, 0.10704059954268516]","[-0.03339990690787673, -14.967206129097736, -9.497969428981925, -3.7340190393141803, 4.143432589098596, 0.03539791504726572]",0.002,7,1
0,25,"[0.10587529838085175, -1.4648692470839997, 0.10591489473451787, 0.10587613164868159, 0.10592654347419739, 0.1059126928448677]","[-0.026951977983117104, -0.0285450778901577, -0.027592679485678673, -0.027034247294068336, -0.02888145111501217, -0.02814650721848011]","[0.10787562683527654, -1.46292069995962, 0.10787562683527654, 0.10787562683527654, 0.10787562683527654, 0.10787562683527654]","[0.10787562683527654, -1.46292069995962, 0.10787562683527654, 0.10787562683527654, 0.10787562683527654, 0.10787562683527654]","[0.16599449098843647, -13.16603532908365, -8.465754128598562, -3.6721102879600527, 4.1896612326501, 0.08371721479636346]",0.002,7,1
0,26,"[0.10529357194900513, -1.4655475479415436, 0.10524017015566045, 0.10523454725231929, 0.10529826581478119, 0.10523650795221329]","[-0.021134519949555397, -0.02097545564174652, -0.02072872966527939, -0.020612426102161407, -0.020884864032268524, -0.022547811269760132]","[0.1087099721813315, -1.462086354613565, 0.1087099721813315, 0.1087099721813315, 0.1087099721813315, 0.1087099721813315]","[0.1087099721813315, -1.462086354613565, 0.1087099721813315, 0.1087099721813315, 0.1087099721813315, 0.1087099721813315]","[0.27418840459832644, -12.189877348802558, -7.905258054374833, -3.6381593861418855, 4.214561142484027, 0.1102297010664566]",0.002,7,1
0,27,"[0.10481089353561401, -1.466039390569069, 0.10479432741274053, 0.10475890218701167, 0.10485395789146423, 0.10480642318725586]","[-0.011297531425952911, -0.012783694081008434, -0.010482292622327805, -0.010990259237587452, -0.010959843173623085, -0.012070706114172935]","[0.10954363030645263, -1.461252696488444, 0.10954363030645263, 0.10954363030645263, 0.10954363030645263, 0.10954363030645263]","[0.10954363030645263, -1.461252696488444, 0.10954363030645263, 0.10954363030645263, 0.10954363030645263, 0.10954363030645263]","[0.3467696406195708, -11.52581044075944, -7.524615820528276, -3.615438600367211, 4.2315808742450916, 0.1281811341386861]",0.002,7,1
0,28,"[0.10496668517589569, -1.4657176744988938, 0.1050494352923792, 0.10498396932568355, 0.10499338805675507, 0.10499705374240875]","[0.014335976913571358, 0.01789509691298008, 0.018147805705666542, 0.012460211291909218, 0.013006378896534443, 0.013086970895528793]","[0.11037659594058698, -1.4604197308543097, 0.11037659594058698, 0.11037659594058698, 0.11037659594058698, 0.11037659594058698]","[0.11037659594058698, -1.4604197308543097, 0.11037659594058698, 0.11037659594058698, 0.11037659594058698, 0.11037659594058698]","[0.31234650075697046, -11.837392704066295, -7.7029938004222736, -3.626078456463893, 4.223834841940295, 0.11974529171879313]",0.002,7,1
0,29,"[0.10638105124235153, -1.4642518621734162, 0.10650092760194951, 0.10626666128124995, 0.10626985877752304, 0.10627387464046478]","[0.029660845175385475, 0.02899411879479885, 0.027960438281297684, 0.03050299733877182, 0.031934674829244614, 0.03125251084566116]","[0.11120886381805924, -1.4595874629768373, 0.11120886381805924, 0.11120886381805924, 0.11120886381805924, 0.11120886381805924]","[0.11120886381805924, -1.4595874629768373, 0.11120886381805924, 0.11120886381805924, 0.11120886381805924, 0.11120886381805924]","[0.1677242984616873, -13.212957036632885, -8.489355367477526, -3.6709136566403444, 4.187642584665119, 0.08391159280561396]",0.002,7,1
0,30,"[0.10735183209180832, -1.4634639483741303, 0.10741693178285772, 0.10732631265606685, 0.10730409622192383, 0.10731153190135956]","[0.035534895956516266, 0.03261512517929077, 0.032255757600069046, 0.03503120690584183, 0.03897745534777641, 0.036911141127347946]","[0.11204042867760493, -1.4587558981172917, 0.11204042867760493, 0.11204042867760493, 0.11204042867760493, 0.11204042867760493]","[0.11204042867760493, -1.4587558981172917, 0.11204042867760493, 0.11204042867760493, 0.11204042867760493, 0.11204042867760493]","[0.12584562099621985, -13.656680803783996, -8.740906934118813, -3.6836511901511697, 4.174617790147132, 0.07344701498886068]",0.002,7,1
0,31,"[0.10941442102193832, -1.4613987293890496, 0.10937816301454717, 0.10942856847729487, 0.10936390608549118, 0.10940244793891907]","[0.04088320583105087, 0.04075678437948227, 0.04233686625957489, 0.041073668748140335, 0.04298700764775276, 0.04120515659451485]","[0.11287128526240384, -1.4579250415324927, 0.11287128526240384, 0.11287128526240384, 0.11287128526240384, 0.11287128526240384]","[0.11287128526240384, -1.4579250415324927, 0.11287128526240384, 0.11287128526240384, 0.11287128526240384, 0.11287128526240384]","[-0.012833569581923922, -15.007530182188876, -9.505725525716358, -3.7256400026418777, 4.137717499115986, 0.03989887874983337]",0.002,7,1
0,32,"[0.11094092577695847, -1.4598712188056489, 0.11085349718202764, 0.11093847333874507, 0.11090404540300369, 0.11097440123558044]","[0.039276160299777985, 0.039064064621925354, 0.03870328143239021, 0.040007274597883224, 0.04022764787077904, 0.04093494638800621]","[0.11370142832011325, -1.4570948984747834, 0.11370142832011325, 0.11370142832011325, 0.11370142832011325, 0.11370142832011325]","[0.11370142832011325, -1.4570948984747834, 0.11370142832011325, 0.11370142832011325, 0.11370142832011325, 0.11370142832011325]","[-0.07855061971233211, -15.694091107460268, -9.892111786315313, -3.7446590544071796, 4.117900017047995, 0.024390612453196566]",0.002,7,1
0,33,"[0.11240946501493454, -1.458412417476513, 0.11242229143251592, 0.11236612379040523, 0.11244772374629974, 0.11243987083435059]","[0.03706303611397743, 0.03686711564660072, 0.036754060536623, 0.03778323158621788, 0.03710315376520157, 0.03574934974312782]","[0.11453085260290095, -1.4562654741919956, 0.11453085260290095, 0.11453085260290095, 0.11453085260290095, 0.11453085260290095]","[0.11453085260290095, -1.4562654741919956, 0.11453085260290095, 0.11453085260290095, 0.11453085260290095, 0.11453085260290095]","[-0.1281332649519549, -16.23059219147864, -10.193534370285322, -3.758643353293526, 4.101876773033636, 0.012971093855547587]",0.002,7,1
0,34,"[0.11369626224040985, -1.457174913292267, 0.11363345781435186, 0.11365847169842525, 0.11367898434400558, 0.11371287703514099]","[0.03265204653143883, 0.03129913657903671, 0.03331615775823593, 0.03546751290559769, 0.0316491536796093, 0.03267937898635864]","[0.11535955286747862, -1.4554367739274179, 0.11535955286747862, 0.11535955286747862, 0.11535955286747862, 0.11535955286747862]","[0.11535955286747862, -1.4554367739274179, 0.11535955286747862, 0.11535955286747862, 0.11535955286747862, 0.11535955286747862]","[-0.15212205916353144, -16.546254363328735, -10.365980516515618, -3.7644030463739484, 4.091510514468652, 0.007716878850298245]",0.002,7,1
0,35,"[0.11462345719337463, -1.4561903563192864, 0.11464196840395147, 0.1145443159290771, 0.11458763480186462, 0.11461767554283142]","[0.02927977219223976, 0.029208043590188026, 0.029825890436768532, 0.031190423294901848, 0.02840021252632141, 0.028912732377648354]","[0.11618752387513484, -1.4546088029197617, 0.11618752387513484, 0.11618752387513484, 0.11618752387513484, 0.11618752387513484]","[0.11618752387513484, -1.4546088029197617, 0.11618752387513484, 0.11618752387513484, 0.11618752387513484, 0.11618752387513484]","[-0.14530218375156018, -16.57227973667406, -10.373729559527936, -3.7613105118935164, 4.088721164377164, 0.009609646911756649]",0.002,7,1
0,36,"[0.11577723175287247, -1.4549582165530701, 0.11577302614320928, 0.1157640653797607, 0.11581055074930191, 0.11581882834434509]","[0.023477932438254356, 0.023589162155985832, 0.024128032848238945, 0.024710815399885178, 0.02380220778286457, 0.02307848259806633]","[0.11701476039176834, -1.4537815664031282, 0.11701476039176834, 0.11701476039176834, 0.11701476039176834, 0.11701476039176834]","[0.11701476039176834, -1.4537815664031282, 0.11701476039176834, 0.11701476039176834, 0.11701476039176834, 0.11701476039176834]","[-0.15485399740149924, -16.7584539111146, -10.4726677309937, -3.762798985090753, 4.081582262797829, 0.007761431845264531]",0.002,7,1
0,37,"[0.11658035963773727, -1.4541919541409989, 0.11650735536684209, 0.1165117460438232, 0.1165798157453537, 0.11658462882041931]","[0.019918998703360558, 0.01862809620797634, 0.01878611370921135, 0.021011997014284134, 0.0190312210470438, 0.01968039572238922]","[0.11784125718792089, -1.4529550696069757, 0.11784125718792089, 0.11784125718792089, 0.11784125718792089, 0.11784125718792089]","[0.11784125718792089, -1.4529550696069757, 0.11784125718792089, 0.11784125718792089, 0.11784125718792089, 0.11784125718792089]","[-0.13146349862242984, -16.640797974882197, -10.397861970940932, -3.7548361837347803, 4.082631066826786, 0.01343671279339647]",0.002,7,1
0,38,"[0.11729616671800613, -1.4535321828773995, 0.11724836031068975, 0.11727528154339595, 0.11722005158662796, 0.11722874641418457]","[0.016309304162859917, 0.015292815864086151, 0.016459684818983078, 0.0171612948179245, 0.01628640852868557, 0.0162979606539011]","[0.11866700903881057, -1.452129317756086, 0.11866700903881057, 0.11866700903881057, 0.11866700903881057, 0.11866700903881057]","[0.11866700903881057, -1.452129317756086, 0.11866700903881057, 0.11866700903881057, 0.11866700903881057, 0.11866700903881057]","[-0.10242162233911833, -16.466772892870733, -10.293440162070159, -3.7451230314165205, 4.084979625568493, 0.020332700407773033]",0.002,7,1
0,39,"[0.11800648272037506, -1.4528113094023247, 0.11797982851137334, 0.11796729146923823, 0.11801224946975708, 0.11794209480285645]","[0.0140822259709239, 0.01450758520513773, 0.014043759554624557, 0.013732030987739563, 0.014017092995345592, 0.013370171189308167]","[0.11949201072436472, -1.451304316070532, 0.11949201072436472, 0.11949201072436472, 0.11949201072436472, 0.11949201072436472]","[0.11949201072436472, -1.451304316070532, 0.11949201072436472, 0.11949201072436472, 0.11949201072436472, 0.11949201072436472]","[-0.07981582308028241, -16.355546576733946, -10.223359918807164, -3.7374522588558183, 4.0857968015229496, 0.0256864311910959]",0.002,7,1
0,40,"[0.11861125379800797, -1.4522622537663956, 0.11848813692201787, 0.1185261446186523, 0.11855389922857285, 0.11854482442140579]","[0.012356485240161419, 0.012856337241828442, 0.013499006628990173, 0.013122813776135445, 0.013371363282203674, 0.0121189309284091]","[0.12031625702925285, -1.4504800697656437, 0.12031625702925285, 0.12031625702925285, 0.12031625702925285, 0.12031625702925285]","[0.12031625702925285, -1.4504800697656437, 0.12031625702925285, 0.12031625702925285, 0.12031625702925285, 0.12031625702925285]","[-0.04883435434439689, -16.169263652112175, -10.11087242157399, -3.7273551320897558, 4.088704756714818, 0.03289980527185055]",0.002,7,1
0,41,"[0.11902958899736404, -1.4517888289741059, 0.11906081834901983, 0.11899487554516597, 0.11901804059743881, 0.11902082711458206]","[0.012109325267374516, 0.012992358766496181, 0.012700282968580723, 0.013080587610602379, 0.013115358538925648, 0.013267481699585915]","[0.1211397427429197, -1.4496565840519768, 0.1211397427429197, 0.1211397427429197, 0.1211397427429197, 0.1211397427429197]","[0.1211397427429197, -1.4496565840519768, 0.1211397427429197, 0.1211397427429197, 0.1211397427429197, 0.1211397427429197]","[-0.011928085233329931, -15.920538526287663, -9.964301363706127, -3.715734197010066, 4.093404068036803, 0.04141205070221592]",0.002,7,1
0,42,"[0.11930637806653976, -1.451538198893406, 0.11925679842104131, 0.11919443189587398, 0.11929331719875336, 0.11928398162126541]","[0.012797416187822819, 0.011166215874254704, 0.013618120923638344, 0.01427950244396925, 0.01278399582952261, 0.013100345619022846]","[0.12196246265961823, -1.4488338641352783, 0.12196246265961823, 0.12196246265961823, 0.12196246265961823, 0.12196246265961823]","[0.12196246265961823, -1.4488338641352783, 0.12196246265961823, 0.12196246265961823, 0.12196246265961823, 0.12196246265961823]","[0.03877647143630446, -15.547216382737059, -9.745057632772959, -3.7001475662830363, 4.101656669061323, 0.053062394569097934]",0.002,7,1
0,43,"[0.12001128494739532, -1.4506798175028344, 0.12008649507631475, 0.120037241572998, 0.12011647969484329, 0.12006449699401855]","[0.016515474766492844, 0.016392875462770462, 0.01649802178144455, 0.01836649887263775, 0.016745131462812424, 0.01641256734728813]","[0.12278441157844236, -1.4480119152164541, 0.12278441157844236, 0.12278441157844236, 0.12278441157844236, 0.12278441157844236]","[0.12278441157844236, -1.4480119152164541, 0.12278441157844236, 0.12278441157844236, 0.12278441157844236, 0.12278441157844236]","[0.027360849707712118, -15.720271261000805, -9.83840715194067, -3.702756039603149, 4.095302514906456, 0.05032418953726172]",0.002,7,1
0,44,"[0.1207522302865982, -1.4500060764006157, 0.12076741853822881, 0.12070564805950923, 0.120719775557518, 0.1207582950592041]","[0.02001601830124855, 0.01932963915169239, 0.01917094551026821, 0.01935597136616707, 0.01836375705897808, 0.0189385786652565]","[0.12360558430336005, -1.4471907424915365, 0.12360558430336005, 0.12360558430336005, 0.12360558430336005, 0.12360558430336005]","[0.12360558430336005, -1.4471907424915365, 0.12360558430336005, 0.12360558430336005, 0.12360558430336005, 0.12360558430336005]","[0.029365542548238675, -15.779915925924223, -9.867890421381706, -3.7014407110534124, 4.0917105732975045, 0.05068851038611097]",0.002,7,1
0,45,"[0.12182533740997314, -1.4489593890360375, 0.12187511125673467, 0.12182776510205073, 0.1218559518456459, 0.12186382710933685]","[0.022705260664224625, 0.020561786368489265, 0.02091323956847191, 0.021874062716960907, 0.021366912871599197, 0.021121712401509285]","[0.12442597564324599, -1.4463703511516506, 0.12442597564324599, 0.12442597564324599, 0.12442597564324599, 0.12442597564324599]","[0.12442597564324599, -1.4463703511516506, 0.12442597564324599, 0.12442597564324599, 0.12442597564324599, 0.12442597564324599]","[-0.008171229705395558, -16.179300350851875, -10.091512853421406, -3.7116910272149095, 4.079234828124633, 0.042016570540155895]",0.002,7,1
0,46,"[0.12234067916870117, -1.4484306436828156, 0.12239534059633428, 0.12233559667553706, 0.12237360328435898, 0.12234997749328613]","[0.02286655269563198, 0.021493902429938316, 0.021682238206267357, 0.022981399670243263, 0.022804858162999153, 0.02319944091141224]","[0.12524558041191447, -1.445550746382982, 0.12524558041191447, 0.12524558041191447, 0.12524558041191447, 0.12524558041191447]","[0.12524558041191447, -1.445550746382982, 0.12524558041191447, 0.12524558041191447, 0.12524558041191447, 0.12524558041191447]","[0.01796859940101729, -16.026362608139454, -9.998334769718387, -3.7033982671249093, 4.081443834845923, 0.04793284358740036]",0.002,7,1
0,47,"[0.1231808140873909, -1.447573499088623, 0.12321406999696904, 0.12325982629742427, 0.12323591113090515, 0.12323697656393051]","[0.023878376930952072, 0.022123470902442932, 0.023835545405745506, 0.02406287007033825, 0.023263249546289444, 0.022890063002705574]","[0.1260643934281522, -1.4447319333667443, 0.1260643934281522, 0.1260643934281522, 0.1260643934281522, 0.1260643934281522]","[0.1260643934281522, -1.4447319333667443, 0.1260643934281522, 0.1260643934281522, 0.1260643934281522, 0.1260643934281522]","[0.00818112123107292, -16.1878311068889, -10.085768797536797, -3.7056040463032347, 4.075105819393067, 0.04562713280854966]",0.002,7,1
0,48,"[0.12466372549533844, -1.4461986658028145, 0.12461740175356084, 0.12463907777752681, 0.12465333938598633, 0.12463497370481491]","[0.023117035627365112, 0.023117544129490852, 0.023509325459599495, 0.02557496912777424, 0.023452987894415855, 0.024290552362799644]","[0.12688240951575097, -1.4439139172791455, 0.12688240951575097, 0.12688240951575097, 0.12688240951575097, 0.12688240951575097]","[0.12688240951575097, -1.4439139172791455, 0.12688240951575097, 0.12688240951575097, 0.12688240951575097, 0.12688240951575097]","[-0.057621160773739896, -16.84167425244209, -10.454193761748163, -3.7237898119667467, 4.055179826223836, 0.03072865901119241]",0.002,7,1
0,49,"[0.12540888786315918, -1.4454441678575058, 0.12542850175966436, 0.12545196592297359, 0.1254720538854599, 0.12546998262405396]","[0.022974904626607895, 0.02269076369702816, 0.02248575910925865, 0.02368873730301857, 0.023132644593715668, 0.02339748665690422]","[0.12769962350354055, -1.443096703291356, 0.12769962350354055, 0.12769962350354055, 0.12769962350354055, 0.12769962350354055]","[0.12769962350354055, -1.443096703291356, 0.12769962350354055, 0.12769962350354055, 0.12769962350354055, 0.12769962350354055]","[-0.05278314782661872, -16.877658981174473, -10.47041961385339, -3.721271693123511, 4.051922617101338, 0.031883221214488]",0.002,7,1
0,50,"[0.12660835683345795, -1.4441850644401093, 0.12662202516664678, 0.12661091863598628, 0.12666650116443634, 0.12668311595916748]","[0.02198699861764908, 0.02163979783654213, 0.020947378128767014, 0.020666826516389847, 0.021147174760699272, 0.02108529768884182]","[0.12851603022542116, -1.4422802965694754, 0.12851603022542116, 0.12851603022542116, 0.12851603022542116, 0.12851603022542116]","[0.12851603022542116, -1.4422802965694754, 0.12851603022542116, 0.12851603022542116, 0.12851603022542116, 0.12851603022542116]","[-0.08314226909571183, -17.22808974707022, -10.663096207024498, -3.728966998827379, 4.040080089692659, 0.025184699693179304]",0.002,7,1
0,51,"[0.12717068195343018, -1.4435797196677704, 0.1271913687335413, 0.12723533689465327, 0.12729386985301971, 0.12723614275455475]","[0.020853087306022644, 0.02009841986000538, 0.021188825368881226, 0.01972472295165062, 0.020684190094470978, 0.02001267671585083]","[0.12933162452039626, -1.4414647022745002, 0.12933162452039626, 0.12933162452039626, 0.12933162452039626, 0.12933162452039626]","[0.12933162452039626, -1.4414647022745002, 0.12933162452039626, 0.12933162452039626, 0.12933162452039626, 0.12933162452039626]","[-0.05492347381907978, -17.066096444885257, -10.5644081338844, -3.7200015991485555, 4.0423788583832225, 0.031563862073628796]",0.002,7,1
0,52,"[0.12795834243297577, -1.442829744224884, 0.12798959413637334, 0.12797538816418452, 0.12795354425907135, 0.1279522180557251]","[0.020746534690260887, 0.018521467223763466, 0.020433036610484123, 0.019931042566895485, 0.019404210150241852, 0.019967906177043915]","[0.13014640123260515, -1.4406499255622913, 0.13014640123260515, 0.13014640123260515, 0.13014640123260515, 0.13014640123260515]","[0.13014640123260515, -1.4406499255622913, 0.13014640123260515, 0.13014640123260515, 0.13014640123260515, 0.13014640123260515]","[-0.044038871611671616, -17.06115012383372, -10.555825981022315, -3.7157871644236273, 4.040127010615856, 0.03403675832741192]",0.002,7,1
0,53,"[0.12870478630065918, -1.4421219390681763, 0.12870294252504522, 0.12878672658886714, 0.12877142429351807, 0.12875765562057495]","[0.01977676711976528, 0.01781640201807022, 0.018959181383252144, 0.019620729610323906, 0.02046828158199787, 0.019081024453043938]","[0.13096035521135554, -1.439835971583541, 0.13096035521135554, 0.13096035521135554, 0.13096035521135554, 0.13096035521135554]","[0.13096035521135554, -1.439835971583541, 0.13096035521135554, 0.13096035521135554, 0.13096035521135554, 0.13096035521135554]","[-0.037463353352773385, -17.08022659392546, -10.561844977766464, -3.713114000989403, 4.03733923618586, 0.03552244204458844]",0.002,7,1
0,54,"[0.12948158383369446, -1.441468046312668, 0.12936622301210576, 0.129453106517456, 0.12944461405277252, 0.12943312525749207]","[0.02010980062186718, 0.018733080476522446, 0.020125336945056915, 0.01967216283082962, 0.019498273730278015, 0.020466268062591553]","[0.13177348131115624, -1.4390228454837404, 0.13177348131115624, 0.13177348131115624, 0.13177348131115624, 0.13177348131115624]","[0.13177348131115624, -1.4390228454837404, 0.13177348131115624, 0.13177348131115624, 0.13177348131115624, 0.13177348131115624]","[-0.023785154713613553, -17.041570858968633, -10.533648096200265, -3.7083564528115134, 4.036160484735634, 0.038564079523610025]",0.002,7,1
0,55,"[0.13061857223510742, -1.4402934473804017, 0.13051301637758428, 0.13053910314526362, 0.1304800659418106, 0.13052351772785187]","[0.01919887587428093, 0.02061079442501068, 0.019166165962815285, 0.01953454688191414, 0.02003701590001583, 0.020013200119137764]","[0.1325857743917494, -1.4382105524031472, 0.1325857743917494, 0.1325857743917494, 0.1325857743917494, 0.1325857743917494]","[0.1325857743917494, -1.4382105524031472, 0.1325857743917494, 0.1325857743917494, 0.1325857743917494, 0.1325857743917494]","[-0.05228577314271785, -17.36615729737915, -10.71412374543533, -3.7154711739576056, 4.025064482655424, 0.03227812282367336]",0.002,7,1
0,56,"[0.13136103749275208, -1.439435453420021, 0.1313422361956995, 0.13143293439831538, 0.1314113885164261, 0.1313849240541458]","[0.018821164965629578, 0.01963040977716446, 0.01816503517329693, 0.01897280104458332, 0.01902689039707184, 0.018877441063523293]","[0.13339722931814335, -1.4373990974767532, 0.13339722931814335, 0.13339722931814335, 0.13339722931814335, 0.13339722931814335]","[0.13339722931814335, -1.4373990974767532, 0.13339722931814335, 0.13339722931814335, 0.13339722931814335, 0.13339722931814335]","[-0.056947999096740844, -17.48684974916618, -10.778256768076682, -3.715665147250447, 4.019222623816922, 0.03130470696756501]",0.002,7,1
0,57,"[0.13250529766082764, -1.4383082401803513, 0.13249332109560186, 0.1325591045567016, 0.13253827393054962, 0.1325332671403885]","[0.016557801514863968, 0.01758255437016487, 0.017628997564315796, 0.015575061552226543, 0.01747570000588894, 0.017512742429971695]","[0.13420784096064478, -1.4365884858342517, 0.13420784096064478, 0.13420784096064478, 0.13420784096064478, 0.13420784096064478]","[0.13420784096064478, -1.4365884858342517, 0.13420784096064478, 0.13420784096064478, 0.13420784096064478, 0.13420784096064478]","[-0.0780031516189741, -17.75785883760809, -10.924358345739837, -3.72041388772403, 4.009213391576797, 0.026780794133007116]",0.002,7,1
0,58,"[0.13348233699798584, -1.4372855585864563, 0.13351756731142217, 0.13352982580151362, 0.13355189561843872, 0.13352178037166595]","[0.014229170978069305, 0.014022007584571838, 0.01418163999915123, 0.014170413836836815, 0.013985096476972103, 0.014408724382519722]","[0.13501760419489134, -1.4357787226000052, 0.13501760419489134, 0.13501760419489134, 0.13501760419489134, 0.13501760419489134]","[0.13501760419489134, -1.4357787226000052, 0.13501760419489134, 0.13501760419489134, 0.13501760419489134, 0.13501760419489134]","[-0.08562593805627917, -17.906846847626042, -11.003961176121084, -3.7213703390558983, 4.002488480633682, 0.025236996953076556]",0.002,7,1
0,59,"[0.13398365676403046, -1.4368743610433121, 0.13399154344667608, 0.13401023923840327, 0.1339699625968933, 0.13397681713104248]","[0.013525862246751785, 0.013044696301221848, 0.013045284897089005, 0.013455325737595558, 0.013412072323262691, 0.013142493553459644]","[0.13582651390188397, -1.4349698128930126, 0.13582651390188397, 0.13582651390188397, 0.13582651390188397, 0.13582651390188397]","[0.13582651390188397, -1.4349698128930126, 0.13582651390188397, 0.13582651390188397, 0.13582651390188397, 0.13582651390188397]","[-0.041417892315570554, -17.619166291948638, -10.832947801768091, -3.708089386519818, 4.00814967399052, 0.03492465180330946]",0.002,7,1
0,60,"[0.1345054656267166, -1.4363151353648682, 0.13453990617860967, 0.1345485883900146, 0.13450132310390472, 0.13452745974063873]","[0.014016346074640751, 0.013781799003481865, 0.013698546215891838, 0.0128438426181674, 0.013778339140117168, 0.013805573806166649]","[0.13663456496801923, -1.4341617618268774, 0.13663456496801923, 0.13663456496801923, 0.13663456496801923, 0.13663456496801923]","[0.13663456496801923, -1.4341617618268774, 0.13663456496801923, 0.13663456496801923, 0.13663456496801923, 0.13663456496801923]","[-0.018364248602699376, -17.504702786293073, -10.762220078712343, -3.7007922812515206, 4.008812148246918, 0.03994812837753213]",0.002,7,1
0,61,"[0.13509710133075714, -1.435725138788559, 0.13508111635317022, 0.13505999624218745, 0.13512761890888214, 0.13507038354873657]","[0.014422889798879623, 0.014435208402574062, 0.013327941298484802, 0.014914418570697308, 0.014962596818804741, 0.014668267220258713]","[0.13744175228512176, -1.4333545745097749, 0.13744175228512176, 0.13744175228512176, 0.13744175228512176, 0.13744175228512176]","[0.13744175228512176, -1.4333545745097749, 0.13744175228512176, 0.13744175228512176, 0.13744175228512176, 0.13744175228512176]","[0.005868323391658206, -17.37532393210798, -10.682641297582364, -3.6932463126889084, 4.010260382269309, 0.04518463776960922]",0.002,7,1
0,62,"[0.1358238160610199, -1.4350186896375199, 0.1357663313495081, 0.1358463007160644, 0.13584288954734802, 0.13582250475883484]","[0.01640547625720501, 0.015876304358243942, 0.015419026836752892, 0.01564374566078186, 0.017327668145298958, 0.016763458028435707]","[0.13824807075047635, -1.4325482560444203, 0.13824807075047635, 0.13824807075047635, 0.13824807075047635, 0.13824807075047635]","[0.13824807075047635, -1.4325482560444203, 0.13824807075047635, 0.13824807075047635, 0.13824807075047635, 0.13824807075047635]","[0.002736379275255137, -17.47432104721933, -10.733463166574987, -3.6933528503270683, 4.00538904703888, 0.04443900354334402]",0.002,7,1
0,63,"[0.1365920901298523, -1.4343035829118271, 0.13652545610536748, 0.1365606027790527, 0.1365370750427246, 0.1365540325641632]","[0.01770389825105667, 0.01780790276825428, 0.017417293041944504, 0.01812327839434147, 0.018613314256072044, 0.01842508465051651]","[0.1390535152668604, -1.4317428115280362, 0.1390535152668604, 0.1390535152668604, 0.1390535152668604, 0.1390535152668604]","[0.1390535152668604, -1.4317428115280362, 0.1390535152668604, 0.1390535152668604, 0.1390535152668604, 0.1390535152668604]","[0.0038275217471262137, -17.541793713879485, -10.767613303064612, -3.6919963189470524, 4.001141184081293, 0.04461288022034321]",0.002,7,1
0,64,"[0.13727402687072754, -1.4335107964328309, 0.1372311750995081, 0.13731948911633296, 0.13726569712162018, 0.13731533288955688]","[0.019129706546664238, 0.019199376925826073, 0.01888449303805828, 0.01808549277484417, 0.019360698759555817, 0.019801035523414612]","[0.1398580807425761, -1.4309382460523206, 0.1398580807425761, 0.1398580807425761, 0.1398580807425761, 0.1398580807425761]","[0.1398580807425761, -1.4309382460523206, 0.1398580807425761, 0.1398580807425761, 0.1398580807425761, 0.1398580807425761]","[0.002685492376166998, -17.62189336679754, -10.807893985762831, -3.691649438332847, 3.996874480877792, 0.04430365680775621]",0.002,7,1
0,65,"[0.13792121410369873, -1.4328301411918183, 0.13788348833192998, 0.1379496294208984, 0.13786131143569946, 0.1379135102033615]","[0.021026520058512688, 0.020766565576195717, 0.020942628383636475, 0.020503098145127296, 0.02007315121591091, 0.021192703396081924]","[0.14066176209148248, -1.430134564703414, 0.14066176209148248, 0.14066176209148248, 0.14066176209148248, 0.14066176209148248]","[0.14066176209148248, -1.430134564703414, 0.14066176209148248, 0.14066176209148248, 0.14066176209148248, 0.14066176209148248]","[0.014223693938015413, -17.602494769409354, -10.791594604743157, -3.687802148322063, 3.995098639028575, 0.04672472441782223]",0.002,7,1
0,66,"[0.13886041939258575, -1.4319964212230225, 0.1387861410724085, 0.13887636243786616, 0.1388201117515564, 0.13881824910640717]","[0.02226567268371582, 0.022360749542713165, 0.02242359146475792, 0.021648114547133446, 0.022397320717573166, 0.0222913958132267]","[0.14146455423302773, -1.4293317725618688, 0.14146455423302773, 0.14146455423302773, 0.14146455423302773, 0.14146455423302773]","[0.14146455423302773, -1.4293317725618688, 0.14146455423302773, 0.14146455423302773, 0.14146455423302773, 0.14146455423302773]","[-0.004561175600379942, -17.83439450236327, -10.918674985461164, -3.69178510834042, 3.9861994626187136, 0.042613233544277894]",0.002,7,1
0,67,"[0.13956984877586365, -1.4312919092229386, 0.13949233690370733, 0.13951460897412105, 0.1395581066608429, 0.13948370516300201]","[0.021925343200564384, 0.02251305617392063, 0.02232063002884388, 0.022196903824806213, 0.023729706183075905, 0.023358961567282677]","[0.14226645209228123, -1.4285298747026154, 0.14226645209228123, 0.14226645209228123, 0.14226645209228123, 0.14226645209228123]","[0.14226645209228123, -1.4285298747026154, 0.14226645209228123, 0.14226645209228123, 0.14226645209228123, 0.14226645209228123]","[0.005606395957533887, -17.826536096655282, -10.908133370805292, -3.6881822767174257, 3.9840334065870078, 0.04474244838555513]",0.002,7,1
0,68,"[0.14069947600364685, -1.4301196497729798, 0.1405571142779749, 0.14069919168438716, 0.14062689244747162, 0.14061138033866882]","[0.024009106680750847, 0.023887034505605698, 0.02385028451681137, 0.02353847585618496, 0.024394406005740166, 0.02358350344002247]","[0.14306745059996573, -1.427728876194931, 0.14306745059996573, 0.14306745059996573, 0.14306745059996573, 0.14306745059996573]","[0.14306745059996573, -1.427728876194931, 0.14306745059996573, 0.14306745059996573, 0.14306745059996573, 0.14306745059996573]","[-0.03388842021614111, -18.231664782798298, -11.133794702138738, -3.6979550326450314, 3.9703125694313752, 0.03627887924719043]",0.002,7,1
0,69,"[0.14170648157596588, -1.429128573541977, 0.14164716402162725, 0.14163891851391597, 0.14159011840820312, 0.14166313409805298]","[0.022592226043343544, 0.02157185971736908, 0.023366166278719902, 0.02245958335697651, 0.02343585714697838, 0.02230662666261196]","[0.14386754469248916, -1.4269287821024075, 0.14386754469248916, 0.14386754469248916, 0.14386754469248916, 0.14386754469248916]","[0.14386754469248916, -1.4269287821024075, 0.14386754469248916, 0.14386754469248916, 0.14386754469248916, 0.14386754469248916]","[-0.05300418943307899, -18.46656700073506, -11.26337633006283, -3.702155471838357, 3.9610116712461383, 0.03224516006714304]",0.002,7,1
0,70,"[0.1426868885755539, -1.4281464231065293, 0.14265138307680303, 0.14264790594067378, 0.14268185198307037, 0.1427040994167328]","[0.021862933412194252, 0.02258320525288582, 0.023386400192975998, 0.02180001512169838, 0.022651158273220062, 0.021430036053061485]","[0.14466672931197697, -1.4261295974829196, 0.14466672931197697, 0.14466672931197697, 0.14466672931197697, 0.14466672931197697]","[0.14466672931197697, -1.4261295974829196, 0.14466672931197697, 0.14466672931197697, 0.14466672931197697, 0.14466672931197697]","[-0.0742927965464887, -18.71822277345174, -11.402192274560779, -3.706785022069753, 3.9511424689097696, 0.027816838393805002]",0.002,7,1
0,71,"[0.1435474306344986, -1.4272578072598954, 0.1435640493976038, 0.14345042287792964, 0.1434563398361206, 0.14352202415466309]","[0.02074681967496872, 0.019965913146734238, 0.021084491163492203, 0.02123364433646202, 0.02100694738328457, 0.02015669085085392]","[0.14546499940630384, -1.4253313273885928, 0.14546499940630384, 0.14546499940630384, 0.14546499940630384, 0.14546499940630384]","[0.14546499940630384, -1.4253313273885928, 0.14546499940630384, 0.14546499940630384, 0.14546499940630384, 0.14546499940630384]","[-0.06925044160877715, -18.75974260186751, -11.41867219678953, -3.7044112979048447, 3.9473699637235313, 0.028954800616389602]",0.002,7,1
0,72,"[0.14449898898601532, -1.4262710225633164, 0.1444948355304163, 0.14444462835278316, 0.14452606439590454, 0.1444687843322754]","[0.01876547932624817, 0.018938835710287094, 0.018932292237877846, 0.01949186436831951, 0.02029283158481121, 0.018661459907889366]","[0.14626234992912576, -1.4245339768657708, 0.14626234992912576, 0.14626234992912576, 0.14626234992912576, 0.14626234992912576]","[0.14626234992912576, -1.4245339768657708, 0.14626234992912576, 0.14626234992912576, 0.14626234992912576, 0.14626234992912576]","[-0.08205460588141471, -18.946349879025803, -11.519797215648758, -3.7065738092932365, 3.939243032541008, 0.026363595018309392]",0.002,7,1
0,73,"[0.1453348845243454, -1.4254195404103776, 0.1453769842730921, 0.14534751951184077, 0.14531731605529785, 0.14536762237548828]","[0.017448725178837776, 0.016346700489521027, 0.01734933815896511, 0.017658213153481483, 0.0169172752648592, 0.016819385811686516]","[0.14705877583991184, -1.4237375509549848, 0.14705877583991184, 0.14705877583991184, 0.14705877583991184, 0.14705877583991184]","[0.14705877583991184, -1.4237375509549848, 0.14705877583991184, 0.14705877583991184, 0.14705877583991184, 0.14705877583991184]","[-0.07803267004116418, -18.99825179067446, -11.54288777236373, -3.7045873477238107, 3.9347770603587366, 0.027301109308369723]",0.002,7,1
0,74,"[0.14611627161502838, -1.4246192437461396, 0.1461122671710413, 0.14609508096661372, 0.1461355835199356, 0.1461019515991211]","[0.014985116198658943, 0.015078049153089523, 0.015958691015839577, 0.01600361429154873, 0.0155732287093997, 0.015036966651678085]","[0.1478542721039762, -1.4229420546909204, 0.1478542721039762, 0.1478542721039762, 0.1478542721039762, 0.1478542721039762]","[0.1478542721039762, -1.4229420546909204, 0.1478542721039762, 0.1478542721039762, 0.1478542721039762, 0.1478542721039762]","[-0.06446147247236284, -18.977146100668367, -11.522468236497376, -3.6996027655995714, 3.9326592027811382, 0.030200302186767246]",0.002,7,1
0,75,"[0.1468200832605362, -1.4239367854646225, 0.14679509798158819, 0.1468553978153686, 0.14680147171020508, 0.14688453078269958]","[0.014583729207515717, 0.013604871928691864, 0.014736582525074482, 0.014224439859390259, 0.01451619528234005, 0.013740980066359043]","[0.14864883369250992, -1.4221474931023868, 0.14864883369250992, 0.14864883369250992, 0.14864883369250992, 0.14864883369250992]","[0.14864883369250992, -1.4221474931023868, 0.14864883369250992, 0.14864883369250992, 0.14864883369250992, 0.14864883369250992]","[-0.051218693065632336, -18.950669930353264, -11.50376327948206, -3.6949754658280867, 3.9304863287504173, 0.0329930664679211]",0.002,7,1
0,76,"[0.1472761482000351, -1.4234886032393952, 0.14729530016054326, 0.1472598749348144, 0.14729003608226776, 0.1473301202058792]","[0.01475541852414608, 0.01354636438190937, 0.0139002101495862, 0.01529494859278202, 0.014409592375159264, 0.013582737185060978]","[0.1494424555826126, -1.421353871212284, 0.1494424555826126, 0.1494424555826126, 0.1494424555826126, 0.1494424555826126]","[0.1494424555826126, -1.421353871212284, 0.1494424555826126, 0.1494424555826126, 0.1494424555826126, 0.1494424555826126]","[-0.014347876845923112, -18.72732502269231, -11.370915027739102, -3.6841021042025823, 3.9341934654408983, 0.04064667668473573]",0.002,7,1
0,77,"[0.1479332447052002, -1.4229096335223694, 0.14793283144106084, 0.14787475645031734, 0.14789772033691406, 0.14791178703308105]","[0.015097529627382755, 0.014034231193363667, 0.014725221320986748, 0.016148071736097336, 0.015293349511921406, 0.015215202234685421]","[0.1502351327573243, -1.4205611940375722, 0.1502351327573243, 0.1502351327573243, 0.1502351327573243, 0.1502351327573243]","[0.1502351327573243, -1.4205611940375722, 0.1502351327573243, 0.1502351327573243, 0.1502351327573243, 0.1502351327573243]","[-0.0012056087388801952, -18.694613980929436, -11.346540096477101, -3.679981219210734, 3.932685468042379, 0.043331648977759145]",0.002,7,1
0,78,"[0.14883673191070557, -1.421965481047966, 0.14885455766786748, 0.14883045732464595, 0.14885784685611725, 0.14879107475280762]","[0.012811519205570221, 0.012314329855144024, 0.013055303134024143, 0.013003190979361534, 0.01244940422475338, 0.012441476806998253]","[0.15102686020565723, -1.4197694665892393, 0.15102686020565723, 0.15102686020565723, 0.15102686020565723, 0.15102686020565723]","[0.15102686020565723, -1.4197694665892393, 0.15102686020565723, 0.15102686020565723, 0.15102686020565723, 0.15102686020565723]","[-0.0894901540347901, -19.409990468984105, -11.753938068598414, -3.703009164304246, 3.9118524595770467, 0.025163234206158822]",0.002,7,1
0,79,"[0.1496858149766922, -1.4211247575334092, 0.14966851869692022, 0.1496833997913818, 0.14966869354248047, 0.1496523916721344]","[0.013767998665571213, 0.014787313528358936, 0.014303278177976608, 0.0140978479757905, 0.013556393794715405, 0.014362229965627193]","[0.1518176329226273, -1.4189786938722693, 0.1518176329226273, 0.1518176329226273, 0.1518176329226273, 0.1518176329226273]","[0.1518176329226273, -1.4189786938722693, 0.1518176329226273, 0.1518176329226273, 0.1518176329226273, 0.1518176329226273]","[-0.014160711515987386, -18.956263302122863, -11.484877228694002, -3.681110125369045, 3.919687154813578, 0.040653573476844174]",0.002,7,1
0,80,"[0.1502901315689087, -1.420538307433464, 0.15024978319276983, 0.15026359140362544, 0.15025994181632996, 0.15026599168777466]","[0.01510398369282484, 0.015425405465066433, 0.015497366897761822, 0.016158631071448326, 0.015195418149232864, 0.0152038699015975]","[0.15260744590928588, -1.4181888808856107, 0.15260744590928588, 0.15260744590928588, 0.15260744590928588, 0.15260744590928588]","[0.15260744590928588, -1.4181888808856107, 0.15260744590928588, 0.15260744590928588, 0.15260744590928588, 0.15260744590928588]","[0.0059606154105273385, -18.872192588619534, -11.430722437014197, -3.6748400562205994, 3.919317091042491, 0.04474303925242547]",0.002,7,1
0,81,"[0.15070940554141998, -1.420025722389557, 0.1507042090045374, 0.15072302400555415, 0.15076354146003723, 0.1507161259651184]","[0.016356544569134712, 0.016917789354920387, 0.016111081466078758, 0.016749661415815353, 0.016660181805491447, 0.016794292256236076]","[0.1533962941727514, -1.4174000326221452, 0.1533962941727514, 0.1533962941727514, 0.1533962941727514, 0.1533962941727514]","[0.1533962941727514, -1.4174000326221452, 0.1533962941727514, 0.1533962941727514, 0.1533962941727514, 0.1533962941727514]","[0.03336073387846848, -18.731156253799124, -11.344896976407549, -3.6668941819190275, 3.920933371669135, 0.050296879812222056]",0.002,7,1
0,82,"[0.15146560966968536, -1.4193804425052186, 0.15153915086855108, 0.1514081197926025, 0.15143363177776337, 0.15145324170589447]","[0.01917855255305767, 0.017979076132178307, 0.018484313040971756, 0.019533416256308556, 0.01890198513865471, 0.019203878939151764]","[0.1541841727262409, -1.4166121540686556, 0.1541841727262409, 0.1541841727262409, 0.1541841727262409, 0.1541841727262409]","[0.1541841727262409, -1.4166121540686556, 0.1541841727262409, 0.1541841727262409, 0.1541841727262409, 0.1541841727262409]","[0.02807283915465959, -18.845608643101198, -11.404374874230012, -3.667375291709011, 3.9152693570997106, 0.04909923693864675]",0.002,7,1
0,83,"[0.15249541401863098, -1.4182713788798829, 0.15246373811830694, 0.15245048582043452, 0.1524968296289444, 0.15253475308418274]","[0.01771051436662674, 0.01700267381966114, 0.017386512830853462, 0.017812523990869522, 0.01756361499428749, 0.016741648316383362]","[0.1549710765891015, -1.415825250205795, 0.1549710765891015, 0.1549710765891015, 0.1549710765891015, 0.1549710765891015]","[0.1549710765891015, -1.415825250205795, 0.1549710765891015, 0.1549710765891015, 0.1549710765891015, 0.1549710765891015]","[-0.08289537040305864, -19.72168339757301, -11.905469812202433, -3.695955940403795, 3.889772355602651, 0.02652143476902198]",0.002,7,1
0,84,"[0.15329158306121826, -1.4174264532378693, 0.1533120314227503, 0.1533023554035644, 0.1533377319574356, 0.1533694714307785]","[0.01849261298775673, 0.017464706674218178, 0.01868356205523014, 0.01896086148917675, 0.018771441653370857, 0.01823287270963192]","[0.1557570007868419, -1.4150393260080547, 0.1557570007868419, 0.1557570007868419, 0.1557570007868419, 0.1557570007868419]","[0.1557570007868419, -1.4150393260080547, 0.1557570007868419, 0.1557570007868419, 0.1557570007868419, 0.1557570007868419]","[-0.005861123270503051, -19.26784519796258, -11.634461723131771, -3.673991236747374, 3.8974110668522215, 0.042126942242814214]",0.002,7,1
0,85,"[0.1541905403137207, -1.4165594738772889, 0.15424997011293584, 0.15419904767956538, 0.15426203608512878, 0.1542835384607315]","[0.02044200710952282, 0.01880057342350483, 0.019317414611577988, 0.01974581927061081, 0.019611608237028122, 0.019997384399175644]","[0.1565419403511639, -1.4142543864437327, 0.1565419403511639, 0.1565419403511639, 0.1565419403511639, 0.1565419403511639]","[0.1565419403511639, -1.4142543864437327, 0.1565419403511639, 0.1565419403511639, 0.1565419403511639, 0.1565419403511639]","[-0.023407492952910055, -19.476869853312934, -11.749194806512907, -3.6777022573542975, 3.88871314949247, 0.0385247439308399]",0.002,7,1
0,86,"[0.15515545010566711, -1.4156922709992905, 0.1552060286151331, 0.15517394124951167, 0.15527011454105377, 0.1551682949066162]","[0.02013235352933407, 0.017907913774251938, 0.019376372918486595, 0.01997954584658146, 0.018854135647416115, 0.018911486491560936]","[0.15732589031999372, -1.413470436474903, 0.15732589031999372, 0.15732589031999372, 0.15732589031999372, 0.15732589031999372]","[0.15732589031999372, -1.413470436474903, 0.15732589031999372, 0.15732589031999372, 0.15732589031999372, 0.15732589031999372]","[-0.044253617136962665, -19.709446243642212, -11.877139263694376, -3.68195917910168, 3.879119887399461, 0.03430721037252431]",0.002,7,1
0,87,"[0.15590715408325195, -1.414910079245903, 0.15598708788026983, 0.15596918642010493, 0.15600788593292236, 0.15593121945858002]","[0.019675152376294136, 0.01952526345849037, 0.018826603889465332, 0.019929662346839905, 0.018955029547214508, 0.018948202952742577]","[0.15810884573751346, -1.412687481057383, 0.15810884573751346, 0.15810884573751346, 0.15810884573751346, 0.15810884573751346]","[0.15810884573751346, -1.412687481057383, 0.15810884573751346, 0.15810884573751346, 0.15810884573751346, 0.15810884573751346]","[-0.03950645701478181, -19.75080779237029, -11.895619794048049, -3.6796777171752564, 3.875070825063888, 0.0352687134806169]",0.002,7,1
0,88,"[0.15661971271038055, -1.41418048859153, 0.15662843385805303, 0.15667645513500972, 0.15673664212226868, 0.1566746085882187]","[0.01923663355410099, 0.019397888332605362, 0.018268542364239693, 0.01921677403151989, 0.019583377987146378, 0.01883445866405964]","[0.1588908016541923, -1.4119055251407042, 0.1588908016541923, 0.1588908016541923, 0.1588908016541923, 0.1588908016541923]","[0.1588908016541923, -1.4119055251407042, 0.1588908016541923, 0.1588908016541923, 0.1588908016541923, 0.1588908016541923]","[-0.03094926642903582, -19.75667835520564, -11.892801195025283, -3.676574739815272, 3.8718899264473143, 0.036977095534680995]",0.002,7,1
0,89,"[0.15727247297763824, -1.4135512125543137, 0.15724069276918584, 0.15725187837567134, 0.15729928016662598, 0.15730570256710052]","[0.01959746517241001, 0.01927422732114792, 0.018505195155739784, 0.019299915060400963, 0.019170790910720825, 0.020162783563137054]","[0.159671753126818, -1.4111245736680786, 0.159671753126818, 0.159671753126818, 0.159671753126818, 0.159671753126818]","[0.159671753126818, -1.4111245736680786, 0.159671753126818, 0.159671753126818, 0.159671753126818, 0.159671753126818]","[-0.01432204317644174, -19.703369074109553, -11.856917033070317, -3.6711464629918695, 3.8707279082690373, 0.04028693052706264]",0.002,7,1
0,90,"[0.15838748216629028, -1.4124036592296143, 0.15841180482973272, 0.15847770750012202, 0.15845347940921783, 0.15850697457790375]","[0.02012881450355053, 0.020285533741116524, 0.0190283190459013, 0.019499892368912697, 0.02011392079293728, 0.019533861428499222]","[0.16045169521852784, -1.4103446315763688, 0.16045169521852784, 0.16045169521852784, 0.16045169521852784, 0.16045169521852784]","[0.16045169521852784, -1.4103446315763688, 0.16045169521852784, 0.16045169521852784, 0.16045169521852784, 0.16045169521852784]","[-0.060070125125963755, -20.132768030388355, -12.09567673891801, -3.6818517775367376, 3.8554388284132575, 0.031158686629012104]",0.002,7,1
0,91,"[0.15938520431518555, -1.4114251744798203, 0.15933591524233037, 0.15939526140179439, 0.15940189361572266, 0.15941627323627472]","[0.019838528707623482, 0.01888706535100937, 0.018961286172270775, 0.01812318153679371, 0.019213929772377014, 0.018849089741706848]","[0.16123062299884008, -1.4095657037960565, 0.16123062299884008, 0.16123062299884008, 0.16123062299884008, 0.16123062299884008]","[0.16123062299884008, -1.4095657037960565, 0.16123062299884008, 0.16123062299884008, 0.16123062299884008, 0.16123062299884008]","[-0.06979101852494884, -20.291584779028067, -12.180048756869017, -3.6827521006730533, 3.8473868439443275, 0.029287468064024505]",0.002,7,1
0,92,"[0.16068710386753082, -1.4102235597423096, 0.16057044664491826, 0.16065280019726558, 0.1606726497411728, 0.16061854362487793]","[0.015992920845746994, 0.014579701237380505, 0.014395087026059628, 0.014881974086165428, 0.01499980129301548, 0.01519403513520956]","[0.16200853154368505, -1.4087877952512116, 0.16200853154368505, 0.16200853154368505, 0.16200853154368505, 0.16200853154368505]","[0.16200853154368505, -1.4087877952512116, 0.16200853154368505, 0.16200853154368505, 0.16200853154368505, 0.16200853154368505]","[-0.10698489788708242, -20.658179459109395, -12.383246850354366, -3.690912329319955, 3.833310127940896, 0.022066971857293116]",0.002,7,1
0,93,"[0.16129270195960999, -1.4095668655684968, 0.16128379503359014, 0.16127137720074458, 0.1612982451915741, 0.16126012802124023]","[0.012910052202641964, 0.013361168093979359, 0.013132561929523945, 0.012639837339520454, 0.012727251276373863, 0.013666300103068352]","[0.16278541593543633, -1.4080109108594603, 0.16278541593543633, 0.16278541593543633, 0.16278541593543633, 0.16278541593543633]","[0.16278541593543633, -1.4080109108594603, 0.16278541593543633, 0.16278541593543633, 0.16278541593543633, 0.16278541593543633]","[-0.07975655123456292, -20.532487425374747, -12.305458480899512, -3.6827370067642, 3.8337339653278404, 0.027508468364496736]",0.002,7,1
0,94,"[0.1617947667837143, -1.4091146302274247, 0.1617949644671839, 0.16176478445019526, 0.16173864901065826, 0.1617974191904068]","[0.012634224258363247, 0.012259293347597122, 0.01203911006450653, 0.011910094879567623, 0.012724341824650764, 0.012069698423147202]","[0.1635612712629417, -1.4072350555319548, 0.1635612712629417, 0.1635612712629417, 0.1635612712629417, 0.1635612712629417]","[0.1635612712629417, -1.4072350555319548, 0.1635612712629417, 0.1635612712629417, 0.1635612712629417, 0.1635612712629417]","[-0.040581439979440984, -20.31143582796878, -12.173191705181855, -3.671728975434795, 3.8370712219507626, 0.03522962309866952]",0.002,7,1
0,95,"[0.1621941328048706, -1.4086885017207642, 0.1621039549456995, 0.16215328752484126, 0.1621253490447998, 0.16214284300804138]","[0.012917601503431797, 0.013165924698114395, 0.011837908998131752, 0.011887950822710991, 0.012328170239925385, 0.013683187775313854]","[0.16433609262155432, -1.4064602341733423, 0.16433609262155432, 0.16433609262155432, 0.16433609262155432, 0.16433609262155432]","[0.16433609262155432, -1.4064602341733423, 0.16433609262155432, 0.16433609262155432, 0.16433609262155432, 0.16433609262155432]","[0.00434478188647043, -20.047167881368704, -12.01568704933707, -3.659338794242658, 3.841937157642958, 0.04402876522488881]",0.002,7,1
0,96,"[0.16270148754119873, -1.4081052851727982, 0.16270953813661748, 0.16271869718518062, 0.1627061367034912, 0.16269582509994507]","[0.014511983841657639, 0.01273609884083271, 0.014562404714524746, 0.013759400695562363, 0.014411854557693005, 0.014869189821183681]","[0.1651098751131637, -1.405686451681733, 0.1651098751131637, 0.1651098751131637, 0.1651098751131637, 0.1651098751131637]","[0.1651098751131637, -1.405686451681733, 0.1651098751131637, 0.1651098751131637, 0.1651098751131637, 0.1651098751131637]","[0.017641828355711063, -20.01909656341596, -11.994247987070253, -3.654928989048143, 3.8400807015238514, 0.04656313323420354]",0.002,7,1
0,97,"[0.163178488612175, -1.407635362153389, 0.16321260133852178, 0.1631735998341064, 0.16317225992679596, 0.16312670707702637]","[0.01578497514128685, 0.016283975914120674, 0.016144322231411934, 0.015707362443208694, 0.016599705442786217, 0.01679747924208641]","[0.1658826138462266, -1.40491371294867, 0.1658826138462266, 0.1658826138462266, 0.1658826138462266, 0.1658826138462266]","[0.1658826138462266, -1.40491371294867, 0.1658826138462266, 0.1658826138462266, 0.1658826138462266, 0.1658826138462266]","[0.045027495244402804, -19.881247456617952, -11.909642436252101, -3.6473098953135152, 3.841490921421182, 0.0518413690910187]",0.002,7,1
0,98,"[0.16378051042556763, -1.407104567890503, 0.16383821169008428, 0.1637849050709228, 0.16383560001850128, 0.16377563774585724]","[0.017392747104167938, 0.017411021515727043, 0.019296979531645775, 0.018052002415060997, 0.018375104293227196, 0.018916334956884384]","[0.166654303935798, -1.4041420228590986, 0.166654303935798, 0.166654303935798, 0.166654303935798, 0.166654303935798]","[0.166654303935798, -1.4041420228590986, 0.166654303935798, 0.166654303935798, 0.166654303935798, 0.166654303935798]","[0.04715828864712232, -19.932109289896836, -11.935470613695827, -3.645865524515774, 3.837221594203445, 0.05212934880166159]",0.002,7,1
0,99,"[0.16467022895812988, -1.406179280286171, 0.1647585074054163, 0.1647699314304809, 0.1646728217601776, 0.16472448408603668]","[0.021405130624771118, 0.020982732996344566, 0.020245131105184555, 0.02065354771912098, 0.021090049296617508, 0.022177046164870262]","[0.16742494050356208, -1.4033713862913344, 0.16742494050356208, 0.16742494050356208, 0.16742494050356208, 0.16742494050356208]","[0.16742494050356208, -1.4033713862913344, 0.16742494050356208, 0.16742494050356208, 0.16742494050356208, 0.16742494050356208]","[0.01772577814412373, -20.21766058625725, -12.094838029861293, -3.6524629074858677, 3.826099034050672, 0.04625305556557656]",0.002,7,1
0,100,"[0.1656632125377655, -1.4051774603179474, 0.16572267213930303, 0.1657687860676269, 0.1656944751739502, 0.16565130650997162]","[0.022690683603286743, 0.02389892004430294, 0.02232220210134983, 0.02258569374680519, 0.023567374795675278, 0.022655557841062546]","[0.1681945186778629, -1.4026018081170337, 0.1681945186778629, 0.1681945186778629, 0.1681945186778629, 0.1681945186778629]","[0.1681945186778629, -1.4026018081170337, 0.1681945186778629, 0.1681945186778629, 0.1681945186778629, 0.1681945186778629]","[-0.015634195201080944, -20.53782048842682, -12.27102452291758, -3.6596951813022938, 3.8139172901349796, 0.039690919120855046]",0.002,7,1
0,101,"[0.16671085357666016, -1.4040872764638443, 0.16670066515077764, 0.16680161535229487, 0.1666990965604782, 0.16674159467220306]","[0.022572753950953484, 0.02344241552054882, 0.021853774785995483, 0.022234857082366943, 0.02298749051988125, 0.023504409939050674]","[0.16896303359373518, -1.4018332932011615, 0.16896303359373518, 0.16896303359373518, 0.16896303359373518, 0.16896303359373518]","[0.16896303359373518, -1.4018332932011615, 0.16896303359373518, 0.16896303359373518, 0.16896303359373518, 0.16896303359373518]","[-0.050197467401838766, -20.86529502761066, -12.453709033400544, -3.667135925160544, 3.8012219956337763, 0.0329986065973145]",0.002,7,1
0,102,"[0.1675567924976349, -1.4032241863063355, 0.1675055662738245, 0.16757909833874507, 0.16750407218933105, 0.16756726801395416]","[0.022124381735920906, 0.020839985460042953, 0.02244696207344532, 0.021287547424435616, 0.02193307690322399, 0.02172369323670864]","[0.16973048039293528, -1.4010658464019612, 0.16973048039293528, 0.16973048039293528, 0.16973048039293528, 0.16973048039293528]","[0.16973048039293528, -1.4010658464019612, 0.16973048039293528, 0.16973048039293528, 0.16973048039293528, 0.16973048039293528]","[-0.051699834704856326, -20.956367422854914, -12.499094161265308, -3.665984746082851, 3.795216532996539, 0.03273141788988702]",0.002,7,1
0,103,"[0.1679278165102005, -1.402881072168686, 0.1679447332965296, 0.1679484087177734, 0.16801521182060242, 0.1679365634918213]","[0.021853189915418625, 0.02318146824836731, 0.023109998553991318, 0.021800344809889793, 0.021044984459877014, 0.02302611991763115]","[0.17049685422397173, -1.4002994725709248, 0.17049685422397173, 0.17049685422397173, 0.17049685422397173, 0.17049685422397173]","[0.17049685422397173, -1.4002994725709248, 0.17049685422397173, 0.17049685422397173, 0.17049685422397173, 0.17049685422397173]","[-0.005607017947724366, -20.69257053549369, -12.341264019937315, -3.653751765382141, 3.799938920296041, 0.041576384480644345]",0.002,7,1
0,104,"[0.16855619847774506, -1.4023088079741974, 0.16853171983827764, 0.16855685293164058, 0.16857056319713593, 0.16853190958499908]","[0.023483997210860252, 0.022345861420035362, 0.022148238494992256, 0.02204497903585434, 0.0233434047549963, 0.023647060617804527]","[0.17126215024213584, -1.3995341765527607, 0.17126215024213584, 0.17126215024213584, 0.17126215024213584, 0.17126215024213584]","[0.17126215024213584, -1.3995341765527607, 0.17126215024213584, 0.17126215024213584, 0.17126215024213584, 0.17126215024213584]","[0.012231166762291867, -20.629501356977197, -12.300717174016343, -3.648413203628307, 3.7988265325845183, 0.04493560734065349]",0.002,7,1
0,105,"[0.16910845041275024, -1.4016981285861512, 0.16908151308168584, 0.1690714794346313, 0.1690748929977417, 0.16906118392944336]","[0.024146365001797676, 0.02401062473654747, 0.024013059213757515, 0.022334318608045578, 0.02298162877559662, 0.02487165667116642]","[0.1720263636095325, -1.398769963185364, 0.1720263636095325, 0.1720263636095325, 0.1720263636095325, 0.1720263636095325]","[0.1720263636095325, -1.398769963185364, 0.1720263636095325, 0.1720263636095325, 0.1720263636095325, 0.1720263636095325]","[0.031135103822538278, -20.566582177551346, -12.25829746743841, -3.642714467703115, 3.7977818297999884, 0.04846897467133944]",0.002,7,1
0,106,"[0.17034614086151123, -1.4005752068809052, 0.17022306123842412, 0.17036835729565425, 0.1702980101108551, 0.1702696979045868]","[0.024487752467393875, 0.02509687840938568, 0.025324098765850067, 0.02434232458472252, 0.0260669756680727, 0.026483234018087387]","[0.1727894894951107, -1.3980068372997858, 0.1727894894951107, 0.1727894894951107, 0.1727894894951107, 0.1727894894951107]","[0.1727894894951107, -1.3980068372997858, 0.1727894894951107, 0.1727894894951107, 0.1727894894951107, 0.1727894894951107]","[-0.02905436359960008, -21.07538090910344, -12.543394204079268, -3.656444390473739, 3.7798468661258555, 0.03689021997405312]",0.002,7,1
0,107,"[0.17111755907535553, -1.3996966940215607, 0.17103082338442022, 0.17107169210400386, 0.17109385132789612, 0.17109709978103638]","[0.025590766221284866, 0.025441961362957954, 0.0255721565335989, 0.024193964898586273, 0.026007814332842827, 0.024799462407827377]","[0.17355152307469404, -1.3972448037202025, 0.17355152307469404, 0.17355152307469404, 0.17355152307469404, 0.17355152307469404]","[0.17355152307469404, -1.3972448037202025, 0.17355152307469404, 0.17355152307469404, 0.17355152307469404, 0.17355152307469404]","[-0.033961997144406675, -21.1835501055982, -12.60018215872377, -3.6563927258581805, 3.773394744444293, 0.03594437907498943]",0.002,7,1
0,108,"[0.17218604683876038, -1.398680941467621, 0.17216951051820928, 0.1721634107777099, 0.17214661836624146, 0.17217782139778137]","[0.024560442194342613, 0.024737881496548653, 0.02451792173087597, 0.024430405348539352, 0.024602459743618965, 0.025587301701307297]","[0.17431245953101113, -1.3964838672638855, 0.17431245953101113, 0.17431245953101113, 0.17431245953101113, 0.17431245953101113]","[0.17431245953101113, -1.3964838672638855, 0.17431245953101113, 0.17431245953101113, 0.17431245953101113, 0.17431245953101113]","[-0.06712360181954537, -21.50447158687666, -12.7769160254845, -3.6630836310561836, 3.760625597573479, 0.02968877204166398]",0.002,7,1
