Arnibjarnst/BoxLift/logs/ur_rtde/trajectory_dur=10.0_delay=2.5_ampl=20.0_sim.csv
arm_idx,step,actual_q,expected_q,loop_time,robot_mode,safety_mode
0,-1,"[0.2061916437868487, -1.365142409721546, 0.20764190131060375, 0.2046823026480216, 0.20630447563379412, 0.20728895887915172]","[0.0, -1.5707963267948966, 0.0, 0.0, 0.0, 0.0]",0.002,7,1
0,-1,"[0.20571499630677367, -1.3656178141537545, 0.20716190131060377, 0.2042091442698189, 0.2058275673234811, 0.20680977476634033]","[0.0, -1.5707963267948966, 0.0, 0.0, 0.0, 0.0]",0.002,7,1
0,-1,"[0.20508939648917518, -1.366241782471028, 0.20653190131060375, 0.20358812389842787, 0.20520162516619525, 0.20618084561827538]","[0.0, -1.5707963267948966, 0.0, 0.0, 0.0, 0.0]",0.002,7,1
0,-1,"[0.20426916561721276, -1.3670598742647861, 0.20570590131060376, 0.20277389718927072, 0.20438094544886495, 0.20535624962414575]","[0.0, -1.5707963267948966, 0.0, 0.0, 0.0, 0.0]",0.002,7,1
0,-1,"[0.20325430369088632, -1.3680720895350298, 0.20468390131060377, 0.20176646414234745, 0.20336552817149017, 0.2043359867839515]","[0.0, -1.5707963267948966, 0.0, 0.0, 0.0, 0.0]",0.002,7,1
0,-1,"[0.2018561377493329, -1.3694666092028402, 0.20327590131060375, 0.20037853289961954, 0.20196659712790532, 0.20293038005303807]","[0.0, -1.5707963267948966, 0.0, 0.0, 0.0, 0.0]",0.002,7,1
0,-1,"[0.20064068667514157, -1.3706788905049718, 0.20205190131060377, 0.19917197903520265, 0.20075048093660713, 0.201708460565369]","[0.0, -1.5707963267948966, 0.0, 0.0, 0.0, 0.0]",0.002,7,1
0,-1,"[0.19904193158572323, -1.3722734762046702, 0.20044190131060374, 0.1975849269749811, 0.1991508509790989, 0.2001011971869808]","[0.0, -1.5707963267948966, 0.0, 0.0, 0.0, 0.0]",0.002,7,1
0,-1,"[0.19642037044531058, -1.3748882005818155, 0.19780190131060377, 0.19498255589486624, 0.19652785527237734, 0.1974656845665181]","[0.0, -1.5707963267948966, 0.0, 0.0, 0.0, 0.0]",0.002,7,1
0,-1,"[0.19465677476903295, -1.3766471969809864, 0.19602590131060374, 0.19323186989551625, 0.1947632945242192, 0.19569270334911595]","[0.0, -1.5707963267948966, 0.0, 0.0, 0.0, 0.0]",0.002,7,1
0,-1,"[0.19275018484873283, -1.378548814709819, 0.19410590131060373, 0.19133923638270545, 0.19285566128296716, 0.19377596689787038]","[0.0, -1.5707963267948966, 0.0, 0.0, 0.0, 0.0]",0.002,7,1
0,-1,"[0.1907006006844102, -1.3805930537683144, 0.19204190131060375, 0.18930465535643382, 0.1908049555486212, 0.19171547521278137]","[0.0, -1.5707963267948966, 0.0, 0.0, 0.0, 0.0]",0.002,7,1
0,-1,"[0.18850802227606506, -1.3827799141564725, 0.18983390131060374, 0.1871281268167014, 0.18861117732118135, 0.18951122829384895]","[0.0, -1.5707963267948966, 0.0, 0.0, 0.0, 0.0]",0.002,7,1
0,-1,"[0.18576928529680062, -1.385511508789869, 0.18707590131060373, 0.1844094376352784, 0.18587094165484117, 0.18675791624565347]","[0.0, -1.5707963267948966, 0.0, 0.0, 0.0, 0.0]",0.002,7,1
0,-1,"[0.18411690736587383, -1.387159577488191, 0.18541190131060373, 0.18276915525750903, 0.18421765951242272, 0.18509674465457399]","[0.0, -1.5707963267948966, 0.0, 0.0, 0.0, 0.0]",0.002,7,1
0,-1,"[0.18062149251199028, -1.390645876657718, 0.18189190131060373, 0.17929932715068922, 0.18072033190346062, 0.1815827278272904]","[0.0, -1.5707963267948966, 0.0, 0.0, 0.0, 0.0]",0.002,7,1
0,-1,"[0.1787784555890335, -1.3924841071289231, 0.18003590131060374, 0.17746978142163877, 0.17887628643691697, 0.17972988259108635]","[0.0, -1.5707963267948966, 0.0, 0.0, 0.0, 0.0]",0.002,7,1
0,-1,"[0.1749017227510899, -1.396350729844217, 0.17613190131060372, 0.17362142661225682, 0.17499743217970448, 0.1758325184735537]","[0.0, -1.5707963267948966, 0.0, 0.0, 0.0, 0.0]",0.002,7,1
0,-1,"[0.1728680268361031, -1.398379122088306, 0.17408390131060372, 0.1716026175319253, 0.17296262338903562, 0.17378799959222505]","[0.0, -1.5707963267948966, 0.0, 0.0, 0.0, 0.0]",0.002,7,1
0,-1,"[0.1686099760140995, -1.4026260683493659, 0.1697959013106037, 0.16737573601998115, 0.1687022424835727, 0.16950728818444324]","[0.0, -1.5707963267948966, 0.0, 0.0, 0.0, 0.0]",0.002,7,1
0,-1,"[0.1663856211070827, -1.4048446223663378, 0.16755590131060372, 0.16516766358836854, 0.16647667036877864, 0.16727109565799006]","[0.0, -1.5707963267948966, 0.0, 0.0, 0.0, 0.0]",0.002,7,1
0,-1,"[0.16234007561994585, -1.408879617484705, 0.1634819013106037, 0.16115173185337311, 0.16242891108499696, 0.16320402050050334]","[0.0, -1.5707963267948966, 0.0, 0.0, 0.0, 0.0]",0.002,7,1
0,-1,"[0.15809989907844507, -1.4131087360795576, 0.1592119013106037, 0.1569425937806116, 0.15818641424117078, 0.15894127849695197]","[0.0, -1.5707963267948966, 0.0, 0.0, 0.0, 0.0]",0.002,7,1
0,-1,"[0.15301565929097807, -1.418179716689779, 0.15409190131060369, 0.1518955710797828, 0.15309939226449865, 0.15382998129363043]","[0.0, -1.5707963267948966, 0.0, 0.0, 0.0, 0.0]",0.002,7,1
0,-1,"[0.14835841620441162, -1.422824814162814, 0.14940190131060366, 0.1472724194260939, 0.14843960064914857, 0.1491479531913691]","[0.0, -1.5707963267948966, 0.0, 0.0, 0.0, 0.0]",0.002,7,1
0,-1,"[0.14421158312775884, -1.4269608327230259, 0.14522590131060364, 0.1431559415357304, 0.14429049834942537, 0.14497905140990994]","[0.0, -1.5707963267948966, 0.0, 0.0, 0.0, 0.0]",0.002,7,1
0,-1,"[0.13992175580708358, -1.4312394726128996, 0.14090590131060365, 0.1388975161319061, 0.13999832355660827, 0.14066639439460737]","[0.0, -1.5707963267948966, 0.0, 0.0, 0.0, 0.0]",0.002,7,1
0,-1,"[0.13623766799233697, -1.4349139527035089, 0.13719590131060364, 0.1352403961670477, 0.1363122197414806, 0.1369627005226693]","[0.0, -1.5707963267948966, 0.0, 0.0, 0.0, 0.0]",0.002,7,1
0,-1,"[0.13013658024737657, -1.4409991294357747, 0.13105190131060362, 0.12918396892605316, 0.13020779336947405, 0.13082914387868344]","[0.0, -1.5707963267948966, 0.0, 0.0, 0.0, 0.0]",0.002,7,1
0,-1,"[0.1229689937657483, -1.448148023585106, 0.12383390131060362, 0.12206884981383004, 0.12303628465314212, 0.12362341278228207]","[0.0, -1.5707963267948966, 0.0, 0.0, 0.0, 0.0]",0.002,7,1
0,-1,"[0.11717354639678992, -1.453928357020203, 0.11799769142093394, 0.11631582563414948, 0.11723766590915366, 0.11779712307777697]","[0.0, -1.5707963267948966, 0.0, 0.0, 0.0, 0.0]",0.002,7,1
0,-1,"[0.11122129595178946, -1.459865084604961, 0.11200357557424892, 0.11040714619086492, 0.11128215828360574, 0.1118131958192718]","[0.0, -1.5707963267948966, 0.0, 0.0, 0.0, 0.0]",0.002,7,1
0,-1,"[0.10431274337109911, -1.4667556203872687, 0.10504643140092952, 0.10354916482842706, 0.1043698252163104, 0.104867877155953]","[0.0, -1.5707963267948966, 0.0, 0.0, 0.0, 0.0]",0.002,7,1
0,-1,"[0.09825148899982016, -1.4728010676272163, 0.0989425449443056, 0.09753227937728207, 0.0983052540155375, 0.09877436587174712]","[0.0, -1.5707963267948966, 0.0, 0.0, 0.0, 0.0]",0.002,7,1
0,-1,"[0.09139710330841111, -1.4796375777819488, 0.09203994864534176, 0.09072806839768688, 0.09144711747863814, 0.09188350236421754]","[0.0, -1.5707963267948966, 0.0, 0.0, 0.0, 0.0]",0.002,7,1
0,-1,"[0.08553962964105438, -1.485479775757204, 0.08614127619271776, 0.08491347195761914, 0.08558643849432393, 0.08599485626843494]","[0.0, -1.5707963267948966, 0.0, 0.0, 0.0, 0.0]",0.002,7,1
0,-1,"[0.07986879407296485, -1.4911358223662603, 0.08043055456621404, 0.07928414740936165, 0.07991249974106587, 0.08029384152654112]","[0.0, -1.5707963267948966, 0.0, 0.0, 0.0, 0.0]",0.002,7,1
0,-1,"[0.07362616287804288, -1.4973621734176508, 0.07414401556449549, 0.07308721282902589, 0.07366645246392745, 0.07401798816363958]","[0.0, -1.5707963267948966, 0.0, 0.0, 0.0, 0.0]",0.002,7,1
0,-1,"[0.068372393855019, -1.5026022411485247, 0.06885329393799178, 0.06787190186169581, 0.0684098084821933, 0.06873625952045576]","[0.0, -1.5707963267948966, 0.0, 0.0, 0.0, 0.0]",0.002,7,1
0,-1,"[0.064738863565735, -1.5062262955625263, 0.06519420706191767, 0.06426496933672496, 0.06477428985853284, 0.06508339223209869]","[0.0, -1.5707963267948966, 0.0, 0.0, 0.0, 0.0]",0.002,7,1
0,-1,"[0.059131762344246386, -1.5118187740376383, 0.05954766806019912, 0.05869891259399279, 0.05916412032847845, 0.05944645101961238]","[0.0, -1.5707963267948966, 0.0, 0.0, 0.0, 0.0]",0.002,7,1
0,-1,"[0.05443408204797673, -1.5165042032642697, 0.05481694643369542, 0.05403561973456583, 0.054463869375442814, 0.054723770508041836]","[0.0, -1.5707963267948966, 0.0, 0.0, 0.0, 0.0]",0.002,7,1
0,-1,"[0.04930362830656318, -1.5216212773071742, 0.04965040743197688, 0.048942721370036385, 0.04933060815570142, 0.049566013408366916]","[0.0, -1.5707963267948966, 0.0, 0.0, 0.0, 0.0]",0.002,7,1
0,-1,"[0.04502301455535915, -1.5258907276556233, 0.04533968580547315, 0.04469344209153678, 0.04504765197418967, 0.04526261899550632]","[0.0, -1.5707963267948966, 0.0, 0.0, 0.0, 0.0]",0.002,7,1
0,-1,"[0.040937031858519074, -1.5299660545275877, 0.041224964178969425, 0.040637369150803265, 0.04095943335272237, 0.0411548914287104]","[0.0, -1.5707963267948966, 0.0, 0.0, 0.0, 0.0]",0.002,7,1
0,-1,"[0.03650566108788225, -1.5343858687365861, 0.036762425177250896, 0.0362384364076378, 0.03652563765477343, 0.036699937694492174]","[0.0, -1.5707963267948966, 0.0, 0.0, 0.0, 0.0]",0.002,7,1
0,-1,"[0.03283674493610786, -1.5380452167303682, 0.033067703550747174, 0.032596377047831665, 0.032854713804830016, 0.03301149622640623]","[0.0, -1.5707963267948966, 0.0, 0.0, 0.0, 0.0]",0.002,7,1
0,-1,"[0.02888202164554604, -1.5419896265071582, 0.029085164549028625, 0.028670602682868834, 0.028897826417194045, 0.029035726604999396]","[0.0, -1.5707963267948966, 0.0, 0.0, 0.0, 0.0]",0.002,7,1
0,-1,"[0.02429610314240005, -1.5465635854039892, 0.024466990796880445, 0.024118253510317378, 0.024309398415383876, 0.0244254026628494]","[0.0, -1.5707963267948966, 0.0, 0.0, 0.0, 0.0]",0.002,7,1
0,-1,"[0.02050838781912212, -1.5503414227531893, 0.020652634419947108, 0.020358264599490472, 0.020519610384852754, 0.02061752979529255]","[0.0, -1.5707963267948966, 0.0, 0.0, 0.0, 0.0]",0.002,7,1
0,-1,"[0.017784822502829867, -1.5530578852897587, 0.017909912793443394, 0.017654636023119702, 0.01779455468369684, 0.017879470150949206]","[0.0, -1.5707963267948966, 0.0, 0.0, 0.0, 0.0]",0.002,7,1
0,-1,"[0.016315884836295674, -1.554522992117132, 0.01643064329258412, 0.016196451110721183, 0.016324813187546056, 0.016402715060577944]","[0.0, -1.5707963267948966, 0.0, 0.0, 0.0, 0.0]",0.002,7,1
0,-1,"[0.013898168319718185, -1.556934403476367, 0.01399592166608038, 0.013796432493697136, 0.013905773652174297, 0.01397213188862187]","[0.0, -1.5707963267948966, 0.0, 0.0, 0.0, 0.0]",0.002,7,1
0,-1,"[0.011675082857504737, -1.5591516913591175, 0.011757200039576698, 0.011589620214439239, 0.011681471676847077, 0.011737215562730524]","[0.0, -1.5707963267948966, 0.0, 0.0, 0.0, 0.0]",0.002,7,1
0,-1,"[0.010206326540228156, -1.560616617310174, 0.010278113163502606, 0.01013161532380566, 0.01021191162919155, 0.010260642786725227]","[0.0, -1.5707963267948966, 0.0, 0.0, 0.0, 0.0]",0.002,7,1
0,-1,"[0.00831689431406718, -1.562501122090378, 0.008375391536998872, 0.008256013909289595, 0.008321445471083377, 0.008361155339801807]","[0.0, -1.5707963267948966, 0.0, 0.0, 0.0, 0.0]",0.002,7,1
0,-1,"[0.007086461736828115, -1.5637283458253304, 0.007136304660924797, 0.007034588207757375, 0.007090339578584404, 0.007124174620202234]","[0.0, -1.5707963267948966, 0.0, 0.0, 0.0, 0.0]",0.002,7,1
0,-1,"[0.004923501257396878, -1.5658856655251023, 0.004958130908776642, 0.004887460791069637, 0.004926195487532037, 0.0049497032515101735]","[0.0, -1.5707963267948966, 0.0, 0.0, 0.0, 0.0]",0.002,7,1
0,-1,"[0.00399097335520468, -1.5668157614899236, 0.0040190440327025345, 0.00396175907591409, 0.003993157288978644, 0.004012212602417686]","[0.0, -1.5707963267948966, 0.0, 0.0, 0.0, 0.0]",0.002,7,1
0,-1,"[0.002852260910161941, -1.5679515042894003, 0.002872322406198863, 0.0028313821070673484, 0.002853821719613542, 0.0028674401331722776]","[0.0, -1.5707963267948966, 0.0, 0.0, 0.0, 0.0]",0.002,7,1
0,-1,"[0.0017891989987219303, -1.569011793844128, 0.001801783404480256, 0.0017761019032008496, 0.0017901780812097923, 0.001798720796154507]","[0.0, -1.5707963267948966, 0.0, 0.0, 0.0, 0.0]",0.002,7,1
0,-1,"[0.0010675530987448445, -1.5697315577654223, 0.001075061777976588, 0.0010597385152814887, 0.0010681372833685754, 0.001073234425619074]","[0.0, -1.5707963267948966, 0.0, 0.0, 0.0, 0.0]",0.002,7,1
0,-1,"[0.0005405382531316338, -1.570257198210232, 0.0005443401514728385, 0.0005365814651281109, 0.0005408340455717309, 0.0005434149011481759]","[0.0, -1.5707963267948966, 0.0, 0.0, 0.0, 0.0]",0.002,7,1
0,-1,"[0.00017601326039801135, -1.5706207725590753, 0.00017725125700390754, 0.0001747248277049196, 0.00017610957808039673, 0.0001769499715252587]","[0.0, -1.5707963267948966, 0.0, 0.0, 0.0, 0.0]",0.002,7,1
0,-1,"[3.782031521221141e-05, -1.5707586051111972, 3.808632597618322e-05, 3.754346714704426e-05, 3.7841011181927175e-05, 3.802158817320378e-05]","[0.0, -1.5707963267948966, 0.0, 0.0, 0.0, 0.0]",0.002,7,1
0,-1,"[1.3643678863639597e-06, -1.570794965985142, 1.3739642247823092e-06, 1.354380592288873e-06, 1.3651144934734294e-06, 1.3716288085052764e-06]","[0.0, -1.5707963267948966, 0.0, 0.0, 0.0, 0.0]",0.002,7,1
0,-1,"[0.0, -1.5707963267948966, 0.0, 0.0, 0.0, 0.0]","[0.0, -1.5707963267948966, 0.0, 0.0, 0.0, 0.0]",0.002,7,1
0,-1,"[0.0, -1.5707963267948966, 0.0, 0.0, 0.0, 0.0]","[0.0, -1.5707963267948966, 0.0, 0.0, 0.0, 0.0]",0.002,7,1
0,-1,"[0.0, -1.5707963267948966, 0.0, 0.0, 0.0, 0.0]","[0.0, -1.5707963267948966, 0.0, 0.0, 0.0, 0.0]",0.002,7,1
0,-1,"[0.0, -1.5707963267948966, 0.0, 0.0, 0.0, 0.0]","[0.0, -1.5707963267948966, 0.0, 0.0, 0.0, 0.0]",0.002,7,1
0,-1,"[0.0, -1.5707963267948966, 0.0, 0.0, 0.0, 0.0]","[0.0, -1.5707963267948966, 0.0, 0.0, 0.0, 0.0]",0.002,7,1
0,-1,"[0.0, -1.5707963267948966, 0.0, 0.0, 0.0, 0.0]","[0.0, -1.5707963267948966, 0.0, 0.0, 0.0, 0.0]",0.002,7,1
0,-1,"[0.0, -1.5707963267948966, 0.0, 0.0, 0.0, 0.0]","[0.0, -1.5707963267948966, 0.0, 0.0, 0.0, 0.0]",0.002,7,1
0,-1,"[0.0, -1.5707963267948966, 0.0, 0.0, 0.0, 0.0]","[0.0, -1.5707963267948966, 0.0, 0.0, 0.0, 0.0]",0.002,7,1
0,-1,"[0.0, -1.5707963267948966, 0.0, 0.0, 0.0, 0.0]","[0.0, -1.5707963267948966, 0.0, 0.0, 0.0, 0.0]",0.002,7,1
0,-1,"[0.0, -1.5707963267948966, 0.0, 0.0, 0.0, 0.0]","[0.0, -1.5707963267948966, 0.0, 0.0, 0.0, 0.0]",0.002,7,1
0,-1,"[0.0, -1.5707963267948966, 0.0, 0.0, 0.0, 0.0]","[0.0, -1.5707963267948966, 0.0, 0.0, 0.0, 0.0]",0.002,7,1
0,-1,"[0.0, -1.5707963267948966, 0.0, 0.0, 0.0, 0.0]","[0.0, -1.5707963267948966, 0.0, 0.0, 0.0, 0.0]",0.002,7,1
0,-1,"[0.0, -1.5707963267948966, 0.0, 0.0, 0.0, 0.0]","[0.0, -1.5707963267948966, 0.0, 0.0, 0.0, 0.0]",0.002,7,1
0,-1,"[0.0, -1.5707963267948966, 0.0, 0.0, 0.0, 0.0]","[0.0, -1.5707963267948966, 0.0, 0.0, 0.0, 0.0]",0.002,7,1
0,-1,"[0.0, -1.5707963267948966, 0.0, 0.0, 0.0, 0.0]","[0.0, -1.5707963267948966, 0.0, 0.0, 0.0, 0.0]",0.002,7,1
0,-1,"[0.0, -1.5707963267948966, 0.0, 0.0, 0.0, 0.0]","[0.0, -1.5707963267948966, 0.0, 0.0, 0.0, 0.0]",0.002,7,1
0,-1,"[0.0, -1.5707963267948966, 0.0, 0.0, 0.0, 0.0]","[0.0, -1.5707963267948966, 0.0, 0.0, 0.0, 0.0]",0.002,7,1
0,-1,"[0.0, -1.5707963267948966, 0.0, 0.0, 0.0, 0.0]","[0.0, -1.5707963267948966, 0.0, 0.0, 0.0, 0.0]",0.002,7,1
0,-1,"[0.0, -1.5707963267948966, 0.0, 0.0, 0.0, 0.0]","[0.0, -1.5707963267948966, 0.0, 0.0, 0.0, 0.0]",0.002,7,1
0,-1,"[0.0, -1.5707963267948966, 0.0, 0.0, 0.0, 0.0]","[0.0, -1.5707963267948966, 0.0, 0.0, 0.0, 0.0]",0.002,7,1
0,-1,"[0.0, -1.5707963267948966, 0.0, 0.0, 0.0, 0.0]","[0.0, -1.5707963267948966, 0.0, 0.0, 0.0, 0.0]",0.002,7,1
0,-1,"[0.0, -1.5707963267948966, 0.0, 0.0, 0.0, 0.0]","[0.0, -1.5707963267948966, 0.0, 0.0, 0.0, 0.0]",0.002,7,1
0,-1,"[0.0, -1.5707963267948966, 0.0, 0.0, 0.0, 0.0]","[0.0, -1.5707963267948966, 0.0, 0.0, 0.0, 0.0]",0.002,7,1
0,-1,"[0.0, -1.5707963267948966, 0.0, 0.0, 0.0, 0.0]","[0.0, -1.5707963267948966, 0.0, 0.0, 0.0, 0.0]",0.002,7,1
0,-1,"[0.0, -1.5707963267948966, 0.0, 0.0, 0.0, 0.0]","[0.0, -1.5707963267948966, 0.0, 0.0, 0.0, 0.0]",0.002,7,1
0,-1,"[0.0, -1.5707963267948966, 0.0, 0.0, 0.0, 0.0]","[0.0, -1.5707963267948966, 0.0, 0.0, 0.0, 0.0]",0.002,7,1
0,-1,"[0.0, -1.5707963267948966, 0.0, 0.0, 0.0, 0.0]","[0.0, -1.5707963267948966, 0.0, 0.0, 0.0, 0.0]",0.002,7,1
0,-1,"[0.0, -1.5707963267948966, 0.0, 0.0, 0.0, 0.0]","[0.0, -1.5707963267948966, 0.0, 0.0, 0.0, 0.0]",0.002,7,1
0,-1,"[0.0, -1.5707963267948966, 0.0, 0.0, 0.0, 0.0]","[0.0, -1.5707963267948966, 0.0, 0.0, 0.0, 0.0]",0.002,7,1
0,-1,"[0.0, -1.5707963267948966, 0.0, 0.0, 0.0, 0.0]","[0.0, -1.5707963267948966, 0.0, 0.0, 0.0, 0.0]",0.002,7,1
0,-1,"[0.0, -1.5707963267948966, 0.0, 0.0, 0.0, 0.0]","[0.0, -1.5707963267948966, 0.0, 0.0, 0.0, 0.0]",0.002,7,1
0,-1,"[0.0, -1.5707963267948966, 0.0, 0.0, 0.0, 0.0]","[0.0, -1.5707963267948966, 0.0, 0.0, 0.0, 0.0]",0.002,7,1
0,-1,"[0.0, -1.5707963267948966, 0.0, 0.0, 0.0, 0.0]","[0.0, -1.5707963267948966, 0.0, 0.0, 0.0, 0.0]",0.002,7,1
0,-1,"[0.0, -1.5707963267948966, 0.0, 0.0, 0.0, 0.0]","[0.0, -1.5707963267948966, 0.0, 0.0, 0.0, 0.0]",0.002,7,1
0,-1,"[0.0, -1.5707963267948966, 0.0, 0.0, 0.0, 0.0]","[0.0, -1.5707963267948966, 0.0, 0.0, 0.0, 0.0]",0.002,7,1
0,-1,"[0.0, -1.5707963267948966, 0.0, 0.0, 0.0, 0.0]","[0.0, -1.5707963267948966, 0.0, 0.0, 0.0, 0.0]",0.002,7,1
0,-1,"[0.0, -1.5707963267948966, 0.0, 0.0, 0.0, 0.0]","[0.0, -1.5707963267948966, 0.0, 0.0, 0.0, 0.0]",0.002,7,1
0,-1,"[0.0, -1.5707963267948966, 0.0, 0.0, 0.0, 0.0]","[0.0, -1.5707963267948966, 0.0, 0.0, 0.0, 0.0]",0.002,7,1
0,1,"[0.0, -1.5707963267948966, 0.0, 0.0, 0.0, 0.0]","[0.34906557467727634, -1.2217307521176202, 0.34906557467727634, 0.34906557467727634, 0.34906557467727634, 0.34906557467727634]",0.002,7,1
0,2,"[0.0, -1.5707963267948966, 0.0, 0.0, 0.0, 0.0]","[0.3490647475129431, -1.2217315792819534, 0.3490647475129431, 0.3490647475129431, 0.3490647475129431, 0.3490647475129431]",0.002,7,1
0,3,"[0.0002768906257205523, -1.5705194361691763, 0.0002768906257205523, 0.0002768906257205523, 0.0002768906257205523, 0.0002768906257205523]","[0.349063368907173, -1.2217329578877236, 0.349063368907173, 0.349063368907173, 0.349063368907173, 0.349063368907173]",0.002,7,1
0,4,"[0.0005356746249044372, -1.5702606521699929, 0.0005356746249044372, 0.0005356746249044372, 0.0005356746249044372, 0.0005356746249044372]","[0.3490614388621439, -1.2217348879327528, 0.3490614388621439, 0.3490614388621439, 0.3490614388621439, 0.3490614388621439]",0.002,7,1
0,5,"[0.0005356746249044372, -1.5702606521699929, 0.0005356746249044372, 0.0005356746249044372, 0.0005356746249044372, 0.0005356746249044372]","[0.34905895738090487, -1.2217373694139917, 0.34905895738090487, 0.34905895738090487, 0.34905895738090487, 0.34905895738090487]",0.002,7,1
0,6,"[0.0008868419232116804, -1.569909484871686, 0.0008868419232116804, 0.0008868419232116804, 0.0008868419232116804, 0.0008868419232116804]","[0.349055924467376, -1.2217404023275207, 0.349055924467376, 0.349055924467376, 0.349055924467376, 0.349055924467376]",0.002,7,1
0,7,"[0.001331091557890384, -1.5694652352370069, 0.001331091557890384, 0.001331091557890384, 0.001331091557890384, 0.001331091557890384]","[0.34905234012634856, -1.221743986668548, 0.34905234012634856, 0.34905234012634856, 0.34905234012634856, 0.34905234012634856]",0.002,7,1
0,8,"[0.0018692557608852908, -1.568927071034012, 0.0018692557608852908, 0.0018692557608852908, 0.0018692557608852908, 0.0018692557608852908]","[0.3490482043634851, -1.2217481224314115, 0.3490482043634851, 0.3490482043634851, 0.3490482043634851, 0.3490482043634851]",0.002,7,1
0,9,"[0.002502273255812234, -1.568294053539085, 0.002502273255812234, 0.002502273255812234, 0.002502273255812234, 0.002502273255812234]","[0.3490435171853191, -1.2217528096095776, 0.3490435171853191, 0.3490435171853191, 0.3490435171853191, 0.3490435171853191]",0.002,7,1
0,10,"[0.003231234538299512, -1.567565092256598, 0.003231234538299512, 0.003231234538299512, 0.003231234538299512, 0.003231234538299512]","[0.34903827859925524, -1.2217580481956414, 0.34903827859925524, 0.34903827859925524, 0.34903827859925524, 0.34903827859925524]",0.002,7,1
0,11,"[0.004057410955848532, -1.566738915839049, 0.004057410955848532, 0.004057410955848532, 0.004057410955848532, 0.004057410955848532]","[0.34903248861356917, -1.2217638381813274, 0.34903248861356917, 0.34903248861356917, 0.34903248861356917, 0.34903248861356917]",0.002,7,1
0,12,"[0.004982230523356955, -1.5658140962715406, 0.004982230523356955, 0.004982230523356955, 0.004982230523356955, 0.004982230523356955]","[0.3490261472374078, -1.2217701795574887, 0.3490261472374078, 0.3490261472374078, 0.3490261472374078, 0.3490261472374078]",0.002,7,1
0,13,"[0.006005796225425243, -1.5647905305694723, 0.006005796225425243, 0.006005796225425243, 0.006005796225425243, 0.006005796225425243]","[0.34901925448078913, -1.2217770723141075, 0.34901925448078913, 0.34901925448078913, 0.34901925448078913, 0.34901925448078913]",0.002,7,1
0,14,"[0.00712840273346377, -1.5636679240614333, 0.00712840273346377, 0.00712840273346377, 0.00712840273346377, 0.00712840273346377]","[0.349011810354602, -1.2217845164402945, 0.349011810354602, 0.349011810354602, 0.349011810354602, 0.349011810354602]",0.002,7,1
0,15,"[0.008350478946146104, -1.5624458478487515, 0.008350478946146104, 0.008350478946146104, 0.008350478946146104, 0.008350478946146104]","[0.3490038148706064, -1.2217925119242903, 0.3490038148706064, 0.3490038148706064, 0.3490038148706064, 0.3490038148706064]",0.002,7,1
0,16,"[0.009672516958600951, -1.561123809836296, 0.009672516958600951, 0.009672516958600951, 0.009672516958600951, 0.009672516958600951]","[0.34899526804143344, -1.2218010587534631, 0.34899526804143344, 0.34899526804143344, 0.34899526804143344, 0.34899526804143344]",0.002,7,1
0,17,"[0.011085543464929966, -1.559710783329967, 0.011085543464929966, 0.011085543464929966, 0.011085543464929966, 0.011085543464929966]","[0.348986169880585, -1.2218101569143116, 0.348986169880585, 0.348986169880585, 0.348986169880585, 0.348986169880585]",0.002,7,1
0,18,"[0.012579056134611575, -1.5582172706602853, 0.012579056134611575, 0.012579056134611575, 0.012579056134611575, 0.012579056134611575]","[0.3489765204024342, -1.2218198063924623, 0.3489765204024342, 0.3489765204024342, 0.3489765204024342, 0.3489765204024342]",0.002,7,1
0,19,"[0.014154789359875335, -1.5566415374350209, 0.014154789359875335, 0.014154789359875335, 0.014154789359875335, 0.014154789359875335]","[0.3489663196222249, -1.2218300071726715, 0.3489663196222249, 0.3489663196222249, 0.3489663196222249, 0.3489663196222249]",0.002,7,1
0,20,"[0.015813832678840928, -1.5549824941160555, 0.015813832678840928, 0.015813832678840928, 0.015813832678840928, 0.015813832678840928]","[0.34895556755607193, -1.2218407592388245, 0.34895556755607193, 0.34895556755607193, 0.34895556755607193, 0.34895556755607193]",0.002,7,1
0,21,"[0.017557174448575866, -1.553239152346321, 0.017557174448575866, 0.017557174448575866, 0.017557174448575866, 0.017557174448575866]","[0.34894426422096114, -1.2218520625739355, 0.34894426422096114, 0.34894426422096114, 0.34894426422096114, 0.34894426422096114]",0.002,7,1
0,22,"[0.017557174448575866, -1.553239152346321, 0.017557174448575866, 0.017557174448575866, 0.017557174448575866, 0.017557174448575866]","[0.3489324096347492, -1.2218639171601473, 0.3489324096347492, 0.3489324096347492, 0.3489324096347492, 0.3489324096347492]",0.002,7,1
0,23,"[0.019385447854469235, -1.5514108789404277, 0.019385447854469235, 0.019385447854469235, 0.019385447854469235, 0.019385447854469235]","[0.34892000381616356, -1.221876322978733, 0.34892000381616356, 0.34892000381616356, 0.34892000381616356, 0.34892000381616356]",0.002,7,1
0,24,"[0.02129899572891723, -1.5494973310659796, 0.02129899572891723, 0.02129899572891723, 0.02129899572891723, 0.02129899572891723]","[0.3489070467848025, -1.221889280010094, 0.3489070467848025, 0.3489070467848025, 0.3489070467848025, 0.3489070467848025]",0.002,7,1
0,25,"[0.023298025189315768, -1.5474983016055814, 0.023298025189315768, 0.023298025189315768, 0.023298025189315768, 0.023298025189315768]","[0.3488935385611352, -1.2219027882337614, 0.3488935385611352, 0.3488935385611352, 0.3488935385611352, 0.3488935385611352]",0.002,7,1
0,26,"[0.02538274506957062, -1.5454135817253265, 0.02538274506957062, 0.02538274506957062, 0.02538274506957062, 0.02538274506957062]","[0.3488794791665015, -1.221916847628395, 0.3488794791665015, 0.3488794791665015, 0.3488794791665015, 0.3488794791665015]",0.002,7,1
0,27,"[0.027553455794082755, -1.543242871000814, 0.027553455794082755, 0.027553455794082755, 0.027553455794082755, 0.027553455794082755]","[0.34886486862311206, -1.2219314581717846, 0.34886486862311206, 0.34886486862311206, 0.34886486862311206, 0.34886486862311206]",0.002,7,1
0,28,"[0.029810594824726564, -1.5409857319701707, 0.029810594824726564, 0.029810594824726564, 0.029810594824726564, 0.029810594824726564]","[0.348849706954048, -1.2219466198408486, 0.348849706954048, 0.348849706954048, 0.348849706954048, 0.348849706954048]",0.002,7,1
0,29,"[0.032154747705033744, -1.5386415790898633, 0.032154747705033744, 0.032154747705033744, 0.032154747705033744, 0.032154747705033744]","[0.3488339941832613, -1.2219623326116353, 0.3488339941832613, 0.3488339941832613, 0.3488339941832613, 0.3488339941832613]",0.002,7,1
0,30,"[0.03458665100590906, -1.5362096757889878, 0.03458665100590906, 0.03458665100590906, 0.03458665100590906, 0.03458665100590906]","[0.3488177303355746, -1.221978596459322, 0.3488177303355746, 0.3488177303355746, 0.3488177303355746, 0.3488177303355746]",0.002,7,1
0,31,"[0.037107172271448774, -1.5336891545234481, 0.037107172271448774, 0.037107172271448774, 0.037107172271448774, 0.037107172271448774]","[0.3488009154366809, -1.2219954113582157, 0.3488009154366809, 0.3488009154366809, 0.3488009154366809, 0.3488009154366809]",0.002,7,1
0,32,"[0.039717292177736355, -1.5310790346171608, 0.039717292177736355, 0.039717292177736355, 0.039717292177736355, 0.039717292177736355]","[0.34878354951314383, -1.2220127772817526, 0.34878354951314383, 0.34878354951314383, 0.34878354951314383, 0.34878354951314383]",0.002,7,1
0,33,"[0.04241676173701051, -1.5283795650578869, 0.04241676173701051, 0.04241676173701051, 0.04241676173701051, 0.04241676173701051]","[0.3487656325923976, -1.222030694202499, 0.3487656325923976, 0.3487656325923976, 0.3487656325923976, 0.3487656325923976]",0.002,7,1
0,34,"[0.04517277569224336, -1.5256235511026537, 0.04517277569224336, 0.04517277569224336, 0.04517277569224336, 0.04517277569224336]","[0.34874716470274686, -1.2220491620921496, 0.34874716470274686, 0.34874716470274686, 0.34874716470274686, 0.34874716470274686]",0.002,7,1
0,35,"[0.0479271011888328, -1.5228692256060636, 0.0479271011888328, 0.0479271011888328, 0.0479271011888328, 0.0479271011888328]","[0.3487281458733664, -1.2220681809215301, 0.3487281458733664, 0.3487281458733664, 0.3487281458733664, 0.3487281458733664]",0.002,7,1
0,36,"[0.05066479201095752, -1.520131534783939, 0.05066479201095752, 0.05066479201095752, 0.05066479201095752, 0.05066479201095752]","[0.34870857613430173, -1.2220877506605947, 0.34870857613430173, 0.34870857613430173, 0.34870857613430173, 0.34870857613430173]",0.002,7,1
0,37,"[0.05338019125656928, -1.517416135538327, 0.05338019125656928, 0.05338019125656928, 0.05338019125656928, 0.05338019125656928]","[0.34868845551646843, -1.2221078712784281, 0.34868845551646843, 0.34868845551646843, 0.34868845551646843, 0.34868845551646843]",0.002,7,1
0,38,"[0.056081068505632305, -1.5147152582892645, 0.056081068505632305, 0.056081068505632305, 0.056081068505632305, 0.056081068505632305]","[0.34866778405165244, -1.2221285427432442, 0.34866778405165244, 0.34866778405165244, 0.34866778405165244, 0.34866778405165244]",0.002,7,1
0,39,"[0.05877718152662943, -1.512019145268268, 0.05877718152662943, 0.05877718152662943, 0.05877718152662943, 0.05877718152662943]","[0.3486465617725099, -1.2221497650223867, 0.3486465617725099, 0.3486465617725099, 0.3486465617725099, 0.3486465617725099]",0.002,7,1
0,40,"[0.06147703064622744, -1.5093192961486706, 0.06147703064622744, 0.06147703064622744, 0.06147703064622744, 0.06147703064622744]","[0.348624788712567, -1.2221715380823295, 0.348624788712567, 0.348624788712567, 0.348624788712567, 0.348624788712567]",0.002,7,1
0,41,"[0.06418604776746337, -1.5066102790274343, 0.06418604776746337, 0.06418604776746337, 0.06418604776746337, 0.06418604776746337]","[0.34860246490622027, -1.2221938618886763, 0.34860246490622027, 0.34860246490622027, 0.34860246490622027, 0.34860246490622027]",0.002,7,1
0,42,"[0.06688692207568765, -1.5039094047192103, 0.06688692207568765, 0.06688692207568765, 0.06688692207568765, 0.06688692207568765]","[0.34857959038873604, -1.2222167364061605, 0.34857959038873604, 0.34857959038873604, 0.34857959038873604, 0.34857959038873604]",0.002,7,1
0,43,"[0.0695671420563061, -1.501229184738592, 0.0695671420563061, 0.0695671420563061, 0.0695671420563061, 0.0695671420563061]","[0.3485561651962508, -1.2222401615986458, 0.3485561651962508, 0.3485561651962508, 0.3485561651962508, 0.3485561651962508]",0.002,7,1
0,44,"[0.07224281138976066, -1.4985535154051366, 0.07224281138976066, 0.07224281138976066, 0.07224281138976066, 0.07224281138976066]","[0.34853218936577096, -1.2222641374291257, 0.34853218936577096, 0.34853218936577096, 0.34853218936577096, 0.34853218936577096]",0.002,7,1
0,45,"[0.0749273181729582, -1.4958690086219395, 0.0749273181729582, 0.0749273181729582, 0.0749273181729582, 0.0749273181729582]","[0.3485076629351727, -1.222288663859724, 0.3485076629351727, 0.3485076629351727, 0.3485076629351727, 0.3485076629351727]",0.002,7,1
0,46,"[0.07761230856396566, -1.4931840182309317, 0.07761230856396566, 0.07761230856396566, 0.07761230856396566, 0.07761230856396566]","[0.34848258594320214, -1.2223137408516944, 0.34848258594320214, 0.34848258594320214, 0.34848258594320214, 0.34848258594320214]",0.002,7,1
0,47,"[0.07761230856396566, -1.4931840182309317, 0.07761230856396566, 0.07761230856396566, 0.07761230856396566, 0.07761230856396566]","[0.34845695842947516, -1.2223393683654213, 0.34845695842947516, 0.34845695842947516, 0.34845695842947516, 0.34845695842947516]",0.002,7,1
0,48,"[0.08027713630059435, -1.490519190494303, 0.08027713630059435, 0.08027713630059435, 0.08027713630059435, 0.08027713630059435]","[0.3484307804344772, -1.2223655463604193, 0.3484307804344772, 0.3484307804344772, 0.3484307804344772, 0.3484307804344772]",0.002,7,1
0,49,"[0.08293944968829549, -1.4878568771066023, 0.08293944968829549, 0.08293944968829549, 0.08293944968829549, 0.08293944968829549]","[0.3484040519995635, -1.222392274795333, 0.3484040519995635, 0.3484040519995635, 0.3484040519995635, 0.3484040519995635]",0.002,7,1
0,50,"[0.08561355560236933, -1.4851827711925285, 0.08561355560236933, 0.08561355560236933, 0.08561355560236933, 0.08561355560236933]","[0.3483767731669588, -1.2224195536279376, 0.3483767731669588, 0.3483767731669588, 0.3483767731669588, 0.3483767731669588]",0.002,7,1
0,51,"[0.08827512595648346, -1.4825212008384145, 0.08827512595648346, 0.08827512595648346, 0.08827512595648346, 0.08827512595648346]","[0.34834894397975724, -1.2224473828151394, 0.34834894397975724, 0.34834894397975724, 0.34834894397975724, 0.34834894397975724]",0.002,7,1
0,52,"[0.09092408679575571, -1.4798722399991426, 0.09092408679575571, 0.09092408679575571, 0.09092408679575571, 0.09092408679575571]","[0.3483205644819226, -1.2224757623129738, 0.3483205644819226, 0.3483205644819226, 0.3483205644819226, 0.3483205644819226]",0.002,7,1
0,53,"[0.09358360037408685, -1.4772127264208113, 0.09358360037408685, 0.09358360037408685, 0.09358360037408685, 0.09358360037408685]","[0.3482916347182879, -1.2225046920766087, 0.3482916347182879, 0.3482916347182879, 0.3482916347182879, 0.3482916347182879]",0.002,7,1
0,54,"[0.09624529597002388, -1.4745510308248742, 0.09624529597002388, 0.09624529597002388, 0.09624529597002388, 0.09624529597002388]","[0.34826215473455535, -1.222534172060341, 0.34826215473455535, 0.34826215473455535, 0.34826215473455535, 0.34826215473455535]",0.002,7,1
0,55,"[0.09889610383870251, -1.4719002229561955, 0.09889610383870251, 0.09889610383870251, 0.09889610383870251, 0.09889610383870251]","[0.34823212457729663, -1.2225642022176, 0.34823212457729663, 0.34823212457729663, 0.34823212457729663, 0.34823212457729663]",0.002,7,1
0,56,"[0.10154378117400321, -1.4692525456208951, 0.10154378117400321, 0.10154378117400321, 0.10154378117400321, 0.10154378117400321]","[0.3482015442939524, -1.2225947825009442, 0.3482015442939524, 0.3482015442939524, 0.3482015442939524, 0.3482015442939524]",0.002,7,1
0,57,"[0.1041933185887919, -1.4666030082061061, 0.1041933185887919, 0.1041933185887919, 0.1041933185887919, 0.1041933185887919]","[0.3481704139328324, -1.2226259128620642, 0.3481704139328324, 0.3481704139328324, 0.3481704139328324, 0.3481704139328324]",0.002,7,1
0,58,"[0.10683242772847935, -1.4639638990664192, 0.10683242772847935, 0.10683242772847935, 0.10683242772847935, 0.10683242772847935]","[0.34813873354311536, -1.2226575932517811, 0.34813873354311536, 0.34813873354311536, 0.34813873354311536, 0.34813873354311536]",0.002,7,1
0,59,"[0.10947126284734625, -1.4613250639475517, 0.10947126284734625, 0.10947126284734625, 0.10947126284734625, 0.10947126284734625]","[0.34810650317484904, -1.2226898236200476, 0.34810650317484904, 0.34810650317484904, 0.34810650317484904, 0.34810650317484904]",0.002,7,1
0,60,"[0.11210931641697552, -1.4586870103779228, 0.11210931641697552, 0.11210931641697552, 0.11210931641697552, 0.11210931641697552]","[0.3480737228789499, -1.2227226039159467, 0.3480737228789499, 0.3480737228789499, 0.3480737228789499, 0.3480737228789499]",0.002,7,1
0,61,"[0.11473698424734272, -1.4560593425475554, 0.11473698424734272, 0.11473698424734272, 0.11473698424734272, 0.11473698424734272]","[0.34804039270720316, -1.2227559340876935, 0.34804039270720316, 0.34804039270720316, 0.34804039270720316, 0.34804039270720316]",0.002,7,1
0,62,"[0.1173676505853194, -1.4534286762095787, 0.1173676505853194, 0.1173676505853194, 0.1173676505853194, 0.1173676505853194]","[0.34800651271226285, -1.2227898140826337, 0.34800651271226285, 0.34800651271226285, 0.34800651271226285, 0.34800651271226285]",0.002,7,1
0,63,"[0.11999216249284485, -1.4508041643020535, 0.11999216249284485, 0.11999216249284485, 0.11999216249284485, 0.11999216249284485]","[0.34797208294765153, -1.222824243847245, 0.34797208294765153, 0.34797208294765153, 0.34797208294765153, 0.34797208294765153]",0.002,7,1
0,64,"[0.12261153720403035, -1.4481847895908677, 0.12261153720403035, 0.12261153720403035, 0.12261153720403035, 0.12261153720403035]","[0.3479371034677602, -1.2228592233271365, 0.3479371034677602, 0.3479371034677602, 0.3479371034677602, 0.3479371034677602]",0.002,7,1
0,65,"[0.12523145166862787, -1.4455648751262702, 0.12523145166862787, 0.12523145166862787, 0.12523145166862787, 0.12523145166862787]","[0.34790157432784835, -1.2228947524670482, 0.34790157432784835, 0.34790157432784835, 0.34790157432784835, 0.34790157432784835]",0.002,7,1
0,66,"[0.12784242197957352, -1.442953904815325, 0.12784242197957352, 0.12784242197957352, 0.12784242197957352, 0.12784242197957352]","[0.34786549558404384, -1.2229308312108527, 0.34786549558404384, 0.34786549558404384, 0.34786549558404384, 0.34786549558404384]",0.002,7,1
0,67,"[0.13045533499670875, -1.4403409917981902, 0.13045533499670875, 0.13045533499670875, 0.13045533499670875, 0.13045533499670875]","[0.3478288672933426, -1.2229674595015538, 0.3478288672933426, 0.3478288672933426, 0.3478288672933426, 0.3478288672933426]",0.002,7,1
0,68,"[0.1330618044903165, -1.4377345223045825, 0.1330618044903165, 0.1330618044903165, 0.1330618044903165, 0.1330618044903165]","[0.34779168951360895, -1.2230046372812877, 0.34779168951360895, 0.34779168951360895, 0.34779168951360895, 0.34779168951360895]",0.002,7,1
0,69,"[0.13566642126449222, -1.435129905530406, 0.13566642126449222, 0.13566642126449222, 0.13566642126449222, 0.13566642126449222]","[0.34775396230357514, -1.2230423644913215, 0.34775396230357514, 0.34775396230357514, 0.34775396230357514, 0.34775396230357514]",0.002,7,1
0,70,"[0.13826903177784833, -1.4325272950170502, 0.13826903177784833, 0.13826903177784833, 0.13826903177784833, 0.13826903177784833]","[0.34771568572284145, -1.2230806410720552, 0.34771568572284145, 0.34771568572284145, 0.34771568572284145, 0.34771568572284145]",0.002,7,1
0,71,"[0.1408644159855693, -1.4299319108093291, 0.1408644159855693, 0.1408644159855693, 0.1408644159855693, 0.1408644159855693]","[0.34767685983187596, -1.2231194669630205, 0.34767685983187596, 0.34767685983187596, 0.34767685983187596, 0.34767685983187596]",0.002,7,1
0,72,"[0.14346026219357594, -1.427336064601323, 0.14346026219357594, 0.14346026219357594, 0.14346026219357594, 0.14346026219357594]","[0.3476374846920146, -1.2231588421028818, 0.3476374846920146, 0.3476374846920146, 0.3476374846920146, 0.3476374846920146]",0.002,7,1
0,73,"[0.14604858959477915, -1.4247477372001196, 0.14604858959477915, 0.14604858959477915, 0.14604858959477915, 0.14604858959477915]","[0.34759756036546097, -1.2231987664294355, 0.34759756036546097, 0.34759756036546097, 0.34759756036546097, 0.34759756036546097]",0.002,7,1
0,74,"[0.14863774401670454, -1.4221585827781942, 0.14863774401670454, 0.14863774401670454, 0.14863774401670454, 0.14863774401670454]","[0.3475570869152863, -1.2232392398796104, 0.3475570869152863, 0.3475570869152863, 0.3475570869152863, 0.3475570869152863]",0.002,7,1
0,75,"[0.15122030934839115, -1.4195760174465075, 0.15122030934839115, 0.15122030934839115, 0.15122030934839115, 0.15122030934839115]","[0.3475160644054292, -1.2232802623894674, 0.3475160644054292, 0.3475160644054292, 0.3475160644054292, 0.3475160644054292]",0.002,7,1
0,76,"[0.1538028336258675, -1.4169934931690316, 0.1538028336258675, 0.1538028336258675, 0.1538028336258675, 0.1538028336258675]","[0.34747449290069576, -1.2233218338942007, 0.34747449290069576, 0.34747449290069576, 0.34747449290069576, 0.34747449290069576]",0.002,7,1
0,77,"[0.15638029539075113, -1.4144160314041478, 0.15638029539075113, 0.15638029539075113, 0.15638029539075113, 0.15638029539075113]","[0.34743237246675934, -1.2233639543281372, 0.34743237246675934, 0.34743237246675934, 0.34743237246675934, 0.34743237246675934]",0.002,7,1
0,78,"[0.15895624171656503, -1.4118400850783344, 0.15895624171656503, 0.15895624171656503, 0.15895624171656503, 0.15895624171656503]","[0.3473897031701605, -1.223406623624736, 0.3473897031701605, 0.3473897031701605, 0.3473897031701605, 0.3473897031701605]",0.002,7,1
0,79,"[0.16152881769781594, -1.4092675090970834, 0.16152881769781594, 0.16152881769781594, 0.16152881769781594, 0.16152881769781594]","[0.34734648507830673, -1.2234498417165898, 0.34734648507830673, 0.34734648507830673, 0.34734648507830673, 0.34734648507830673]",0.002,7,1
0,80,"[0.16409704444512516, -1.4066992823497735, 0.16409704444512516, 0.16409704444512516, 0.16409704444512516, 0.16409704444512516]","[0.3473027182594727, -1.2234936085354238, 0.3473027182594727, 0.3473027182594727, 0.3473027182594727, 0.3473027182594727]",0.002,7,1
0,81,"[0.16409704444512516, -1.4066992823497735, 0.16409704444512516, 0.16409704444512516, 0.16409704444512516, 0.16409704444512516]","[0.3472584027827998, -1.2235379240120967, 0.3472584027827998, 0.3472584027827998, 0.3472584027827998, 0.3472584027827998]",0.002,7,1
0,82,"[0.16666321021889557, -1.404133116576003, 0.16666321021889557, 0.16666321021889557, 0.16666321021889557, 0.16666321021889557]","[0.34721353871829624, -1.2235827880766004, 0.34721353871829624, 0.34721353871829624, 0.34721353871829624, 0.34721353871829624]",0.002,7,1
0,83,"[0.16922429185585194, -1.4015720349390461, 0.16922429185585194, 0.16922429185585194, 0.16922429185585194, 0.16922429185585194]","[0.34716812613683684, -1.2236282006580597, 0.34716812613683684, 0.34716812613683684, 0.34716812613683684, 0.34716812613683684]",0.002,7,1
0,84,"[0.17178398911813683, -1.3990123376767611, 0.17178398911813683, 0.17178398911813683, 0.17178398911813683, 0.17178398911813683]","[0.34712216511016303, -1.2236741616847335, 0.34712216511016303, 0.34712216511016303, 0.34712216511016303, 0.34712216511016303]",0.002,7,1
0,85,"[0.17433834612279916, -1.396457980672098, 0.17433834612279916, 0.17433834612279916, 0.17433834612279916, 0.17433834612279916]","[0.3470756557108824, -1.2237206710840143, 0.3470756557108824, 0.3470756557108824, 0.3470756557108824, 0.3470756557108824]",0.002,7,1
0,86,"[0.17689161066752399, -1.3939047161273734, 0.17689161066752399, 0.17689161066752399, 0.17689161066752399, 0.17689161066752399]","[0.34702859801246927, -1.2237677287824273, 0.34702859801246927, 0.34702859801246927, 0.34702859801246927, 0.34702859801246927]",0.002,7,1
0,87,"[0.17943950234307732, -1.3913568244518206, 0.17943950234307732, 0.17943950234307732, 0.17943950234307732, 0.17943950234307732]","[0.3469809920892637, -1.2238153347056329, 0.3469809920892637, 0.3469809920892637, 0.3469809920892637, 0.3469809920892637]",0.002,7,1
0,88,"[0.18198636868008838, -1.38880995811481, 0.18198636868008838, 0.18198636868008838, 0.18198636868008838, 0.18198636868008838]","[0.34693283801647207, -1.2238634887784245, 0.34693283801647207, 0.34693283801647207, 0.34693283801647207, 0.34693283801647207]",0.002,7,1
0,89,"[0.18452795087233478, -1.3862683759225636, 0.18452795087233478, 0.18452795087233478, 0.18452795087233478, 0.18452795087233478]","[0.34688413587016675, -1.2239121909247297, 0.34688413587016675, 0.34688413587016675, 0.34688413587016675, 0.34688413587016675]",0.002,7,1
0,90,"[0.1870684511458224, -1.3837278756490763, 0.1870684511458224, 0.1870684511458224, 0.1870684511458224, 0.1870684511458224]","[0.34683488572728577, -1.2239614410676107, 0.34683488572728577, 0.34683488572728577, 0.34683488572728577, 0.34683488572728577]",0.002,7,1
0,91,"[0.1896038208121032, -1.3811925059827947, 0.1896038208121032, 0.1896038208121032, 0.1896038208121032, 0.1896038208121032]","[0.346785087665633, -1.2240112391292635, 0.346785087665633, 0.346785087665633, 0.346785087665633, 0.346785087665633]",0.002,7,1
0,92,"[0.1921379822324381, -1.37865834456246, 0.1921379822324381, 0.1921379822324381, 0.1921379822324381, 0.1921379822324381]","[0.3467347417638777, -1.2240615850310188, 0.3467347417638777, 0.3467347417638777, 0.3467347417638777, 0.3467347417638777]",0.002,7,1
0,93,"[0.1946672049725288, -1.3761291218223688, 0.1946672049725288, 0.1946672049725288, 0.1946672049725288, 0.1946672049725288]","[0.3466838481015549, -1.2241124786933417, 0.3466838481015549, 0.3466838481015549, 0.3466838481015549, 0.3466838481015549]",0.002,7,1
0,94,"[0.19719505858550043, -1.3736012682093968, 0.19719505858550043, 0.19719505858550043, 0.19719505858550043, 0.19719505858550043]","[0.3466324067590647, -1.2241639200358319, 0.3466324067590647, 0.3466324067590647, 0.3466324067590647, 0.3466324067590647]",0.002,7,1
0,95,"[0.1997181985685887, -1.3710781282263085, 0.1997181985685887, 0.1997181985685887, 0.1997181985685887, 0.1997181985685887]","[0.34658041781767257, -1.224215908977224, 0.34658041781767257, 0.34658041781767257, 0.34658041781767257, 0.34658041781767257]",0.002,7,1
0,96,"[0.20223977438385604, -1.3685565524110412, 0.20223977438385604, 0.20223977438385604, 0.20223977438385604, 0.20223977438385604]","[0.34652788135950896, -1.2242684454353876, 0.34652788135950896, 0.34652788135950896, 0.34652788135950896, 0.34652788135950896]",0.002,7,1
0,97,"[0.20475689465174549, -1.3660394321431522, 0.20475689465174549, 0.20475689465174549, 0.20475689465174549, 0.20475689465174549]","[0.34647479746756926, -1.2243215293273273, 0.34647479746756926, 0.34647479746756926, 0.34647479746756926, 0.34647479746756926]",0.002,7,1
0,98,"[0.20727222067406953, -1.3635241061208285, 0.20727222067406953, 0.20727222067406953, 0.20727222067406953, 0.20727222067406953]","[0.3464211662257138, -1.2243751605691828, 0.3464211662257138, 0.3464211662257138, 0.3464211662257138, 0.3464211662257138]",0.002,7,1
0,99,"[0.20978339072189242, -1.3610129360730054, 0.20978339072189242, 0.20978339072189242, 0.20978339072189242, 0.20978339072189242]","[0.3463669877186675, -1.224429339076229, 0.3463669877186675, 0.3463669877186675, 0.3463669877186675, 0.3463669877186675]",0.002,7,1
0,100,"[0.21229249472532943, -1.3585038320695686, 0.21229249472532943, 0.21229249472532943, 0.21229249472532943, 0.21229249472532943]","[0.34631226203201976, -1.2244840647628767, 0.34631226203201976, 0.34631226203201976, 0.34631226203201976, 0.34631226203201976]",0.002,7,1
0,101,"[0.21479778923210802, -1.3559985375627903, 0.21479778923210802, 0.21479778923210802, 0.21479778923210802, 0.21479778923210802]","[0.3462569892522246, -1.224539337542672, 0.3462569892522246, 0.3462569892522246, 0.3462569892522246, 0.3462569892522246]",0.002,7,1
0,102,"[0.2173006989530844, -1.3534956278418138, 0.2173006989530844, 0.2173006989530844, 0.2173006989530844, 0.2173006989530844]","[0.3462011694666002, -1.2245951573282965, 0.3462011694666002, 0.3462011694666002, 0.3462011694666002, 0.3462011694666002]",0.002,7,1
0,103,"[0.21980019256568212, -1.3509961342292156, 0.21980019256568212, 0.21980019256568212, 0.21980019256568212, 0.21980019256568212]","[0.34614480276332876, -1.2246515240315679, 0.34614480276332876, 0.34614480276332876, 0.34614480276332876, 0.34614480276332876]",0.002,7,1
0,104,"[0.22229693586192714, -1.3484993909329708, 0.22229693586192714, 0.22229693586192714, 0.22229693586192714, 0.22229693586192714]","[0.34608788923145684, -1.2247084375634398, 0.34608788923145684, 0.34608788923145684, 0.34608788923145684, 0.34608788923145684]",0.002,7,1
0,105,"[0.22479060661594738, -1.3460057201789501, 0.22479060661594738, 0.22479060661594738, 0.22479060661594738, 0.22479060661594738]","[0.34603042896089437, -1.2247658978340021, 0.34603042896089437, 0.34603042896089437, 0.34603042896089437, 0.34603042896089437]",0.002,7,1
0,106,"[0.2272811248714753, -1.3435152019234229, 0.2272811248714753, 0.2272811248714753, 0.2272811248714753, 0.2272811248714753]","[0.3459724220424155, -1.2248239047524812, 0.3459724220424155, 0.3459724220424155, 0.3459724220424155, 0.3459724220424155]",0.002,7,1
0,107,"[0.22976866680124824, -1.3410276599936504, 0.22976866680124824, 0.22976866680124824, 0.22976866680124824, 0.22976866680124824]","[0.3459138685676576, -1.2248824582272388, 0.3459138685676576, 0.3459138685676576, 0.3459138685676576, 0.3459138685676576]",0.002,7,1
0,108,"[0.2322527545989268, -1.338543572195972, 0.2322527545989268, 0.2322527545989268, 0.2322527545989268, 0.2322527545989268]","[0.3458547686291216, -1.224941558165775, 0.3458547686291216, 0.3458547686291216, 0.3458547686291216, 0.3458547686291216]",0.002,7,1
0,109,"[0.23473420178015272, -1.3360621250147462, 0.23473420178015272, 0.23473420178015272, 0.23473420178015272, 0.23473420178015272]","[0.3457951223201718, -1.2250012044747247, 0.3457951223201718, 0.3457951223201718, 0.3457951223201718, 0.3457951223201718]",0.002,7,1
0,110,"[0.23473420178015272, -1.3360621250147462, 0.23473420178015272, 0.23473420178015272, 0.23473420178015272, 0.23473420178015272]","[0.3457349297350354, -1.2250613970598612, 0.3457349297350354, 0.3457349297350354, 0.3457349297350354, 0.3457349297350354]",0.002,7,1
0,111,"[0.23721204526451264, -1.3335842815303858, 0.23721204526451264, 0.23721204526451264, 0.23721204526451264, 0.23721204526451264]","[0.34567419096880286, -1.2251221358260937, 0.34567419096880286, 0.34567419096880286, 0.34567419096880286, 0.34567419096880286]",0.002,7,1
0,112,"[0.2396874283788489, -1.3311088984160495, 0.2396874283788489, 0.2396874283788489, 0.2396874283788489, 0.2396874283788489]","[0.3456129061174273, -1.2251834206774692, 0.3456129061174273, 0.3456129061174273, 0.3456129061174273, 0.3456129061174273]",0.002,7,1
0,113,"[0.24215920050025405, -1.3286371262946446, 0.24215920050025405, 0.24215920050025405, 0.24215920050025405, 0.24215920050025405]","[0.34555107527772466, -1.225245251517172, 0.34555107527772466, 0.34555107527772466, 0.34555107527772466, 0.34555107527772466]",0.002,7,1
0,114,"[0.24462855028901645, -1.3261677765058826, 0.24462855028901645, 0.24462855028901645, 0.24462855028901645, 0.24462855028901645]","[0.34548869854737324, -1.2253076282475233, 0.34548869854737324, 0.34548869854737324, 0.34548869854737324, 0.34548869854737324]",0.002,7,1
0,115,"[0.24709439787604046, -1.323701928918859, 0.24709439787604046, 0.24709439787604046, 0.24709439787604046, 0.24709439787604046]","[0.3454257760249139, -1.2253705507699826, 0.3454257760249139, 0.3454257760249139, 0.3454257760249139, 0.3454257760249139]",0.002,7,1
0,116,"[0.24955774551345883, -1.321238581281441, 0.24955774551345883, 0.24955774551345883, 0.24955774551345883, 0.24955774551345883]","[0.34536230780974964, -1.225434018985147, 0.34536230780974964, 0.34536230780974964, 0.34536230780974964, 0.34536230780974964]",0.002,7,1
0,117,"[0.2520177745968619, -1.3187785521980375, 0.2520177745968619, 0.2520177745968619, 0.2520177745968619, 0.2520177745968619]","[0.3452982940021455, -1.2254980327927512, 0.3452982940021455, 0.3452982940021455, 0.3452982940021455, 0.3452982940021455]",0.002,7,1
0,118,"[0.25447515175990276, -1.3163211750349966, 0.25447515175990276, 0.25447515175990276, 0.25447515175990276, 0.25447515175990276]","[0.34523373470322855, -1.225562592091668, 0.34523373470322855, 0.34523373470322855, 0.34523373470322855, 0.34523373470322855]",0.002,7,1
0,119,"[0.2569294141502908, -1.3138669126446088, 0.2569294141502908, 0.2569294141502908, 0.2569294141502908, 0.2569294141502908]","[0.34516863001498743, -1.2256276967799091, 0.34516863001498743, 0.34516863001498743, 0.34516863001498743, 0.34516863001498743]",0.002,7,1
0,120,"[0.25938085309633824, -1.3114154736985615, 0.25938085309633824, 0.25938085309633824, 0.25938085309633824, 0.25938085309633824]","[0.34510298004027246, -1.225693346754624, 0.34510298004027246, 0.34510298004027246, 0.34510298004027246, 0.34510298004027246]",0.002,7,1
0,121,"[0.2618293344694504, -1.3089669923254492, 0.2618293344694504, 0.2618293344694504, 0.2618293344694504, 0.2618293344694504]","[0.3450367848827955, -1.225759541912101, 0.3450367848827955, 0.3450367848827955, 0.3450367848827955, 0.3450367848827955]",0.002,7,1
0,122,"[0.264274865590456, -1.3065214612044436, 0.264274865590456, 0.264274865590456, 0.264274865590456, 0.264274865590456]","[0.34497004464712944, -1.225826282147767, 0.34497004464712944, 0.34497004464712944, 0.34497004464712944, 0.34497004464712944]",0.002,7,1
0,123,"[0.2667174541846902, -1.3040788726102095, 0.2667174541846902, 0.2667174541846902, 0.2667174541846902, 0.2667174541846902]","[0.34490275943870846, -1.2258935673561882, 0.34490275943870846, 0.34490275943870846, 0.34490275943870846, 0.34490275943870846]",0.002,7,1
0,124,"[0.2691570996216621, -1.3016392271732382, 0.2691570996216621, 0.2691570996216621, 0.2691570996216621, 0.2691570996216621]","[0.34483492936382765, -1.2259613974310688, 0.34483492936382765, 0.34483492936382765, 0.34483492936382765, 0.34483492936382765]",0.002,7,1
0,125,"[0.27159382886573236, -1.2992024979291683, 0.27159382886573236, 0.27159382886573236, 0.27159382886573236, 0.27159382886573236]","[0.3447665545296427, -1.2260297722652538, 0.3447665545296427, 0.3447665545296427, 0.3447665545296427, 0.3447665545296427]",0.002,7,1
0,126,"[0.27402773238407246, -1.2967685944108283, 0.27402773238407246, 0.27402773238407246, 0.27402773238407246, 0.27402773238407246]","[0.34469763504417006, -1.2260986917507264, 0.34469763504417006, 0.34469763504417006, 0.34469763504417006, 0.34469763504417006]",0.002,7,1
0,127,"[0.2764586414494194, -1.2943376853454813, 0.2764586414494194, 0.2764586414494194, 0.2764586414494194, 0.2764586414494194]","[0.3446281710162866, -1.22616815577861, 0.3446281710162866, 0.3446281710162866, 0.3446281710162866, 0.3446281710162866]",0.002,7,1
0,128,"[0.27888686455847367, -1.2919094622364273, 0.27888686455847367, 0.27888686455847367, 0.27888686455847367, 0.27888686455847367]","[0.34455816255572935, -1.226238164239167, 0.34455816255572935, 0.34455816255572935, 0.34455816255572935, 0.34455816255572935]",0.002,7,1
0,129,"[0.2813119897706073, -1.2894843370242937, 0.2813119897706073, 0.2813119897706073, 0.2813119897706073, 0.2813119897706073]","[0.3444876097730954, -1.2263087170218012, 0.3444876097730954, 0.3444876097730954, 0.3444876097730954, 0.3444876097730954]",0.002,7,1
0,130,"[0.2837344999990752, -1.287061826795826, 0.2837344999990752, 0.2837344999990752, 0.2837344999990752, 0.2837344999990752]","[0.3444165127798419, -1.2263798140150546, 0.3444165127798419, 0.3444165127798419, 0.3444165127798419, 0.3444165127798419]",0.002,7,1
0,131,"[0.2861538773825995, -1.2846424494123019, 0.2861538773825995, 0.2861538773825995, 0.2861538773825995, 0.2861538773825995]","[0.3443448716882856, -1.226451455106611, 0.3443448716882856, 0.3443448716882856, 0.3443448716882856, 0.3443448716882856]",0.002,7,1
0,132,"[0.2885705477768346, -1.2822257790180673, 0.2885705477768346, 0.2885705477768346, 0.2885705477768346, 0.2885705477768346]","[0.3442726866116028, -1.2265236401832937, 0.3442726866116028, 0.3442726866116028, 0.3442726866116028, 0.3442726866116028]",0.002,7,1
0,133,"[0.290984214030188, -1.2798121127647137, 0.290984214030188, 0.290984214030188, 0.290984214030188, 0.290984214030188]","[0.3441999576638292, -1.2265963691310673, 0.3441999576638292, 0.3441999576638292, 0.3441999576638292, 0.3441999576638292]",0.002,7,1
0,134,"[0.29339503868174227, -1.2774012881131593, 0.29339503868174227, 0.29339503868174227, 0.29339503868174227, 0.29339503868174227]","[0.3441266849598597, -1.226669641835037, 0.3441266849598597, 0.3441266849598597, 0.3441266849598597, 0.3441266849598597]",0.002,7,1
0,135,"[0.2958032102313168, -1.2749931165635848, 0.2958032102313168, 0.2958032102313168, 0.2958032102313168, 0.2958032102313168]","[0.34405286861544826, -1.2267434581794483, 0.34405286861544826, 0.34405286861544826, 0.34405286861544826, 0.34405286861544826]",0.002,7,1
0,136,"[0.29820837499274844, -1.2725879518021532, 0.29820837499274844, 0.29820837499274844, 0.29820837499274844, 0.29820837499274844]","[0.3439785087472075, -1.2268178180476892, 0.3439785087472075, 0.3439785087472075, 0.3439785087472075, 0.3439785087472075]",0.002,7,1
0,137,"[0.3006112561071692, -1.2701850706877318, 0.3006112561071692, 0.3006112561071692, 0.3006112561071692, 0.3006112561071692]","[0.34390360547260884, -1.2268927213222878, 0.34390360547260884, 0.34390360547260884, 0.34390360547260884, 0.34390360547260884]",0.002,7,1
0,138,"[0.3030108032463399, -1.2677855235485609, 0.3030108032463399, 0.3030108032463399, 0.3030108032463399, 0.3030108032463399]","[0.3438281589099821, -1.2269681678849145, 0.3438281589099821, 0.3438281589099821, 0.3438281589099821, 0.3438281589099821]",0.002,7,1
0,139,"[0.3054083170574729, -1.2653880097374275, 0.3054083170574729, 0.3054083170574729, 0.3054083170574729, 0.3054083170574729]","[0.34375216917851537, -1.227044157616381, 0.34375216917851537, 0.34375216917851537, 0.34375216917851537, 0.34375216917851537]",0.002,7,1
0,140,"[0.3054083170574729, -1.2653880097374275, 0.3054083170574729, 0.3054083170574729, 0.3054083170574729, 0.3054083170574729]","[0.3436756363982548, -1.2271206903966418, 0.3436756363982548, 0.3436756363982548, 0.3436756363982548, 0.3436756363982548]",0.002,7,1
0,141,"[0.3078022854394594, -1.2629940413554408, 0.3078022854394594, 0.3078022854394594, 0.3078022854394594, 0.3078022854394594]","[0.34359856069010447, -1.2271977661047921, 0.34359856069010447, 0.34359856069010447, 0.34359856069010447, 0.34359856069010447]",0.002,7,1
0,142,"[0.31019420808291825, -1.260602118711982, 0.31019420808291825, 0.31019420808291825, 0.31019420808291825, 0.31019420808291825]","[0.3435209421758261, -1.2272753846190705, 0.3435209421758261, 0.3435209421758261, 0.3435209421758261, 0.3435209421758261]",0.002,7,1
0,143,"[0.3125822866995388, -1.2582140400953614, 0.3125822866995388, 0.3125822866995388, 0.3125822866995388, 0.3125822866995388]","[0.3434427809780391, -1.2273535458168574, 0.3434427809780391, 0.3434427809780391, 0.3434427809780391, 0.3434427809780391]",0.002,7,1
0,144,"[0.3149676461185363, -1.2558286806763643, 0.3149676461185363, 0.3149676461185363, 0.3149676461185363, 0.3149676461185363]","[0.34336407722021994, -1.2274322495746766, 0.34336407722021994, 0.34336407722021994, 0.34336407722021994, 0.34336407722021994]",0.002,7,1
0,145,"[0.31734907618128416, -1.2534472506136165, 0.31734907618128416, 0.31734907618128416, 0.31734907618128416, 0.31734907618128416]","[0.3432848310267023, -1.2275114957681943, 0.3432848310267023, 0.3432848310267023, 0.3432848310267023, 0.3432848310267023]",0.002,7,1
0,146,"[0.3197269143885968, -1.251069412406304, 0.3197269143885968, 0.3197269143885968, 0.3197269143885968, 0.3197269143885968]","[0.3432050425226769, -1.2275912842722196, 0.3432050425226769, 0.3432050425226769, 0.3432050425226769, 0.3432050425226769]",0.002,7,1
0,147,"[0.3221011392629478, -1.2486951875319532, 0.3221011392629478, 0.3221011392629478, 0.3221011392629478, 0.3221011392629478]","[0.3431247118341911, -1.2276716149607054, 0.3431247118341911, 0.3431247118341911, 0.3431247118341911, 0.3431247118341911]",0.002,7,1
0,148,"[0.3244712667997098, -1.2463250599951916, 0.3244712667997098, 0.3244712667997098, 0.3244712667997098, 0.3244712667997098]","[0.3430438390881486, -1.227752487706748, 0.3430438390881486, 0.3430438390881486, 0.3430438390881486, 0.3430438390881486]",0.002,7,1
0,149,"[0.32683814084701995, -1.2439581859478812, 0.32683814084701995, 0.32683814084701995, 0.32683814084701995, 0.32683814084701995]","[0.3429624244123098, -1.2278339023825868, 0.3429624244123098, 0.3429624244123098, 0.3429624244123098, 0.3429624244123098]",0.002,7,1
0,150,"[0.3291999487982686, -1.2415963779966326, 0.3291999487982686, 0.3291999487982686, 0.3291999487982686, 0.3291999487982686]","[0.3428804679352909, -1.2279158588596055, 0.3428804679352909, 0.3428804679352909, 0.3428804679352909, 0.3428804679352909]",0.002,7,1
0,151,"[0.3315587021007871, -1.2392376246941144, 0.3315587021007871, 0.3315587021007871, 0.3315587021007871, 0.3315587021007871]","[0.3427979697865643, -1.2279983570083322, 0.3427979697865643, 0.3427979697865643, 0.3427979697865643, 0.3427979697865643]",0.002,7,1
0,152,"[0.33391176263203404, -1.2368845641628674, 0.33391176263203404, 0.33391176263203404, 0.33391176263203404, 0.33391176263203404]","[0.34271493009645776, -1.2280813966984387, 0.34271493009645776, 0.34271493009645776, 0.34271493009645776, 0.34271493009645776]",0.002,7,1
0,153,"[0.33626174519575425, -1.2345345815991475, 0.33626174519575425, 0.33626174519575425, 0.33626174519575425, 0.33626174519575425]","[0.34263134899615494, -1.2281649777987416, 0.34263134899615494, 0.34263134899615494, 0.34263134899615494, 0.34263134899615494]",0.002,7,1
0,154,"[0.33860584941806643, -1.232190477376835, 0.33860584941806643, 0.33860584941806643, 0.33860584941806643, 0.33860584941806643]","[0.3425472266176945, -1.228249100177202, 0.3425472266176945, 0.3425472266176945, 0.3425472266176945, 0.3425472266176945]",0.002,7,1
0,155,"[0.34094657701851383, -1.2298497497763874, 0.34094657701851383, 0.34094657701851383, 0.34094657701851383, 0.34094657701851383]","[0.34246256309397033, -1.2283337637009262, 0.34246256309397033, 0.34246256309397033, 0.34246256309397033, 0.34246256309397033]",0.002,7,1
0,156,"[0.3432817478580449, -1.227514578936856, 0.3432817478580449, 0.3432817478580449, 0.3432817478580449, 0.3432817478580449]","[0.34237735855873125, -1.2284189682361653, 0.34237735855873125, 0.34237735855873125, 0.34237735855873125, 0.34237735855873125]",0.002,7,1
0,157,"[0.3456128937717016, -1.225183433023199, 0.3456128937717016, 0.3456128937717016, 0.3456128937717016, 0.3456128937717016]","[0.34229161314658063, -1.228504713648316, 0.34229161314658063, 0.34229161314658063, 0.34229161314658063, 0.34229161314658063]",0.002,7,1
0,158,"[0.34793934437341995, -1.2228569824214803, 0.34793934437341995, 0.34793934437341995, 0.34793934437341995, 0.34793934437341995]","[0.34220532699297634, -1.2285909998019202, 0.34220532699297634, 0.34220532699297634, 0.34220532699297634, 0.34220532699297634]",0.002,7,1
0,159,"[0.35026155260160385, -1.2205347741932968, 0.35026155260160385, 0.35026155260160385, 0.35026155260160385, 0.35026155260160385]","[0.3421185002342305, -1.228677826560666, 0.3421185002342305, 0.3421185002342305, 0.3421185002342305, 0.3421185002342305]",0.002,7,1
0,160,"[0.3525802884721821, -1.2182160383227183, 0.3525802884721821, 0.3525802884721821, 0.3525802884721821, 0.3525802884721821]","[0.3420311330075094, -1.2287651937873871, 0.3420311330075094, 0.3420311330075094, 0.3420311330075094, 0.3420311330075094]",0.002,7,1
0,161,"[0.3548942629938547, -1.215902063801046, 0.3548942629938547, 0.3548942629938547, 0.3548942629938547, 0.3548942629938547]","[0.3419432254508329, -1.2288531013440638, 0.3419432254508329, 0.3419432254508329, 0.3419432254508329, 0.3419432254508329]",0.002,7,1
0,162,"[0.357205747181012, -1.2135905796138884, 0.357205747181012, 0.357205747181012, 0.357205747181012, 0.357205747181012]","[0.3418547777030746, -1.228941549091822, 0.3418547777030746, 0.3418547777030746, 0.3418547777030746, 0.3418547777030746]",0.002,7,1
0,163,"[0.3595118634275798, -1.2112844633673205, 0.3595118634275798, 0.3595118634275798, 0.3595118634275798, 0.3595118634275798]","[0.3417657899039615, -1.229030536890935, 0.3417657899039615, 0.3417657899039615, 0.3417657899039615, 0.3417657899039615]",0.002,7,1
0,164,"[0.36181613810280505, -1.2089801886920952, 0.36181613810280505, 0.36181613810280505, 0.36181613810280505, 0.36181613810280505]","[0.3416762621940736, -1.229120064600823, 0.3416762621940736, 0.3416762621940736, 0.3416762621940736, 0.3416762621940736]",0.002,7,1
0,165,"[0.3641147747812906, -1.2066815520136096, 0.3641147747812906, 0.3641147747812906, 0.3641147747812906, 0.3641147747812906]","[0.341586194714844, -1.2292101320800526, 0.341586194714844, 0.341586194714844, 0.341586194714844, 0.341586194714844]",0.002,7,1
0,166,"[0.3641147747812906, -1.2066815520136096, 0.3641147747812906, 0.3641147747812906, 0.3641147747812906, 0.3641147747812906]","[0.3414955876085586, -1.229300739186338, 0.3414955876085586, 0.3414955876085586, 0.3414955876085586, 0.3414955876085586]",0.002,7,1
0,167,"[0.3664118477386181, -1.2043844790562819, 0.3664118477386181, 0.3664118477386181, 0.3664118477386181, 0.3664118477386181]","[0.3414044410183554, -1.2293918857765411, 0.3414044410183554, 0.3414044410183554, 0.3414044410183554, 0.3414044410183554]",0.002,7,1
0,168,"[0.3687033460456793, -1.2020929807492209, 0.3687033460456793, 0.3687033460456793, 0.3687033460456793, 0.3687033460456793]","[0.34131275508822495, -1.2294835717066717, 0.34131275508822495, 0.34131275508822495, 0.34131275508822495, 0.34131275508822495]",0.002,7,1
0,169,"[0.370993185122117, -1.199803141672783, 0.370993185122117, 0.370993185122117, 0.370993185122117, 0.370993185122117]","[0.3412205299630099, -1.2295757968318868, 0.3412205299630099, 0.3412205299630099, 0.3412205299630099, 0.3412205299630099]",0.002,7,1
0,170,"[0.3732778336220557, -1.1975184931728444, 0.3732778336220557, 0.3732778336220557, 0.3732778336220557, 0.3732778336220557]","[0.3411277657884045, -1.2296685610064921, 0.3411277657884045, 0.3411277657884045, 0.3411277657884045, 0.3411277657884045]",0.002,7,1
0,171,"[0.37556037911015977, -1.1952359476847398, 0.37556037911015977, 0.37556037911015977, 0.37556037911015977, 0.37556037911015977]","[0.34103446271095467, -1.2297618640839418, 0.34103446271095467, 0.34103446271095467, 0.34103446271095467, 0.34103446271095467]",0.002,7,1
0,172,"[0.3778384121004903, -1.192957914694409, 0.3778384121004903, 0.3778384121004903, 0.3778384121004903, 0.3778384121004903]","[0.3409406208780576, -1.229855705916839, 0.3409406208780576, 0.3409406208780576, 0.3409406208780576, 0.3409406208780576]",0.002,7,1
0,173,"[0.38011359873972334, -1.190682728055176, 0.38011359873972334, 0.38011359873972334, 0.38011359873972334, 0.38011359873972334]","[0.3408462404379617, -1.2299500863569348, 0.3408462404379617, 0.3408462404379617, 0.3408462404379617, 0.3408462404379617]",0.002,7,1
0,174,"[0.3823852020398732, -1.1884111247550262, 0.3823852020398732, 0.3823852020398732, 0.3823852020398732, 0.3823852020398732]","[0.3407513215397663, -1.2300450052551302, 0.3407513215397663, 0.3407513215397663, 0.3407513215397663, 0.3407513215397663]",0.002,7,1
0,175,"[0.38465364497374105, -1.186142681821158, 0.38465364497374105, 0.38465364497374105, 0.38465364497374105, 0.38465364497374105]","[0.3406558643334211, -1.2301404624614753, 0.3406558643334211, 0.3406558643334211, 0.3406558643334211, 0.3406558643334211]",0.002,7,1
0,176,"[0.38691954071430246, -1.1838767860805968, 0.38691954071430246, 0.38691954071430246, 0.38691954071430246, 0.38691954071430246]","[0.34055986896972645, -1.23023645782517, 0.34055986896972645, 0.34055986896972645, 0.34055986896972645, 0.34055986896972645]",0.002,7,1
0,177,"[0.3891817296361187, -1.1816145971587808, 0.3891817296361187, 0.3891817296361187, 0.3891817296361187, 0.3891817296361187]","[0.34046333560033276, -1.2303329911945637, 0.34046333560033276, 0.34046333560033276, 0.34046333560033276, 0.34046333560033276]",0.002,7,1
0,178,"[0.39144220049960354, -1.179354126295296, 0.39144220049960354, 0.39144220049960354, 0.39144220049960354, 0.39144220049960354]","[0.3403662643777404, -1.230430062417156, 0.3403662643777404, 0.3403662643777404, 0.3403662643777404, 0.3403662643777404]",0.002,7,1
0,179,"[0.39369821609354927, -1.1770981107013503, 0.39369821609354927, 0.39369821609354927, 0.39369821609354927, 0.39369821609354927]","[0.3402686554552995, -1.2305276713395972, 0.3402686554552995, 0.3402686554552995, 0.3402686554552995, 0.3402686554552995]",0.002,7,1
0,180,"[0.3959531492631138, -1.1748431775317858, 0.3959531492631138, 0.3959531492631138, 0.3959531492631138, 0.3959531492631138]","[0.34017050898720946, -1.2306258178076872, 0.34017050898720946, 0.34017050898720946, 0.34017050898720946, 0.34017050898720946]",0.002,7,1
0,181,"[0.3982030746178, -1.1725932521770996, 0.3982030746178, 0.3982030746178, 0.3982030746178, 0.3982030746178]","[0.3400718251285189, -1.2307245016663777, 0.3400718251285189, 0.3400718251285189, 0.3400718251285189, 0.3400718251285189]",0.002,7,1
0,182,"[0.4004523959709679, -1.1703439308239316, 0.4004523959709679, 0.4004523959709679, 0.4004523959709679, 0.4004523959709679]","[0.3399726040351256, -1.230823722759771, 0.3399726040351256, 0.3399726040351256, 0.3399726040351256, 0.3399726040351256]",0.002,7,1
0,183,"[0.4026963053908178, -1.168100021404082, 0.4026963053908178, 0.4026963053908178, 0.4026963053908178, 0.4026963053908178]","[0.3398728458637758, -1.2309234809311207, 0.3398728458637758, 0.3398728458637758, 0.3398728458637758, 0.3398728458637758]",0.002,7,1
0,184,"[0.4049399627295234, -1.1658563640653767, 0.4049399627295234, 0.4049399627295234, 0.4049399627295234, 0.4049399627295234]","[0.3397725507720643, -1.2310237760228322, 0.3397725507720643, 0.3397725507720643, 0.3397725507720643, 0.3397725507720643]",0.002,7,1
0,185,"[0.4071779156531367, -1.1636184111417638, 0.4071779156531367, 0.4071779156531367, 0.4071779156531367, 0.4071779156531367]","[0.33967171891843423, -1.2311246078764624, 0.33967171891843423, 0.33967171891843423, 0.33967171891843423, 0.33967171891843423]",0.002,7,1
0,186,"[0.4094158716916249, -1.1613804551032754, 0.4094158716916249, 0.4094158716916249, 0.4094158716916249, 0.4094158716916249]","[0.33957035046217643, -1.2312259763327202, 0.33957035046217643, 0.33957035046217643, 0.33957035046217643, 0.33957035046217643]",0.002,7,1
0,187,"[0.41164791535791023, -1.1591484114369903, 0.41164791535791023, 0.41164791535791023, 0.41164791535791023, 0.41164791535791023]","[0.3394684455634296, -1.231327881231467, 0.3394684455634296, 0.3394684455634296, 0.3394684455634296, 0.3394684455634296]",0.002,7,1
0,188,"[0.4138801334344037, -1.1569161933604963, 0.4138801334344037, 0.4138801334344037, 0.4138801334344037, 0.4138801334344037]","[0.33936600438317993, -1.2314303224117167, 0.33936600438317993, 0.33936600438317993, 0.33936600438317993, 0.33936600438317993]",0.002,7,1
0,189,"[0.4161063046766415, -1.1546900221182588, 0.4161063046766415, 0.4161063046766415, 0.4161063046766415, 0.4161063046766415]","[0.33926302708326067, -1.231533299711636, 0.33926302708326067, 0.33926302708326067, 0.33926302708326067, 0.33926302708326067]",0.002,7,1
0,190,"[0.4183327236241505, -1.1524636031707498, 0.4183327236241505, 0.4183327236241505, 0.4183327236241505, 0.4183327236241505]","[0.3391595138263522, -1.2316368129685444, 0.3391595138263522, 0.3391595138263522, 0.3391595138263522, 0.3391595138263522]",0.002,7,1
0,191,"[0.42055305003783977, -1.1502432767570605, 0.42055305003783977, 0.42055305003783977, 0.42055305003783977, 0.42055305003783977]","[0.33905546477598136, -1.2317408620189152, 0.33905546477598136, 0.33905546477598136, 0.33905546477598136, 0.33905546477598136]",0.002,7,1
0,192,"[0.42277354620541396, -1.1480227805894865, 0.42277354620541396, 0.42277354620541396, 0.42277354620541396, 0.42277354620541396]","[0.3389508800965217, -1.2318454466983748, 0.3389508800965217, 0.3389508800965217, 0.3389508800965217, 0.3389508800965217]",0.002,7,1
0,193,"[0.42498804687580566, -1.1458082799190947, 0.42498804687580566, 0.42498804687580566, 0.42498804687580566, 0.42498804687580566]","[0.3388457599531926, -1.231950566841704, 0.3388457599531926, 0.3388457599531926, 0.3388457599531926, 0.3388457599531926]",0.002,7,1
0,194,"[0.42720238076846084, -1.1435939460264395, 0.42720238076846084, 0.42720238076846084, 0.42720238076846084, 0.42720238076846084]","[0.33874010451205977, -1.2320562222828368, 0.33874010451205977, 0.33874010451205977, 0.33874010451205977, 0.33874010451205977]",0.002,7,1
0,195,"[0.42941106668707985, -1.1413852601078203, 0.42941106668707985, 0.42941106668707985, 0.42941106668707985, 0.42941106668707985]","[0.3386339139400341, -1.2321624128548625, 0.3386339139400341, 0.3386339139400341, 0.3386339139400341, 0.3386339139400341]",0.002,7,1
0,196,"[0.42941106668707985, -1.1413852601078203, 0.42941106668707985, 0.42941106668707985, 0.42941106668707985, 0.42941106668707985]","[0.3385271884048722, -1.2322691383900244, 0.3385271884048722, 0.3385271884048722, 0.3385271884048722, 0.3385271884048722]",0.002,7,1
0,197,"[0.4316188110700831, -1.1391775157248176, 0.4316188110700831, 0.4316188110700831, 0.4316188110700831, 0.4316188110700831]","[0.3384199280751757, -1.232376398719721, 0.3384199280751757, 0.3384199280751757, 0.3384199280751757, 0.3384199280751757]",0.002,7,1
0,198,"[0.4338216853247419, -1.1369746414701591, 0.4338216853247419, 0.4338216853247419, 0.4338216853247419, 0.4338216853247419]","[0.3383121331203911, -1.2324841936745055, 0.3383121331203911, 0.3383121331203911, 0.3383121331203911, 0.3383121331203911]",0.002,7,1
0,199,"[0.4360221308922409, -1.1347741959026605, 0.4360221308922409, 0.4360221308922409, 0.4360221308922409, 0.4360221308922409]","[0.3382038037108093, -1.2325925230840873, 0.3382038037108093, 0.3382038037108093, 0.3382038037108093, 0.3382038037108093]",0.002,7,1
0,200,"[0.4382208891695939, -1.1325754376253068, 0.4382208891695939, 0.4382208891695939, 0.4382208891695939, 0.4382208891695939]","[0.3380949400175659, -1.2327013867773307, 0.3380949400175659, 0.3380949400175659, 0.3380949400175659, 0.3380949400175659]",0.002,7,1
0,201,"[0.44041502790001624, -1.1303812988948847, 0.44041502790001624, 0.44041502790001624, 0.44041502790001624, 0.44041502790001624]","[0.33798554221264016, -1.2328107845822565, 0.33798554221264016, 0.33798554221264016, 0.33798554221264016, 0.33798554221264016]",0.002,7,1
0,202,"[0.44260995791400665, -1.1281863688808942, 0.44260995791400665, 0.44260995791400665, 0.44260995791400665, 0.44260995791400665]","[0.3378756104688553, -1.2329207163260412, 0.3378756104688553, 0.3378756104688553, 0.3378756104688553, 0.3378756104688553]",0.002,7,1
0,203,"[0.4447982376795046, -1.125998089115396, 0.4447982376795046, 0.4447982376795046, 0.4447982376795046, 0.4447982376795046]","[0.337765144959878, -1.2330311818350186, 0.337765144959878, 0.337765144959878, 0.337765144959878, 0.337765144959878]",0.002,7,1
0,204,"[0.44698858846620015, -1.1238077383287006, 0.44698858846620015, 0.44698858846620015, 0.44698858846620015, 0.44698858846620015]","[0.3376541458602182, -1.2331421809346783, 0.3376541458602182, 0.3376541458602182, 0.3376541458602182, 0.3376541458602182]",0.002,7,1
0,205,"[0.44917095946161056, -1.1216253673332899, 0.44917095946161056, 0.44917095946161056, 0.44917095946161056, 0.44917095946161056]","[0.3375426133452288, -1.2332537134496677, 0.3375426133452288, 0.3375426133452288, 0.3375426133452288, 0.3375426133452288]",0.002,7,1
0,206,"[0.4513552556788893, -1.119441071116011, 0.4513552556788893, 0.4513552556788893, 0.4513552556788893, 0.4513552556788893]","[0.33743054759110525, -1.2333657792037913, 0.33743054759110525, 0.33743054759110525, 0.33743054759110525, 0.33743054759110525]",0.002,7,1
0,207,"[0.4535316674239991, -1.1172646593709015, 0.4535316674239991, 0.4535316674239991, 0.4535316674239991, 0.4535316674239991]","[0.3373179487748855, -1.2334783780200111, 0.3373179487748855, 0.3373179487748855, 0.3373179487748855, 0.3373179487748855]",0.002,7,1
0,208,"[0.45570744372865873, -1.1150888830662415, 0.45570744372865873, 0.45570744372865873, 0.45570744372865873, 0.45570744372865873]","[0.33720481707444966, -1.2335915097204468, 0.33720481707444966, 0.33720481707444966, 0.33720481707444966, 0.33720481707444966]",0.002,7,1
0,209,"[0.4578807231999926, -1.1129156035949075, 0.4578807231999926, 0.4578807231999926, 0.4578807231999926, 0.4578807231999926]","[0.3370911526685196, -1.233705174126377, 0.3370911526685196, 0.3370911526685196, 0.3370911526685196, 0.3370911526685196]",0.002,7,1
0,210,"[0.4600480670725931, -1.1107482597223068, 0.4600480670725931, 0.4600480670725931, 0.4600480670725931, 0.4600480670725931]","[0.33697695573665865, -1.233819371058238, 0.33697695573665865, 0.33697695573665865, 0.33697695573665865, 0.33697695573665865]",0.002,7,1
0,211,"[0.46221843080019437, -1.1085778959947055, 0.46221843080019437, 0.46221843080019437, 0.46221843080019437, 0.46221843080019437]","[0.33686222645927155, -1.233934100335625, 0.33686222645927155, 0.33686222645927155, 0.33686222645927155, 0.33686222645927155]",0.002,7,1
0,212,"[0.46437959435635023, -1.1064167324385492, 0.46437959435635023, 0.46437959435635023, 0.46437959435635023, 0.46437959435635023]","[0.33674696501760404, -1.2340493617772925, 0.33674696501760404, 0.33674696501760404, 0.33674696501760404, 0.33674696501760404]",0.002,7,1
0,213,"[0.4665424817414196, -1.1042538450534796, 0.4665424817414196, 0.4665424817414196, 0.4665424817414196, 0.4665424817414196]","[0.3366311715937425, -1.234165155201154, 0.3366311715937425, 0.3366311715937425, 0.3366311715937425, 0.3366311715937425]",0.002,7,1
0,214,"[0.4686999078908846, -1.102096418904014, 0.4686999078908846, 0.4686999078908846, 0.4686999078908846, 0.4686999078908846]","[0.33651484637061363, -1.234281480424283, 0.33651484637061363, 0.33651484637061363, 0.33651484637061363, 0.33651484637061363]",0.002,7,1
0,215,"[0.47085158718365605, -1.0999447396112423, 0.47085158718365605, 0.47085158718365605, 0.47085158718365605, 0.47085158718365605]","[0.3363979895319844, -1.2343983372629121, 0.3363979895319844, 0.3363979895319844, 0.3363979895319844, 0.3363979895319844]",0.002,7,1
0,216,"[0.4730072597960304, -1.0977890669988684, 0.4730072597960304, 0.4730072597960304, 0.4730072597960304, 0.4730072597960304]","[0.3362806012624615, -1.234515725532435, 0.3362806012624615, 0.3362806012624615, 0.3362806012624615, 0.3362806012624615]",0.002,7,1
0,217,"[0.475152407600424, -1.0956439191944751, 0.475152407600424, 0.475152407600424, 0.475152407600424, 0.475152407600424]","[0.33616268174749125, -1.2346336450474054, 0.33616268174749125, 0.33616268174749125, 0.33616268174749125, 0.33616268174749125]",0.002,7,1
0,218,"[0.47729705932808236, -1.0934992674668171, 0.47729705932808236, 0.47729705932808236, 0.47729705932808236, 0.47729705932808236]","[0.3360442311733591, -1.2347520956215374, 0.3360442311733591, 0.3360442311733591, 0.3360442311733591, 0.3360442311733591]",0.002,7,1
0,219,"[0.4794426860551227, -1.0913536407397766, 0.4794426860551227, 0.4794426860551227, 0.4794426860551227, 0.4794426860551227]","[0.33592524972718957, -1.234871077067707, 0.33592524972718957, 0.33592524972718957, 0.33592524972718957, 0.33592524972718957]",0.002,7,1
0,220,"[0.48157763925429975, -1.0892186875405994, 0.48157763925429975, 0.48157763925429975, 0.48157763925429975, 0.48157763925429975]","[0.3358057375969458, -1.2349905891979507, 0.3358057375969458, 0.3358057375969458, 0.3358057375969458, 0.3358057375969458]",0.002,7,1
0,221,"[0.48371419485868933, -1.08708213193621, 0.48371419485868933, 0.48371419485868933, 0.48371419485868933, 0.48371419485868933]","[0.3356856949714292, -1.2351106318234675, 0.3356856949714292, 0.3356856949714292, 0.3356856949714292, 0.3356856949714292]",0.002,7,1
0,222,"[0.4858498903301824, -1.0849464364647172, 0.4858498903301824, 0.4858498903301824, 0.4858498903301824, 0.4858498903301824]","[0.3355651220402794, -1.2352312047546172, 0.3355651220402794, 0.3355651220402794, 0.3355651220402794, 0.3355651220402794]",0.002,7,1
0,223,"[0.48797401888866454, -1.082822307906235, 0.48797401888866454, 0.48797401888866454, 0.48797401888866454, 0.48797401888866454]","[0.3354440189939736, -1.235352307800923, 0.3354440189939736, 0.3354440189939736, 0.3354440189939736, 0.3354440189939736]",0.002,7,1
0,224,"[0.49009875791234897, -1.0806975688825506, 0.49009875791234897, 0.49009875791234897, 0.49009875791234897, 0.49009875791234897]","[0.3353223860238266, -1.23547394077107, 0.3353223860238266, 0.3353223860238266, 0.3353223860238266, 0.3353223860238266]",0.002,7,1
0,225,"[0.49222944880067604, -1.0785668779942235, 0.49222944880067604, 0.49222944880067604, 0.49222944880067604, 0.49222944880067604]","[0.33520022332199034, -1.2355961034729062, 0.33520022332199034, 0.33520022332199034, 0.33520022332199034, 0.33520022332199034]",0.002,7,1
0,226,"[0.4943477406500329, -1.076448586144867, 0.4943477406500329, 0.4943477406500329, 0.4943477406500329, 0.4943477406500329]","[0.3350775310814536, -1.235718795713443, 0.3350775310814536, 0.3350775310814536, 0.3350775310814536, 0.3350775310814536]",0.002,7,1
0,227,"[0.4943477406500329, -1.076448586144867, 0.4943477406500329, 0.4943477406500329, 0.4943477406500329, 0.4943477406500329]","[0.33495430949604166, -1.235842017298855, 0.33495430949604166, 0.33495430949604166, 0.33495430949604166, 0.33495430949604166]",0.002,7,1
0,228,"[0.4964659330921611, -1.0743303937027386, 0.4964659330921611, 0.4964659330921611, 0.4964659330921611, 0.4964659330921611]","[0.334830558760416, -1.2359657680344807, 0.334830558760416, 0.334830558760416, 0.334830558760416, 0.334830558760416]",0.002,7,1
0,229,"[0.49859177627904216, -1.072204550515858, 0.49859177627904216, 0.49859177627904216, 0.49859177627904216, 0.49859177627904216]","[0.33470627907007433, -1.2360900477248222, 0.33470627907007433, 0.33470627907007433, 0.33470627907007433, 0.33470627907007433]",0.002,7,1
0,230,"[0.5007121195472117, -1.0700842072476888, 0.5007121195472117, 0.5007121195472117, 0.5007121195472117, 0.5007121195472117]","[0.3345814706213496, -1.236214856173547, 0.3345814706213496, 0.3345814706213496, 0.3345814706213496, 0.3345814706213496]",0.002,7,1
0,231,"[0.5028164616108506, -1.06797986518405, 0.5028164616108506, 0.5028164616108506, 0.5028164616108506, 0.5028164616108506]","[0.33445613361141024, -1.2363401931834863, 0.33445613361141024, 0.33445613361141024, 0.33445613361141024, 0.33445613361141024]",0.002,7,1
0,232,"[0.5049177930952832, -1.0658785336996175, 0.5049177930952832, 0.5049177930952832, 0.5049177930952832, 0.5049177930952832]","[0.3343302682382598, -1.2364660585566367, 0.3343302682382598, 0.3343302682382598, 0.3343302682382598, 0.3343302682382598]",0.002,7,1
0,233,"[0.5070269914156416, -1.0637693353792592, 0.5070269914156416, 0.5070269914156416, 0.5070269914156416, 0.5070269914156416]","[0.3342038747007363, -1.2365924520941602, 0.3342038747007363, 0.3342038747007363, 0.3342038747007363, 0.3342038747007363]",0.002,7,1
0,234,"[0.5091358867146059, -1.0616604400802947, 0.5091358867146059, 0.5091358867146059, 0.5091358867146059, 0.5091358867146059]","[0.3340769531985123, -1.2367193735963842, 0.3340769531985123, 0.3340769531985123, 0.3340769531985123, 0.3340769531985123]",0.002,7,1
0,235,"[0.5112363257288021, -1.0595600010660986, 0.5112363257288021, 0.5112363257288021, 0.5112363257288021, 0.5112363257288021]","[0.3339495039320944, -1.2368468228628022, 0.3339495039320944, 0.3339495039320944, 0.3339495039320944, 0.3339495039320944]",0.002,7,1
0,236,"[0.5133231503037097, -1.0574731764911904, 0.5133231503037097, 0.5133231503037097, 0.5133231503037097, 0.5133231503037097]","[0.3338215271028229, -1.2369747996920737, 0.3338215271028229, 0.3338215271028229, 0.3338215271028229, 0.3338215271028229]",0.002,7,1
0,237,"[0.5153940428188976, -1.0554022839760018, 0.5153940428188976, 0.5153940428188976, 0.5153940428188976, 0.5153940428188976]","[0.3336930229128715, -1.2371033038820252, 0.3336930229128715, 0.3336930229128715, 0.3336930229128715, 0.3336930229128715]",0.002,7,1
0,238,"[0.5174624306638158, -1.0533338961310834, 0.5174624306638158, 0.5174624306638158, 0.5174624306638158, 0.5174624306638158]","[0.3335639915652471, -1.2372323352296495, 0.3335639915652471, 0.3335639915652471, 0.3335639915652471, 0.3335639915652471]",0.002,7,1
0,239,"[0.5195346415849275, -1.0512616852099717, 0.5195346415849275, 0.5195346415849275, 0.5195346415849275, 0.5195346415849275]","[0.3334344332637893, -1.2373618935311073, 0.3334344332637893, 0.3334344332637893, 0.3334344332637893, 0.3334344332637893]",0.002,7,1
0,240,"[0.5216064424332487, -1.0491898843616498, 0.5216064424332487, 0.5216064424332487, 0.5216064424332487, 0.5216064424332487]","[0.3333043482131702, -1.2374919785817264, 0.3333043482131702, 0.3333043482131702, 0.3333043482131702, 0.3333043482131702]",0.002,7,1
0,241,"[0.5236425555669165, -1.0471537712279826, 0.5236425555669165, 0.5236425555669165, 0.5236425555669165, 0.5236425555669165]","[0.3331737366188941, -1.2376225901760025, 0.3331737366188941, 0.3331737366188941, 0.3331737366188941, 0.3331737366188941]",0.002,7,1
0,242,"[0.5256247276323404, -1.0451715991625585, 0.5256247276323404, 0.5256247276323404, 0.5256247276323404, 0.5256247276323404]","[0.333042598687297, -1.2377537281075996, 0.333042598687297, 0.333042598687297, 0.333042598687297, 0.333042598687297]",0.002,7,1
0,243,"[0.5275465199373819, -1.0432498068575171, 0.5275465199373819, 0.5275465199373819, 0.5275465199373819, 0.5275465199373819]","[0.3329109346255465, -1.23788539216935, 0.3329109346255465, 0.3329109346255465, 0.3329109346255465, 0.3329109346255465]",0.002,7,1
0,244,"[0.5294046934130368, -1.0413916333818616, 0.5294046934130368, 0.5294046934130368, 0.5294046934130368, 0.5294046934130368]","[0.33277874464164126, -1.2380175821532553, 0.33277874464164126, 0.33277874464164126, 0.33277874464164126, 0.33277874464164126]",0.002,7,1
0,245,"[0.5311973372128759, -1.0395989895820223, 0.5311973372128759, 0.5311973372128759, 0.5311973372128759, 0.5311973372128759]","[0.3326460289444109, -1.2381502978504857, 0.3326460289444109, 0.3326460289444109, 0.3326460289444109, 0.3326460289444109]",0.002,7,1
0,246,"[0.5329232104747171, -1.0378731163201813, 0.5329232104747171, 0.5329232104747171, 0.5329232104747171, 0.5329232104747171]","[0.33251278774351545, -1.238283539051381, 0.33251278774351545, 0.33251278774351545, 0.33251278774351545, 0.33251278774351545]",0.002,7,1
0,247,"[0.5345814538646805, -1.036214872930218, 0.5345814538646805, 0.5345814538646805, 0.5345814538646805, 0.5345814538646805]","[0.33237902124944513, -1.2384173055454515, 0.33237902124944513, 0.33237902124944513, 0.33237902124944513, 0.33237902124944513]",0.002,7,1
0,248,"[0.5361714450933871, -1.034624881701511, 0.5361714450933871, 0.5361714450933871, 0.5361714450933871, 0.5361714450933871]","[0.33224472967352, -1.2385515971213765, 0.33224472967352, 0.33224472967352, 0.33224472967352, 0.33224472967352]",0.002,7,1
0,249,"[0.5376927196086699, -1.033103607186228, 0.5376927196086699, 0.5376927196086699, 0.5376927196086699, 0.5376927196086699]","[0.3321099132278897, -1.2386864135670068, 0.3321099132278897, 0.3321099132278897, 0.3321099132278897, 0.3321099132278897]",0.002,7,1
0,250,"[0.5391449240390135, -1.0316514027558847, 0.5391449240390135, 0.5391449240390135, 0.5391449240390135, 0.5391449240390135]","[0.33197457212553283, -1.2388217546693636, 0.33197457212553283, 0.33197457212553283, 0.33197457212553283, 0.33197457212553283]",0.002,7,1
0,251,"[0.5405277874144374, -1.0302685393804607, 0.5405277874144374, 0.5405277874144374, 0.5405277874144374, 0.5405277874144374]","[0.33183870658025716, -1.2389576202146393, 0.33183870658025716, 0.33183870658025716, 0.33183870658025716, 0.33183870658025716]",0.002,7,1
0,252,"[0.5418411026297754, -1.0289552241651228, 0.5418411026297754, 0.5418411026297754, 0.5418411026297754, 0.5418411026297754]","[0.3317023168066987, -1.239094009988198, 0.3317023168066987, 0.3317023168066987, 0.3317023168066987, 0.3317023168066987]",0.002,7,1
0,253,"[0.543084714095557, -1.027711612699341, 0.543084714095557, 0.543084714095557, 0.543084714095557, 0.543084714095557]","[0.3315654030203217, -1.2392309237745749, 0.3315654030203217, 0.3315654030203217, 0.3315654030203217, 0.3315654030203217]",0.002,7,1
0,254,"[0.5442585092735795, -1.0265378175213185, 0.5442585092735795, 0.5442585092735795, 0.5442585092735795, 0.5442585092735795]","[0.33142796543741826, -1.2393683613574784, 0.33142796543741826, 0.33142796543741826, 0.33142796543741826, 0.33142796543741826]",0.002,7,1
0,255,"[0.5453624127297741, -1.0254339140651236, 0.5453624127297741, 0.5453624127297741, 0.5453624127297741, 0.5453624127297741]","[0.3312900042751079, -1.2395063225197887, 0.3312900042751079, 0.3312900042751079, 0.3312900042751079, 0.3312900042751079]",0.002,7,1
0,256,"[0.5463963818615423, -1.0243999449333554, 0.5463963818615423, 0.5463963818615423, 0.5463963818615423, 0.5463963818615423]","[0.3311515197513372, -1.2396448070435593, 0.3311515197513372, 0.3311515197513372, 0.3311515197513372, 0.3311515197513372]",0.002,7,1
0,257,"[0.5463963818615423, -1.0243999449333554, 0.5463963818615423, 0.5463963818615423, 0.5463963818615423, 0.5463963818615423]","[0.3310125120848798, -1.2397838147100169, 0.3310125120848798, 0.3310125120848798, 0.3310125120848798, 0.3310125120848798]",0.002,7,1
0,258,"[0.5473604037632126, -1.023435923031685, 0.5473604037632126, 0.5473604037632126, 0.5473604037632126, 0.5473604037632126]","[0.3308729814953355, -1.239923345299561, 0.3308729814953355, 0.3308729814953355, 0.3308729814953355, 0.3308729814953355]",0.002,7,1
0,259,"[0.5482544928787279, -1.0225418339161694, 0.5482544928787279, 0.5482544928787279, 0.5482544928787279, 0.5482544928787279]","[0.33073292820313027, -1.2400633985917664, 0.33073292820313027, 0.33073292820313027, 0.33073292820313027, 0.33073292820313027]",0.002,7,1
0,260,"[0.5490786892063332, -1.021717637588564, 0.5490786892063332, 0.5490786892063332, 0.5490786892063332, 0.5490786892063332]","[0.330592352429516, -1.2402039743653805, 0.330592352429516, 0.330592352429516, 0.330592352429516, 0.330592352429516]",0.002,7,1
0,261,"[0.5498330568941034, -1.0209632699007933, 0.5498330568941034, 0.5498330568941034, 0.5498330568941034, 0.5498330568941034]","[0.3304512543965697, -1.240345072398327, 0.3304512543965697, 0.3304512543965697, 0.3304512543965697, 0.3304512543965697]",0.002,7,1
0,262,"[0.5505176831136748, -1.0202786436812223, 0.5505176831136748, 0.5505176831136748, 0.5505176831136748, 0.5505176831136748]","[0.33030963432719374, -1.240486692467703, 0.33030963432719374, 0.33030963432719374, 0.33030963432719374, 0.33030963432719374]",0.002,7,1
0,263,"[0.5511326771319806, -1.0196636496629168, 0.5511326771319806, 0.5511326771319806, 0.5511326771319806, 0.5511326771319806]","[0.33016749244511484, -1.2406288343497818, 0.33016749244511484, 0.33016749244511484, 0.33016749244511484, 0.33016749244511484]",0.002,7,1
0,264,"[0.5516781695228549, -1.0191181572720422, 0.5516781695228549, 0.5516781695228549, 0.5516781695228549, 0.5516781695228549]","[0.3300248289748844, -1.2407714978200122, 0.3300248289748844, 0.3300248289748844, 0.3300248289748844, 0.3300248289748844]",0.002,7,1
0,265,"[0.5521543114755874, -1.01864201531931, 0.5521543114755874, 0.5521543114755874, 0.5521543114755874, 0.5521543114755874]","[0.32988164414187754, -1.240914682653019, 0.32988164414187754, 0.32988164414187754, 0.32988164414187754, 0.32988164414187754]",0.002,7,1
0,266,"[0.552561274168136, -1.0182350526267614, 0.552561274168136, 0.552561274168136, 0.552561274168136, 0.552561274168136]","[0.32973793817229324, -1.2410583886226032, 0.32973793817229324, 0.32973793817229324, 0.32973793817229324, 0.32973793817229324]",0.002,7,1
0,267,"[0.5528992481801807, -1.0178970786147161, 0.5528992481801807, 0.5528992481801807, 0.5528992481801807, 0.5528992481801807]","[0.3295937112931535, -1.241202615501743, 0.3295937112931535, 0.3295937112931535, 0.3295937112931535, 0.3295937112931535]",0.002,7,1
0,268,"[0.5531684429264598, -1.0176278838684372, 0.5531684429264598, 0.5531684429264598, 0.5531684429264598, 0.5531684429264598]","[0.32944896373230353, -1.241347363062593, 0.32944896373230353, 0.32944896373230353, 0.32944896373230353, 0.32944896373230353]",0.002,7,1
0,269,"[0.5533690763472402, -1.017427250447657, 0.5533690763472402, 0.5533690763472402, 0.5533690763472402, 0.5533690763472402]","[0.32930369571841084, -1.2414926310764858, 0.32930369571841084, 0.32930369571841084, 0.32930369571841084, 0.32930369571841084]",0.002,7,1
0,270,"[0.5535013701905263, -1.0172949566043705, 0.5535013701905263, 0.5535013701905263, 0.5535013701905263, 0.5535013701905263]","[0.32915790748096524, -1.2416384193139314, 0.32915790748096524, 0.32915790748096524, 0.32915790748096524, 0.32915790748096524]",0.002,7,1
0,271,"[0.5535656110087173, -1.0172307157861793, 0.5535656110087173, 0.5535656110087173, 0.5535656110087173, 0.5535656110087173]","[0.3290115992502784, -1.241784727544618, 0.3290115992502784, 0.3290115992502784, 0.3290115992502784, 0.3290115992502784]",0.002,7,1
0,272,"[0.553562075422608, -1.0172342513722885, 0.553562075422608, 0.553562075422608, 0.553562075422608, 0.553562075422608]","[0.3288647712574834, -1.241931555537413, 0.3288647712574834, 0.3288647712574834, 0.3288647712574834, 0.3288647712574834]",0.002,7,1
0,273,"[0.5534911268398188, -1.0173051999550786, 0.5534911268398188, 0.5534911268398188, 0.5534911268398188, 0.5534911268398188]","[0.3287174237345346, -1.2420789030603618, 0.3287174237345346, 0.3287174237345346, 0.3287174237345346, 0.3287174237345346]",0.002,7,1
0,274,"[0.5533531466023893, -1.0174431801925081, 0.5533531466023893, 0.5533531466023893, 0.5533531466023893, 0.5533531466023893]","[0.32856955691420675, -1.24222676988069, 0.32856955691420675, 0.32856955691420675, 0.32856955691420675, 0.32856955691420675]",0.002,7,1
0,275,"[0.5531485337647499, -1.0176477930301466, 0.5531485337647499, 0.5531485337647499, 0.5531485337647499, 0.5531485337647499]","[0.32842117103009527, -1.2423751557648013, 0.32842117103009527, 0.32842117103009527, 0.32842117103009527, 0.32842117103009527]",0.002,7,1
0,276,"[0.5528777048676972, -1.0179186219271994, 0.5528777048676972, 0.5528777048676972, 0.5528777048676972, 0.5528777048676972]","[0.3282722663166155, -1.242524060478281, 0.3282722663166155, 0.3282722663166155, 0.3282722663166155, 0.3282722663166155]",0.002,7,1
0,277,"[0.5525410937084638, -1.0182552330864318, 0.5525410937084638, 0.5525410937084638, 0.5525410937084638, 0.5525410937084638]","[0.32812284300900235, -1.2426734837858942, 0.32812284300900235, 0.32812284300900235, 0.32812284300900235, 0.32812284300900235]",0.002,7,1
0,278,"[0.5521391511069842, -1.0186571756879115, 0.5521391511069842, 0.5521391511069842, 0.5521391511069842, 0.5521391511069842]","[0.32797290134331003, -1.2428234254515864, 0.32797290134331003, 0.32797290134331003, 0.32797290134331003, 0.32797290134331003]",0.002,7,1
0,279,"[0.5516723446684368, -1.0191239821264588, 0.5516723446684368, 0.5516723446684368, 0.5516723446684368, 0.5516723446684368]","[0.32782244155641166, -1.2429738852384848, 0.32782244155641166, 0.32782244155641166, 0.32782244155641166, 0.32782244155641166]",0.002,7,1
0,280,"[0.5511411585421637, -1.019655168252731, 0.5511411585421637, 0.5511411585421637, 0.5511411585421637, 0.5511411585421637]","[0.3276714638859988, -1.2431248629088978, 0.3276714638859988, 0.3276714638859988, 0.3276714638859988, 0.3276714638859988]",0.002,7,1
0,281,"[0.5505460931770649, -1.0202502336178298, 0.5505460931770649, 0.5505460931770649, 0.5505460931770649, 0.5505460931770649]","[0.3275199685705813, -1.2432763582243154, 0.3275199685705813, 0.3275199685705813, 0.3275199685705813, 0.3275199685705813]",0.002,7,1
0,282,"[0.5498876650735527, -1.020908661721343, 0.5498876650735527, 0.5498876650735527, 0.5498876650735527, 0.5498876650735527]","[0.3273679558494865, -1.2434283709454101, 0.3273679558494865, 0.3273679558494865, 0.3273679558494865, 0.3273679558494865]",0.002,7,1
0,283,"[0.5491664065321675, -1.021629920262729, 0.5491664065321675, 0.5491664065321675, 0.5491664065321675, 0.5491664065321675]","[0.32721542596285946, -1.243580900832037, 0.32721542596285946, 0.32721542596285946, 0.32721542596285946, 0.32721542596285946]",0.002,7,1
0,284,"[0.5483828653989544, -1.0224134613959421, 0.5483828653989544, 0.5483828653989544, 0.5483828653989544, 0.5483828653989544]","[0.3270623791516619, -1.2437339476432347, 0.3270623791516619, 0.3270623791516619, 0.3270623791516619, 0.3270623791516619]",0.002,7,1
0,285,"[0.547537604807685, -1.0232587219872116, 0.547537604807685, 0.547537604807685, 0.547537604807685, 0.547537604807685]","[0.3269088156576725, -1.243887511137224, 0.3269088156576725, 0.3269088156576725, 0.3269088156576725, 0.3269088156576725]",0.002,7,1
0,286,"[0.5466312029190314, -1.0241651238758642, 0.5466312029190314, 0.5466312029190314, 0.5466312029190314, 0.5466312029190314]","[0.32675473572348585, -1.2440415910714107, 0.32675473572348585, 0.32675473572348585, 0.32675473572348585, 0.32675473572348585]",0.002,7,1
0,287,"[0.5456642526567821, -1.0251320741381136, 0.5456642526567821, 0.5456642526567821, 0.5456642526567821, 0.5456642526567821]","[0.32660013959251266, -1.244196187202384, 0.32660013959251266, 0.32660013959251266, 0.32660013959251266, 0.32660013959251266]",0.002,7,1
0,288,"[0.5456642526567821, -1.0251320741381136, 0.5456642526567821, 0.5456642526567821, 0.5456642526567821, 0.5456642526567821]","[0.3264450275089789, -1.2443512992859176, 0.3264450275089789, 0.3264450275089789, 0.3264450275089789, 0.3264450275089789]",0.002,7,1
0,289,"[0.5446373614412039, -1.0261589653536909, 0.5446373614412039, 0.5446373614412039, 0.5446373614412039, 0.5446373614412039]","[0.32628939971792587, -1.2445069270769706, 0.32628939971792587, 0.32628939971792587, 0.32628939971792587, 0.32628939971792587]",0.002,7,1
0,290,"[0.543551150919642, -1.0272451758752528, 0.543551150919642, 0.543551150919642, 0.543551150919642, 0.543551150919642]","[0.3261332564652093, -1.2446630703296873, 0.3261332564652093, 0.3261332564652093, 0.3261332564652093, 0.3261332564652093]",0.002,7,1
0,291,"[0.5423944259363358, -1.028401900858558, 0.5423944259363358, 0.5423944259363358, 0.5423944259363358, 0.5423944259363358]","[0.32597659799749945, -1.2448197287973972, 0.32597659799749945, 0.32597659799749945, 0.32597659799749945, 0.32597659799749945]",0.002,7,1
0,292,"[0.5411639653484777, -1.0296323614464153, 0.5411639653484777, 0.5411639653484777, 0.5411639653484777, 0.5411639653484777]","[0.3258194245622803, -1.2449769022326163, 0.3258194245622803, 0.3258194245622803, 0.3258194245622803, 0.3258194245622803]",0.002,7,1
0,293,"[0.5398597126185196, -1.0309366141763743, 0.5398597126185196, 0.5398597126185196, 0.5398597126185196, 0.5398597126185196]","[0.32566173640784957, -1.245134590387047, 0.32566173640784957, 0.32566173640784957, 0.32566173640784957, 0.32566173640784957]",0.002,7,1
0,294,"[0.5384816450180097, -1.0323146817768851, 0.5384816450180097, 0.5384816450180097, 0.5384816450180097, 0.5384816450180097]","[0.325503533783318, -1.2452927930115787, 0.325503533783318, 0.325503533783318, 0.325503533783318, 0.325503533783318]",0.002,7,1
0,295,"[0.5370297640180821, -1.0337665627768136, 0.5370297640180821, 0.5370297640180821, 0.5370297640180821, 0.5370297640180821]","[0.325344816938609, -1.2454515098562875, 0.325344816938609, 0.325344816938609, 0.325344816938609, 0.325344816938609]",0.002,7,1
0,296,"[0.535504091418832, -1.0352922353760619, 0.535504091418832, 0.535504091418832, 0.535504091418832, 0.535504091418832]","[0.32518558612445847, -1.245610740670438, 0.32518558612445847, 0.32518558612445847, 0.32518558612445847, 0.32518558612445847]",0.002,7,1
0,297,"[0.5339048225112792, -1.0368915042836164, 0.5339048225112792, 0.5339048225112792, 0.5339048225112792, 0.5339048225112792]","[0.32502584159241427, -1.2457704852024822, 0.32502584159241427, 0.32502584159241427, 0.32502584159241427, 0.32502584159241427]",0.002,7,1
0,298,"[0.5322328189845908, -1.0385635078103057, 0.5322328189845908, 0.5322328189845908, 0.5322328189845908, 0.5322328189845908]","[0.3248655835948357, -1.2459307432000608, 0.3248655835948357, 0.3248655835948357, 0.3248655835948357, 0.3248655835948357]",0.002,7,1
0,299,"[0.5304889677845672, -1.0403073590103311, 0.5304889677845672, 0.5304889677845672, 0.5304889677845672, 0.5304889677845672]","[0.32470481238489324, -1.2460915144100033, 0.32470481238489324, 0.32470481238489324, 0.32470481238489324, 0.32470481238489324]",0.002,7,1
0,300,"[0.528674174966425, -1.0421221518284725, 0.528674174966425, 0.528674174966425, 0.528674174966425, 0.528674174966425]","[0.32454352821656823, -1.2462527985783283, 0.32454352821656823, 0.32454352821656823, 0.32454352821656823, 0.32454352821656823]",0.002,7,1
0,301,"[0.52678933353054, -1.0440069932643574, 0.52678933353054, 0.52678933353054, 0.52678933353054, 0.52678933353054]","[0.3243817313446522, -1.2464145954502444, 0.3243817313446522, 0.3243817313446522, 0.3243817313446522, 0.3243817313446522]",0.002,7,1
0,302,"[0.5248354051072885, -1.045960921687609, 0.5248354051072885, 0.5248354051072885, 0.5248354051072885, 0.5248354051072885]","[0.3242194220247468, -1.2465769047701498, 0.3242194220247468, 0.3242194220247468, 0.3242194220247468, 0.3242194220247468]",0.002,7,1
0,303,"[0.5228133843683773, -1.0479829424265201, 0.5228133843683773, 0.5228133843683773, 0.5228133843683773, 0.5228133843683773]","[0.3240566005132631, -1.2467397262816333, 0.3240566005132631, 0.3240566005132631, 0.3240566005132631, 0.3240566005132631]",0.002,7,1
0,304,"[0.5207242937077083, -1.0500720330871882, 0.5207242937077083, 0.5207242937077083, 0.5207242937077083, 0.5207242937077083]","[0.3238932670674215, -1.246903059727475, 0.3238932670674215, 0.3238932670674215, 0.3238932670674215, 0.3238932670674215]",0.002,7,1
0,305,"[0.5185691832955106, -1.052227143499385, 0.5185691832955106, 0.5185691832955106, 0.5185691832955106, 0.5185691832955106]","[0.3237294219452508, -1.2470669048496457, 0.3237294219452508, 0.3237294219452508, 0.3237294219452508, 0.3237294219452508]",0.002,7,1
0,306,"[0.516349131006125, -1.0544471957887716, 0.516349131006125, 0.516349131006125, 0.516349131006125, 0.516349131006125]","[0.3235650654055885, -1.2472312613893082, 0.3235650654055885, 0.3235650654055885, 0.3235650654055885, 0.3235650654055885]",0.002,7,1
0,307,"[0.51409285815829, -1.0567034686366075, 0.51409285815829, 0.51409285815829, 0.51409285815829, 0.51409285815829]","[0.32340019770807976, -1.2473961290868167, 0.32340019770807976, 0.32340019770807976, 0.32340019770807976, 0.32340019770807976]",0.002,7,1
0,308,"[0.5118381277501314, -1.058958199044767, 0.5118381277501314, 0.5118381277501314, 0.5118381277501314, 0.5118381277501314]","[0.3232348191131774, -1.247561507681719, 0.3232348191131774, 0.3232348191131774, 0.3232348191131774, 0.3232348191131774]",0.002,7,1
0,309,"[0.5095839961559525, -1.061212330638945, 0.5095839961559525, 0.5095839961559525, 0.5095839961559525, 0.5095839961559525]","[0.3230689298821413, -1.2477273969127554, 0.3230689298821413, 0.3230689298821413, 0.3230689298821413, 0.3230689298821413]",0.002,7,1
0,310,"[0.5073292213683986, -1.063467105426497, 0.5073292213683986, 0.5073292213683986, 0.5073292213683986, 0.5073292213683986]","[0.322902530277038, -1.2478937965178585, 0.322902530277038, 0.322902530277038, 0.322902530277038, 0.322902530277038]",0.002,7,1
