Arnibjarnst/BoxLift/logs/ur_rtde/trajectory_dur=10.0_delay=0.0_gain=200_lh=0.03_real.csv
arm_idx,step,actual_q,actual_qd,target_q,expected_q,loop_time,robot_mode,safety_mode
0,-1,"[0.06839306652545929, -1.5023594361594697, 0.06836015382875615, 0.06845061361279292, 0.0685054361820221, 0.06838881969451904]","[-0.04222980514168739, -0.041281912475824356, -0.042760156095027924, -0.03668723255395889, -0.03978303447365761, -0.03966285660862923]","[0.0, -1.5707963267948966, 0.0, 0.0, 0.0, 0.0]","[0.0, -1.5707963267948966, 0.0, 0.0, 0.0, 0.0]",0.002,7,1
0,-1,"[0.0676821619272232, -1.503073164527752, 0.06763583818544561, 0.06779675065960689, 0.06780889630317688, 0.06776341795921326]","[-0.05504259839653969, -0.05452292039990425, -0.05687256529927254, -0.05266176536679268, -0.055045321583747864, -0.053032148629426956]","[0.0, -1.5707963267948966, 0.0, 0.0, 0.0, 0.0]","[0.0, -1.5707963267948966, 0.0, 0.0, 0.0, 0.0]",0.002,7,1
0,-1,"[0.06682896614074707, -1.503933237200119, 0.06676608720888311, 0.06691472112622066, 0.06701075285673141, 0.06694815307855606]","[-0.06791971623897552, -0.06913822144269943, -0.0682888776063919, -0.06808172911405563, -0.06953561305999756, -0.0684550479054451]","[0.0, -1.5707963267948966, 0.0, 0.0, 0.0, 0.0]","[0.0, -1.5707963267948966, 0.0, 0.0, 0.0, 0.0]",0.002,7,1
0,-1,"[0.0660865306854248, -1.504660242503025, 0.06601602235902959, 0.06615225851025386, 0.06621652841567993, 0.06622859090566635]","[-0.07813391089439392, -0.07757483422756195, -0.07893658429384232, -0.07821033895015717, -0.07909677922725677, -0.07993083447217941]","[0.0, -1.5707963267948966, 0.0, 0.0, 0.0, 0.0]","[0.0, -1.5707963267948966, 0.0, 0.0, 0.0, 0.0]",0.002,7,1
0,-1,"[0.06495480984449387, -1.5056840118816872, 0.0649340788470667, 0.06511108457531734, 0.06518733501434326, 0.06517616659402847]","[-0.09257083386182785, -0.08823402971029282, -0.08952099084854126, -0.09024816751480103, -0.09103135019540787, -0.09062351286411285]","[0.0, -1.5707963267948966, 0.0, 0.0, 0.0, 0.0]","[0.0, -1.5707963267948966, 0.0, 0.0, 0.0, 0.0]",0.002,7,1
0,-1,"[0.0633319765329361, -1.5072333303144951, 0.06334096590151006, 0.06347159921612544, 0.06350668519735336, 0.06353217363357544]","[-0.10612782090902328, -0.10428973287343979, -0.10709533095359802, -0.10766532272100449, -0.10810226202011108, -0.10884964466094971]","[0.0, -1.5707963267948966, 0.0, 0.0, 0.0, 0.0]","[0.0, -1.5707963267948966, 0.0, 0.0, 0.0, 0.0]",0.002,7,1
0,-1,"[0.06250282377004623, -1.508137197499611, 0.06247836748232061, 0.0625801521488647, 0.06258198618888855, 0.06258436292409897]","[-0.11131658405065536, -0.11308777332305908, -0.11262538284063339, -0.11357492208480835, -0.11729501187801361, -0.11604712903499603]","[0.0, -1.5707963267948966, 0.0, 0.0, 0.0, 0.0]","[0.0, -1.5707963267948966, 0.0, 0.0, 0.0, 0.0]",0.002,7,1
0,-1,"[0.06129172071814537, -1.509387483154871, 0.06122810045351201, 0.06140534460034175, 0.06141471117734909, 0.061344876885414124]","[-0.12315189838409424, -0.12349369376897812, -0.1201404333114624, -0.12439607083797455, -0.12185284495353699, -0.12306635081768036]","[0.0, -1.5707963267948966, 0.0, 0.0, 0.0, 0.0]","[0.0, -1.5707963267948966, 0.0, 0.0, 0.0, 0.0]",0.002,7,1
0,-1,"[0.05658862739801407, -1.5142331172576924, 0.05655271211733037, 0.0566677290150146, 0.05649339780211449, 0.05647587403655052]","[-0.15814444422721863, -0.15640804171562195, -0.1547890603542328, -0.1571381837129593, -0.15601348876953125, -0.15698744356632233]","[0.0, -1.5707963267948966, 0.0, 0.0, 0.0, 0.0]","[0.0, -1.5707963267948966, 0.0, 0.0, 0.0, 0.0]",0.002,7,1
0,-1,"[0.05138859152793884, -1.519338895832636, 0.051368538533346, 0.05150405942883296, 0.05131734162569046, 0.05122921243309975]","[-0.18779197335243225, -0.1853138953447342, -0.18834179639816284, -0.19289252161979675, -0.1876792162656784, -0.18533459305763245]","[0.0, -1.5707963267948966, 0.0, 0.0, 0.0, 0.0]","[0.0, -1.5707963267948966, 0.0, 0.0, 0.0, 0.0]",0.002,7,1
0,-1,"[0.04779312014579773, -1.522901864056923, 0.047892395650045216, 0.04796354352917476, 0.04778606817126274, 0.0477413684129715]","[-0.204945906996727, -0.20499667525291443, -0.20587709546089172, -0.21132025122642517, -0.2053498923778534, -0.20471416413784027]","[0.0, -1.5707963267948966, 0.0, 0.0, 0.0, 0.0]","[0.0, -1.5707963267948966, 0.0, 0.0, 0.0, 0.0]",0.002,7,1
0,-1,"[0.046065546572208405, -1.5245939542404194, 0.04620391527284795, 0.04617754995312495, 0.04616711288690567, 0.046018119901418686]","[-0.21465739607810974, -0.2123371958732605, -0.21501803398132324, -0.21771952509880066, -0.21388450264930725, -0.21079882979393005]","[0.0, -1.5707963267948966, 0.0, 0.0, 0.0, 0.0]","[0.0, -1.5707963267948966, 0.0, 0.0, 0.0, 0.0]",0.002,7,1
0,-1,"[0.04298918694257736, -1.5276723031750699, 0.04309207597841436, 0.04300527154888911, 0.04307692497968674, 0.04302871972322464]","[-0.22847090661525726, -0.23138335347175598, -0.22900696098804474, -0.22953873872756958, -0.2299179583787918, -0.22820910811424255]","[0.0, -1.5707963267948966, 0.0, 0.0, 0.0, 0.0]","[0.0, -1.5707963267948966, 0.0, 0.0, 0.0, 0.0]",0.002,7,1
0,-1,"[0.04064689576625824, -1.5299619001201172, 0.04074746767152959, 0.04062037050213618, 0.040726833045482635, 0.04074235260486603]","[-0.23967225849628448, -0.239772230386734, -0.23927608132362366, -0.24114952981472015, -0.2408963143825531, -0.2420971393585205]","[0.0, -1.5707963267948966, 0.0, 0.0, 0.0, 0.0]","[0.0, -1.5707963267948966, 0.0, 0.0, 0.0, 0.0]",0.002,7,1
0,-1,"[0.03822045028209686, -1.5323460300317784, 0.03828174272646123, 0.03809885560955806, 0.0382397435605526, 0.03827443718910217]","[-0.25020313262939453, -0.24979862570762634, -0.25034257769584656, -0.24827618896961212, -0.2530547082424164, -0.2523341774940491]","[0.0, -1.5707963267948966, 0.0, 0.0, 0.0, 0.0]","[0.0, -1.5707963267948966, 0.0, 0.0, 0.0, 0.0]",0.002,7,1
0,-1,"[0.03294764831662178, -1.537494384949543, 0.03305417696108037, 0.0328717666813354, 0.03303869813680649, 0.03308197110891342]","[-0.2615794241428375, -0.22384829819202423, -0.2419271171092987, -0.25035610795021057, -0.2565082609653473, -0.258354514837265]","[0.0, -1.5707963267948966, 0.0, 0.0, 0.0, 0.0]","[0.0, -1.5707963267948966, 0.0, 0.0, 0.0, 0.0]",0.002,7,1
0,-1,"[0.030964648351073265, -1.5393968795290967, 0.031110111867086232, 0.030868812198303175, 0.03107759729027748, 0.031059568747878075]","[-0.24902598559856415, -0.23150940239429474, -0.24007102847099304, -0.24271757900714874, -0.24914535880088806, -0.24924315512180328]","[0.0, -1.5707963267948966, 0.0, 0.0, 0.0, 0.0]","[0.0, -1.5707963267948966, 0.0, 0.0, 0.0, 0.0]",0.002,7,1
0,-1,"[0.028079276904463768, -1.5425019220313807, 0.028127018605367482, 0.028015418643615675, 0.028039364144206047, 0.028118493035435677]","[-0.23610281944274902, -0.24189385771751404, -0.2381652593612671, -0.23516197502613068, -0.23624396324157715, -0.2378668487071991]","[0.0, -1.5707963267948966, 0.0, 0.0, 0.0, 0.0]","[0.0, -1.5707963267948966, 0.0, 0.0, 0.0, 0.0]",0.002,7,1
0,-1,"[0.025428814813494682, -1.545363449757435, 0.025394741688863576, 0.025340481395385694, 0.02528013102710247, 0.025389740243554115]","[-0.22471091151237488, -0.2292533963918686, -0.22392427921295166, -0.22307288646697998, -0.2241324484348297, -0.22730818390846252]","[0.0, -1.5707963267948966, 0.0, 0.0, 0.0, 0.0]","[0.0, -1.5707963267948966, 0.0, 0.0, 0.0, 0.0]",0.002,7,1
0,-1,"[0.02282523550093174, -1.5480715700289984, 0.022814575825826466, 0.022888823146484327, 0.022650808095932007, 0.022705717012286186]","[-0.21337667107582092, -0.21438540518283844, -0.21329210698604584, -0.21337369084358215, -0.21096168458461761, -0.2129296213388443]","[0.0, -1.5707963267948966, 0.0, 0.0, 0.0, 0.0]","[0.0, -1.5707963267948966, 0.0, 0.0, 0.0, 0.0]",0.002,7,1
0,-1,"[0.02033166214823723, -1.5505704426071425, 0.020351711903707326, 0.020411654109619093, 0.020203465595841408, 0.020206626504659653]","[-0.2017327845096588, -0.20094449818134308, -0.19964678585529327, -0.20513422787189484, -0.19919922947883606, -0.199641615152359]","[0.0, -1.5707963267948966, 0.0, 0.0, 0.0, 0.0]","[0.0, -1.5707963267948966, 0.0, 0.0, 0.0, 0.0]",0.002,7,1
0,-1,"[0.017969757318496704, -1.5529300489327689, 0.018024746571676076, 0.01807682096447749, 0.017893915995955467, 0.017923543229699135]","[-0.190574511885643, -0.19019213318824768, -0.1917857676744461, -0.19352255761623383, -0.18931668996810913, -0.18958976864814758]","[0.0, -1.5707963267948966, 0.0, 0.0, 0.0, 0.0]","[0.0, -1.5707963267948966, 0.0, 0.0, 0.0, 0.0]",0.002,7,1
0,-1,"[0.015758877620100975, -1.5550640889308234, 0.015857521687642873, 0.015805287952087355, 0.015763064846396446, 0.015683500096201897]","[-0.17903022468090057, -0.1759638488292694, -0.17894573509693146, -0.18033909797668457, -0.17823827266693115, -0.17661474645137787]","[0.0, -1.5707963267948966, 0.0, 0.0, 0.0, 0.0]","[0.0, -1.5707963267948966, 0.0, 0.0, 0.0, 0.0]",0.002,7,1
0,-1,"[0.012657898478209972, -1.5580291871777554, 0.012861076985494435, 0.012714906329772901, 0.012731174007058144, 0.01274036057293415]","[-0.16039510071277618, -0.15844054520130157, -0.16245456039905548, -0.1634148359298706, -0.1588195413351059, -0.15935342013835907]","[0.0, -1.5707963267948966, 0.0, 0.0, 0.0, 0.0]","[0.0, -1.5707963267948966, 0.0, 0.0, 0.0, 0.0]",0.002,7,1
0,-1,"[0.010844608768820763, -1.5598034432953973, 0.01102000871767217, 0.010915442104003859, 0.01089924294501543, 0.01092192716896534]","[-0.14666354656219482, -0.14862309396266937, -0.14786411821842194, -0.14885011315345764, -0.15056023001670837, -0.14947715401649475]","[0.0, -1.5707963267948966, 0.0, 0.0, 0.0, 0.0]","[0.0, -1.5707963267948966, 0.0, 0.0, 0.0, 0.0]",0.002,7,1
0,-1,"[0.00832435954362154, -1.5622808637893577, 0.008423630391256154, 0.00832156717266841, 0.008417707867920399, 0.008448070846498013]","[-0.1306401640176773, -0.1319737732410431, -0.13218224048614502, -0.12857544422149658, -0.13205695152282715, -0.1325143724679947]","[0.0, -1.5707963267948966, 0.0, 0.0, 0.0, 0.0]","[0.0, -1.5707963267948966, 0.0, 0.0, 0.0, 0.0]",0.002,7,1
0,-1,"[0.006902587600052357, -1.563776373197772, 0.006959263478414357, 0.006789489383361769, 0.006931585259735584, 0.006944752298295498]","[-0.11796149611473083, -0.1210477277636528, -0.12101364135742188, -0.11780569702386856, -0.11980757117271423, -0.12036435306072235]","[0.0, -1.5707963267948966, 0.0, 0.0, 0.0, 0.0]","[0.0, -1.5707963267948966, 0.0, 0.0, 0.0, 0.0]",0.002,7,1
0,-1,"[0.0049122413620352745, -1.5657322488589962, 0.004884068165914357, 0.00489000856365962, 0.004975004121661186, 0.005058532115072012]","[-0.09911467134952545, -0.1050979346036911, -0.10217097401618958, -0.09744498878717422, -0.10113504528999329, -0.10297027230262756]","[0.0, -1.5707963267948966, 0.0, 0.0, 0.0, 0.0]","[0.0, -1.5707963267948966, 0.0, 0.0, 0.0, 0.0]",0.002,7,1
0,-1,"[0.003625300247222185, -1.567059479686879, 0.0036199728595178726, 0.0035785871693114757, 0.0036724936217069626, 0.0037017574068158865]","[-0.08599255234003067, -0.0887565016746521, -0.08611799031496048, -0.08257977664470673, -0.08795657753944397, -0.08711041510105133]","[0.0, -1.5707963267948966, 0.0, 0.0, 0.0, 0.0]","[0.0, -1.5707963267948966, 0.0, 0.0, 0.0, 0.0]",0.002,7,1
0,-1,"[0.0026138012763112783, -1.5680387388313939, 0.0025818983661096695, 0.002624197597167921, 0.002710835775360465, 0.0027888298500329256]","[-0.07262618839740753, -0.07660851627588272, -0.07509223371744156, -0.0713232010602951, -0.07379376888275146, -0.07444463670253754]","[0.0, -1.5707963267948966, 0.0, 0.0, 0.0, 0.0]","[0.0, -1.5707963267948966, 0.0, 0.0, 0.0, 0.0]",0.002,7,1
0,-1,"[0.0018535879207774997, -1.568946150746644, 0.0017955938922327164, 0.0018725830265502452, 0.0019190029706805944, 0.001935421023517847]","[-0.0613505057990551, -0.0669657289981842, -0.06320744007825851, -0.05955992639064789, -0.06487210094928741, -0.06128980219364166]","[0.0, -1.5707963267948966, 0.0, 0.0, 0.0, 0.0]","[0.0, -1.5707963267948966, 0.0, 0.0, 0.0, 0.0]",0.002,7,1
0,-1,"[0.0008981347200460732, -1.5699311697720368, 0.000905338917867482, 0.0009345251270751476, 0.0009918574942275882, 0.0009732961771078408]","[-0.043094370514154434, -0.04791006073355675, -0.04498313367366791, -0.04526413604617119, -0.045600928366184235, -0.04570211097598076]","[0.0, -1.5707963267948966, 0.0, 0.0, 0.0, 0.0]","[0.0, -1.5707963267948966, 0.0, 0.0, 0.0, 0.0]",0.002,7,1
0,-1,"[0.0004825592041015625, -1.5704293575293669, 0.0003464857684534195, 0.00046734392132563585, 0.0005303590442053974, 0.0005124249728396535]","[-0.03126789256930351, -0.034147586673498154, -0.03259948641061783, -0.032247159630060196, -0.032086774706840515, -0.03318007290363312]","[0.0, -1.5707963267948966, 0.0, 0.0, 0.0, 0.0]","[0.0, -1.5707963267948966, 0.0, 0.0, 0.0, 0.0]",0.002,7,1
0,-1,"[8.198273280868307e-05, -1.5708524189391078, -1.0218361239822116e-05, 7.657587017817491e-05, 0.00012941265595145524, 0.00011842775711556897]","[-0.013055074028670788, -0.014950917102396488, -0.014424506574869156, -0.013697986491024494, -0.012959299609065056, -0.014555648900568485]","[0.0, -1.5707963267948966, 0.0, 0.0, 0.0, 0.0]","[0.0, -1.5707963267948966, 0.0, 0.0, 0.0, 0.0]",0.002,7,1
0,-1,"[5.510795017471537e-05, -1.5709392033019007, -2.367873275943566e-05, 5.7025546691846785e-05, 8.877229993231595e-05, 1.3607264008896891e-05]","[-0.00012210218119435012, 0.0007218618411570787, -2.3141268684412353e-05, 0.0041321562603116035, 0.004056828562170267, -0.001017065136693418]","[0.0, -1.5707963267948966, 0.0, 0.0, 0.0, 0.0]","[0.0, -1.5707963267948966, 0.0, 0.0, 0.0, 0.0]",0.002,7,1
0,-1,"[7.462501525878906e-05, -1.5709177456297816, -6.295176717685536e-05, 3.962099041743272e-05, 3.161874701618217e-06, 6.318092346191406e-05]","[0.0009297888609580696, -4.493628512136638e-05, 0.0011011719470843673, -0.0004095112672075629, 6.090762383337278e-08, -6.277156528941563e-14]","[0.0, -1.5707963267948966, 0.0, 0.0, 0.0, 0.0]","[0.0, -1.5707963267948966, 0.0, 0.0, 0.0, 0.0]",0.002,7,1
0,-1,"[6.55677285976708e-05, -1.5708853207030238, -3.4600812796270475e-05, 6.024419750971788e-05, 0.00012342930131126195, 3.768753958866e-05]","[0.00029425014508888125, 0.0015389802865684032, 0.0011073496425524354, -2.610193172714048e-09, 4.719176302991554e-15, -4.863596223509841e-21]","[0.0, -1.5707963267948966, 0.0, 0.0, 0.0, 0.0]","[0.0, -1.5707963267948966, 0.0, 0.0, 0.0, 0.0]",0.002,7,1
0,-1,"[0.00010764336911961436, -1.570740977415273, 8.885060445606996e-06, 8.408605541987413e-05, 7.077455666149035e-05, 6.318092346191406e-05]","[4.651262486277119e-07, 0.0035524857230484486, 0.0007423830684274435, 0.0006900100270286202, -0.00028419779846444726, -8.839355308538961e-26]","[0.0, -1.5707963267948966, 0.0, 0.0, 0.0, 0.0]","[0.0, -1.5707963267948966, 0.0, 0.0, 0.0, 0.0]",0.002,7,1
0,-1,"[8.199477451853454e-05, -1.5707517505728283, 4.655519594365387e-05, 8.956968273921007e-05, 8.16162719274871e-05, 5.41026602149941e-05]","[2.712467917217043e-18, 0.002518849214538932, 0.0005039912066422403, 2.385275532645892e-09, -0.0006982687627896667, -6.848810654186726e-33]","[0.0, -1.5707963267948966, 0.0, 0.0, 0.0, 0.0]","[0.0, -1.5707963267948966, 0.0, 0.0, 0.0, 0.0]",0.002,7,1
0,-1,"[0.00011221235035918653, -1.5707848967361606, 2.9865895406544496e-05, 5.261480297846788e-05, 3.761601692531258e-05, 5.41026602149941e-05]","[1.5818252449297837e-29, 0.0007218383834697306, 0.0002611231757327914, 1.8481328496335834e-16, -0.0005959038971923292, -5.306521102613077e-40]","[0.0, -1.5707963267948966, 0.0, 0.0, 0.0, 0.0]","[0.0, -1.5707963267948966, 0.0, 0.0, 0.0, 0.0]",0.002,7,1
0,-1,"[0.00012423467705957592, -1.5708071194090785, 1.3653432027638246e-05, 6.024419750971788e-05, 7.530752918682992e-05, 7.216930680442601e-05]","[9.22474779065027e-41, -0.0001104512411984615, 7.079995702952147e-05, -0.0004390585527289659, -0.0007818539161235094, -0.0]","[0.0, -1.5707963267948966, 0.0, 0.0, 0.0, 0.0]","[0.0, -1.5707963267948966, 0.0, 0.0, 0.0, 0.0]",0.002,7,1
0,-1,"[9.56482908804901e-05, -1.570781523709531, 6.024037496388246e-06, 5.273401226801866e-05, 6.626217509619892e-05, 6.318092346191406e-05]","[0.0, -0.0008402933599427342, 4.7624391299905255e-05, -0.0006789322942495346, -0.0007009007385931909, -8.658277511131018e-05]","[0.0, -1.5707963267948966, 0.0, 0.0, 0.0, 0.0]","[0.0, -1.5707963267948966, 0.0, 0.0, 0.0, 0.0]",0.002,7,1
0,-1,"[8.201284799724817e-05, -1.5708309612669886, -2.86102294921875e-06, 2.4481410644483503e-05, 6.343769928207621e-05, 4.529001671471633e-06]","[0.0, -0.00029733392875641584, 1.1599684010777584e-18, -0.0005884116399101913, -0.0008115164819173515, -0.0007832229603081942]","[0.0, -1.5707963267948966, 0.0, 0.0, 0.0, 0.0]","[0.0, -1.5707963267948966, 0.0, 0.0, 0.0, 0.0]",0.002,7,1
0,-1,"[7.919399649836123e-05, -1.5708281002440394, 1.3653432027638246e-05, -1.1485866089344654e-06, 3.761601692531258e-05, 2.7179718017578125e-05]","[0.0, -2.88306011009265e-12, 1.2175996401137803e-33, -0.0005987557233311236, -0.0007400699541904032, -0.0009877147385850549]","[0.0, -1.5707963267948966, 0.0, 0.0, 0.0, 0.0]","[0.0, -1.5707963267948966, 0.0, 0.0, 0.0, 0.0]",0.002,7,1
0,-1,"[0.0001001544005703181, -1.5707197923660097, -3.755283250939101e-05, 2.018987622065538e-05, 1.8358230590820312e-05, -5.547200338185121e-06]","[0.0, 0.0009644210804253817, 3.944935436767225e-41, -0.0004683982697315514, -0.0006809023907408118, -0.000666456704493612]","[0.0, -1.5707963267948966, 0.0, 0.0, 0.0, 0.0]","[0.0, -1.5707963267948966, 0.0, 0.0, 0.0, 0.0]",0.002,7,1
0,-1,"[7.924831879790872e-05, -1.5707001548183435, 0.0, 2.4481410644483503e-05, -6.024037496388246e-06, 3.337860107421875e-06]","[0.0, 0.0005429591983556747, -0.0, -0.00041082612005993724, -0.0006421762518584728, -0.0004657544195652008]","[0.0, -1.5707963267948966, 0.0, 0.0, 0.0, 0.0]","[0.0, -1.5707963267948966, 0.0, 0.0, 0.0, 0.0]",0.002,7,1
0,-1,"[5.7869434385793284e-05, -1.5707438399734492, -1.1987447578576393e-05, -2.940118823246962e-05, 2.7526377380127087e-05, 1.0764599210233428e-05]","[0.0, 0.00012666580732911825, -0.0, -0.0003919019363820553, -0.00041838941979222, -0.0002958492550533265]","[0.0, -1.5707963267948966, 0.0, 0.0, 0.0, 0.0]","[0.0, -1.5707963267948966, 0.0, 0.0, 0.0, 0.0]",0.002,7,1
0,-1,"[4.140002420172095e-05, -1.5707786376445547, -3.1685827707406133e-05, -8.777981140184465e-06, -1.5083943502247621e-05, 1.5249843272613361e-05]","[0.0, 7.404484875716752e-14, -0.0, -0.00039176977588795125, -0.00031020076130516827, -0.0002944570442195982]","[0.0, -1.5707963267948966, 0.0, 0.0, 0.0, 0.0]","[0.0, -1.5707963267948966, 0.0, 0.0, 0.0, 0.0]",0.002,7,1
0,-1,"[0.00011223959882045165, -1.5708548031248988, -2.847158793883864e-05, 4.573459289503035e-06, 7.710003410466015e-05, 1.52587890625e-05]","[0.0, -0.0005661480245180428, -0.0, -0.0003087565128225833, -0.00018843640282284468, -0.0003174496232531965]","[0.0, -1.5707963267948966, 0.0, 0.0, 0.0, 0.0]","[0.0, -1.5707963267948966, 0.0, 0.0, 0.0, 0.0]",0.002,7,1
0,-1,"[8.654594421386719e-05, -1.5708142719664515, 3.892580141240387e-05, 2.901136364741319e-05, 4.669427653425373e-05, -5.547200338185121e-06]","[-0.00012670493742916733, -0.00037654663901776075, -0.0, -0.00029314530547708273, -0.00016139594663400203, -0.0002998521667905152]","[0.0, -1.5707963267948966, 0.0, 0.0, 0.0, 0.0]","[0.0, -1.5707963267948966, 0.0, 0.0, 0.0, 0.0]",0.002,7,1
0,-1,"[9.56482908804901e-05, -1.5708309612669886, -3.1740240956423804e-05, -2.940118823246962e-05, -2.4143849508106996e-05, -7.788287561538709e-07]","[-0.00015558666200377047, -0.00015968621300999075, -0.0, -0.00023780706396792084, -0.0001642220449866727, -0.00027682140353135765]","[0.0, -1.5707963267948966, 0.0, 0.0, 0.0, 0.0]","[0.0, -1.5707963267948966, 0.0, 0.0, 0.0, 0.0]",0.002,7,1
0,-1,"[1.297534163313685e-05, -1.5707425636104126, 4.369417299443512e-05, -8.777981140184465e-06, 1.8358230590820312e-05, -5.547200338185121e-06]","[-0.0004505326214712113, 0.0007920461939647794, -0.0, -0.00020873906032647938, -0.00017610950453672558, -0.0002091912174364552]","[0.0, -1.5707963267948966, 0.0, 0.0, 0.0, 0.0]","[0.0, -1.5707963267948966, 0.0, 0.0, 0.0, 0.0]",0.002,7,1
0,-1,"[7.154111517593265e-05, -1.5707940227769832, -1.9287632312625647e-05, 4.0813083312940535e-05, 1.386404073855374e-05, -1.4607106344044496e-05]","[-0.00040034728590399027, 0.0006029502837918699, -0.0, -0.00018704577814787626, -0.0001777405705070123, -0.00017638568533584476]","[0.0, -1.5707963267948966, 0.0, 0.0, 0.0, 0.0]","[0.0, -1.5707963267948966, 0.0, 0.0, 0.0, 0.0]",0.002,7,1
0,-1,"[8.376004188903607e-06, -1.5707830828490223, 5.895296205693512e-05, 4.212438549799913e-05, 2.2852420443086885e-05, 7.391071267193183e-05]","[-0.0003744273853953928, 0.00037409778451547027, -0.0, -0.00012770738976541907, -0.00017810917051974684, -0.00014747808745596558]","[0.0, -1.5707963267948966, 0.0, 0.0, 0.0, 0.0]","[0.0, -1.5707963267948966, 0.0, 0.0, 0.0, 0.0]",0.002,7,1
0,-1,"[7.007346721366048e-05, -1.5707975826659144, 1.794496645146637e-05, 1.649438824458116e-05, 1.8358230590820312e-05, 3.341531555633992e-05]","[-0.00032436451874673367, 5.3718031267635524e-05, -0.0, -0.0001118366708396934, -0.00015289292787201703, -0.00015205495583359152]","[0.0, -1.5707963267948966, 0.0, 0.0, 0.0, 0.0]","[0.0, -1.5707963267948966, 0.0, 0.0, 0.0, 0.0]",0.002,7,1
0,-1,"[6.695360934827477e-05, -1.5708400211729945, 2.271333803349762e-05, 4.534303631587022e-05, -1.7468129293263246e-05, 1.9752978914766572e-05]","[-0.00027248862897977233, 2.917469990941469e-16, -0.0, -9.526323265163228e-05, -0.00012760169920511544, -0.0001270173816010356]","[0.0, -1.5707963267948966, 0.0, 0.0, 0.0, 0.0]","[0.0, -1.5707963267948966, 0.0, 0.0, 0.0, 0.0]",0.002,7,1
0,-1,"[5.78966319153551e-05, -1.5708004436888636, -1.4781951904296875e-05, -5.7534580566454e-05, -1.0792409078419496e-05, 4.841732879867777e-05]","[-0.00023666079505346715, -0.0005842042155563831, -0.0, -8.782605436863378e-05, -0.00011658175208140165, -0.00011609388457145542]","[0.0, -1.5707963267948966, 0.0, 0.0, 0.0, 0.0]","[0.0, -1.5707963267948966, 0.0, 0.0, 0.0, 0.0]",0.002,7,1
0,-1,"[4.603862907970324e-05, -1.5707975826659144, 1.3653432027638246e-05, 1.649438824458116e-05, 4.394149436848238e-05, -1.6514454976856996e-05]","[-0.00024076641420833766, -0.00026299781166017056, -0.0, -9.434322419110686e-05, -0.00010321190347895026, -0.00011996713874395937]","[0.0, -1.5707963267948966, 0.0, 0.0, 0.0, 0.0]","[0.0, -1.5707963267948966, 0.0, 0.0, 0.0, 0.0]",0.002,7,1
0,-1,"[7.154691411415115e-05, -1.5708233318724574, 1.732503072560121e-06, -1.6168957092332903e-05, -1.7468129293263246e-05, -1.3653432027638246e-05]","[-0.0006510759121738374, -0.00014434574404731393, -0.0, -8.676403376739472e-05, -9.420849528396502e-05, -0.00010953799937851727]","[0.0, -1.5707963267948966, 0.0, 0.0, 0.0, 0.0]","[0.0, -1.5707963267948966, 0.0, 0.0, 0.0, 0.0]",0.002,7,1
0,-1,"[5.050851177657023e-05, -1.5707906049541016, 1.3653432027638246e-05, 7.553691528272566e-06, -4.369417299443512e-05, 3.337860107421875e-06]","[-0.0005274763680063188, 0.00018523579637985677, -0.0, -8.031195466173813e-05, -8.665001951158047e-05, -0.00010077685146825388]","[0.0, -1.5707963267948966, 0.0, 0.0, 0.0, 0.0]","[0.0, -1.5707963267948966, 0.0, 0.0, 0.0, 0.0]",0.002,7,1
0,-1,"[2.6601870558806695e-05, -1.5707621258555555, -4.082417581230402e-05, 1.2083644531202253e-05, 6.4373016357421875e-06, -8.088747133427887e-05]","[-0.0010703100124374032, 0.00018422299763187766, -0.0, -7.475310121662915e-05, -8.021437679417431e-05, -9.331350884167477e-05]","[0.0, -1.5707963267948966, 0.0, 0.0, 0.0, 0.0]","[0.0, -1.5707963267948966, 0.0, 0.0, 0.0, 0.0]",0.002,7,1
0,-1,"[9.441628208151087e-07, -1.570778564815857, -4.76837158203125e-06, 1.2083644531202253e-05, 4.394149436848238e-05, -4.369417299443512e-05]","[-0.0006208050763234496, 0.00015291997988242656, -0.0, -6.991397822275758e-05, -7.466851093340665e-05, -8.687941590324044e-05]","[0.0, -1.5707963267948966, 0.0, 0.0, 0.0, 0.0]","[0.0, -1.5707963267948966, 0.0, 0.0, 0.0, 0.0]",0.002,7,1
0,-1,"[-5.895296205693512e-05, -1.5707860750010987, -2.3890159354778007e-05, 8.86499371333116e-06, 1.9431108739809133e-06, 1.9752978914766572e-05]","[-0.0005178542924113572, 0.00010482539801159874, -0.0, -7.660573464818299e-05, -6.984022911638021e-05, -8.127532055368647e-05]","[0.0, -1.5707963267948966, 0.0, 0.0, 0.0, 0.0]","[0.0, -1.5707963267948966, 0.0, 0.0, 0.0, 0.0]",0.002,7,1
0,-1,"[8.37514380691573e-05, -1.5708066425719203, -3.294157795608044e-05, 7.553691528272566e-06, 1.943111783475615e-06, 3.337860107421875e-06]","[-3.0425573172010445e-10, 7.552137685706839e-05, -0.0, -7.305389590328559e-05, -6.640466745011508e-05, -7.72870407672599e-05]","[0.0, -1.5707963267948966, 0.0, 0.0, 0.0, 0.0]","[0.0, -1.5707963267948966, 0.0, 0.0, 0.0, 0.0]",0.002,7,1
0,-1,"[-2.3190175191700746e-05, -1.5708524189391078, -2.3917520593386143e-05, 3.34221073607921e-05, -1.0792409078419496e-05, 3.337860107421875e-06]","[-9.857523767503619e-18, 6.280969078176213e-09, -0.0, -6.981565820751712e-05, -6.329149618977681e-05, -7.367195939878002e-05]","[0.0, -1.5707963267948966, 0.0, 0.0, 0.0, 0.0]","[0.0, -1.5707963267948966, 0.0, 0.0, 0.0, 0.0]",0.002,7,1
0,-1,"[3.114688297500834e-05, -1.5707934659770508, 4.655519594365387e-05, 3.3302898071241316e-05, -4.369417299443512e-05, 7.952515261422377e-06]","[-3.1937218637147324e-25, 2.0349606568781983e-16, -0.0, -2.503070195558621e-09, -6.045729969628155e-05, -7.03798868926242e-05]","[0.0, -1.5707963267948966, 0.0, 0.0, 0.0, 0.0]","[0.0, -1.5707963267948966, 0.0, 0.0, 0.0, 0.0]",0.002,7,1
0,-1,"[5.214027623878792e-05, -1.570773992458573, 4.369417299443512e-05, -4.128818847703997e-06, 2.0063400370418094e-05, -5.0846730367481996e-05]","[-1.862476057649261e-36, 1.1867238464749019e-27, -0.0, -1.9394005173513362e-16, -1.3995737901950633e-10, -8.259479905570188e-11]","[0.0, -1.5707963267948966, 0.0, 0.0, 0.0, 0.0]","[0.0, -1.5707963267948966, 0.0, 0.0, 0.0, 0.0]",0.002,7,1
0,-1,"[-1.8421803609669496e-05, -1.5708023510374964, 1.3653432027638246e-05, -1.6168957092332903e-05, 4.8369314754381776e-05, 3.3470093967480352e-06]","[-0.0, 6.920594127059438e-39, -0.0, -5.9890513512073085e-05, -1.0844021020395585e-17, -6.3995183777828384e-18]","[0.0, -1.5707963267948966, 0.0, 0.0, 0.0, 0.0]","[0.0, -1.5707963267948966, 0.0, 0.0, 0.0, 0.0]",0.002,7,1
0,-1,"[7.173776339186588e-06, -1.570691149241913, -2.3884294932940975e-05, 2.0785922668409285e-05, -1.0792409078419496e-05, 3.7909507227595896e-05]","[-6.344938447000459e-05, 0.0, -0.0, -5.498059545061551e-05, -5.485934717538057e-26, -3.237483306134286e-26]","[0.0, -1.5707963267948966, 0.0, 0.0, 0.0, 0.0]","[0.0, -1.5707963267948966, 0.0, 0.0, 0.0, 0.0]",0.002,7,1
0,-1,"[5.210387462284416e-05, -1.570778564815857, 1.3653432027638246e-05, 2.0785922668409285e-05, 1.3875961485609878e-05, -1.3653432027638246e-05]","[-2.546002906456124e-05, 0.0, -0.0, -5.0648894102778286e-05, -2.775306116859179e-34, -1.6378264956996408e-34]","[0.0, -1.5707963267948966, 0.0, 0.0, 0.0, 0.0]","[0.0, -1.5707963267948966, 0.0, 0.0, 0.0, 0.0]",0.002,7,1
0,-1,"[4.7534813347738236e-05, -1.5708023510374964, 0.0, 2.4481410644483503e-05, -1.3176594869435121e-05, 6.207966362126172e-05]","[-2.2294214431894943e-05, 0.0, -0.0, -6.988472467384099e-09, -3.2933596768254716e-40, -1.9435589310645915e-40]","[0.0, -1.5707963267948966, 0.0, 0.0, 0.0, 0.0]","[0.0, -1.5707963267948966, 0.0, 0.0, 0.0, 0.0]",0.002,7,1
0,-1,"[-4.846254457646637e-05, -1.570760309103509, 1.794496645146637e-05, 2.901136364741319e-05, -3.892580141240387e-05, 1.250600689672865e-05]","[-1.9409446395002306e-05, 0.0, -0.0, -5.4147295837280395e-16, -0.0, -0.0]","[0.0, -1.5707963267948966, 0.0, 0.0, 0.0, 0.0]","[0.0, -1.5707963267948966, 0.0, 0.0, 0.0, 0.0]",0.002,7,1
0,-1,"[5.9556783526204526e-05, -1.5708400211729945, -2.390837653365452e-05, 1.2083644531202253e-05, -1.732503072560121e-06, 1.52587890625e-05]","[-1.7185699107358232e-05, 0.0, -0.0, -4.195380966208268e-23, -0.0, -0.0]","[0.0, -1.5707963267948966, 0.0, 0.0, 0.0, 0.0]","[0.0, -1.5707963267948966, 0.0, 0.0, 0.0, 0.0]",0.002,7,1
0,-1,"[6.864122406113893e-05, -1.5707975826659144, 2.271333803349762e-05, 2.0785922668409285e-05, 3.920715971617028e-05, -7.788287561538709e-07]","[-1.5419136616401374e-05, 0.0, -0.0, -3.2506172858995036e-30, -0.0, -0.0]","[0.0, -1.5707963267948966, 0.0, 0.0, 0.0, 0.0]","[0.0, -1.5707963267948966, 0.0, 0.0, 0.0, 0.0]",0.002,7,1
0,-1,"[1.4543533325195312e-05, -1.5707723972867207, -1.470931510993978e-05, -4.132211718754775e-05, 3.1957133614923805e-05, 0.0]","[-2.1849939003004692e-05, 0.0, -0.0, -2.518606867168761e-37, -0.0, -0.0]","[0.0, -1.5707963267948966, 0.0, 0.0, 0.0, 0.0]","[0.0, -1.5707963267948966, 0.0, 0.0, 0.0, 0.0]",0.002,7,1
0,-1,"[5.054473876953125e-05, -1.5707694835712864, -1.4781951904296875e-05, -3.0559352417469654e-06, 7.152557373046875e-06, 1.9752978914766572e-05]","[-1.9075243471888825e-05, 0.0, -0.0, -1.961817850054744e-44, -0.0, -0.0]","[0.0, -1.5707963267948966, 0.0, 0.0, 0.0, 0.0]","[0.0, -1.5707963267948966, 0.0, 0.0, 0.0, 0.0]",0.002,7,1
0,-1,"[-2.3190175191700746e-05, -1.5707500859683314, 1.3653432027638246e-05, -6.921709094243056e-05, 9.369850886287168e-06, -7.788287561538709e-07]","[-1.6923168004723266e-05, 0.0, -0.0, -0.0, -0.0, -0.0]","[0.0, -1.5707963267948966, 0.0, 0.0, 0.0, 0.0]","[0.0, -1.5707963267948966, 0.0, 0.0, 0.0, 0.0]",0.002,7,1
0,-1,"[8.062816050369292e-05, -1.570778564815857, 1.1746083394825746e-05, 3.389894451899522e-05, -2.652803529912262e-05, -2.557436098271637e-05]","[-1.4473769624601118e-05, 0.0, -0.0, -0.0, -0.0, -0.0]","[0.0, -1.5707963267948966, 0.0, 0.0, 0.0, 0.0]","[0.0, -1.5707963267948966, 0.0, 0.0, 0.0, 0.0]",0.002,7,1
0,-1,"[4.2974555981345475e-05, -1.5707860869227552, 0.0, -8.777981140184465e-06, 2.7517371563590132e-05, 1.250600689672865e-05]","[-1.3009307622269262e-05, 0.0, -0.0, -0.0, -0.0, -0.0]","[0.0, -1.5707963267948966, 0.0, 0.0, 0.0, 0.0]","[0.0, -1.5707963267948966, 0.0, 0.0, 0.0, 0.0]",0.002,7,1
0,1,"[-1.732503072560121e-06, -1.5707975826659144, 1.794496645146637e-05, -8.658771850633684e-06, 4.093061579624191e-05, 1.7000198567984626e-05]","[-1.0951440344797447e-05, 0.0, -0.0, -0.0, -0.0, -0.0]","[0.0004387367163421333, -1.5703575900785545, 0.0004387367163421333, 0.0004387367163421333, 0.0004387367163421333, 0.0004387367163421333]","[0.0004387367163421333, -1.5703575900785545, 0.0004387367163421333, 0.0004387367163421333, 0.0004387367163421333, 0.0004387367163421333]",0.002,7,1
0,2,"[2.6226043701171875e-06, -1.5707621258555555, 1.3653432027638246e-05, 7.553691528272566e-06, -1.5083943502247621e-05, -4.116688863575746e-06]","[-1.618959514262452e-23, 0.0, -0.0, -0.0, -0.0, -0.0]","[0.0008774727395818924, -1.5699188540553146, 0.0008774727395818924, 0.0008774727395818924, 0.0008774727395818924, 0.0008774727395818924]","[0.0008774727395818924, -1.5699188540553146, 0.0008774727395818924, 0.0008774727395818924, 0.0008774727395818924, 0.0008774727395818924]",0.002,7,1
0,3,"[5.537211109185591e-06, -1.5708614788451136, 0.0, -8.777981140184465e-06, 1.5605448425048962e-05, -8.885060445606996e-06]","[-5.2452368194990735e-31, 0.00016825915372464806, -0.0, -0.0, -0.0, -0.0]","[0.0013162073766179979, -1.5694801194182786, 0.0013162073766179979, 0.0013162073766179979, 0.0013162073766179979, 0.0013162073766179979]","[0.0013162073766179979, -1.5694801194182786, 0.0013162073766179979, 0.0013162073766179979, 0.0013162073766179979, 0.0013162073766179979]",0.002,7,1
0,4,"[1.750242881826125e-05, -1.5707906049541016, 1.1746083394825746e-05, 2.901136364741319e-05, -2.652803529912262e-05, -7.788287561538709e-07]","[0.0024551802780479193, 0.0023906040005385876, 0.002773679792881012, 0.0019519078778102994, 0.003486241213977337, -0.0]","[0.0017549399343513602, -1.5690413868605453, 0.0017549399343513602, 0.0017549399343513602, 0.0017549399343513602, 0.0017549399343513602]","[0.0017549399343513602, -1.5690413868605453, 0.0017549399343513602, 0.0017549399343513602, 0.0017549399343513602, 0.0017549399343513602]",0.002,7,1
0,5,"[6.698370270896703e-05, -1.5707740016026328, 9.47157489221695e-05, 2.0070666931104597e-05, 2.575498729129322e-05, -5.547200338185121e-06]","[0.003774113953113556, 0.005666083190590143, 0.006258347071707249, 0.0033498830161988735, 0.004884975962340832, -1.3478013149992307e-10]","[0.002193669719686175, -1.5686026570752103, 0.002193669719686175, 0.002193669719686175, 0.002193669719686175, 0.002193669719686175]","[0.002193669719686175, -1.5686026570752103, 0.002193669719686175, 0.002193669719686175, 0.002193669719686175, 0.002193669719686175]",0.002,7,1
0,6,"[7.924264355096966e-05, -1.570762113933899, 7.802644838506012e-05, 6.465494122309678e-05, 9.364431207359303e-06, 2.7179718017578125e-05]","[0.004636658355593681, 0.00895607378333807, 0.007649475242942572, 0.007432444486767054, 0.006976904813200235, 0.0037443581968545914]","[0.0026323960395310173, -1.5681639307553656, 0.0026323960395310173, 0.0026323960395310173, 0.0026323960395310173, 0.0026323960395310173]","[0.0026323960395310173, -1.5681639307553656, 0.0026323960395310173, 0.0026323960395310173, 0.0026323960395310173, 0.0026323960395310173]",0.002,7,1
0,7,"[7.923341036075726e-05, -1.5706865743816998, 6.41981707971695e-05, 3.1429478148936596e-06, 8.71479423949495e-05, 2.2583484678762034e-05]","[0.005981036461889744, 0.009740901179611683, 0.007794568315148354, 0.008019361644983292, 0.009408013895154, 0.0059121111407876015]","[0.003071118200799937, -1.5677252085940967, 0.003071118200799937, 0.003071118200799937, 0.003071118200799937, 0.003071118200799937]","[0.003071118200799937, -1.5677252085940967, 0.003071118200799937, 0.003071118200799937, 0.003071118200799937, 0.003071118200799937]",0.002,7,1
0,8,"[0.00015734939370304346, -1.5707093601343622, 0.00014287630190068512, 3.091871228022569e-05, 6.457519339164719e-05, 3.4832955861929804e-05]","[0.006514894310384989, 0.010245111770927906, 0.008999621495604515, 0.007652386091649532, 0.00946302805095911, 0.005832662805914879]","[0.0035098355104135528, -1.567286491284483, 0.0035098355104135528, 0.0035098355104135528, 0.0035098355104135528, 0.0035098355104135528]","[0.0035098355104135528, -1.567286491284483, 0.0035098355104135528, 0.0035098355104135528, 0.0035098355104135528, 0.0035098355104135528]",0.002,7,1
0,9,"[0.00012254714965820312, -1.5706945222667237, 0.0001099745379846695, 0.00012104093518061632, 0.00014446127170231193, 6.318092346191406e-05]","[0.007164742797613144, 0.010678201913833618, 0.010226326063275337, 0.007747979369014502, 0.009658342227339745, 0.006369811482727528]","[0.00394854727530015, -1.5668477795195963, 0.00394854727530015, 0.00394854727530015, 0.00394854727530015, 0.00394854727530015]","[0.00394854727530015, -1.5668477795195963, 0.00394854727530015, 0.00394854727530015, 0.00394854727530015, 0.00394854727530015]",0.002,7,1
0,10,"[0.00010611733159748837, -1.5706659950850117, 9.137788881474762e-05, 0.00012032567944331163, 0.00010994672629749402, 7.959604408824816e-05]","[0.009143617935478687, 0.011718541383743286, 0.013372438959777355, 0.010220970027148724, 0.010767588391900063, 0.00865351315587759]","[0.00438725280239677, -1.5664090739924998, 0.00438725280239677, 0.00438725280239677, 0.00438725280239677, 0.00438725280239677]","[0.00438725280239677, -1.5664090739924998, 0.00438725280239677, 0.00438725280239677, 0.00438725280239677, 0.00438725280239677]",0.002,7,1
0,11,"[0.0001254608650924638, -1.570658640270569, 0.00017434755434209137, 0.00012783586468501085, 0.0002017938531935215, 7.510185241699219e-05]","[0.010145684704184532, 0.015441877767443657, 0.015547344461083412, 0.013640602119266987, 0.011761175468564034, 0.011655056849122047]","[0.004825951398650312, -1.5659703753962462, 0.004825951398650312, 0.004825951398650312, 0.004825951398650312, 0.004825951398650312]","[0.004825951398650312, -1.5659703753962462, 0.004825951398650312, 0.004825951398650312, 0.004825951398650312, 0.004825951398650312]",0.002,7,1
0,12,"[0.00021727525745518506, -1.570613369349605, 0.00020581880678349762, 0.00016479074444575303, 0.00018816733791027218, 8.557367254979908e-05]","[0.012275250628590584, 0.018070491030812263, 0.017855204641819, 0.014976906590163708, 0.01476763654500246, 0.014116384088993073]","[0.005264642371018622, -1.565531684423878, 0.005264642371018622, 0.005264642371018622, 0.005264642371018622, 0.005264642371018622]","[0.005264642371018622, -1.565531684423878, 0.005264642371018622, 0.005264642371018622, 0.005264642371018622, 0.005264642371018622]",0.002,7,1
0,13,"[0.0002127572224708274, -1.5706406939173867, 0.00019675890077763825, 0.00022248804058833116, 0.00020599942945409566, 0.00016071271966211498]","[0.013238675892353058, 0.02073267102241516, 0.019819417968392372, 0.016675731167197227, 0.016557857394218445, 0.016163576394319534]","[0.005703325026471591, -1.565093001768425, 0.005703325026471591, 0.005703325026471591, 0.005703325026471591, 0.005703325026471591]","[0.005703325026471591, -1.565093001768425, 0.005703325026471591, 0.005703325026471591, 0.005703325026471591, 0.005703325026471591]",0.002,7,1
0,14,"[0.00023055076599121094, -1.5705745977214356, 0.00029594102968388825, 0.00020472585644526475, 0.00026776824961416423, 0.0001922078081406653]","[0.01503524649888277, 0.023372426629066467, 0.02154146507382393, 0.01646261289715767, 0.017417600378394127, 0.01736603118479252]","[0.006141998671992247, -1.5646543281229044, 0.006141998671992247, 0.006141998671992247, 0.006141998671992247, 0.006141998671992247]","[0.006141998671992247, -1.5646543281229044, 0.006141998671992247, 0.006141998671992247, 0.006141998671992247, 0.006141998671992247]",0.002,7,1
0,15,"[0.00030888794572092593, -1.57046313045824, 0.00028831163515263825, 0.00023726999249262803, 0.00030090296058915555, 0.00018310546875]","[0.01603696495294571, 0.025400742888450623, 0.022952672094106674, 0.017751678824424744, 0.01694689504802227, 0.017855769023299217]","[0.006580662614577854, -1.5642156641803187, 0.006580662614577854, 0.006580662614577854, 0.006580662614577854, 0.006580662614577854]","[0.006580662614577854, -1.5642156641803187, 0.006580662614577854, 0.006580662614577854, 0.006580662614577854, 0.006580662614577854]",0.002,7,1
0,16,"[0.0003042767057195306, -1.570460378545551, 0.0003240744220178726, 0.000312491054199171, 0.00034174465690739453, 0.00023102760314941406]","[0.018907859921455383, 0.026979180052876472, 0.025078723207116127, 0.01939234882593155, 0.017892269417643547, 0.01764066331088543]","[0.0070193161612410035, -1.5637770106336555, 0.0070193161612410035, 0.0070193161612410035, 0.0070193161612410035, 0.0070193161612410035]","[0.0070193161612410035, -1.5637770106336555, 0.0070193161612410035, 0.0070193161612410035, 0.0070193161612410035, 0.0070193161612410035]",0.002,7,1
0,17,"[0.00036423897836357355, -1.5703975236140941, 0.0004442373858850601, 0.00034074365582270616, 0.0003592790453694761, 0.0002880520769394934]","[0.02075950615108013, 0.027813516557216644, 0.026448719203472137, 0.02091270126402378, 0.01969059370458126, 0.021283822134137154]","[0.0074579586190107105, -1.563338368175886, 0.0074579586190107105, 0.0074579586190107105, 0.0074579586190107105, 0.0074579586190107105]","[0.0074579586190107105, -1.563338368175886, 0.0074579586190107105, 0.0074579586190107105, 0.0074579586190107105, 0.0074579586190107105]",0.002,7,1
0,18,"[0.0004047582042403519, -1.5703735655736928, 0.0004747549640100601, 0.00037650644268794053, 0.00040471411193720996, 0.0003571457928046584]","[0.021416347473859787, 0.02880321443080902, 0.027411602437496185, 0.022599440068006516, 0.02125144749879837, 0.023883571848273277]","[0.007896589294933507, -1.5628997374999631, 0.007896589294933507, 0.007896589294933507, 0.007896589294933507, 0.007896589294933507]","[0.007896589294933507, -1.5628997374999631, 0.007896589294933507, 0.007896589294933507, 0.007896589294933507, 0.007896589294933507]",0.002,7,1
0,19,"[0.00044080460793338716, -1.5702922568637696, 0.000439945851461232, 0.0004009443470458507, 0.0004029273986816406, 0.00040056181023828685]","[0.024800503626465797, 0.031022118404507637, 0.029150135815143585, 0.02398589253425598, 0.024261705577373505, 0.025133812800049782]","[0.008335207496074538, -1.562461119298822, 0.008335207496074538, 0.008335207496074538, 0.008335207496074538, 0.008335207496074538]","[0.008335207496074538, -1.562461119298822, 0.008335207496074538, 0.008335207496074538, 0.008335207496074538, 0.008335207496074538]",0.002,7,1
0,20,"[0.0004962036618962884, -1.5702820491608982, 0.0005796591388147476, 0.0004853445240478038, 0.0004933248274028301, 0.0004427566600497812]","[0.027453484013676643, 0.03267520293593407, 0.030942419543862343, 0.026046402752399445, 0.025115910917520523, 0.026283305138349533]","[0.008773812529518655, -1.5620225142653779, 0.008773812529518655, 0.008773812529518655, 0.008773812529518655, 0.008773812529518655]","[0.008773812529518655, -1.5620225142653779, 0.008773812529518655, 0.008773812529518655, 0.008773812529518655, 0.008773812529518655]",0.002,7,1
0,21,"[0.0005562851438298821, -1.5701696166400616, 0.000630680714742482, 0.0005011993595580577, 0.000508326746057719, 0.0004544496478047222]","[0.028531983494758606, 0.03498821333050728, 0.03282855078577995, 0.02794690430164337, 0.02781805954873562, 0.028255848214030266]","[0.009212403702371514, -1.561583923092525, 0.009212403702371514, 0.009212403702371514, 0.009212403702371514, 0.009212403702371514]","[0.009212403702371514, -1.561583923092525, 0.009212403702371514, 0.009212403702371514, 0.009212403702371514, 0.009212403702371514]",0.002,7,1
0,22,"[0.0005756830214522779, -1.570133588018809, 0.0007389227496545914, 0.0005693870731811046, 0.0005565229803323746, 0.0005488343304023147]","[0.030694998800754547, 0.037125688046216965, 0.03590334206819534, 0.03062606044113636, 0.030372807756066322, 0.03144665062427521]","[0.009650980321760663, -1.561145346473136, 0.009650980321760663, 0.009650980321760663, 0.009650980321760663, 0.009650980321760663]","[0.009650980321760663, -1.561145346473136, 0.009650980321760663, 0.009650980321760663, 0.009650980321760663, 0.009650980321760663]",0.002,7,1
0,23,"[0.0006793329957872629, -1.5699998730309126, 0.0007327238665979507, 0.0006488996693114757, 0.0006418118136934936, 0.0006047382485121489]","[0.03288426622748375, 0.038758426904678345, 0.03691529110074043, 0.03367006033658981, 0.033419884741306305, 0.03572646528482437]","[0.010089541694836647, -1.56070678510006, 0.010089541694836647, 0.010089541694836647, 0.010089541694836647, 0.010089541694836647]","[0.010089541694836647, -1.56070678510006, 0.010089541694836647, 0.010089541694836647, 0.010089541694836647, 0.010089541694836647]",0.002,7,1
0,24,"[0.0007738515269011259, -1.569927870620024, 0.0008800665484827164, 0.0007297235676269054, 0.0006763400160707533, 0.0006553888088092208]","[0.03732818365097046, 0.0428144633769989, 0.04134589433670044, 0.036684200167655945, 0.03637600317597389, 0.038084130734205246]","[0.010528087128774092, -1.5602682396661225, 0.010528087128774092, 0.010528087128774092, 0.010528087128774092, 0.010528087128774092]","[0.010528087128774092, -1.5602682396661225, 0.010528087128774092, 0.010528087128774092, 0.010528087128774092, 0.010528087128774092]",0.002,7,1
0,25,"[0.0008156513213180006, -1.5698227566648093, 0.0009568373309534195, 0.000743551845214796, 0.000736755842808634, 0.000736493559088558]","[0.04038544371724129, 0.04725535213947296, 0.044297441840171814, 0.04021637886762619, 0.03976936638355255, 0.04281376302242279]","[0.010966615930772807, -1.5598297108641237, 0.010966615930772807, 0.010966615930772807, 0.010966615930772807, 0.010966615930772807]","[0.010966615930772807, -1.5598297108641237, 0.010966615930772807, 0.010966615930772807, 0.010966615930772807, 0.010966615930772807]",0.002,7,1
0,26,"[0.0008803411619737744, -1.56974786465101, 0.0010178724872034195, 0.0008825498768310069, 0.0007497812039218843, 0.0009076971909962595]","[0.04295266047120094, 0.0465657077729702, 0.04659155756235123, 0.044494837522506714, 0.04272814467549324, 0.045369185507297516]","[0.01140512740805887, -1.5593911993868377, 0.01140512740805887, 0.01140512740805887, 0.01140512740805887, 0.01140512740805887]","[0.01140512740805887, -1.5593911993868377, 0.01140512740805887, 0.01140512740805887, 0.01140512740805887, 0.01140512740805887]",0.002,7,1
0,27,"[0.0009266138076782227, -1.5697180427708481, 0.0011070410357874039, 0.0009538370319823741, 0.0008928060997277498, 0.0009643857483752072]","[0.04584785923361778, 0.05098665505647659, 0.05087960511445999, 0.04634125903248787, 0.046370457857847214, 0.046129122376441956]","[0.011843620867885736, -1.5589527059270107, 0.011843620867885736, 0.011843620867885736, 0.011843620867885736, 0.011843620867885736]","[0.011843620867885736, -1.5589527059270107, 0.011843620867885736, 0.011843620867885736, 0.011843620867885736, 0.011843620867885736]",0.002,7,1
0,28,"[0.0010648652678355575, -1.5695588726415117, 0.001252476369039357, 0.00102035581555171, 0.0010052769212052226, 0.0010738744167611003]","[0.04950474575161934, 0.05454482138156891, 0.053164612501859665, 0.04767032712697983, 0.050837192684412, 0.050729792565107346]","[0.01228209561753532, -1.5585142311773612, 0.01228209561753532, 0.01228209561753532, 0.01228209561753532, 0.01228209561753532]","[0.01228209561753532, -1.5585142311773612, 0.01228209561753532, 0.01228209561753532, 0.01228209561753532, 0.01228209561753532]",0.002,7,1
0,29,"[0.0011774320155382156, -1.5694223690409963, 0.0013483206378381851, 0.0010998684116820812, 0.0011275002034381032, 0.0011787309776991606]","[0.05227652192115784, 0.060404837131500244, 0.05492453649640083, 0.05204762890934944, 0.05452250316739082, 0.054739970713853836]","[0.012720550964319092, -1.5580757758305774, 0.012720550964319092, 0.012720550964319092, 0.012720550964319092, 0.012720550964319092]","[0.012720550964319092, -1.5580757758305774, 0.012720550964319092, 0.012720550964319092, 0.012720550964319092, 0.012720550964319092]",0.002,7,1
0,30,"[0.0013396445428952575, -1.56929754911501, 0.001485172902242482, 0.0012413698383788585, 0.0012550363317131996, 0.0012898097047582269]","[0.056321438401937485, 0.058202747255563736, 0.0589168556034565, 0.05815061554312706, 0.05877372995018959, 0.05822509899735451]","[0.01315898621557918, -1.5576373405793174, 0.01315898621557918, 0.01315898621557918, 0.01315898621557918, 0.01315898621557918]","[0.01315898621557918, -1.5576373405793174, 0.01315898621557918, 0.01315898621557918, 0.01315898621557918, 0.01315898621557918]",0.002,7,1
0,31,"[0.0013798188883811235, -1.5691913504018267, 0.0016096274005334976, 0.0013535457798461437, 0.0013888678513467312, 0.0013389348750934005]","[0.059000227600336075, 0.064865842461586, 0.0648132860660553, 0.062209997326135635, 0.062345415353775024, 0.0625128448009491]","[0.013597400678689451, -1.5571989261162071, 0.013597400678689451, 0.013597400678689451, 0.013597400678689451, 0.013597400678689451]","[0.013597400678689451, -1.5571989261162071, 0.013597400678689451, 0.013597400678689451, 0.013597400678689451, 0.013597400678689451]",0.002,7,1
0,32,"[0.0015207956312224269, -1.5690623934245487, 0.0017226378070276382, 0.0014805036732177257, 0.0014957062667235732, 0.001463784254156053]","[0.06349454820156097, 0.06894724071025848, 0.06307043135166168, 0.06399420648813248, 0.06623373180627823, 0.06710492819547653]","[0.014035793661056617, -1.5567605331338399, 0.014035793661056617, 0.014035793661056617, 0.014035793661056617, 0.014035793661056617]","[0.014035793661056617, -1.5567605331338399, 0.014035793661056617, 0.014035793661056617, 0.014035793661056617, 0.014035793661056617]",0.002,7,1
0,33,"[0.0016574878245592117, -1.5689422315084194, 0.0018032232867639664, 0.0016496616550902843, 0.0016203566920012236, 0.0016496552852913737]","[0.06723213940858841, 0.07177426666021347, 0.07002713531255722, 0.06852138787508011, 0.0700194388628006, 0.07104528695344925]","[0.014474164470121325, -1.5563221623247752, 0.014474164470121325, 0.014474164470121325, 0.014474164470121325, 0.014474164470121325]","[0.014474164470121325, -1.5563221623247752, 0.014474164470121325, 0.014474164470121325, 0.014474164470121325, 0.014474164470121325]",0.002,7,1
0,34,"[0.0017967651365324855, -1.568774347226583, 0.0020201841937463882, 0.001801295871398878, 0.0017087373416870832, 0.0017636247212067246]","[0.07100506871938705, 0.07532357424497604, 0.07352498173713684, 0.0733182355761528, 0.07526501268148422, 0.07596337795257568]","[0.014912512413359249, -1.5558838143815372, 0.014912512413359249, 0.014912512413359249, 0.014912512413359249, 0.014912512413359249]","[0.014912512413359249, -1.5558838143815372, 0.014912512413359249, 0.014912512413359249, 0.014912512413359249, 0.014912512413359249]",0.002,7,1
0,35,"[0.0019739766139537096, -1.5686680667898436, 0.0021503607379358414, 0.0018958288380126476, 0.0018997559091076255, 0.001991542289033532]","[0.07491254061460495, 0.07873635739088058, 0.07674192637205124, 0.07786408066749573, 0.07745114713907242, 0.0770653635263443]","[0.015350836798282188, -1.5554454899966144, 0.015350836798282188, 0.015350836798282188, 0.015350836798282188, 0.015350836798282188]","[0.015350836798282188, -1.5554454899966144, 0.015350836798282188, 0.015350836798282188, 0.015350836798282188, 0.015350836798282188]",0.002,7,1
0,36,"[0.0021300215739756823, -1.5685165517828246, 0.002320591603414357, 0.0020968157001952648, 0.0021054039243608713, 0.002147468039765954]","[0.07819157838821411, 0.08175399154424667, 0.08018264174461365, 0.08093451708555222, 0.07996053993701935, 0.082686647772789]","[0.01578913693243915, -1.5550071898624573, 0.01578913693243915, 0.01578913693243915, 0.01578913693243915, 0.01578913693243915]","[0.01578913693243915, -1.5550071898624573, 0.01578913693243915, 0.01578913693243915, 0.01578913693243915, 0.01578913693243915]",0.002,7,1
0,37,"[0.0023327532690018415, -1.5683034796132524, 0.002446476613179982, 0.002217097873352003, 0.002240987028926611, 0.0023062124382704496]","[0.08304750919342041, 0.08691728860139847, 0.08368653804063797, 0.08405380696058273, 0.08783294260501862, 0.08553359657526016]","[0.016227412123417467, -1.5545689146714792, 0.016227412123417467, 0.016227412123417467, 0.016227412123417467, 0.016227412123417467]","[0.016227412123417467, -1.5545689146714792, 0.016227412123417467, 0.016227412123417467, 0.016227412123417467, 0.016227412123417467]",0.002,7,1
0,38,"[0.0024870748165994883, -1.568074921877571, 0.0026267210589807632, 0.0024337011524657726, 0.0024605358485132456, 0.0025116160977631807]","[0.08679835498332977, 0.09054643660783768, 0.0876605361700058, 0.08929946273565292, 0.08945030719041824, 0.08974333107471466]","[0.01666566167884386, -1.5541306651160527, 0.01666566167884386, 0.01666566167884386, 0.01666566167884386, 0.01666566167884386]","[0.01666566167884386, -1.5541306651160527, 0.01666566167884386, 0.01666566167884386, 0.01666566167884386, 0.01666566167884386]",0.002,7,1
0,39,"[0.0026642861776053905, -1.5679299335791548, 0.002789799367086232, 0.002657933826110792, 0.002606227295473218, 0.002642138162627816]","[0.0892256498336792, 0.09408807009458542, 0.09088157117366791, 0.09414852410554886, 0.09370903670787811, 0.09400266408920288]","[0.017103884906385567, -1.553692441888511, 0.017103884906385567, 0.017103884906385567, 0.017103884906385567, 0.017103884906385567]","[0.017103884906385567, -1.553692441888511, 0.017103884906385567, 0.017103884906385567, 0.017103884906385567, 0.017103884906385567]",0.002,7,1
0,40,"[0.0028395645786076784, -1.5677469740952183, 0.0030167738543909195, 0.002800865764282179, 0.0028392761014401913, 0.002845992101356387]","[0.09861482679843903, 0.09610217809677124, 0.09877745807170868, 0.09901310503482819, 0.09858127683401108, 0.09797928482294083]","[0.017542081113751395, -1.5532542456811451, 0.017542081113751395, 0.017542081113751395, 0.017542081113751395, 0.017542081113751395]","[0.017542081113751395, -1.5532542456811451, 0.017542081113751395, 0.017542081113751395, 0.017542081113751395, 0.017542081113751395]",0.002,7,1
0,41,"[0.0030601350590586662, -1.5675532969510932, 0.0032570997821252945, 0.003025217647216749, 0.003040567971765995, 0.0030169677920639515]","[0.10005951672792435, 0.0995318666100502, 0.09801168739795685, 0.10315880924463272, 0.10184400528669357, 0.10257159173488617]","[0.017980249608692853, -1.5528160771862036, 0.017980249608692853, 0.017980249608692853, 0.017980249608692853, 0.017980249608692853]","[0.017980249608692853, -1.5528160771862036, 0.017980249608692853, 0.017980249608692853, 0.017980249608692853, 0.017980249608692853]",0.002,7,1
0,42,"[0.0032549898605793715, -1.5673629921260108, 0.003430191670553029, 0.0032086807438354015, 0.0031921237241476774, 0.003279545810073614]","[0.10552025586366653, 0.106171615421772, 0.10588791221380234, 0.10532722622156143, 0.10746266692876816, 0.10661634802818298]","[0.018418389699005232, -1.5523779370958912, 0.018418389699005232, 0.018418389699005232, 0.018418389699005232, 0.018418389699005232]","[0.018418389699005232, -1.5523779370958912, 0.018418389699005232, 0.018418389699005232, 0.018418389699005232, 0.018418389699005232]",0.002,7,1
0,43,"[0.003508917288854718, -1.5670927281356235, 0.003690067921773732, 0.0034364896961669444, 0.0034659849479794502, 0.0035102926194667816]","[0.11051063984632492, 0.10919903218746185, 0.10807623714208603, 0.11203330755233765, 0.10950572788715363, 0.11139442771673203]","[0.01885650069252868, -1.5519398261023678, 0.01885650069252868, 0.01885650069252868, 0.01885650069252868, 0.01885650069252868]","[0.01885650069252868, -1.5519398261023678, 0.01885650069252868, 0.01885650069252868, 0.01885650069252868, 0.01885650069252868]",0.002,7,1
0,44,"[0.003715534694492817, -1.5669717549211164, 0.0039060751544397476, 0.003717942828796339, 0.003673200961202383, 0.003735073609277606]","[0.11471336334943771, 0.11388588696718216, 0.11330018937587738, 0.11600325256586075, 0.11576820909976959, 0.11566329002380371]","[0.01929458189714932, -1.5515017448977473, 0.01929458189714932, 0.01929458189714932, 0.01929458189714932, 0.01929458189714932]","[0.01929458189714932, -1.5515017448977473, 0.01929458189714932, 0.01929458189714932, 0.01929458189714932, 0.01929458189714932]",0.002,7,1
0,45,"[0.0039858948439359665, -1.5666775752655049, 0.004138771687642873, 0.003986044520996046, 0.003877338720485568, 0.003946574870496988]","[0.11875439435243607, 0.11755555868148804, 0.1173156201839447, 0.12233444303274155, 0.1201741024851799, 0.12012245506048203]","[0.01973263262080034, -1.5510636941740963, 0.01973263262080034, 0.01973263262080034, 0.01973263262080034, 0.01973263262080034]","[0.01973263262080034, -1.5510636941740963, 0.01973263262080034, 0.01973263262080034, 0.01973263262080034, 0.01973263262080034]",0.002,7,1
0,46,"[0.004269350785762072, -1.5664541314220806, 0.004391018544332326, 0.004242582912109327, 0.0042206463403999805, 0.004256876651197672]","[0.12484663724899292, 0.12189539521932602, 0.11971540749073029, 0.126203715801239, 0.12728485465049744, 0.12465757131576538]","[0.020170652171463074, -1.5506256746234335, 0.020170652171463074, 0.020170652171463074, 0.020170652171463074, 0.020170652171463074]","[0.020170652171463074, -1.5506256746234335, 0.020170652171463074, 0.020170652171463074, 0.020170652171463074, 0.020170652171463074]",0.002,7,1
0,47,"[0.00449287099763751, -1.5661928623779495, 0.004682842885152638, 0.0044522720524291515, 0.004401871468871832, 0.004483535885810852]","[0.1262185275554657, 0.1258038878440857, 0.12550580501556396, 0.1297956258058548, 0.1301107406616211, 0.12827514111995697]","[0.0206086398571681, -1.5501876869377285, 0.0206086398571681, 0.0206086398571681, 0.0206086398571681, 0.0206086398571681]","[0.0206086398571681, -1.5501876869377285, 0.0206086398571681, 0.0206086398571681, 0.0206086398571681, 0.0206086398571681]",0.002,7,1
0,48,"[0.00478086294606328, -1.565931868073978, 0.0048745314227502945, 0.004768772716186476, 0.004738932475447655, 0.004730877000838518]","[0.13532516360282898, 0.12859882414340973, 0.1301155388355255, 0.1338595151901245, 0.1346302479505539, 0.1348169893026352]","[0.02104659498599634, -1.5497497318089002, 0.02104659498599634, 0.02104659498599634, 0.02104659498599634, 0.02104659498599634]","[0.02104659498599634, -1.5497497318089002, 0.02104659498599634, 0.02104659498599634, 0.02104659498599634, 0.02104659498599634]",0.002,7,1
0,49,"[0.005070449318736792, -1.565646747858711, 0.005146328602926076, 0.0050789552875976085, 0.005018292460590601, 0.005039832554757595]","[0.13573673367500305, 0.1361275017261505, 0.13256630301475525, 0.1397641897201538, 0.1395389437675476, 0.14132463932037354]","[0.021484516866080144, -1.5493118099288163, 0.021484516866080144, 0.021484516866080144, 0.021484516866080144, 0.021484516866080144]","[0.021484516866080144, -1.5493118099288163, 0.021484516866080144, 0.021484516866080144, 0.021484516866080144, 0.021484516866080144]",0.002,7,1
0,50,"[0.005320853553712368, -1.5653918043575068, 0.005445305501119435, 0.005332275027893019, 0.0052900114096701145, 0.005327294580638409]","[0.14125101268291473, 0.13901153206825256, 0.13851171731948853, 0.14124047756195068, 0.14524942636489868, 0.14439675211906433]","[0.0219224048056044, -1.5488739219892922, 0.0219224048056044, 0.0219224048056044, 0.0219224048056044, 0.0219224048056044]","[0.0219224048056044, -1.5488739219892922, 0.0219224048056044, 0.0219224048056044, 0.0219224048056044, 0.0219224048056044]",0.002,7,1
0,51,"[0.005613734945654869, -1.5651130646331985, 0.005705181752340138, 0.005624218578002882, 0.005635845474898815, 0.0056156134232878685]","[0.1451975256204605, 0.1429028958082199, 0.1467227339744568, 0.1465587317943573, 0.14852921664714813, 0.14810217916965485]","[0.02236025811280759, -1.548436068682089, 0.02236025811280759, 0.02236025811280759, 0.02236025811280759, 0.02236025811280759]","[0.02236025811280759, -1.548436068682089, 0.02236025811280759, 0.02236025811280759, 0.02236025811280759, 0.02236025811280759]",0.002,7,1
0,52,"[0.005897023249417543, -1.5647992890192945, 0.006046120320455373, 0.005965157146118116, 0.005907922517508268, 0.005906175822019577]","[0.14968445897102356, 0.14926110208034515, 0.1477750986814499, 0.15220439434051514, 0.15326793491840363, 0.1543814241886139]","[0.022798076095982937, -1.5479982506989136, 0.022798076095982937, 0.022798076095982937, 0.022798076095982937, 0.022798076095982937]","[0.022798076095982937, -1.5479982506989136, 0.022798076095982937, 0.022798076095982937, 0.022798076095982937, 0.022798076095982937]",0.002,7,1
0,53,"[0.006221179850399494, -1.5645490854843338, 0.006296459828512013, 0.006280465716979933, 0.006184488069266081, 0.0062605333514511585]","[0.15478530526161194, 0.15334510803222656, 0.1528785675764084, 0.15410876274108887, 0.155312180519104, 0.15655134618282318]","[0.023235858063479446, -1.547560468731417, 0.023235858063479446, 0.023235858063479446, 0.023235858063479446, 0.023235858063479446]","[0.023235858063479446, -1.547560468731417, 0.023235858063479446, 0.023235858063479446, 0.023235858063479446, 0.023235858063479446]",0.002,7,1
0,54,"[0.006519332993775606, -1.5641919903321941, 0.006635014210836232, 0.006608410472534132, 0.006575298961251974, 0.006511947140097618]","[0.15814635157585144, 0.15723572671413422, 0.15845461189746857, 0.15900449454784393, 0.16272549331188202, 0.16144457459449768]","[0.023673603323703017, -1.5471227234711935, 0.023673603323703017, 0.023673603323703017, 0.023673603323703017, 0.023673603323703017]","[0.023673603323703017, -1.5471227234711935, 0.023673603323703017, 0.023673603323703017, 0.023673603323703017, 0.023673603323703017]",0.002,7,1
0,55,"[0.006852660793811083, -1.5639114633998652, 0.006947342549459279, 0.0069078642078856944, 0.006883540190756321, 0.006838899105787277]","[0.16230274736881256, 0.16198328137397766, 0.16228169202804565, 0.16365091502666473, 0.16530263423919678, 0.16576097905635834]","[0.02411131118511755, -1.5466850156097791, 0.02411131118511755, 0.02411131118511755, 0.02411131118511755, 0.02411131118511755]","[0.02411131118511755, -1.5466850156097791, 0.02411131118511755, 0.02411131118511755, 0.02411131118511755, 0.02411131118511755]",0.002,7,1
0,56,"[0.007259509526193142, -1.5635709564997633, 0.007238213215963185, 0.007267876262329054, 0.007203407119959593, 0.007215549703687429]","[0.1687503457069397, 0.16509056091308594, 0.16721758246421814, 0.167832151055336, 0.16819658875465393, 0.17163051664829254]","[0.02454898095624604, -1.5462473458386505, 0.02454898095624604, 0.02454898095624604, 0.02454898095624604, 0.02454898095624604]","[0.02454898095624604, -1.5462473458386505, 0.02454898095624604, 0.02454898095624604, 0.02454898095624604, 0.02454898095624604]",0.002,7,1
0,57,"[0.007566905114799738, -1.5632018118961533, 0.007674042378560841, 0.007627649898193312, 0.007526518311351538, 0.00757234962657094]","[0.17239195108413696, 0.17125742137432098, 0.17313292622566223, 0.17184922099113464, 0.17355389893054962, 0.17543743550777435]","[0.024986611945671616, -1.545809714849225, 0.024986611945671616, 0.024986611945671616, 0.024986611945671616, 0.024986611945671616]","[0.024986611945671616, -1.545809714849225, 0.024986611945671616, 0.024986611945671616, 0.024986611945671616, 0.024986611945671616]",0.002,7,1
0,58,"[0.0079148318618536, -1.5628813479891797, 0.007979694996969044, 0.007968111629150343, 0.007832889445126057, 0.00793971586972475]","[0.1764458566904068, 0.17519165575504303, 0.17666682600975037, 0.17499810457229614, 0.18035189807415009, 0.179115429520607]","[0.025424203462038705, -1.545372123332858, 0.025424203462038705, 0.025424203462038705, 0.025424203462038705, 0.025424203462038705]","[0.025424203462038705, -1.545372123332858, 0.025424203462038705, 0.025424203462038705, 0.025424203462038705, 0.025424203462038705]",0.002,7,1
0,59,"[0.008324690163135529, -1.5625434920987864, 0.008390251790181935, 0.00831870614971919, 0.008273430168628693, 0.008255000226199627]","[0.17953839898109436, 0.18014483153820038, 0.17972888052463531, 0.18064384162425995, 0.182736337184906, 0.1835569441318512]","[0.025861754814054082, -1.5449345719808425, 0.025861754814054082, 0.025861754814054082, 0.025861754814054082, 0.025861754814054082]","[0.025861754814054082, -1.5449345719808425, 0.025861754814054082, 0.025861754814054082, 0.025861754814054082, 0.025861754814054082]",0.002,7,1
0,60,"[0.0086349006742239, -1.5621810176274558, 0.008720223103658498, 0.008796020145080519, 0.008612608537077904, 0.0086875781416893]","[0.1847502887248993, 0.1852971315383911, 0.18527531623840332, 0.18513977527618408, 0.18829739093780518, 0.1873379349708557]","[0.026299265310487988, -1.5444970614844085, 0.026299265310487988, 0.026299265310487988, 0.026299265310487988, 0.026299265310487988]","[0.026299265310487988, -1.5444970614844085, 0.026299265310487988, 0.026299265310487988, 0.026299265310487988, 0.026299265310487988]",0.002,7,1
0,61,"[0.00905658956617117, -1.561745585208275, 0.009130779896871388, 0.009125514621398878, 0.009121336042881012, 0.009027192369103432]","[0.18881909549236298, 0.18842992186546326, 0.18859778344631195, 0.1881747990846634, 0.19426502287387848, 0.19130860269069672]","[0.02673673426017517, -1.5440595925347214, 0.02673673426017517, 0.02673673426017517, 0.02673673426017517, 0.02673673426017517]","[0.02673673426017517, -1.5440595925347214, 0.02673673426017517, 0.02673673426017517, 0.02673673426017517, 0.02673673426017517]",0.002,7,1
0,62,"[0.009414887987077236, -1.5614038224196811, 0.009515110646383107, 0.009475036258361769, 0.009472107514739037, 0.009410806000232697]","[0.19461877644062042, 0.1939178854227066, 0.1922871470451355, 0.19224023818969727, 0.1959884911775589, 0.1970689743757248]","[0.027174160972016047, -1.5436221658228806, 0.027174160972016047, 0.027174160972016047, 0.027174160972016047, 0.027174160972016047]","[0.027174160972016047, -1.5436221658228806, 0.027174160972016047, 0.027174160972016047, 0.027174160972016047, 0.027174160972016047]",0.002,7,1
0,63,"[0.009853191673755646, -1.5610017639449616, 0.009894673024312794, 0.009938641185424757, 0.009873070754110813, 0.009823544882237911]","[0.1990174651145935, 0.19698405265808105, 0.19843219220638275, 0.19663289189338684, 0.19972893595695496, 0.20026850700378418]","[0.027611544754977735, -1.5431847820399187, 0.027611544754977735, 0.027611544754977735, 0.027611544754977735, 0.027611544754977735]","[0.027611544754977735, -1.5431847820399187, 0.027611544754977735, 0.027611544754977735, 0.027611544754977735, 0.027611544754977735]",0.002,7,1
0,64,"[0.010225243866443634, -1.5606389579227944, 0.010290924702779591, 0.010319872493408155, 0.01026192121207714, 0.010252037085592747]","[0.20319393277168274, 0.20109954476356506, 0.20063859224319458, 0.20181162655353546, 0.20469249784946442, 0.20440064370632172]","[0.028048884918095193, -1.5427474418768015, 0.028048884918095193, 0.028048884918095193, 0.028048884918095193, 0.028048884918095193]","[0.028048884918095193, -1.5427474418768015, 0.028048884918095193, 0.028048884918095193, 0.028048884918095193, 0.028048884918095193]",0.002,7,1
0,65,"[0.010666362941265106, -1.5601859412020822, 0.010754410420553029, 0.010722919101379347, 0.010606741532683372, 0.010635766200721264]","[0.20751994848251343, 0.20584623515605927, 0.20428606867790222, 0.20634712278842926, 0.2089889496564865, 0.20980176329612732]","[0.028486180770472276, -1.5423101460244242, 0.028486180770472276, 0.028486180770472276, 0.028486180770472276, 0.028486180770472276]","[0.028486180770472276, -1.5423101460244242, 0.028486180770472276, 0.028486180770472276, 0.028486180770472276, 0.028486180770472276]",0.002,7,1
0,66,"[0.011006753891706467, -1.5598183612203975, 0.011196915303365529, 0.011218352908752394, 0.011059736832976341, 0.011014659889042377]","[0.21170563995838165, 0.21009741723537445, 0.20655788481235504, 0.2106667160987854, 0.21201343834400177, 0.21354450285434723]","[0.02892343162128283, -1.5418728951736138, 0.02892343162128283, 0.02892343162128283, 0.02892343162128283, 0.02892343162128283]","[0.02892343162128283, -1.5418728951736138, 0.02892343162128283, 0.02892343162128283, 0.02892343162128283, 0.02892343162128283]",0.002,7,1
0,67,"[0.011542432010173798, -1.559362431322672, 0.011516396199361623, 0.011599584216735792, 0.011517591774463654, 0.01146686915308237]","[0.21582342684268951, 0.21550510823726654, 0.21405577659606934, 0.21532413363456726, 0.216008722782135, 0.21861271560192108]","[0.029360636779771816, -1.5414356900151247, 0.029360636779771816, 0.029360636779771816, 0.029360636779771816, 0.029360636779771816]","[0.029360636779771816, -1.5414356900151247, 0.029360636779771816, 0.029360636779771816, 0.029360636779771816, 0.029360636779771816]",0.002,7,1
0,68,"[0.011957895010709763, -1.558987539527454, 0.012003246937887013, 0.012058063144348097, 0.011950173415243626, 0.011907663196325302]","[0.21887700259685516, 0.2170645147562027, 0.21775874495506287, 0.2203245609998703, 0.22228306531906128, 0.22304311394691467]","[0.029797795555256364, -1.5409985312396401, 0.029797795555256364, 0.029797795555256364, 0.029797795555256364, 0.029797795555256364]","[0.029797795555256364, -1.5409985312396401, 0.029797795555256364, 0.029797795555256364, 0.029797795555256364, 0.029797795555256364]",0.002,7,1
0,69,"[0.012409396469593048, -1.558489167397358, 0.012432877217428029, 0.012475653285644484, 0.012394347228109837, 0.012367532588541508]","[0.22358965873718262, 0.2217818796634674, 0.2215234786272049, 0.22389045357704163, 0.22713623940944672, 0.2274104654788971]","[0.030234907257126884, -1.5405614195377697, 0.030234907257126884, 0.030234907257126884, 0.030234907257126884, 0.030234907257126884]","[0.030234907257126884, -1.5405614195377697, 0.030234907257126884, 0.030234907257126884, 0.030234907257126884, 0.030234907257126884]",0.002,7,1
0,70,"[0.012878690846264362, -1.558061846797802, 0.012926880513326466, 0.012995763415954542, 0.012845849618315697, 0.012839682400226593]","[0.2267874926328659, 0.22714829444885254, 0.22488203644752502, 0.2274656891822815, 0.23028118908405304, 0.23172441124916077]","[0.030671971194848137, -1.5401243556000483, 0.030671971194848137, 0.030671971194848137, 0.030671971194848137, 0.030671971194848137]","[0.030671971194848137, -1.5401243556000483, 0.030671971194848137, 0.030671971194848137, 0.030671971194848137, 0.030671971194848137]",0.002,7,1
0,71,"[0.013325649313628674, -1.5575984067148347, 0.013315502797262013, 0.013421817416809034, 0.01333690620958805, 0.01324168685823679]","[0.23144255578517914, 0.23006705939769745, 0.22862780094146729, 0.23066677153110504, 0.23431585729122162, 0.23693813383579254]","[0.031108986677960353, -1.5396873401169362, 0.031108986677960353, 0.031108986677960353, 0.031108986677960353, 0.031108986677960353]","[0.031108986677960353, -1.5396873401169362, 0.031108986677960353, 0.031108986677960353, 0.031108986677960353, 0.031108986677960353]",0.002,7,1
0,72,"[0.013772662729024887, -1.5571169939688225, 0.013790432606832326, 0.01390652238812251, 0.01379300095140934, 0.013745918869972229]","[0.23559430241584778, 0.2331913709640503, 0.2331445962190628, 0.23440787196159363, 0.23817914724349976, 0.2397121638059616]","[0.03154595301608032, -1.5392503737788163, 0.03154595301608032, 0.03154595301608032, 0.03154595301608032, 0.03154595301608032]","[0.03154595301608032, -1.5392503737788163, 0.03154595301608032, 0.03154595301608032, 0.03154595301608032, 0.03154595301608032]",0.002,7,1
0,73,"[0.014285760931670666, -1.5566790646738191, 0.01420909563173467, 0.014408870334289503, 0.01427367888391018, 0.014263431541621685]","[0.24033674597740173, 0.23857128620147705, 0.23818433284759521, 0.23828507959842682, 0.24163953959941864, 0.2442491501569748]","[0.031982869518902446, -1.5388134572759942, 0.031982869518902446, 0.031982869518902446, 0.031982869518902446, 0.031982869518902446]","[0.031982869518902446, -1.5388134572759942, 0.031982869518902446, 0.031982869518902446, 0.031982869518902446, 0.031982869518902446]",0.002,7,1
0,74,"[0.014798903837800026, -1.55618087228898, 0.01478606859316045, 0.014842553729675245, 0.014710992574691772, 0.014734456315636635]","[0.24343037605285645, 0.2436995953321457, 0.2420816868543625, 0.2418922781944275, 0.24452455341815948, 0.24693723022937775]","[0.03241973549619986, -1.5383765912986966, 0.03241973549619986, 0.03241973549619986, 0.03241973549619986, 0.03241973549619986]","[0.03241973549619986, -1.5383765912986966, 0.03241973549619986, 0.03241973549619986, 0.03241973549619986, 0.03241973549619986]",0.002,7,1
0,75,"[0.015254879370331764, -1.555688895551004, 0.015198532735006154, 0.015381141299865675, 0.015210820361971855, 0.015235204249620438]","[0.24859344959259033, 0.24829551577568054, 0.24501565098762512, 0.24441124498844147, 0.24869419634342194, 0.24964161217212677]","[0.03285655025782554, -1.537939776537071, 0.03285655025782554, 0.03285655025782554, 0.03285655025782554, 0.03285655025782554]","[0.03285655025782554, -1.537939776537071, 0.03285655025782554, 0.03285655025782554, 0.03285655025782554, 0.03285655025782554]",0.002,7,1
0,76,"[0.0157453715801239, -1.5552107638544221, 0.01571685472597295, 0.015881820315978956, 0.015799231827259064, 0.01577947288751602]","[0.2506211996078491, 0.2528652250766754, 0.24808554351329803, 0.24880704283714294, 0.2549750804901123, 0.255243182182312]","[0.03329331311371334, -1.5375030136811831, 0.03329331311371334, 0.03329331311371334, 0.03329331311371334, 0.03329331311371334]","[0.03329331311371334, -1.5375030136811831, 0.03329331311371334, 0.03329331311371334, 0.03329331311371334, 0.03329331311371334]",0.002,7,1
0,77,"[0.01623282954096794, -1.5547352370670815, 0.016225639973775685, 0.016358061427734327, 0.01625705510377884, 0.016299687325954437]","[0.25430428981781006, 0.2538714110851288, 0.25210562348365784, 0.2521861493587494, 0.2586285471916199, 0.2593221366405487]","[0.03373002337387915, -1.5370663034210175, 0.03373002337387915, 0.03373002337387915, 0.03373002337387915, 0.03373002337387915]","[0.03373002337387915, -1.5370663034210175, 0.03373002337387915, 0.03373002337387915, 0.03373002337387915, 0.03373002337387915]",0.002,7,1
0,78,"[0.016815222799777985, -1.5541725543192406, 0.016725842152730763, 0.016850157374999952, 0.01677314192056656, 0.016752183437347412]","[0.2597346007823944, 0.2563116252422333, 0.2584018111228943, 0.25448301434516907, 0.26115816831588745, 0.2622617483139038]","[0.03416668034842189, -1.5366296464464746, 0.03416668034842189, 0.03416668034842189, 0.03416668034842189, 0.03416668034842189]","[0.03416668034842189, -1.5366296464464746, 0.03416668034842189, 0.03416668034842189, 0.03416668034842189, 0.03416668034842189]",0.002,7,1
0,79,"[0.017326705157756805, -1.553656780426838, 0.017234627400533498, 0.017368121738098097, 0.017277158796787262, 0.017360009253025055]","[0.26129642128944397, 0.26192706823349, 0.2601587772369385, 0.2578730285167694, 0.2644589841365814, 0.26602765917778015]","[0.03460328334752473, -1.5361930434473718, 0.03460328334752473, 0.03460328334752473, 0.03460328334752473, 0.03460328334752473]","[0.03460328334752473, -1.5361930434473718, 0.03460328334752473, 0.03460328334752473, 0.03460328334752473, 0.03460328334752473]",0.002,7,1
0,80,"[0.0178217813372612, -1.553157129590847, 0.017771069203512013, 0.017887874240539503, 0.01785053126513958, 0.017854319885373116]","[0.26539602875709534, 0.26404494047164917, 0.262953519821167, 0.26332923769950867, 0.26646688580513, 0.26785963773727417]","[0.035039831681456066, -1.5357564951134406, 0.035039831681456066, 0.035039831681456066, 0.035039831681456066, 0.035039831681456066]","[0.035039831681456066, -1.5357564951134406, 0.035039831681456066, 0.035039831681456066, 0.035039831681456066, 0.035039831681456066]",0.002,7,1
0,81,"[0.018412912264466286, -1.5525511422059317, 0.01828939119447881, 0.018406911487243605, 0.01835540495812893, 0.018410684540867805]","[0.26674535870552063, 0.26717033982276917, 0.26845040917396545, 0.2669641375541687, 0.2693130075931549, 0.27186253666877747]","[0.03547632466057065, -1.5353200021343258, 0.03547632466057065, 0.03547632466057065, 0.03547632466057065, 0.03547632466057065]","[0.03547632466057065, -1.5353200021343258, 0.03547632466057065, 0.03547632466057065, 0.03547632466057065, 0.03547632466057065]",0.002,7,1
0,82,"[0.019014203920960426, -1.5520894166878243, 0.018867317830220998, 0.018982215518615675, 0.01891445554792881, 0.018987756222486496]","[0.27198877930641174, 0.2722725570201874, 0.26966702938079834, 0.2719753682613373, 0.2736453115940094, 0.2732175588607788]","[0.035912761595310705, -1.5348835651995858, 0.035912761595310705, 0.035912761595310705, 0.035912761595310705, 0.035912761595310705]","[0.035912761595310705, -1.5348835651995858, 0.035912761595310705, 0.035912761595310705, 0.035912761595310705, 0.035912761595310705]",0.002,7,1
0,83,"[0.019523082301020622, -1.551507181753852, 0.019369427357808888, 0.01950327932324214, 0.019405432045459747, 0.019489958882331848]","[0.2769891619682312, 0.2740355432033539, 0.27265337109565735, 0.27506691217422485, 0.277316153049469, 0.27751028537750244]","[0.03634914179620697, -1.5344471849986896, 0.03634914179620697, 0.03634914179620697, 0.03634914179620697, 0.03634914179620697]","[0.03634914179620697, -1.5344471849986896, 0.03634914179620697, 0.03634914179620697, 0.03634914179620697, 0.03634914179620697]",0.002,7,1
0,84,"[0.02001648209989071, -1.550980844800808, 0.01992494264711553, 0.02005736410107417, 0.02000914141535759, 0.020044606178998947]","[0.27738478779792786, 0.27699509263038635, 0.2778507471084595, 0.27818310260772705, 0.2811393737792969, 0.28104057908058167]","[0.03678546457387983, -1.5340108622210167, 0.03678546457387983, 0.03678546457387983, 0.03678546457387983, 0.03678546457387983]","[0.03678546457387983, -1.5340108622210167, 0.03678546457387983, 0.03678546457387983, 0.03678546457387983, 0.03678546457387983]",0.002,7,1
0,85,"[0.020638056099414825, -1.5503510323217888, 0.02047616640199834, 0.02058689176525874, 0.020564191043376923, 0.020645834505558014]","[0.2800661623477936, 0.28039684891700745, 0.28016021847724915, 0.2804372310638428, 0.28205135464668274, 0.2827656865119934]","[0.037221729239040366, -1.5335745975558561, 0.037221729239040366, 0.037221729239040366, 0.037221729239040366, 0.037221729239040366]","[0.037221729239040366, -1.5335745975558561, 0.037221729239040366, 0.037221729239040366, 0.037221729239040366, 0.037221729239040366]",0.002,7,1
0,86,"[0.021175287663936615, -1.5498083394816895, 0.021077458058492482, 0.021112008685729933, 0.02111927419900894, 0.021188413724303246]","[0.28384843468666077, 0.28331929445266724, 0.28404974937438965, 0.2846885323524475, 0.28648504614830017, 0.28457483649253845]","[0.03765793510249147, -1.533138391692405, 0.03765793510249147, 0.03765793510249147, 0.03765793510249147, 0.03765793510249147]","[0.03765793510249147, -1.533138391692405, 0.03765793510249147, 0.03765793510249147, 0.03765793510249147, 0.03765793510249147]",0.002,7,1
0,87,"[0.021750114858150482, -1.5492414005896826, 0.021647278462545216, 0.02165023862805171, 0.02174544334411621, 0.02181108482182026]","[0.2859400808811188, 0.28472644090652466, 0.28860393166542053, 0.2901790142059326, 0.2878984808921814, 0.28722941875457764]","[0.03809408147512893, -1.5327022453197676, 0.03809408147512893, 0.03809408147512893, 0.03809408147512893, 0.03809408147512893]","[0.03809408147512893, -1.5327022453197676, 0.03809408147512893, 0.03809408147512893, 0.03809408147512893, 0.03809408147512893]",0.002,7,1
0,88,"[0.02226615510880947, -1.5486397717944165, 0.022210423146383107, 0.022264643306396437, 0.022338252514600754, 0.022386839613318443]","[0.2878040075302124, 0.28649958968162537, 0.28847697377204895, 0.29234644770622253, 0.2915460467338562, 0.28849464654922485]","[0.03853016766794253, -1.532266159126954, 0.03853016766794253, 0.03853016766794253, 0.03853016766794253, 0.03853016766794253]","[0.03853016766794253, -1.532266159126954, 0.03853016766794253, 0.03853016766794253, 0.03853016766794253, 0.03853016766794253]",0.002,7,1
0,89,"[0.022875815629959106, -1.5479737066528578, 0.022849861775533498, 0.022842450732849073, 0.02289319969713688, 0.022956544533371925]","[0.29208457469940186, 0.28884807229042053, 0.2917249798774719, 0.2953565716743469, 0.29332593083381653, 0.29216307401657104]","[0.03896619299201709, -1.5318301338028795, 0.03896619299201709, 0.03896619299201709, 0.03896619299201709, 0.03896619299201709]","[0.03896619299201709, -1.5318301338028795, 0.03896619299201709, 0.03896619299201709, 0.03896619299201709, 0.03896619299201709]",0.002,7,1
0,90,"[0.02348341792821884, -1.5474638913622876, 0.023357693349019826, 0.023387356395385694, 0.023514848202466965, 0.023553257808089256]","[0.29412543773651123, 0.2918204367160797, 0.2956923544406891, 0.29800963401794434, 0.2968757450580597, 0.2947143614292145]","[0.03940215675853362, -1.531394170036363, 0.03940215675853362, 0.03940215675853362, 0.03940215675853362, 0.03940215675853362]","[0.03940215675853362, -1.531394170036363, 0.03940215675853362, 0.03940215675853362, 0.03940215675853362, 0.03940215675853362]",0.002,7,1
0,91,"[0.024068569764494896, -1.5468352504870673, 0.023943726216451466, 0.023997707957885694, 0.024140458554029465, 0.024190131574869156]","[0.29714474081993103, 0.2946963608264923, 0.29242634773254395, 0.30072665214538574, 0.2990669906139374, 0.2971609830856323]","[0.03983805827877034, -1.5309582685161263, 0.03983805827877034, 0.03983805827877034, 0.03983805827877034, 0.03983805827877034]","[0.03983805827877034, -1.5309582685161263, 0.03983805827877034, 0.03983805827877034, 0.03983805827877034, 0.03983805827877034]",0.002,7,1
0,92,"[0.02469749003648758, -1.5462093849531193, 0.024571720753804982, 0.024575634593627882, 0.024707894772291183, 0.024773435667157173]","[0.2982233166694641, 0.2950707972049713, 0.2969565689563751, 0.3026317059993744, 0.2997291386127472, 0.29957467317581177]","[0.04027389686410387, -1.5305224299307927, 0.04027389686410387, 0.04027389686410387, 0.04027389686410387, 0.04027389686410387]","[0.04027389686410387, -1.5305224299307927, 0.04027389686410387, 0.04027389686410387, 0.04027389686410387, 0.04027389686410387]",0.002,7,1
0,93,"[0.025326542556285858, -1.545648805131652, 0.025080506001607716, 0.02512018262829585, 0.02526308037340641, 0.025347134098410606]","[0.30211400985717773, 0.2981739342212677, 0.29979807138442993, 0.30648717284202576, 0.3024853467941284, 0.2996707856655121]","[0.04070967182601018, -1.5300866549688863, 0.04070967182601018, 0.04070967182601018, 0.04070967182601018, 0.04070967182601018]","[0.04070967182601018, -1.5300866549688863, 0.04070967182601018, 0.04070967182601018, 0.04070967182601018, 0.04070967182601018]",0.002,7,1
0,94,"[0.025884805247187614, -1.5449525614133854, 0.02576762834657842, 0.02572600423779292, 0.02597932331264019, 0.025943242013454437]","[0.30321210622787476, 0.3009914755821228, 0.300762802362442, 0.30937281250953674, 0.3058481216430664, 0.30132031440734863]","[0.041145382476065785, -1.5296509443188309, 0.041145382476065785, 0.041145382476065785, 0.041145382476065785, 0.041145382476065785]","[0.041145382476065785, -1.5296509443188309, 0.041145382476065785, 0.041145382476065785, 0.041145382476065785, 0.041145382476065785]",0.002,7,1
0,95,"[0.026486646384000778, -1.544382832278945, 0.026343647633687794, 0.026417656535766554, 0.026549512520432472, 0.026566706597805023]","[0.30577564239501953, 0.30133897066116333, 0.3067384958267212, 0.31008297204971313, 0.3069576919078827, 0.303024023771286]","[0.0415810281259488, -1.5292152986689478, 0.0415810281259488, 0.0415810281259488, 0.0415810281259488, 0.0415810281259488]","[0.0415810281259488, -1.5292152986689478, 0.0415810281259488, 0.0415810281259488, 0.0415810281259488, 0.0415810281259488]",0.002,7,1
0,96,"[0.02705272287130356, -1.5437468041530629, 0.02696258226503545, 0.026941342944763136, 0.02714766189455986, 0.027208523824810982]","[0.30786508321762085, 0.30454379320144653, 0.3084033727645874, 0.3134269416332245, 0.30916887521743774, 0.30757611989974976]","[0.04201660808744002, -1.5287797187074565, 0.04201660808744002, 0.04201660808744002, 0.04201660808744002, 0.04201660808744002]","[0.04201660808744002, -1.5287797187074565, 0.04201660808744002, 0.04201660808744002, 0.04201660808744002, 0.04201660808744002]",0.002,7,1
0,97,"[0.027696143835783005, -1.5430704106441517, 0.02759105363954717, 0.027611179942748976, 0.02780088037252426, 0.027834637090563774]","[0.3106149733066559, 0.3071742653846741, 0.3092535734176636, 0.31400346755981445, 0.3098646402359009, 0.30938002467155457]","[0.042452121672424015, -1.5283442051224725, 0.042452121672424015, 0.042452121672424015, 0.042452121672424015, 0.042452121672424015]","[0.042452121672424015, -1.5283442051224725, 0.042452121672424015, 0.042452121672424015, 0.042452121672424015, 0.042452121672424015]",0.002,7,1
0,98,"[0.02829497680068016, -1.5424301897040387, 0.028252903615133107, 0.028211994762084913, 0.0284202191978693, 0.02842596545815468]","[0.31281429529190063, 0.30866754055023193, 0.31489312648773193, 0.31536731123924255, 0.3129301965236664, 0.31065207719802856]","[0.042887568192890205, -1.5279087586020064, 0.042887568192890205, 0.042887568192890205, 0.042887568192890205, 0.042887568192890205]","[0.042887568192890205, -1.5279087586020064, 0.042887568192890205, 0.042887568192890205, 0.042887568192890205, 0.042887568192890205]",0.002,7,1
0,99,"[0.02895422652363777, -1.541809208025672, 0.028891865407125294, 0.02889065324749751, 0.02909884974360466, 0.029058361425995827]","[0.3145100176334381, 0.31098464131355286, 0.31407347321510315, 0.31922823190689087, 0.3126155138015747, 0.3113185465335846]","[0.043322946960933965, -1.5274733798339626, 0.043322946960933965, 0.043322946960933965, 0.043322946960933965, 0.043322946960933965]","[0.043322946960933965, -1.5274733798339626, 0.043322946960933965, 0.043322946960933965, 0.043322946960933965, 0.043322946960933965]",0.002,7,1
0,100,"[0.029505806043744087, -1.5412366811982174, 0.029511276875631154, 0.029483481044433546, 0.029697757214307785, 0.029731804504990578]","[0.316709041595459, 0.31246426701545715, 0.3166827857494354, 0.31945309042930603, 0.3160354495048523, 0.3135930597782135]","[0.04375825728875771, -1.5270380695061387, 0.04375825728875771, 0.04375825728875771, 0.04375825728875771, 0.04375825728875771]","[0.04375825728875771, -1.5270380695061387, 0.04375825728875771, 0.04375825728875771, 0.04375825728875771, 0.04375825728875771]",0.002,7,1
0,101,"[0.03013593703508377, -1.5405676283738394, 0.030183140431539357, 0.03013734399761958, 0.03041665069758892, 0.030370336025953293]","[0.31832394003868103, 0.3132250905036926, 0.31833624839782715, 0.32167762517929077, 0.31476813554763794, 0.3140806555747986]","[0.04419349848867195, -1.5266028283062245, 0.04419349848867195, 0.04419349848867195, 0.04419349848867195, 0.04419349848867195]","[0.04419349848867195, -1.5266028283062245, 0.04419349848867195, 0.04419349848867195, 0.04419349848867195, 0.04419349848867195]",0.002,7,1
0,102,"[0.030758732929825783, -1.5398734559169789, 0.03087789217104131, 0.03077475606884761, 0.03105763904750347, 0.030972979962825775]","[0.3181493282318115, 0.3148648738861084, 0.3186618983745575, 0.32235097885131836, 0.3173864781856537, 0.3167361915111542]","[0.04462866987309642, -1.5261676569218001, 0.04462866987309642, 0.04462866987309642, 0.04462866987309642, 0.04462866987309642]","[0.04462866987309642, -1.5261676569218001, 0.04462866987309642, 0.04462866987309642, 0.04462866987309642, 0.04462866987309642]",0.002,7,1
0,103,"[0.03140243515372276, -1.5393133547953148, 0.0314558188067835, 0.031456394786498976, 0.03163207322359085, 0.03163698688149452]","[0.31977546215057373, 0.3129313290119171, 0.31974002718925476, 0.3239471912384033, 0.3182319700717926, 0.31768307089805603]","[0.04506377075456115, -1.5257325560403354, 0.04506377075456115, 0.04506377075456115, 0.04506377075456115, 0.04506377075456115]","[0.04506377075456115, -1.5257325560403354, 0.04506377075456115, 0.04506377075456115, 0.04506377075456115, 0.04506377075456115]",0.002,7,1
0,104,"[0.032032448798418045, -1.5386228796890755, 0.032091919575826466, 0.03211335718121333, 0.03223825618624687, 0.03228237107396126]","[0.3213898241519928, 0.31795835494995117, 0.3220966160297394, 0.32583826780319214, 0.318803995847702, 0.3173198997974396]","[0.04549880044570755, -1.525297526349189, 0.04549880044570755, 0.04549880044570755, 0.04549880044570755, 0.04549880044570755]","[0.04549880044570755, -1.525297526349189, 0.04549880044570755, 0.04549880044570755, 0.04549880044570755, 0.04549880044570755]",0.002,7,1
0,105,"[0.03266741707921028, -1.537966725682356, 0.03278476396669561, 0.032754583949706984, 0.03291211649775505, 0.03290114924311638]","[0.32307377457618713, 0.3175935745239258, 0.3205961585044861, 0.3269369602203369, 0.3209429383277893, 0.3189236521720886]","[0.04593375825928948, -1.524862568535607, 0.04593375825928948, 0.04593375825928948, 0.04593375825928948, 0.04593375825928948]","[0.04593375825928948, -1.524862568535607, 0.04593375825928948, 0.04593375825928948, 0.04593375825928948, 0.04593375825928948]",0.002,7,1
0,106,"[0.033299870789051056, -1.5373280730894585, 0.03339225450624639, 0.03347699224438472, 0.03359360620379448, 0.03352516517043114]","[0.32109534740448, 0.31903642416000366, 0.3215750753879547, 0.3265242576599121, 0.31976377964019775, 0.3195250630378723]","[0.04636864350817435, -1.5244276832867223, 0.04636864350817435, 0.04636864350817435, 0.04636864350817435, 0.04636864350817435]","[0.04636864350817435, -1.5244276832867223, 0.04636864350817435, 0.04636864350817435, 0.04636864350817435, 0.04636864350817435]",0.002,7,1
0,107,"[0.03397444635629654, -1.5366927322796364, 0.03405934969057256, 0.03411714612927241, 0.03419959545135498, 0.03418455645442009]","[0.3243559002876282, 0.32120636105537415, 0.3226356506347656, 0.32601916790008545, 0.32071784138679504, 0.31973278522491455]","[0.04680345550534421, -1.5239928712895523, 0.04680345550534421, 0.04680345550534421, 0.04680345550534421, 0.04680345550534421]","[0.04680345550534421, -1.5239928712895523, 0.04680345550534421, 0.04680345550534421, 0.04680345550534421, 0.04680345550534421]",0.002,7,1
0,108,"[0.034599896520376205, -1.5359913867763062, 0.034736458455221, 0.03478650629010005, 0.034819096326828, 0.03485775366425514]","[0.32304081320762634, 0.32151779532432556, 0.3225507438182831, 0.3261338770389557, 0.3218463361263275, 0.3207993805408478]","[0.04723819356389685, -1.5235581332309998, 0.04723819356389685, 0.04723819356389685, 0.04723819356389685, 0.04723819356389685]","[0.04723819356389685, -1.5235581332309998, 0.04723819356389685, 0.04723819356389685, 0.04723819356389685, 0.04723819356389685]",0.002,7,1
0,109,"[0.03529609739780426, -1.5353529427996655, 0.03537494341005498, 0.035447760219238234, 0.035547610372304916, 0.035480014979839325]","[0.3258189558982849, 0.32253849506378174, 0.3224833309650421, 0.3255681097507477, 0.32277464866638184, 0.32095757126808167]","[0.04767285699704684, -1.5231234697978497, 0.04767285699704684, 0.04767285699704684, 0.04767285699704684, 0.04767285699704684]","[0.04767285699704684, -1.5231234697978497, 0.04767285699704684, 0.04767285699704684, 0.04767285699704684, 0.04767285699704684]",0.002,7,1
0,110,"[0.035983435809612274, -1.534729217444994, 0.03600198427309209, 0.03608052312817378, 0.036132294684648514, 0.036150287836790085]","[0.3259562849998474, 0.3239041268825531, 0.32429713010787964, 0.3241965174674988, 0.32518938183784485, 0.32232412695884705]","[0.04810744511812663, -1.5226888816767699, 0.04810744511812663, 0.04810744511812663, 0.04810744511812663, 0.04810744511812663]","[0.04810744511812663, -1.5226888816767699, 0.04810744511812663, 0.04810744511812663, 0.04810744511812663, 0.04810744511812663]",0.002,7,1
0,111,"[0.03658806532621384, -1.5340821494213124, 0.03674298921693975, 0.036800070399902296, 0.03679461404681206, 0.03674686700105667]","[0.3269064128398895, 0.32483500242233276, 0.3261262774467468, 0.32641667127609253, 0.3232460916042328, 0.3243373930454254]","[0.048541957240587706, -1.522254369554309, 0.048541957240587706, 0.048541957240587706, 0.048541957240587706, 0.048541957240587706]","[0.048541957240587706, -1.522254369554309, 0.048541957240587706, 0.048541957240587706, 0.048541957240587706, 0.048541957240587706]",0.002,7,1
0,112,"[0.037254221737384796, -1.533454143708088, 0.03735858598817998, 0.037446900005004835, 0.037450190633535385, 0.03744109347462654]","[0.32801583409309387, 0.3252452313899994, 0.3246139585971832, 0.32521072030067444, 0.32405373454093933, 0.3273598551750183]","[0.048976392678001544, -1.521819934116895, 0.048976392678001544, 0.048976392678001544, 0.048976392678001544, 0.048976392678001544]","[0.048976392678001544, -1.521819934116895, 0.048976392678001544, 0.048976392678001544, 0.048976392678001544, 0.048976392678001544]",0.002,7,1
0,113,"[0.0379217229783535, -1.5327616830221196, 0.03800565401186162, 0.0381360489078979, 0.03813336417078972, 0.03797291964292526]","[0.3277934193611145, 0.32382726669311523, 0.3260882496833801, 0.32580989599227905, 0.3238271474838257, 0.3255024552345276]","[0.049410750744060795, -1.5213855760508357, 0.049410750744060795, 0.049410750744060795, 0.049410750744060795, 0.049410750744060795]","[0.049410750744060795, -1.5213855760508357, 0.049410750744060795, 0.049410750744060795, 0.049410750744060795, 0.049410750744060795]",0.002,7,1
0,114,"[0.03855191916227341, -1.532118798499443, 0.03872043291200811, 0.03881923734631343, 0.03877240791916847, 0.038628336042165756]","[0.3278145492076874, 0.3256440758705139, 0.32724109292030334, 0.32655176520347595, 0.3234497308731079, 0.3256688117980957]","[0.04984503075258035, -1.5209512960423162, 0.04984503075258035, 0.04984503075258035, 0.04984503075258035, 0.04984503075258035]","[0.04984503075258035, -1.5209512960423162, 0.04984503075258035, 0.04984503075258035, 0.04984503075258035, 0.04984503075258035]",0.002,7,1
0,115,"[0.03921351209282875, -1.5314593327096482, 0.039364163075582326, 0.03948335229840083, 0.03940896689891815, 0.039334703236818314]","[0.3261856734752655, 0.32624179124832153, 0.3281457722187042, 0.32543832063674927, 0.32582712173461914, 0.32696816325187683]","[0.050279232017498385, -1.5205170947773983, 0.050279232017498385, 0.050279232017498385, 0.050279232017498385, 0.050279232017498385]","[0.050279232017498385, -1.5205170947773983, 0.050279232017498385, 0.050279232017498385, 0.050279232017498385, 0.050279232017498385]",0.002,7,1
0,116,"[0.0398692861199379, -1.5308231574347992, 0.03997403780092412, 0.040095849628112745, 0.04007367789745331, 0.039970237761735916]","[0.32598355412483215, 0.3244357705116272, 0.32377755641937256, 0.3232848048210144, 0.32623669505119324, 0.3281812071800232]","[0.0507133538528775, -1.520082972942019, 0.0507133538528775, 0.0507133538528775, 0.0507133538528775, 0.0507133538528775]","[0.0507133538528775, -1.520082972942019, 0.0507133538528775, 0.0507133538528775, 0.0507133538528775, 0.0507133538528775]",0.002,7,1
0,117,"[0.04051577299833298, -1.5302014139345665, 0.04057628313173467, 0.04078166067089839, 0.04068879783153534, 0.040596961975097656]","[0.3287152945995331, 0.32582080364227295, 0.32622501254081726, 0.32188382744789124, 0.32636937499046326, 0.32651492953300476]","[0.05114739557290577, -1.5196489312219907, 0.05114739557290577, 0.05114739557290577, 0.05114739557290577, 0.05114739557290577]","[0.05114739557290577, -1.5196489312219907, 0.05114739557290577, 0.05114739557290577, 0.05114739557290577, 0.05114739557290577]",0.002,7,1
0,118,"[0.041141316294670105, -1.529594389056303, 0.0412982145892542, 0.04146341859783931, 0.04133753478527069, 0.041290972381830215]","[0.3257020115852356, 0.3250201642513275, 0.32542961835861206, 0.3220231831073761, 0.3236684799194336, 0.32635700702667236]","[0.05158135649189781, -1.5192149703029987, 0.05158135649189781, 0.05158135649189781, 0.05158135649189781, 0.05158135649189781]","[0.05158135649189781, -1.5192149703029987, 0.05158135649189781, 0.05158135649189781, 0.05158135649189781, 0.05158135649189781]",0.002,7,1
0,119,"[0.04183489829301834, -1.5289396059564133, 0.041904751454488576, 0.04212479173626704, 0.04201097413897514, 0.0418851301074028]","[0.3258376121520996, 0.3227253258228302, 0.325360506772995, 0.32205909490585327, 0.32518452405929565, 0.3266385793685913]","[0.05201523592429592, -1.5187810908706005, 0.05201523592429592, 0.05201523592429592, 0.05201523592429592, 0.05201523592429592]","[0.05201523592429592, -1.5187810908706005, 0.05201523592429592, 0.05201523592429592, 0.05201523592429592, 0.05201523592429592]",0.002,7,1
0,120,"[0.0424482636153698, -1.5282829788378258, 0.04262715974916631, 0.042834921474121046, 0.04263801872730255, 0.04249485582113266]","[0.32472318410873413, 0.3239413797855377, 0.3235679864883423, 0.32453569769859314, 0.3255771994590759, 0.3264938294887543]","[0.05244903318467109, -1.5183472936102254, 0.05244903318467109, 0.05244903318467109, 0.05244903318467109, 0.05244903318467109]","[0.05244903318467109, -1.5183472936102254, 0.05244903318467109, 0.05244903318467109, 0.05244903318467109, 0.05244903318467109]",0.002,7,1
0,121,"[0.04315628483891487, -1.5276521121016522, 0.043226067219869435, 0.04340509950604243, 0.04324973374605179, 0.04316839948296547]","[0.3267681300640106, 0.32406824827194214, 0.32421791553497314, 0.32285431027412415, 0.3269372582435608, 0.3279971182346344]","[0.05288274758772415, -1.5179135792071725, 0.05288274758772415, 0.05288274758772415, 0.05288274758772415, 0.05288274758772415]","[0.05288274758772415, -1.5179135792071725, 0.05288274758772415, 0.05288274758772415, 0.05288274758772415, 0.05288274758772415]",0.002,7,1
0,122,"[0.043789323419332504, -1.526978724902012, 0.04385549226869756, 0.04409925519909663, 0.04383984953165054, 0.04377113655209541]","[0.32541361451148987, 0.3217686712741852, 0.3243584930896759, 0.32157766819000244, 0.32485294342041016, 0.32752862572669983]","[0.05331637844828681, -1.5174799483466097, 0.05331637844828681, 0.05331637844828681, 0.05331637844828681, 0.05331637844828681]","[0.05331637844828681, -1.5174799483466097, 0.05331637844828681, 0.05331637844828681, 0.05331637844828681, 0.05331637844828681]",0.002,7,1
0,123,"[0.04445256292819977, -1.5264073994806786, 0.04451209703554326, 0.04469577848400874, 0.044528596103191376, 0.0444064736366272]","[0.32508161664009094, 0.32309049367904663, 0.3233022391796112, 0.31855055689811707, 0.32338643074035645, 0.3271579146385193]","[0.053749925081322765, -1.5170464017135739, 0.053749925081322765, 0.053749925081322765, 0.053749925081322765, 0.053749925081322765]","[0.053749925081322765, -1.5170464017135739, 0.053749925081322765, 0.053749925081322765, 0.053749925081322765, 0.053749925081322765]",0.002,7,1
0,124,"[0.04514854773879051, -1.5257288602045556, 0.045107666646138966, 0.04536978780712886, 0.04520268738269806, 0.045121897011995316]","[0.32421284914016724, 0.3213866651058197, 0.32059207558631897, 0.3171369433403015, 0.32564985752105713, 0.32832247018814087]","[0.05418338680192879, -1.5166129399929678, 0.05418338680192879, 0.05418338680192879, 0.05418338680192879, 0.05418338680192879]","[0.05418338680192879, -1.5166129399929678, 0.05418338680192879, 0.05418338680192879, 0.05418338680192879, 0.05418338680192879]",0.002,7,1
0,125,"[0.04571717977523804, -1.5250843700817605, 0.045742336903707326, 0.04599825918164058, 0.045801304280757904, 0.045702215284109116]","[0.3229324519634247, 0.3214684724807739, 0.32060039043426514, 0.3170601725578308, 0.3236478269100189, 0.32886576652526855]","[0.05461676292533576, -1.5161795638695608, 0.05461676292533576, 0.05461676292533576, 0.05461676292533576, 0.05461676292533576]","[0.05461676292533576, -1.5161795638695608, 0.05461676292533576, 0.05461676292533576, 0.05461676292533576, 0.05461676292533576]",0.002,7,1
0,126,"[0.04635004326701164, -1.524477307950594, 0.04640371004213506, 0.04666201650585933, 0.04646841809153557, 0.04637064412236214]","[0.3228669762611389, 0.32102856040000916, 0.31957539916038513, 0.3168388605117798, 0.32288628816604614, 0.3264855146408081]","[0.0550500527669098, -1.5157462740279868, 0.0550500527669098, 0.0550500527669098, 0.0550500527669098, 0.0550500527669098]","[0.0550500527669098, -1.5157462740279868, 0.0550500527669098, 0.0550500527669098, 0.0550500527669098, 0.0550500527669098]",0.002,7,1
0,127,"[0.04705134406685829, -1.5238328625312825, 0.04699451128114873, 0.04724196969952388, 0.04708334803581238, 0.04705587029457092]","[0.32132217288017273, 0.32160523533821106, 0.3191092014312744, 0.3165501356124878, 0.32272928953170776, 0.3261883854866028]","[0.05548325564215335, -1.5153130711527432, 0.05548325564215335, 0.05548325564215335, 0.05548325564215335, 0.05548325564215335]","[0.05548325564215335, -1.5153130711527432, 0.05548325564215335, 0.05548325564215335, 0.05548325564215335, 0.05548325564215335]",0.002,7,1
0,128,"[0.04769290238618851, -1.5231657598963757, 0.04763538042177373, 0.047940297717712355, 0.04775582626461983, 0.04772738367319107]","[0.3211815357208252, 0.31845951080322266, 0.3219064474105835, 0.31464946269989014, 0.32331156730651855, 0.32482877373695374]","[0.05591637086670621, -1.5148799559281902, 0.05591637086670621, 0.05591637086670621, 0.05591637086670621, 0.05591637086670621]","[0.05591637086670621, -1.5148799559281902, 0.05591637086670621, 0.05591637086670621, 0.05591637086670621, 0.05591637086670621]",0.002,7,1
0,129,"[0.04827875643968582, -1.5225800660303612, 0.048316303883687794, 0.04855267583813472, 0.04839620366692543, 0.048337679356336594]","[0.32144585251808167, 0.318234384059906, 0.3182678520679474, 0.3137149512767792, 0.3203848600387573, 0.32488417625427246]","[0.05634939775634666, -1.5144469290385498, 0.05634939775634666, 0.05634939775634666, 0.05634939775634666, 0.05634939775634666]","[0.05634939775634666, -1.5144469290385498, 0.05634939775634666, 0.05634939775634666, 0.05634939775634666, 0.05634939775634666]",0.002,7,1
0,130,"[0.04895053431391716, -1.5219446805170556, 0.04892427126039678, 0.04914228498425288, 0.04897136613726616, 0.04895675927400589]","[0.3199703097343445, 0.315937340259552, 0.3183460831642151, 0.31344670057296753, 0.31858643889427185, 0.32180309295654297]","[0.05678233562699254, -1.514013991167904, 0.05678233562699254, 0.05678233562699254, 0.05678233562699254, 0.05678233562699254]","[0.05678233562699254, -1.514013991167904, 0.05678233562699254, 0.05678233562699254, 0.05678233562699254, 0.05678233562699254]",0.002,7,1
