Arnibjarnst/BoxLift/logs/ur_rtde/trajectory_dur=7.5_delay=0.2_gain=100_lh=0.03_real.csv
arm_idx,step,actual_q,actual_qd,target_q,expected_q,loop_time,robot_mode,safety_mode
0,-1,"[0.037065841257572174, -1.5338289153626938, 0.036951843892232716, 0.037108345622680616, 0.03719974309206009, 0.037087589502334595]","[-0.04593181982636452, -0.0495167002081871, -0.047023698687553406, -0.044433094561100006, -0.04367370530962944, -0.04346151277422905]","[0.0, -1.5707963267948966, 0.0, 0.0, 0.0, 0.0]","[0.0, -1.5707963267948966, 0.0, 0.0, 0.0, 0.0]",0.002,7,1
0,-1,"[0.03619754686951637, -1.5347652186504384, 0.036087814961568654, 0.03622560083355708, 0.036327511072158813, 0.03624334931373596]","[-0.06249551475048065, -0.06378388404846191, -0.06230197101831436, -0.06008828431367874, -0.06130535155534744, -0.06016507372260094]","[0.0, -1.5707963267948966, 0.0, 0.0, 0.0, 0.0]","[0.0, -1.5707963267948966, 0.0, 0.0, 0.0, 0.0]",0.002,7,1
0,-1,"[0.03534584864974022, -1.5355845291963597, 0.035267178212301076, 0.03549961626019282, 0.03551563620567322, 0.03544088825583458]","[-0.07267066836357117, -0.07557106763124466, -0.07175719738006592, -0.07152562588453293, -0.07352890074253082, -0.07165005803108215]","[0.0, -1.5707963267948966, 0.0, 0.0, 0.0, 0.0]","[0.0, -1.5707963267948966, 0.0, 0.0, 0.0, 0.0]",0.002,7,1
0,-1,"[0.03470196574926376, -1.5362038624337693, 0.03467685381044561, 0.034782930011413526, 0.03491847962141037, 0.03485956788063049]","[-0.07989563047885895, -0.07792540639638901, -0.08276334404945374, -0.08104366809129715, -0.08044297993183136, -0.08048403263092041]","[0.0, -1.5707963267948966, 0.0, 0.0, 0.0, 0.0]","[0.0, -1.5707963267948966, 0.0, 0.0, 0.0, 0.0]",0.002,7,1
0,-1,"[0.03374074399471283, -1.5370713670602818, 0.033704582844869435, 0.033919020290039015, 0.03401800990104675, 0.03402715548872948]","[-0.0908483937382698, -0.0892159715294838, -0.09038440883159637, -0.0901184007525444, -0.09267181158065796, -0.09108027070760727]","[0.0, -1.5707963267948966, 0.0, 0.0, 0.0, 0.0]","[0.0, -1.5707963267948966, 0.0, 0.0, 0.0, 0.0]",0.002,7,1
0,-1,"[0.03260047361254692, -1.5381862644902249, 0.03252870241274053, 0.03269199907269282, 0.03276794031262398, 0.03280976414680481]","[-0.10123857855796814, -0.10153859108686447, -0.10071108490228653, -0.10070128738880157, -0.10500892996788025, -0.10318967700004578]","[0.0, -1.5707963267948966, 0.0, 0.0, 0.0, 0.0]","[0.0, -1.5707963267948966, 0.0, 0.0, 0.0, 0.0]",0.002,7,1
0,-1,"[0.03154212236404419, -1.539295745348074, 0.031527344380513966, 0.03160361825909419, 0.03165924549102783, 0.03167038783431053]","[-0.11301016807556152, -0.10897649824619293, -0.11021304130554199, -0.11120902001857758, -0.11363191902637482, -0.11400977522134781]","[0.0, -1.5707963267948966, 0.0, 0.0, 0.0, 0.0]","[0.0, -1.5707963267948966, 0.0, 0.0, 0.0, 0.0]",0.002,7,1
0,-1,"[0.02943618968129158, -1.5414392196438094, 0.029349629079000294, 0.02940790235485835, 0.02947375737130642, 0.029429981485009193]","[-0.1287459284067154, -0.12656648457050323, -0.12627571821212769, -0.12620143592357635, -0.1312333047389984, -0.13076317310333252]","[0.0, -1.5707963267948966, 0.0, 0.0, 0.0, 0.0]","[0.0, -1.5707963267948966, 0.0, 0.0, 0.0, 0.0]",0.002,7,1
0,-1,"[0.027790281921625137, -1.543082996537425, 0.027744595204488576, 0.027844830150268507, 0.027781223878264427, 0.027792099863290787]","[-0.13988927006721497, -0.13468612730503082, -0.1377081573009491, -0.14151495695114136, -0.14098988473415375, -0.14114806056022644]","[0.0, -1.5707963267948966, 0.0, 0.0, 0.0, 0.0]","[0.0, -1.5707963267948966, 0.0, 0.0, 0.0, 0.0]",0.002,7,1
0,-1,"[0.02634909376502037, -1.5445919421366234, 0.02630025545229131, 0.026381297702453566, 0.026299886405467987, 0.026274530217051506]","[-0.1513667106628418, -0.14998987317085266, -0.1484030783176422, -0.1511169970035553, -0.15175476670265198, -0.15018129348754883]","[0.0, -1.5707963267948966, 0.0, 0.0, 0.0, 0.0]","[0.0, -1.5707963267948966, 0.0, 0.0, 0.0, 0.0]",0.002,7,1
0,-1,"[0.02384929731488228, -1.5471521963230153, 0.023726765309469044, 0.023875637645385694, 0.023694820702075958, 0.023740077391266823]","[-0.17184139788150787, -0.16276705265045166, -0.1651133894920349, -0.17025522887706757, -0.16585436463356018, -0.16690848767757416]","[0.0, -1.5707963267948966, 0.0, 0.0, 0.0, 0.0]","[0.0, -1.5707963267948966, 0.0, 0.0, 0.0, 0.0]",0.002,7,1
0,-1,"[0.0216850396245718, -1.5492224798402567, 0.02167827287782842, 0.021783276195190382, 0.021608848124742508, 0.021600747480988503]","[-0.18417096138000488, -0.17547713220119476, -0.18211950361728668, -0.18560686707496643, -0.18183109164237976, -0.18201348185539246]","[0.0, -1.5707963267948966, 0.0, 0.0, 0.0, 0.0]","[0.0, -1.5707963267948966, 0.0, 0.0, 0.0, 0.0]",0.002,7,1
0,-1,"[0.018235309049487114, -1.5526119482568284, 0.018293682728902638, 0.018373652095458937, 0.01816926710307598, 0.018218303099274635]","[-0.19524306058883667, -0.17227566242218018, -0.18669505417346954, -0.1971208155155182, -0.19231097400188446, -0.19231560826301575]","[0.0, -1.5707963267948966, 0.0, 0.0, 0.0, 0.0]","[0.0, -1.5707963267948966, 0.0, 0.0, 0.0, 0.0]",0.002,7,1
0,-1,"[0.013291205279529095, -1.5573060738718887, 0.01349050203432256, 0.013414664859435987, 0.013315712101757526, 0.013361833989620209]","[-0.16140344738960266, -0.16385643184185028, -0.16386526823043823, -0.16504351794719696, -0.16306321322917938, -0.16166529059410095]","[0.0, -1.5707963267948966, 0.0, 0.0, 0.0, 0.0]","[0.0, -1.5707963267948966, 0.0, 0.0, 0.0, 0.0]",0.002,7,1
0,-1,"[0.010211466811597347, -1.5603005180931468, 0.010416332875387013, 0.010286374683044386, 0.010332517325878143, 0.010337729007005692]","[-0.14267683029174805, -0.14360889792442322, -0.14502929151058197, -0.1442151516675949, -0.14679747819900513, -0.14728200435638428]","[0.0, -1.5707963267948966, 0.0, 0.0, 0.0, 0.0]","[0.0, -1.5707963267948966, 0.0, 0.0, 0.0, 0.0]",0.002,7,1
0,-1,"[0.008578182198107243, -1.561948506427445, 0.008733097706929982, 0.008577509517333937, 0.008667772635817528, 0.00866759568452835]","[-0.13194046914577484, -0.13238346576690674, -0.13329680263996124, -0.12997649610042572, -0.13482195138931274, -0.1348554790019989]","[0.0, -1.5707963267948966, 0.0, 0.0, 0.0, 0.0]","[0.0, -1.5707963267948966, 0.0, 0.0, 0.0, 0.0]",0.002,7,1
0,-1,"[0.006824403535574675, -1.5636471312357862, 0.006985012684957326, 0.006883068675659132, 0.006904997397214174, 0.006900819018483162]","[-0.11677324026823044, -0.11854337900876999, -0.11926856637001038, -0.11827879399061203, -0.12021369487047195, -0.12032317370176315]","[0.0, -1.5707963267948966, 0.0, 0.0, 0.0, 0.0]","[0.0, -1.5707963267948966, 0.0, 0.0, 0.0, 0.0]",0.002,7,1
0,-1,"[0.005731145851314068, -1.5648366560092946, 0.005827252064840138, 0.005711956615112257, 0.005784101318567991, 0.005752201192080975]","[-0.10713621973991394, -0.11227733641862869, -0.10948449373245239, -0.10610164701938629, -0.10759642720222473, -0.1108214408159256]","[0.0, -1.5707963267948966, 0.0, 0.0, 0.0, 0.0]","[0.0, -1.5707963267948966, 0.0, 0.0, 0.0, 0.0]",0.002,7,1
0,-1,"[0.004305850248783827, -1.5662509480356057, 0.004287544881002248, 0.004300041789672804, 0.004386658314615488, 0.004428682383149862]","[-0.09084875136613846, -0.09898475557565689, -0.09508393704891205, -0.09219925105571747, -0.09543895721435547, -0.09512762725353241]","[0.0, -1.5707963267948966, 0.0, 0.0, 0.0, 0.0]","[0.0, -1.5707963267948966, 0.0, 0.0, 0.0, 0.0]",0.002,7,1
0,-1,"[0.0032589202746748924, -1.5673832754003634, 0.0032609144793909195, 0.0032573181339721202, 0.003317008027806878, 0.0033459330443292856]","[-0.08000144362449646, -0.08880629390478134, -0.08280093222856522, -0.08016923069953918, -0.08086805045604706, -0.08273652195930481]","[0.0, -1.5707963267948966, 0.0, 0.0, 0.0, 0.0]","[0.0, -1.5707963267948966, 0.0, 0.0, 0.0, 0.0]",0.002,7,1
0,-1,"[0.002358770929276943, -1.5683941396749397, 0.002369705830709279, 0.002378864879272413, 0.002476984867826104, 0.002467780141159892]","[-0.06986986100673676, -0.07702536880970001, -0.07199263572692871, -0.06869251281023026, -0.06997711956501007, -0.0704568475484848]","[0.0, -1.5707963267948966, 0.0, 0.0, 0.0, 0.0]","[0.0, -1.5707963267948966, 0.0, 0.0, 0.0, 0.0]",0.002,7,1
0,-1,"[0.001649620826356113, -1.5691980872400855, 0.0016143957721155289, 0.0015829044529418468, 0.001600943272933364, 0.0016877317102625966]","[-0.05648491159081459, -0.06212864816188812, -0.06167978420853615, -0.056293562054634094, -0.058027710765600204, -0.05945112556219101]","[0.0, -1.5707963267948966, 0.0, 0.0, 0.0, 0.0]","[0.0, -1.5707963267948966, 0.0, 0.0, 0.0, 0.0]",0.002,7,1
0,-1,"[0.0009593052673153579, -1.5697947489428152, 0.0009573141681116226, 0.0010627943226317882, 0.0010208508465439081, 0.001040359027683735]","[-0.045582205057144165, -0.049180768430233, -0.0460384376347065, -0.04490557685494423, -0.04706939682364464, -0.04788278788328171]","[0.0, -1.5707963267948966, 0.0, 0.0, 0.0, 0.0]","[0.0, -1.5707963267948966, 0.0, 0.0, 0.0, 0.0]",0.002,7,1
0,-1,"[0.0005381016526371241, -1.5702956692878907, 0.0005119482623499039, 0.0005292135426024913, 0.0005235872231423855, 0.0005655559943988919]","[-0.03438518941402435, -0.03454390540719032, -0.034217216074466705, -0.03410343453288078, -0.034654296934604645, -0.03493469953536987]","[0.0, -1.5707963267948966, 0.0, 0.0, 0.0, 0.0]","[0.0, -1.5707963267948966, 0.0, 0.0, 0.0, 0.0]",0.002,7,1
0,-1,"[0.00018390033801551908, -1.5705730834636888, 0.00015670457948857575, 0.00018314897503657335, 0.00019103402155451477, 0.0002502489078324288]","[-0.02067560888826847, -0.02217065542936325, -0.02121269516646862, -0.021782195195555687, -0.02183087356388569, -0.020348047837615013]","[0.0, -1.5707963267948966, 0.0, 0.0, 0.0, 0.0]","[0.0, -1.5707963267948966, 0.0, 0.0, 0.0, 0.0]",0.002,7,1
0,-1,"[9.56485018832609e-05, -1.5708819828429164, -7.922328950371593e-05, 2.9130572936963972e-05, -6.500874654591371e-06, 6.770509207854047e-05]","[-0.0018095722189173102, -0.0032412682194262743, -0.0027587898075580597, -0.001810213434509933, -0.0006959062302485108, -0.000992089626379311]","[0.0, -1.5707963267948966, 0.0, 0.0, 0.0, 0.0]","[0.0, -1.5707963267948966, 0.0, 0.0, 0.0, 0.0]",0.002,7,1
0,-1,"[0.00010766732884803787, -1.570953985253805, 1.1269246236622621e-05, 4.832326855463975e-05, 5.7209494116250426e-05, 0.00010364923218730837]","[0.0012650744756683707, -0.0032450431026518345, -2.7065311769547407e-07, -0.0003260325756855309, 0.0006031530210748315, 0.00030358691583387554]","[0.0, -1.5707963267948966, 0.0, 0.0, 0.0, 0.0]","[0.0, -1.5707963267948966, 0.0, 0.0, 0.0, 0.0]",0.002,7,1
0,-1,"[6.246566772460938e-05, -1.5707289732348109, 5.704561342412262e-05, 6.763517346186632e-05, 0.00014868560538161546, 9.629731357563287e-05]","[0.0002561229048296809, 0.0029605799354612827, 0.0012078689178451896, -0.00038645986933261156, -0.0005543776787817478, 5.007055100397784e-12]","[0.0, -1.5707963267948966, 0.0, 0.0, 0.0, 0.0]","[0.0, -1.5707963267948966, 0.0, 0.0, 0.0, 0.0]",0.002,7,1
0,-1,"[4.141831595916301e-05, -1.5707097421948966, 1.6514454976856996e-05, 3.640233959956163e-05, 5.435943603515625e-05, 0.00010367632057750598]","[0.00017598544945940375, 0.0008910438045859337, 0.0005368400597944856, -0.0002419282973278314, -0.0007533130119554698, -0.0006455241818912327]","[0.0, -1.5707963267948966, 0.0, 0.0, 0.0, 0.0]","[0.0, -1.5707963267948966, 0.0, 0.0, 0.0, 0.0]",0.002,7,1
0,-1,"[6.246566772460938e-05, -1.5707698080298833, 7.454548970997621e-06, 7.2165126464796e-05, 0.00014138674305286258, 2.2595644622924738e-05]","[0.00014253814879339188, 0.00024422042770311236, 0.00017048479639925063, -0.00026289824745617807, -0.0007378378068096936, -0.0005854536429978907]","[0.0, -1.5707963267948966, 0.0, 0.0, 0.0, 0.0]","[0.0, -1.5707963267948966, 0.0, 0.0, 0.0, 0.0]",0.002,7,1
0,-1,"[6.554376886924729e-05, -1.5708261928954066, 4.6078358785450746e-05, 4.3793315551710066e-05, 4.991293099010363e-05, 4.676291428040713e-05]","[0.00011977433314314112, -0.0008066052687354386, -8.85625631781295e-05, -0.0007016165764071047, -0.0006511294050142169, -0.0007316815317608416]","[0.0, -1.5707963267948966, 0.0, 0.0, 0.0, 0.0]","[0.0, -1.5707963267948966, 0.0, 0.0, 0.0, 0.0]",0.002,7,1
0,-1,"[8.198273280868307e-05, -1.5708304844298304, 2.843538393193512e-05, 5.726396527094835e-05, 3.472263051662594e-05, 7.222958811325952e-05]","[0.00010328070493414998, -0.00046868485515005887, -5.567913467530161e-05, -0.0006244085379876196, -0.0007629717001691461, -0.0015749376034364104]","[0.0, -1.5707963267948966, 0.0, 0.0, 0.0, 0.0]","[0.0, -1.5707963267948966, 0.0, 0.0, 0.0, 0.0]",0.002,7,1
0,-1,"[8.831464947434142e-05, -1.5707621321820007, 7.468858827763825e-05, 6.20323368529796e-05, 1.3911723726778291e-05, 1.527690801594872e-05]","[8.55992766446434e-05, 0.0001500334619777277, -3.576404196792282e-05, -0.0009214731981046498, -0.000647267559543252, -0.0006899622967466712]","[0.0, -1.5707963267948966, 0.0, 0.0, 0.0, 0.0]","[0.0, -1.5707963267948966, 0.0, 0.0, 0.0, 0.0]",0.002,7,1
0,-1,"[7.462501525878906e-05, -1.5707513222663074, 2.5097523824513246e-05, 1.554071392817491e-05, -2.209340230763246e-06, -5.547200338185121e-06]","[5.4078165703685954e-05, 0.0004633895878214389, -4.5666781163569624e-29, -0.0005460757529363036, -0.00040053678094409406, -0.0004082936211489141]","[0.0, -1.5707963267948966, 0.0, 0.0, 0.0, 0.0]","[0.0, -1.5707963267948966, 0.0, 0.0, 0.0, 0.0]",0.002,7,1
0,-1,"[6.098055746406317e-05, -1.5708304844298304, 4.1309987203419496e-05, 2.4481410644483503e-05, -6.500874654591371e-06, -1.4607106344044496e-05]","[4.7015764721436426e-05, 9.965378623347102e-16, -0.0, -0.0004375839198473841, -0.0002951124915853143, -0.0002568081545177847]","[0.0, -1.5707963267948966, 0.0, 0.0, 0.0, 0.0]","[0.0, -1.5707963267948966, 0.0, 0.0, 0.0, 0.0]",0.002,7,1
0,-1,"[8.656423597130924e-05, -1.5708142719664515, -1.9167795471730642e-05, 3.640233959956163e-05, 1.990795681194868e-06, 3.346806124682189e-06]","[4.413389615365304e-05, -0.0006625076057389379, -0.0, -0.0004441310011316091, -0.00027376486104913056, -0.00024142958864104003]","[0.0, -1.5707963267948966, 0.0, 0.0, 0.0, 0.0]","[0.0, -1.5707963267948966, 0.0, 0.0, 0.0, 0.0]",0.002,7,1
0,-1,"[6.554376886924729e-05, -1.5708323917784632, 8.885060445606996e-06, 2.9249782226514753e-05, -3.0819569722950746e-05, 1.0695104720070958e-05]","[4.111004454898648e-05, -0.0001854638394434005, -0.0, -0.0003539038298185915, -0.00017355063755530864, -0.0001966946292668581]","[0.0, -1.5707963267948966, 0.0, 0.0, 0.0, 0.0]","[0.0, -1.5707963267948966, 0.0, 0.0, 0.0, 0.0]",0.002,7,1
0,-1,"[7.923341036075726e-05, -1.5707458709697057, -7.255673153849784e-06, -9.016399719286028e-06, 6.4373016357421875e-06, -2.557436098271637e-05]","[2.317997510296611e-16, -2.27673863919739e-13, -0.0, -8.196962153306231e-05, -0.00015344310668297112, -0.00015354659990407526]","[0.0, -1.5707963267948966, 0.0, 0.0, 0.0, 0.0]","[0.0, -1.5707963267948966, 0.0, 0.0, 0.0, 0.0]",0.002,7,1
0,-1,"[6.698370270896703e-05, -1.5706934579687477, 5.8476124898731996e-05, 2.9130572936963972e-05, 8.130526111926883e-05, -2.7004872457325746e-05]","[-0.0003656544431578368, 0.0002803546376526356, -0.0, -3.601928619900718e-05, -0.00014636323612648994, -0.00011448220902821049]","[0.0, -1.5707963267948966, 0.0, 0.0, 0.0, 0.0]","[0.0, -1.5707963267948966, 0.0, 0.0, 0.0, 0.0]",0.002,7,1
0,-1,"[7.154691411415115e-05, -1.5708033047118128, 3.2726918355763246e-05, -2.081811938481337e-05, 2.86102294921875e-06, 3.3196101867360994e-06]","[-0.0002269823307869956, -8.970472117653117e-05, -0.0, -5.4565367463510484e-05, -0.00012588953541126102, -0.00011055251525249332]","[0.0, -1.5707963267948966, 0.0, 0.0, 0.0, 0.0]","[0.0, -1.5707963267948966, 0.0, 0.0, 0.0, 0.0]",0.002,7,1
0,-1,"[4.141831595916301e-05, -1.570732742522825, 2.080598940068512e-05, -1.6288166381883684e-05, -3.987947572881012e-05, -1.794496645146637e-05]","[-0.0001812641421565786, -0.00014346532407216728, -0.0, -4.7383116907440126e-05, -0.00011576857650652528, -0.0001058349444065243]","[0.0, -1.5707963267948966, 0.0, 0.0, 0.0, 0.0]","[0.0, -1.5707963267948966, 0.0, 0.0, 0.0, 0.0]",0.002,7,1
0,-1,"[7.462501525878906e-05, -1.570810934106344, 7.468858827763825e-05, 1.6271557612412835e-07, 5.553960727411322e-05, -3.701845277959137e-05]","[-0.00016966744442470372, -0.00011227786308154464, -0.0, -5.738766776630655e-05, -0.00010405669308966026, -9.596117888577282e-05]","[0.0, -1.5707963267948966, 0.0, 0.0, 0.0, 0.0]","[0.0, -1.5707963267948966, 0.0, 0.0, 0.0, 0.0]",0.002,7,1
0,-1,"[5.054473876953125e-05, -1.57077749965568, 3.2726918355763246e-05, -1.6288166381883684e-05, 6.4373016357421875e-06, -5.0846730367481996e-05]","[-0.00024124543415382504, -3.870953878504224e-05, -0.0, -5.001037789043039e-05, -9.207989933202043e-05, -8.568340126657858e-05]","[0.0, -1.5707963267948966, 0.0, 0.0, 0.0, 0.0]","[0.0, -1.5707963267948966, 0.0, 0.0, 0.0, 0.0]",0.002,7,1
0,-1,"[5.510795017471537e-05, -1.570778564815857, -1.599265306140296e-05, 3.366052593989366e-05, -2.209340230763246e-06, -2.9865895406544496e-05]","[-0.0004956688499078155, -4.690866767828421e-14, -0.0, -4.500832437770441e-05, -8.551782957511023e-05, -7.997309148777276e-05]","[0.0, -1.5707963267948966, 0.0, 0.0, 0.0, 0.0]","[0.0, -1.5707963267948966, 0.0, 0.0, 0.0, 0.0]",0.002,7,1
0,-1,"[6.698370270896703e-05, -1.570774237760208, 9.519258608037262e-05, 2.114355053706163e-05, 3.187560650985688e-05, -2.9865895406544496e-05]","[-0.0003240796795580536, -2.871470748171199e-40, -0.0, -3.649205609690398e-05, -5.20173673286637e-14, -7.965964979768031e-21]","[0.0, -1.5707963267948966, 0.0, 0.0, 0.0, 0.0]","[0.0, -1.5707963267948966, 0.0, 0.0, 0.0, 0.0]",0.002,7,1
0,-1,"[5.054473876953125e-05, -1.5708562336363734, -2.7930760552408174e-05, 3.366052593989366e-05, 6.42836675979197e-06, -4.116688863575746e-06]","[-0.00043275050120428205, 0.0, -0.0, -3.3337913919240236e-05, -5.613441317109391e-05, -4.029941302008791e-29]","[0.0, -1.5707963267948966, 0.0, 0.0, 0.0, 0.0]","[0.0, -1.5707963267948966, 0.0, 0.0, 0.0, 0.0]",0.002,7,1
0,-1,"[3.114688297500834e-05, -1.5707872866444923, 8.885060445606996e-06, -1.1758213378953997e-05, 3.0279159545898438e-05, -4.178682436162262e-05]","[-0.0006818788824602962, 0.0, -0.0, -4.0454429836245254e-05, -5.1041213737335056e-05, -1.3311430172277808e-38]","[0.0, -1.5707963267948966, 0.0, 0.0, 0.0, 0.0]","[0.0, -1.5707963267948966, 0.0, 0.0, 0.0, 0.0]",0.002,7,1
0,-1,"[3.3941389119718224e-05, -1.5707589743181707, 4.593526021778871e-06, 1.661359753413194e-05, -1.5083943502247621e-05, 7.940307114040479e-06]","[-0.0010643068235367537, 0.0, -0.0, -2.8297200138638345e-09, -2.7405542724068255e-08, -1.5414283107572988e-44]","[0.0, -1.5707963267948966, 0.0, 0.0, 0.0, 0.0]","[0.0, -1.5707963267948966, 0.0, 0.0, 0.0, 0.0]",0.002,7,1
0,-1,"[-5.070363179981996e-06, -1.5707710264963062, 0.00010282198061162262, -2.817516662645403e-06, 1.5508172509726137e-05, -1.794496645146637e-05]","[-0.0004332497774157673, 0.0, -0.0, -3.984749942208494e-21, -3.859188529646276e-20, -0.0]","[0.0, -1.5707963267948966, 0.0, 0.0, 0.0, 0.0]","[0.0, -1.5707963267948966, 0.0, 0.0, 0.0, 0.0]",0.002,7,1
0,-1,"[1.906156467157416e-05, -1.570759017868415, 8.231798280888825e-05, 3.819047894282335e-05, 6.4373016357421875e-06, 7.921933502075262e-06]","[-0.00031276181107386947, 0.0, -0.0, -2.3898649725850873e-09, -7.013891484293246e-25, -0.0]","[0.0, -1.5707963267948966, 0.0, 0.0, 0.0, 0.0]","[0.0, -1.5707963267948966, 0.0, 0.0, 0.0, 0.0]",0.002,7,1
0,-1,"[-2.557436098271637e-05, -1.5707459058797504, 3.2726918355763246e-05, -2.069891009526259e-05, -1.0792409078419496e-05, 1.2497001080191694e-05]","[-0.0002320938219781965, 0.0, -0.0, -2.8359730335587516e-15, -8.323152638285372e-31, -0.0]","[0.0, -1.5707963267948966, 0.0, 0.0, 0.0, 0.0]","[0.0, -1.5707963267948966, 0.0, 0.0, 0.0, 0.0]",0.002,7,1
0,-1,"[-9.361897603810121e-06, -1.5708228550352992, 4.593526021778871e-06, 5.011140789790147e-05, 4.3796535464935005e-05, 1.9741057258215733e-05]","[-0.00017724087228998542, 0.0, -0.0, -2.197337089177809e-22, -6.448851763459267e-38, -0.0]","[0.0, -1.5707963267948966, 0.0, 0.0, 0.0, 0.0]","[0.0, -1.5707963267948966, 0.0, 0.0, 0.0, 0.0]",0.002,7,1
0,-1,"[5.666708966600709e-05, -1.570810934106344, 6.133714784795075e-05, 5.166112866206163e-05, -1.7468129293263246e-05, 3.166198803228326e-05]","[-0.00013085428508929908, 0.0, -0.0, -4.7390179649675296e-33, -0.0, -0.0]","[0.0, -1.5707963267948966, 0.0, 0.0, 0.0, 0.0]","[0.0, -1.5707963267948966, 0.0, 0.0, 0.0, 0.0]",0.002,7,1
0,-1,"[3.114984428975731e-05, -1.5707502940025115, 3.415742983037262e-05, 9.103412292432722e-06, -1.732503072560121e-06, 4.5336244511418045e-05]","[-0.00011141559662064537, 0.0, -0.0, -3.6718363790549614e-40, -0.0, -0.0]","[0.0, -1.5707963267948966, 0.0, 0.0, 0.0, 0.0]","[0.0, -1.5707963267948966, 0.0, 0.0, 0.0, 0.0]",0.002,7,1
0,-1,"[-1.732503072560121e-06, -1.5707712252245365, 2.843538393193512e-05, 9.103412292432722e-06, 1.1092292879766319e-05, 7.891703717177734e-06]","[-9.70049441093579e-05, 0.0, -0.0, -0.0, -0.0, -0.0]","[0.0, -1.5707963267948966, 0.0, 0.0, 0.0, 0.0]","[0.0, -1.5707963267948966, 0.0, 0.0, 0.0, 0.0]",0.002,7,1
0,-1,"[5.2148963732179254e-05, -1.5707739682951178, -7.23814719094662e-06, -1.6288166381883684e-05, -1.7468129293263246e-05, -4.116688863575746e-06]","[-8.589542267145589e-05, 0.0, -0.0, -0.0, -0.0, -0.0]","[0.0, -1.5707963267948966, 0.0, 0.0, 0.0, 0.0]","[0.0, -1.5707963267948966, 0.0, 0.0, 0.0, 0.0]",0.002,7,1
0,-1,"[-1.8421803609669496e-05, -1.5708066425719203, 3.0199159795074593e-07, 1.2083644531202253e-05, -1.7468129293263246e-05, 3.337860107421875e-06]","[-6.988755922066048e-05, 0.0, -0.0, -0.0, -0.0, -0.0]","[0.0, -1.5707963267948966, 0.0, 0.0, 0.0, 0.0]","[0.0, -1.5707963267948966, 0.0, 0.0, 0.0, 0.0]",0.002,7,1
0,-1,"[3.566491432138719e-05, -1.570799013177389, 8.885060445606996e-06, 3.354131665034288e-05, 3.918140282621607e-05, 7.921933502075262e-06]","[-6.131712871138006e-05, 0.0, -0.0, -0.0, -0.0, -0.0]","[0.0, -1.5707963267948966, 0.0, 0.0, 0.0, 0.0]","[0.0, -1.5707963267948966, 0.0, 0.0, 0.0, 0.0]",0.002,7,1
0,1,"[-1.8421803609669496e-05, -1.570745513360027, 1.6514454976856996e-05, 4.692668579053816e-06, 4.375163189251907e-05, -8.885060445606996e-06]","[-5.091150524094701e-05, 4.291843652026728e-05, -0.0, -0.0, -0.0, -0.0]","[0.05879002119914294, -1.5120063055957536, 0.05879002119914294, 0.05879002119914294, 0.05879002119914294, 0.05879002119914294]","[0.05879002119914294, -1.5120063055957536, 0.05879002119914294, 0.05879002119914294, 0.05879002119914294, 0.05879002119914294]",0.002,7,1
0,2,"[-3.511110414677887e-05, -1.5706164505430316, 0.00010139146913701325, -4.644811663823134e-05, 9.607624815544114e-05, 7.217845268314704e-05]","[0.02261519990861416, 0.12005052715539932, 0.07971441000699997, 0.041819967329502106, 0.034911468625068665, 0.0364072285592556]","[0.05936660287344685, -1.5114297239214498, 0.05936660287344685, 0.05936660287344685, 0.05936660287344685, 0.05936660287344685]","[0.05936660287344685, -1.5114297239214498, 0.05936660287344685, 0.05936660287344685, 0.05936660287344685, 0.05936660287344685]",0.002,7,1
0,3,"[0.00011678473674692214, -1.5704707431762763, 0.00020200410951787262, 0.00018326818432612413, 0.00017614632088225335, 0.0002103588922182098]","[0.030785156413912773, 0.14523479342460632, 0.09812284260988235, 0.06723865121603012, 0.057623010128736496, 0.05550115555524826]","[0.05994301779578886, -1.5108533089991076, 0.05994301779578886, 0.05994301779578886, 0.05994301779578886, 0.05994301779578886]","[0.05994301779578886, -1.5108533089991076, 0.05994301779578886, 0.05994301779578886, 0.05994301779578886, 0.05994301779578886]",0.002,7,1
0,4,"[0.0001859744224930182, -1.5702667761109588, 0.00039130846132451325, 0.0002915102192382335, 0.00029620202258229256, 0.0002761070791166276]","[0.03625711798667908, 0.13865342736244202, 0.09776423126459122, 0.06827423721551895, 0.063909150660038, 0.06154625490307808]","[0.06051926434710513, -1.5102770624477915, 0.06051926434710513, 0.06051926434710513, 0.06051926434710513, 0.06051926434710513]","[0.06051926434710513, -1.5102770624477915, 0.06051926434710513, 0.06051926434710513, 0.06051926434710513, 0.06051926434710513]",0.002,7,1
0,5,"[0.0002922999847214669, -1.5700011129122977, 0.0006454626666467789, 0.00039915620770258897, 0.00041635584784671664, 0.0003975211293436587]","[0.05001458525657654, 0.13566775619983673, 0.09878815710544586, 0.06723707169294357, 0.06932417303323746, 0.07006379216909409]","[0.06109534090880478, -1.5097009858860917, 0.06109534090880478, 0.06109534090880478, 0.06109534090880478, 0.06109534090880478]","[0.06109534090880478, -1.5097009858860917, 0.06109534090880478, 0.06109534090880478, 0.06109534090880478, 0.06109534090880478]",0.002,7,1
0,6,"[0.0004995315102860332, -1.5696919125369568, 0.0008400122271936539, 0.0005358892628173351, 0.000604185916017741, 0.0006294890190474689]","[0.0639643520116806, 0.14140386879444122, 0.10988767445087433, 0.07520323246717453, 0.07576951384544373, 0.0760338306427002]","[0.061671245862774365, -1.5091250809321222, 0.061671245862774365, 0.061671245862774365, 0.061671245862774365, 0.061671245862774365]","[0.061671245862774365, -1.5091250809321222, 0.061671245862774365, 0.061671245862774365, 0.061671245862774365, 0.061671245862774365]",0.002,7,1
0,7,"[0.0006419320125132799, -1.5694207051168014, 0.001179997120992482, 0.0007156568714599132, 0.0006540701142512262, 0.000711096276063472]","[0.08563501387834549, 0.14538554847240448, 0.1196550503373146, 0.08609583228826523, 0.0843682512640953, 0.08654282987117767]","[0.06224697759138249, -1.508549349203514, 0.06224697759138249, 0.06224697759138249, 0.06224697759138249, 0.06224697759138249]","[0.06224697759138249, -1.508549349203514, 0.06224697759138249, 0.06224697759138249, 0.06224697759138249, 0.06224697759138249]",0.002,7,1
0,8,"[0.0008730794652365148, -1.569144557845295, 0.0014112631427209976, 0.000981135959289503, 0.0008339602500200272, 0.0009314491762779653]","[0.09989184141159058, 0.1327444165945053, 0.11176734417676926, 0.10083647072315216, 0.09583302587270737, 0.09850951284170151]","[0.06282253447748433, -1.5079737923174121, 0.06282253447748433, 0.06282253447748433, 0.06282253447748433, 0.06282253447748433]","[0.06282253447748433, -1.5079737923174121, 0.06282253447748433, 0.06282253447748433, 0.06282253447748433, 0.06282253447748433]",0.002,7,1
0,9,"[0.0011130744824185967, -1.5689798181741317, 0.0015528837787073257, 0.0011955934711913585, 0.0010521641233935952, 0.001159030944108963]","[0.11725644767284393, 0.099771648645401, 0.10367147624492645, 0.11025959253311157, 0.10763303190469742, 0.10896282643079758]","[0.06339791490442616, -1.5073984118904704, 0.06339791490442616, 0.06339791490442616, 0.06339791490442616, 0.06339791490442616]","[0.06339791490442616, -1.5073984118904704, 0.06339791490442616, 0.06339791490442616, 0.06339791490442616, 0.06339791490442616]",0.002,7,1
0,10,"[0.001323205535300076, -1.5688000915436824, 0.0018141905414026382, 0.0014934974857787608, 0.0012906609335914254, 0.0014010219601914287]","[0.12733815610408783, 0.09526650607585907, 0.12044596672058105, 0.12626484036445618, 0.12049105018377304, 0.12150164693593979]","[0.06397311725604987, -1.5068232095388467, 0.06397311725604987, 0.06397311725604987, 0.06397311725604987, 0.06397311725604987]","[0.06397311725604987, -1.5068232095388467, 0.06397311725604987, 0.06397311725604987, 0.06397311725604987, 0.06397311725604987]",0.002,7,1
0,11,"[0.0015811268240213394, -1.568648729040735, 0.0020063559161584976, 0.001655264491699171, 0.0015207716496661305, 0.0016437440644949675]","[0.13408274948596954, 0.12989407777786255, 0.13744287192821503, 0.13437028229236603, 0.13340453803539276, 0.13226978480815887]","[0.0645481399166976, -1.506248186878199, 0.0645481399166976, 0.0645481399166976, 0.0645481399166976, 0.0645481399166976]","[0.0645481399166976, -1.506248186878199, 0.0645481399166976, 0.0645481399166976, 0.0645481399166976, 0.0645481399166976]",0.002,7,1
0,12,"[0.0018574869027361274, -1.5683573077297588, 0.002198521290914357, 0.0019280153461913585, 0.0018316598143428564, 0.001905360259115696]","[0.14413683116436005, 0.14179165661334991, 0.14159250259399414, 0.1428021490573883, 0.14890530705451965, 0.14452576637268066]","[0.06512298127121614, -1.5056733455236804, 0.06512298127121614, 0.06512298127121614, 0.06512298127121614, 0.06512298127121614]","[0.06512298127121614, -1.5056733455236804, 0.06512298127121614, 0.06512298127121614, 0.06512298127121614, 0.06512298127121614]",0.002,7,1
0,13,"[0.002109269145876169, -1.5680705721354862, 0.0024674574481409195, 0.0022343832203368663, 0.002156349830329418, 0.002211896935477853]","[0.15370123088359833, 0.14737865328788757, 0.14388661086559296, 0.1501859724521637, 0.15691956877708435, 0.15774819254875183]","[0.06569763970496163, -1.505098687089935, 0.06569763970496163, 0.06569763970496163, 0.06569763970496163, 0.06569763970496163]","[0.06569763970496163, -1.505098687089935, 0.06569763970496163, 0.06569763970496163, 0.06569763970496163, 0.06569763970496163]",0.002,7,1
0,14,"[0.0024754032492637634, -1.5678534284564485, 0.002808872853414357, 0.0025624471851806163, 0.002504926873371005, 0.0025822545867413282]","[0.16638071835041046, 0.15345874428749084, 0.15739044547080994, 0.15928393602371216, 0.1699988842010498, 0.16638372838497162]","[0.06627211360380393, -1.5045242131910925, 0.06627211360380393, 0.06627211360380393, 0.06627211360380393, 0.06627211360380393]","[0.06627211360380393, -1.5045242131910925, 0.06627211360380393, 0.06627211360380393, 0.06627211360380393, 0.06627211360380393]",0.002,7,1
0,15,"[0.0028853255789726973, -1.5674675410012533, 0.003228012715474904, 0.002911849612853956, 0.002862828318029642, 0.002920936094596982]","[0.1781366616487503, 0.16486212611198425, 0.1703265756368637, 0.17279541492462158, 0.18359780311584473, 0.17827728390693665]","[0.06684640135413125, -1.5039499254407653, 0.06684640135413125, 0.06684640135413125, 0.06684640135413125, 0.06684640135413125]","[0.06684640135413125, -1.5039499254407653, 0.06684640135413125, 0.06684640135413125, 0.06684640135413125, 0.06684640135413125]",0.002,7,1
0,16,"[0.0033289329148828983, -1.5671484687230368, 0.003594223652974904, 0.0032866436192016124, 0.003240365069359541, 0.0032603004947304726]","[0.1929684281349182, 0.17626138031482697, 0.18527109920978546, 0.1873210072517395, 0.1956169456243515, 0.18992896378040314]","[0.06742050134285471, -1.503375825452042, 0.06742050134285471, 0.06742050134285471, 0.06742050134285471, 0.06742050134285471]","[0.06742050134285471, -1.503375825452042, 0.06742050134285471, 0.06742050134285471, 0.06742050134285471, 0.06742050134285471]",0.002,7,1
0,17,"[0.0037490264512598515, -1.566839456824102, 0.0040200392352502945, 0.003729982967040968, 0.003612770000472665, 0.0036769001744687557]","[0.20745529234409332, 0.18652386963367462, 0.19965633749961853, 0.20462310314178467, 0.2034813016653061, 0.20345157384872437]","[0.06799441195741276, -1.5028019148374838, 0.06799441195741276, 0.06799441195741276, 0.06799441195741276, 0.06799441195741276]","[0.06799441195741276, -1.5028019148374838, 0.06799441195741276, 0.06799441195741276, 0.06799441195741276, 0.06799441195741276]",0.002,7,1
0,18,"[0.004197707865387201, -1.5664673142931242, 0.004375282918111623, 0.004174037570617628, 0.004061927553266287, 0.004159742034971714]","[0.21889065206050873, 0.19436103105545044, 0.2071223109960556, 0.22159817814826965, 0.21445141732692719, 0.21539629995822906]","[0.06856813158577582, -1.5022281952091208, 0.06856813158577582, 0.06856813158577582, 0.06856813158577582, 0.06856813158577582]","[0.06856813158577582, -1.5022281952091208, 0.06856813158577582, 0.06856813158577582, 0.06856813158577582, 0.06856813158577582]",0.002,7,1
0,19,"[0.004632681142538786, -1.5660412179170926, 0.004779640828267873, 0.004622026080749464, 0.004538311157375574, 0.004599155392497778]","[0.22849702835083008, 0.20497894287109375, 0.21676157414913177, 0.22958682477474213, 0.22603584825992584, 0.22695542871952057]","[0.06914165861645073, -1.5016546681784457, 0.06914165861645073, 0.06914165861645073, 0.06914165861645073, 0.06914165861645073]","[0.06914165861645073, -1.5016546681784457, 0.06914165861645073, 0.06914165861645073, 0.06914165861645073, 0.06914165861645073]",0.002,7,1
0,20,"[0.005076897796243429, -1.5656573262861748, 0.005261723195211232, 0.00507156431164546, 0.005036014132201672, 0.005062183365225792]","[0.23779316246509552, 0.21550025045871735, 0.22406736016273499, 0.23702166974544525, 0.23984068632125854, 0.2401246577501297]","[0.06971499143848532, -1.5010813353564112, 0.06971499143848532, 0.06971499143848532, 0.06971499143848532, 0.06971499143848532]","[0.06971499143848532, -1.5010813353564112, 0.06971499143848532, 0.06971499143848532, 0.06971499143848532, 0.06971499143848532]",0.002,7,1
0,21,"[0.005561355035752058, -1.565225069211312, 0.005735222493306935, 0.005465789432189894, 0.005590110085904598, 0.005520846229046583]","[0.24929943680763245, 0.22524502873420715, 0.23616591095924377, 0.24276728928089142, 0.2555311918258667, 0.2514033317565918]","[0.07028812844147295, -1.5005081983534236, 0.07028812844147295, 0.07028812844147295, 0.07028812844147295, 0.07028812844147295]","[0.07028812844147295, -1.5005081983534236, 0.07028812844147295, 0.07028812844147295, 0.07028812844147295, 0.07028812844147295]",0.002,7,1
0,22,"[0.006110391113907099, -1.5647812949358304, 0.006223026906148732, 0.0060489612766723155, 0.006140465848147869, 0.006077304482460022]","[0.25973978638648987, 0.23752932250499725, 0.2455734759569168, 0.2515305280685425, 0.2668309509754181, 0.26102787256240845]","[0.07086106801555694, -1.4999352587793395, 0.07086106801555694, 0.07086106801555694, 0.07086106801555694, 0.07086106801555694]","[0.07086106801555694, -1.4999352587793395, 0.07086106801555694, 0.07086106801555694, 0.07086106801555694, 0.07086106801555694]",0.002,7,1
0,23,"[0.006704745348542929, -1.5642712747542937, 0.006740395222799123, 0.006690068835876417, 0.006699420511722565, 0.006625301670283079]","[0.2717429995536804, 0.24890360236167908, 0.2612115144729614, 0.26636025309562683, 0.276248037815094, 0.27312734723091125]","[0.07143380855143525, -1.4993625182434613, 0.07143380855143525, 0.07143380855143525, 0.07143380855143525, 0.07143380855143525]","[0.07143380855143525, -1.4993625182434613, 0.07143380855143525, 0.07143380855143525, 0.07143380855143525, 0.07143380855143525]",0.002,7,1
0,24,"[0.007264384999871254, -1.5637598999640723, 0.007314030324117482, 0.007293506259582472, 0.007182013709098101, 0.0071900831535458565]","[0.28509679436683655, 0.26219677925109863, 0.2743757665157318, 0.28502896428108215, 0.2814408242702484, 0.28470757603645325]","[0.07200634844036483, -1.4987899783545318, 0.07200634844036483, 0.07200634844036483, 0.07200634844036483, 0.07200634844036483]","[0.07200634844036483, -1.4987899783545318, 0.07200634844036483, 0.07200634844036483, 0.07200634844036483, 0.07200634844036483]",0.002,7,1
0,25,"[0.007897257804870605, -1.5632439621588965, 0.007870022450582326, 0.00794927656140132, 0.007768348325043917, 0.007785937748849392]","[0.2960124611854553, 0.272522509098053, 0.28745436668395996, 0.30128347873687744, 0.29197385907173157, 0.2961932122707367]","[0.07257868607416625, -1.4982176407207304, 0.07257868607416625, 0.07257868607416625, 0.07257868607416625, 0.07257868607416625]","[0.07257868607416625, -1.4982176407207304, 0.07257868607416625, 0.07257868607416625, 0.07257868607416625, 0.07257868607416625]",0.002,7,1
0,26,"[0.008476633578538895, -1.5625850914842268, 0.0084613005267542, 0.008513732547424269, 0.008388497866690159, 0.00841354951262474]","[0.30616289377212524, 0.2861897349357605, 0.2981100380420685, 0.3109278976917267, 0.30250003933906555, 0.3061407804489136]","[0.07315081984522818, -1.4976455069496684, 0.07315081984522818, 0.07315081984522818, 0.07315081984522818, 0.07315081984522818]","[0.07315081984522818, -1.4976455069496684, 0.07315081984522818, 0.07315081984522818, 0.07315081984522818, 0.07315081984522818]",0.002,7,1
0,27,"[0.00911852065473795, -1.5620426398566742, 0.009038750325338185, 0.009079022998474073, 0.008994516916573048, 0.009042652323842049]","[0.31642618775367737, 0.2986097037792206, 0.30732637643814087, 0.31655943393707275, 0.31683534383773804, 0.314405232667923]","[0.07372274814651193, -1.4970735786483846, 0.07372274814651193, 0.07372274814651193, 0.07372274814651193, 0.07372274814651193]","[0.07372274814651193, -1.4970735786483846, 0.07372274814651193, 0.07372274814651193, 0.07372274814651193, 0.07372274814651193]",0.002,7,1
0,28,"[0.00971728004515171, -1.5614501482671876, 0.009742085133687794, 0.00971929609265132, 0.009692445397377014, 0.00968166347593069]","[0.325112521648407, 0.3099419176578522, 0.3177797794342041, 0.3224272131919861, 0.3283047080039978, 0.32725653052330017]","[0.0742944693715559, -1.4965018574233406, 0.0742944693715559, 0.0742944693715559, 0.0742944693715559, 0.0742944693715559]","[0.0742944693715559, -1.4965018574233406, 0.0742944693715559, 0.0742944693715559, 0.0742944693715559, 0.0742944693715559]",0.002,7,1
0,29,"[0.010423610918223858, -1.5608187180808564, 0.010439221058980763, 0.010463042850158644, 0.010402778163552284, 0.01035677082836628]","[0.33489805459976196, 0.32003697752952576, 0.32703328132629395, 0.3300648331642151, 0.34011152386665344, 0.33717718720436096]","[0.07486598191448017, -1.4959303448804164, 0.07486598191448017, 0.07486598191448017, 0.07486598191448017, 0.07486598191448017]","[0.07486598191448017, -1.4959303448804164, 0.07486598191448017, 0.07486598191448017, 0.07486598191448017, 0.07486598191448017]",0.002,7,1
0,30,"[0.011055056005716324, -1.5600385780311008, 0.011063400899068654, 0.01116292058911128, 0.011077804490923882, 0.011007538996636868]","[0.3468233644962311, 0.33360782265663147, 0.3362312614917755, 0.3434906303882599, 0.3485927879810333, 0.34665101766586304]","[0.07543728416999097, -1.4953590426249055, 0.07543728416999097, 0.07543728416999097, 0.07543728416999097, 0.07543728416999097]","[0.07543728416999097, -1.4953590426249055, 0.07543728416999097, 0.07543728416999097, 0.07543728416999097, 0.07543728416999097]",0.002,7,1
0,31,"[0.011820108629763126, -1.5593876925161858, 0.011797253285543263, 0.011904879207275343, 0.011778373271226883, 0.011698589660227299]","[0.35689443349838257, 0.34610337018966675, 0.35036134719848633, 0.35800477862358093, 0.3584768772125244, 0.35903507471084595]","[0.07600837453338521, -1.4947879522615113, 0.07600837453338521, 0.07600837453338521, 0.07600837453338521, 0.07600837453338521]","[0.07600837453338521, -1.4947879522615113, 0.07600837453338521, 0.07600837453338521, 0.07600837453338521, 0.07600837453338521]",0.002,7,1
0,32,"[0.012514658272266388, -1.558650497612991, 0.012533966694967091, 0.012615366572997999, 0.012519544921815395, 0.012484798207879066]","[0.36786380410194397, 0.357901930809021, 0.3618324100971222, 0.37014541029930115, 0.37013179063796997, 0.371133029460907]","[0.07657925140055495, -1.4942170753943416, 0.07657925140055495, 0.07657925140055495, 0.07657925140055495, 0.07657925140055495]","[0.07657925140055495, -1.4942170753943416, 0.07657925140055495, 0.07657925140055495, 0.07657925140055495, 0.07657925140055495]",0.002,7,1
0,33,"[0.013322276994585991, -1.5579234429499884, 0.01330739656557256, 0.013442917461059523, 0.013299372047185898, 0.013232031837105751]","[0.37848278880119324, 0.3714078664779663, 0.37296026945114136, 0.3791232407093048, 0.38030514121055603, 0.3815132975578308]","[0.07714991316799193, -1.4936464136269045, 0.07714991316799193, 0.07714991316799193, 0.07714991316799193, 0.07714991316799193]","[0.07714991316799193, -1.4936464136269045, 0.07714991316799193, 0.07714991316799193, 0.07714991316799193, 0.07714991316799193]",0.002,7,1
0,34,"[0.014094498008489609, -1.5571036863005538, 0.014027420674459279, 0.014228745097778273, 0.014017493464052677, 0.013954623602330685]","[0.3871642053127289, 0.38408926129341125, 0.38525390625, 0.38499554991722107, 0.390236496925354, 0.39270254969596863]","[0.0777203582327921, -1.4930759685621044, 0.0777203582327921, 0.0777203582327921, 0.0777203582327921, 0.0777203582327921]","[0.0777203582327921, -1.4930759685621044, 0.0777203582327921, 0.0777203582327921, 0.0777203582327921, 0.0777203582327921]",0.002,7,1
0,35,"[0.014893846586346626, -1.556305026901402, 0.014841381703512013, 0.015000982875488234, 0.014863465912640095, 0.014780696481466293]","[0.3978952169418335, 0.3976866900920868, 0.39674684405326843, 0.3946797549724579, 0.40055859088897705, 0.40384069085121155]","[0.07829058499266005, -1.4925057418022365, 0.07829058499266005, 0.07829058499266005, 0.07829058499266005, 0.07829058499266005]","[0.07829058499266005, -1.4925057418022365, 0.07829058499266005, 0.07829058499266005, 0.07829058499266005, 0.07829058499266005]",0.002,7,1
0,36,"[0.01573115587234497, -1.5554845950431009, 0.015627686177388966, 0.015789671535156202, 0.01570465788245201, 0.01562880538403988]","[0.40814629197120667, 0.40921729803085327, 0.40469640493392944, 0.4033600091934204, 0.40946507453918457, 0.412345290184021]","[0.07886059184591358, -1.491935734948983, 0.07886059184591358, 0.07886059184591358, 0.07886059184591358, 0.07886059184591358]","[0.07886059184591358, -1.491935734948983, 0.07886059184591358, 0.07886059184591358, 0.07886059184591358, 0.07886059184591358]",0.002,7,1
0,37,"[0.01653522253036499, -1.5546438854983826, 0.016424004231588185, 0.01659326135601802, 0.016520993784070015, 0.016489887610077858]","[0.41608792543411255, 0.4197653532028198, 0.41316577792167664, 0.41313549876213074, 0.4218021035194397, 0.42288142442703247]","[0.07943037719148822, -1.4913659496034084, 0.07943037719148822, 0.07943037719148822, 0.07943037719148822, 0.07943037719148822]","[0.07943037719148822, -1.4913659496034084, 0.07943037719148822, 0.07943037719148822, 0.07943037719148822, 0.07943037719148822]",0.002,7,1
0,38,"[0.017375703901052475, -1.5537973393550892, 0.017321411763326466, 0.01743857442822261, 0.01734456792473793, 0.017355207353830338]","[0.42700085043907166, 0.43103206157684326, 0.424922376871109, 0.4227316081523895, 0.4298943281173706, 0.4327579438686371]","[0.07999993942894161, -1.4907963873659549, 0.07999993942894161, 0.07999993942894161, 0.07999993942894161, 0.07999993942894161]","[0.07999993942894161, -1.4907963873659549, 0.07999993942894161, 0.07999993942894161, 0.07999993942894161, 0.07999993942894161]",0.002,7,1
0,39,"[0.01826775260269642, -1.5529124357602377, 0.018181625996724904, 0.01835255205120845, 0.01820189133286476, 0.018204817548394203]","[0.4355143904685974, 0.4390760660171509, 0.43542829155921936, 0.43405255675315857, 0.43879956007003784, 0.4420473575592041]","[0.08056927695845807, -1.4902270498364385, 0.08056927695845807, 0.08056927695845807, 0.08056927695845807, 0.08056927695845807]","[0.08056927695845807, -1.4902270498364385, 0.08056927695845807, 0.08056927695845807, 0.08056927695845807, 0.08056927695845807]",0.002,7,1
0,40,"[0.01915718801319599, -1.5519415859929104, 0.019094769154683888, 0.01921336233105464, 0.018990764394402504, 0.019138146191835403]","[0.4447402060031891, 0.45161187648773193, 0.44612380862236023, 0.44692301750183105, 0.4487154483795166, 0.4506596624851227]","[0.08113838818085317, -1.4896579386140434, 0.08113838818085317, 0.08113838818085317, 0.08113838818085317, 0.08113838818085317]","[0.08113838818085317, -1.4896579386140434, 0.08113838818085317, 0.08113838818085317, 0.08113838818085317, 0.08113838818085317]",0.002,7,1
0,41,"[0.02006925642490387, -1.551081122165062, 0.020003620778219044, 0.020094318980834913, 0.01996639370918274, 0.02008236013352871]","[0.45574063062667847, 0.4626714885234833, 0.4576391577720642, 0.45870789885520935, 0.4578605890274048, 0.4615810513496399]","[0.08170727149757809, -1.4890890552973184, 0.08170727149757809, 0.08170727149757809, 0.08170727149757809, 0.08170727149757809]","[0.08170727149757809, -1.4890890552973184, 0.08170727149757809, 0.08170727149757809, 0.08170727149757809, 0.08170727149757809]",0.002,7,1
0,42,"[0.02092147059738636, -1.550062896018364, 0.020908180867330373, 0.02101079999890132, 0.02095397748053074, 0.020993834361433983]","[0.4661916196346283, 0.47331058979034424, 0.465729296207428, 0.46820658445358276, 0.4675602912902832, 0.4711054861545563]","[0.08227592531072411, -1.4885204014841724, 0.08227592531072411, 0.08227592531072411, 0.08227592531072411, 0.08227592531072411]","[0.08227592531072411, -1.4885204014841724, 0.08227592531072411, 0.08227592531072411, 0.08227592531072411, 0.08227592531072411]",0.002,7,1
0,43,"[0.021894875913858414, -1.549057963570096, 0.021820847188131154, 0.021872444743774366, 0.02197529561817646, 0.0219951793551445]","[0.4742087423801422, 0.48187097907066345, 0.47554534673690796, 0.47512704133987427, 0.4789634048938751, 0.47921979427337646]","[0.08284434802302726, -1.4879519787718694, 0.08284434802302726, 0.08284434802302726, 0.08284434802302726, 0.08284434802302726]","[0.08284434802302726, -1.4879519787718694, 0.08284434802302726, 0.08284434802302726, 0.08284434802302726, 0.08284434802302726]",0.002,7,1
0,44,"[0.02288973331451416, -1.5481024768999596, 0.02282888094057256, 0.02280060827221675, 0.022946247830986977, 0.023016290739178658]","[0.4825980067253113, 0.48846814036369324, 0.48289069533348083, 0.4832164943218231, 0.4888855218887329, 0.4868367910385132]","[0.08341253803787262, -1.487383788757024, 0.08341253803787262, 0.08341253803787262, 0.08341253803787262, 0.08341253803787262]","[0.08341253803787262, -1.487383788757024, 0.08341253803787262, 0.08341253803787262, 0.08341253803787262, 0.08341253803787262]",0.002,7,1
0,45,"[0.023823369294404984, -1.5470775750330468, 0.023711983357564748, 0.02381078779187007, 0.02389219030737877, 0.023970432579517365]","[0.49139174818992615, 0.49600949883461, 0.49024030566215515, 0.49286049604415894, 0.4986501932144165, 0.49459242820739746]","[0.0839804937592989, -1.4868158330355976, 0.0839804937592989, 0.0839804937592989, 0.0839804937592989, 0.0839804937592989]","[0.0839804937592989, -1.4868158330355976, 0.0839804937592989, 0.0839804937592989, 0.0839804937592989, 0.0839804937592989]",0.002,7,1
0,46,"[0.024945752695202827, -1.546069660489895, 0.024805370961324513, 0.02479033052410884, 0.024887345731258392, 0.02495434507727623]","[0.5015714168548584, 0.5042016506195068, 0.49852973222732544, 0.5013441443443298, 0.5061713457107544, 0.503390371799469]","[0.08454821359200293, -1.4862481132028935, 0.08454821359200293, 0.08454821359200293, 0.08454821359200293, 0.08454821359200293]","[0.08454821359200293, -1.4862481132028935, 0.08454821359200293, 0.08454821359200293, 0.08454821359200293, 0.08454821359200293]",0.002,7,1
0,47,"[0.02587568573653698, -1.5450093050352116, 0.02577239671816045, 0.025826140041015577, 0.02593400701880455, 0.025972139090299606]","[0.5091368556022644, 0.5125304460525513, 0.5062335729598999, 0.5123106241226196, 0.5146515369415283, 0.5097240209579468]","[0.08511569594134409, -1.4856806308535524, 0.08511569594134409, 0.08511569594134409, 0.08511569594134409, 0.08511569594134409]","[0.08511569594134409, -1.4856806308535524, 0.08511569594134409, 0.08511569594134409, 0.08511569594134409, 0.08511569594134409]",0.002,7,1
0,48,"[0.026881376281380653, -1.5438780647567292, 0.026804272328512013, 0.026777787799499464, 0.02699737623333931, 0.027022413909435272]","[0.5194078087806702, 0.5210649371147156, 0.5183691382408142, 0.5218271017074585, 0.5238492488861084, 0.5167552828788757]","[0.08568293921334884, -1.4851133875815477, 0.08568293921334884, 0.08568293921334884, 0.08568293921334884, 0.08568293921334884]","[0.08568293921334884, -1.4851133875815477, 0.08568293921334884, 0.08568293921334884, 0.08568293921334884, 0.08568293921334884]",0.002,7,1
0,49,"[0.027907364070415497, -1.5428191789290686, 0.02786571184267217, 0.02787296354260249, 0.028061393648386, 0.028084147721529007]","[0.5279958844184875, 0.52651447057724, 0.5272969007492065, 0.5324185490608215, 0.5290631055831909, 0.5274377465248108]","[0.08624994181471513, -1.4845463849801814, 0.08624994181471513, 0.08624994181471513, 0.08624994181471513, 0.08624994181471513]","[0.08624994181471513, -1.4845463849801814, 0.08624994181471513, 0.08624994181471513, 0.08624994181471513, 0.08624994181471513]",0.002,7,1
0,50,"[0.02887834422290325, -1.541759629999735, 0.028900925313131154, 0.0289192634769897, 0.029200876131653786, 0.02919391170144081]","[0.5354154109954834, 0.53777676820755, 0.5356208682060242, 0.540978193283081, 0.5362259149551392, 0.5375609993934631]","[0.08681670215281696, -1.4839796246420796, 0.08681670215281696, 0.08681670215281696, 0.08681670215281696, 0.08681670215281696]","[0.08681670215281696, -1.4839796246420796, 0.08681670215281696, 0.08681670215281696, 0.08681670215281696, 0.08681670215281696]",0.002,7,1
0,51,"[0.02997201681137085, -1.5406313140741368, 0.029996220265523732, 0.030058189029357862, 0.030309854075312614, 0.03025953285396099]","[0.5434435606002808, 0.5436862707138062, 0.5457345843315125, 0.5497282147407532, 0.546148419380188, 0.5421625375747681]","[0.0873832186357088, -1.4834131081591877, 0.0873832186357088, 0.0873832186357088, 0.0873832186357088, 0.0873832186357088]","[0.0873832186357088, -1.4834131081591877, 0.0873832186357088, 0.0873832186357088, 0.0873832186357088, 0.0873832186357088]",0.002,7,1
0,52,"[0.031093744561076164, -1.539591859360673, 0.031159702931539357, 0.031178875560424757, 0.03139284625649452, 0.031320054084062576]","[0.55094313621521, 0.5494484305381775, 0.5520305633544922, 0.5584133863449097, 0.5535492897033691, 0.5511619448661804]","[0.08794948967213004, -1.4828468371227665, 0.08794948967213004, 0.08794948967213004, 0.08794948967213004, 0.08794948967213004]","[0.08794948967213004, -1.4828468371227665, 0.08794948967213004, 0.08794948967213004, 0.08794948967213004, 0.08794948967213004]",0.002,7,1
0,53,"[0.032221719622612, -1.5384188529900094, 0.03227407137026006, 0.03230397283520503, 0.03246229141950607, 0.03246636688709259]","[0.560997724533081, 0.5580384135246277, 0.5598189234733582, 0.5674456357955933, 0.5609063506126404, 0.5574613213539124]","[0.08851551367150956, -1.482280813123387, 0.08851551367150956, 0.08851551367150956, 0.08851551367150956, 0.08851551367150956]","[0.08851551367150956, -1.482280813123387, 0.08851551367150956, 0.08851551367150956, 0.08851551367150956, 0.08851551367150956]",0.002,7,1
0,54,"[0.03332315757870674, -1.537307185386755, 0.033409897481099904, 0.03355662404980464, 0.03374176472425461, 0.03361281380057335]","[0.5679527521133423, 0.5649505257606506, 0.5642364025115967, 0.5767397284507751, 0.5667822360992432, 0.5647093057632446]","[0.08908128904397009, -1.4817150377509265, 0.08908128904397009, 0.08908128904397009, 0.08908128904397009, 0.08908128904397009]","[0.08908128904397009, -1.4817150377509265, 0.08908128904397009, 0.08908128904397009, 0.08908128904397009, 0.08908128904397009]",0.002,7,1
0,55,"[0.03450770303606987, -1.5362043020180245, 0.03462392488588506, 0.034671350116393995, 0.03484317287802696, 0.034780099987983704]","[0.5756430625915527, 0.5709518790245056, 0.5743123292922974, 0.5812299251556396, 0.5756101608276367, 0.5706037878990173]","[0.08964681420033266, -1.481149512594564, 0.08964681420033266, 0.08964681420033266, 0.08964681420033266, 0.08964681420033266]","[0.08964681420033266, -1.481149512594564, 0.08964681420033266, 0.08964681420033266, 0.08964681420033266, 0.08964681420033266]",0.002,7,1
0,56,"[0.035645533353090286, -1.5349902783385296, 0.03577787080873662, 0.03590206682171626, 0.035946235060691833, 0.03596436232328415]","[0.5827089548110962, 0.5764841437339783, 0.578985333442688, 0.588496744632721, 0.5810638070106506, 0.5790749192237854]","[0.09021208755212123, -1.4805842392427753, 0.09021208755212123, 0.09021208755212123, 0.09021208755212123, 0.09021208755212123]","[0.09021208755212123, -1.4805842392427753, 0.09021208755212123, 0.09021208755212123, 0.09021208755212123, 0.09021208755212123]",0.002,7,1
0,57,"[0.03685547783970833, -1.5338278350285073, 0.03699237505067998, 0.03710083543743892, 0.03717406094074249, 0.037085916846990585]","[0.5889542698860168, 0.5839821100234985, 0.5875824689865112, 0.5960450768470764, 0.5857200026512146, 0.586064875125885]","[0.09077710751156703, -1.4800192192833295, 0.09077710751156703, 0.09077710751156703, 0.09077710751156703, 0.09077710751156703]","[0.09077710751156703, -1.4800192192833295, 0.09077710751156703, 0.09077710751156703, 0.09077710751156703, 0.09077710751156703]",0.002,7,1
0,58,"[0.03805443271994591, -1.5325993982008477, 0.03812295595277959, 0.038307710284851026, 0.03837253898382187, 0.03829555585980415]","[0.5951077342033386, 0.5897008180618286, 0.593055784702301, 0.5994245409965515, 0.5936091542243958, 0.5948439240455627]","[0.09134187249161291, -1.4794544543032837, 0.09134187249161291, 0.09134187249161291, 0.09134187249161291, 0.09134187249161291]","[0.09134187249161291, -1.4794544543032837, 0.09134187249161291, 0.09134187249161291, 0.09134187249161291, 0.09134187249161291]",0.002,7,1
0,59,"[0.03929547592997551, -1.5314331886223336, 0.0393450895892542, 0.03956405698742671, 0.03958912938833237, 0.039474647492170334]","[0.6022977828979492, 0.5985870957374573, 0.6038888096809387, 0.6031346321105957, 0.6001461744308472, 0.6015520095825195]","[0.091906380905918, -1.4788899458889786, 0.091906380905918, 0.091906380905918, 0.091906380905918, 0.091906380905918]","[0.091906380905918, -1.4788899458889786, 0.091906380905918, 0.091906380905918, 0.091906380905918, 0.091906380905918]",0.002,7,1
0,60,"[0.04053027555346489, -1.5302040700665493, 0.040494743977681935, 0.04078154146160884, 0.04078468307852745, 0.04068710282444954]","[0.6126849055290222, 0.6058935523033142, 0.6077675223350525, 0.608421802520752, 0.6096165776252747, 0.6083238124847412]","[0.09247063116886214, -1.4783256956260344, 0.09247063116886214, 0.09247063116886214, 0.09247063116886214, 0.09247063116886214]","[0.09247063116886214, -1.4783256956260344, 0.09247063116886214, 0.09247063116886214, 0.09247063116886214, 0.09247063116886214]",0.002,7,1
0,61,"[0.041722167283296585, -1.5290182952633877, 0.04178029695619756, 0.042065544719360304, 0.041997943073511124, 0.0418272539973259]","[0.6173413991928101, 0.6127927303314209, 0.6159490346908569, 0.6135268807411194, 0.6133179068565369, 0.6161888837814331]","[0.09303462169555024, -1.4777617050993463, 0.09303462169555024, 0.09303462169555024, 0.09303462169555024, 0.09303462169555024]","[0.09303462169555024, -1.4777617050993463, 0.09303462169555024, 0.09303462169555024, 0.09303462169555024, 0.09303462169555024]",0.002,7,1
0,62,"[0.04294018819928169, -1.5277950179627915, 0.04310971895326787, 0.04334394514050288, 0.04321437329053879, 0.043081577867269516]","[0.6222171187400818, 0.6216641068458557, 0.6187121272087097, 0.6211992502212524, 0.6200670003890991, 0.623123049736023]","[0.09359835090181669, -1.4771979758930798, 0.09359835090181669, 0.09359835090181669, 0.09359835090181669, 0.09359835090181669]","[0.09359835090181669, -1.4771979758930798, 0.09359835090181669, 0.09359835090181669, 0.09359835090181669, 0.09359835090181669]",0.002,7,1
0,63,"[0.044210970401763916, -1.5265170608511944, 0.04428989091982061, 0.044664188022277784, 0.044389914721250534, 0.0443122498691082]","[0.6268864274024963, 0.6238515973091125, 0.625763475894928, 0.6283727288246155, 0.6252192854881287, 0.6292309761047363]","[0.09416181720422998, -1.4766345095906666, 0.09416181720422998, 0.09416181720422998, 0.09416181720422998, 0.09416181720422998]","[0.09416181720422998, -1.4766345095906666, 0.09416181720422998, 0.09416181720422998, 0.09416181720422998, 0.09416181720422998]",0.002,7,1
0,64,"[0.04547078162431717, -1.5252724786153813, 0.045528713856832326, 0.045952125186584425, 0.045696500688791275, 0.045526906847953796]","[0.6317687630653381, 0.6309034824371338, 0.6332902312278748, 0.6323062181472778, 0.6338610649108887, 0.6367679238319397]","[0.09472501902009701, -1.4760713077747996, 0.09472501902009701, 0.09472501902009701, 0.09472501902009701, 0.09472501902009701]","[0.09472501902009701, -1.4760713077747996, 0.09472501902009701, 0.09472501902009701, 0.09472501902009701, 0.09472501902009701]",0.002,7,1
0,65,"[0.046782057732343674, -1.523969617938139, 0.04683572450746709, 0.04717258989300532, 0.04694646596908569, 0.046812497079372406]","[0.6396772861480713, 0.6404820680618286, 0.6378729939460754, 0.6355700492858887, 0.6392068862915039, 0.6440027952194214]","[0.09528795476746764, -1.475508372027429, 0.09528795476746764, 0.09528795476746764, 0.09528795476746764, 0.09528795476746764]","[0.09528795476746764, -1.475508372027429, 0.09528795476746764, 0.09528795476746764, 0.09528795476746764, 0.09528795476746764]",0.002,7,1
0,66,"[0.048101235181093216, -1.5226747666350384, 0.048054043446676076, 0.048382683391235304, 0.04820406809449196, 0.04811506345868111]","[0.6477986574172974, 0.645878255367279, 0.643974244594574, 0.638746976852417, 0.6461696028709412, 0.6500054597854614]","[0.09585062286513904, -1.4749457039297575, 0.09585062286513904, 0.09585062286513904, 0.09585062286513904, 0.09585062286513904]","[0.09585062286513904, -1.4749457039297575, 0.09585062286513904, 0.09585062286513904, 0.09585062286513904, 0.09585062286513904]",0.002,7,1
0,67,"[0.049366600811481476, -1.5214084398797532, 0.049320522938863576, 0.04967252790417476, 0.049431320279836655, 0.049440521746873856]","[0.6526998281478882, 0.648673951625824, 0.6480834484100342, 0.6419516801834106, 0.6503162384033203, 0.6545547842979431]","[0.09641302173266018, -1.4743833050622364, 0.09641302173266018, 0.09641302173266018, 0.09641302173266018, 0.09641302173266018]","[0.09641302173266018, -1.4743833050622364, 0.09641302173266018, 0.09641302173266018, 0.09641302173266018, 0.09641302173266018]",0.002,7,1
0,68,"[0.050641510635614395, -1.5200776320746918, 0.05065042177309209, 0.05096535264935298, 0.05078680440783501, 0.0507659874856472]","[0.654984176158905, 0.6514486074447632, 0.6535852551460266, 0.6506288051605225, 0.6557848453521729, 0.6592639088630676]","[0.0969751497903362, -1.4738211770045604, 0.0969751497903362, 0.0969751497903362, 0.0969751497903362, 0.0969751497903362]","[0.0969751497903362, -1.4738211770045604, 0.0969751497903362, 0.0969751497903362, 0.0969751497903362, 0.0969751497903362]",0.002,7,1
0,69,"[0.051982808858156204, -1.5187670674971123, 0.05200034776796514, 0.052249475116393995, 0.05205489695072174, 0.05209963023662567]","[0.6606019139289856, 0.6578088402748108, 0.6587004661560059, 0.6558088064193726, 0.6615959405899048, 0.6650670170783997]","[0.09753700545923298, -1.4732593213356635, 0.09753700545923298, 0.09753700545923298, 0.09753700545923298, 0.09753700545923298]","[0.09753700545923298, -1.4732593213356635, 0.09753700545923298, 0.09753700545923298, 0.09753700545923298, 0.09753700545923298]",0.002,7,1
0,70,"[0.05334313213825226, -1.5174645085683842, 0.053253952656881154, 0.05348627149548335, 0.0534084290266037, 0.053481828421354294]","[0.6659056544303894, 0.6634140014648438, 0.6632529497146606, 0.6664273738861084, 0.6664636731147766, 0.670875608921051]","[0.09809858716118151, -1.472697739633715, 0.09809858716118151, 0.09809858716118151, 0.09809858716118151, 0.09809858716118151]","[0.09809858716118151, -1.472697739633715, 0.09809858716118151, 0.09809858716118151, 0.09809858716118151, 0.09809858716118151]",0.002,7,1
0,71,"[0.05469533056020737, -1.516119097625353, 0.05454141298402959, 0.0547068554111938, 0.05480652675032616, 0.0548836924135685]","[0.6739799380302429, 0.6640604734420776, 0.6683812737464905, 0.669044017791748, 0.6734606027603149, 0.6733769178390503]","[0.09865989331878224, -1.4721364334761142, 0.09865989331878224, 0.09865989331878224, 0.09865989331878224, 0.09865989331878224]","[0.09865989331878224, -1.4721364334761142, 0.09865989331878224, 0.09865989331878224, 0.09865989331878224, 0.09865989331878224]",0.002,7,1
0,72,"[0.056081514805555344, -1.514814020400383, 0.055907551442281544, 0.05608157693829341, 0.056224897503852844, 0.05621286481618881]","[0.6765596866607666, 0.6651140451431274, 0.6704915761947632, 0.6743992567062378, 0.6798706650733948, 0.6760460734367371]","[0.0992209223554096, -1.4715754044394869, 0.0992209223554096, 0.0992209223554096, 0.0992209223554096, 0.0992209223554096]","[0.0992209223554096, -1.4715754044394869, 0.0992209223554096, 0.0992209223554096, 0.0992209223554096, 0.0992209223554096]",0.002,7,1
0,73,"[0.05745530128479004, -1.5134711277535935, 0.05728513399233037, 0.05745939790692134, 0.05751866474747658, 0.05759071186184883]","[0.6825315356254578, 0.6670591235160828, 0.674182116985321, 0.678766131401062, 0.683358907699585, 0.6789135932922363]","[0.09978167269521644, -1.47101465409968, 0.09978167269521644, 0.09978167269521644, 0.09978167269521644, 0.09978167269521644]","[0.09978167269521644, -1.47101465409968, 0.09978167269521644, 0.09978167269521644, 0.09978167269521644, 0.09978167269521644]",0.002,7,1
0,74,"[0.05879448354244232, -1.5121044379523774, 0.05865222612489873, 0.0587729650684814, 0.058936115354299545, 0.058956217020750046]","[0.6864933967590332, 0.6744118928909302, 0.6775076985359192, 0.6851961612701416, 0.6856711506843567, 0.6827770471572876]","[0.10034214276313845, -1.4704541840317582, 0.10034214276313845, 0.10034214276313845, 0.10034214276313845, 0.10034214276313845]","[0.10034214276313845, -1.4704541840317582, 0.10034214276313845, 0.10034214276313845, 0.10034214276313845, 0.10034214276313845]",0.002,7,1
0,75,"[0.06010187417268753, -1.5107451055995007, 0.05999356905092412, 0.06019858896221919, 0.06035411357879639, 0.060423802584409714]","[0.6901474595069885, 0.6763455867767334, 0.6822202801704407, 0.6924164891242981, 0.6896413564682007, 0.6869850754737854]","[0.10090233098489851, -1.4698939958099981, 0.10090233098489851, 0.10090233098489851, 0.10090233098489851, 0.10090233098489851]","[0.10090233098489851, -1.4698939958099981, 0.10090233098489851, 0.10090233098489851, 0.10090233098489851, 0.10090233098489851]",0.002,7,1
0,76,"[0.06150166317820549, -1.5093855646303673, 0.06132394472231084, 0.061526938075683546, 0.06177281588315964, 0.06175336614251137]","[0.6956665515899658, 0.6810685992240906, 0.6884579062461853, 0.696720540523529, 0.690994918346405, 0.6900255084037781]","[0.10146223578701119, -1.4693340910078854, 0.10146223578701119, 0.10146223578701119, 0.10146223578701119, 0.10146223578701119]","[0.10146223578701119, -1.4693340910078854, 0.10146223578701119, 0.10146223578701119, 0.10146223578701119, 0.10146223578701119]",0.002,7,1
0,77,"[0.06287011504173279, -1.5080013510635872, 0.06277639070619756, 0.0629543501087646, 0.06315959990024567, 0.0631851777434349]","[0.6980693340301514, 0.6836492419242859, 0.6931819319725037, 0.7006080746650696, 0.6967824697494507, 0.6933968663215637]","[0.1020218555967871, -1.4687744711981094, 0.1020218555967871, 0.1020218555967871, 0.1020218555967871, 0.1020218555967871]","[0.1020218555967871, -1.4687744711981094, 0.1020218555967871, 0.1020218555967871, 0.1020218555967871, 0.1020218555967871]",0.002,7,1
0,78,"[0.06421764194965363, -1.5066510450891037, 0.06418973604311162, 0.06440989553417964, 0.06456472724676132, 0.0646023228764534]","[0.7005840539932251, 0.6819490194320679, 0.693952739238739, 0.7041134238243103, 0.7001782655715942, 0.6965837478637695]","[0.10258118884233744, -1.4682151379525592, 0.10258118884233744, 0.10258118884233744, 0.10258118884233744, 0.10258118884233744]","[0.10258118884233744, -1.4682151379525592, 0.10258118884233744, 0.10258118884233744, 0.10258118884233744, 0.10258118884233744]",0.002,7,1
0,79,"[0.06568530201911926, -1.505167470579483, 0.0655892531024378, 0.06580583631481929, 0.06599461287260056, 0.0659961849451065]","[0.7043973803520203, 0.6892502307891846, 0.6963614225387573, 0.704484224319458, 0.701816976070404, 0.697852611541748]","[0.10314023395257824, -1.4676560928423183, 0.10314023395257824, 0.10314023395257824, 0.10314023395257824, 0.10314023395257824]","[0.10314023395257824, -1.4676560928423183, 0.10314023395257824, 0.10314023395257824, 0.10314023395257824, 0.10314023395257824]",0.002,7,1
0,80,"[0.067096047103405, -1.5038343903473397, 0.06702644029726201, 0.06731311857189937, 0.06737016141414642, 0.06740990281105042]","[0.7092481851577759, 0.6924839615821838, 0.6986408829689026, 0.7076820731163025, 0.7031669020652771, 0.6994818449020386]","[0.1036989893572349, -1.4670973374376617, 0.1036989893572349, 0.1036989893572349, 0.1036989893572349, 0.1036989893572349]","[0.1036989893572349, -1.4670973374376617, 0.1036989893572349, 0.1036989893572349, 0.1036989893572349, 0.1036989893572349]",0.002,7,1
0,81,"[0.06856394559144974, -1.5024178487113495, 0.06846696535219365, 0.06879369794812007, 0.06886674463748932, 0.06879527866840363]","[0.7096831202507019, 0.696572482585907, 0.7017946839332581, 0.7101905941963196, 0.7053110003471375, 0.7036384344100952]","[0.10425745348684658, -1.46653887330805, 0.10425745348684658, 0.10425745348684658, 0.10425745348684658, 0.10425745348684658]","[0.10425745348684658, -1.46653887330805, 0.10425745348684658, 0.10425745348684658, 0.10425745348684658, 0.10425745348684658]",0.002,7,1
0,82,"[0.06997514516115189, -1.5009745892933388, 0.06988698640932256, 0.07020799695935054, 0.07019330561161041, 0.0701560452580452]","[0.7106921672821045, 0.7012823820114136, 0.7048497200012207, 0.7115368247032166, 0.7069761157035828, 0.7071123719215393]","[0.10481562477277054, -1.465980702022126, 0.10481562477277054, 0.10481562477277054, 0.10481562477277054, 0.10481562477277054]","[0.10481562477277054, -1.465980702022126, 0.10481562477277054, 0.10481562477277054, 0.10481562477277054, 0.10481562477277054]",0.002,7,1
0,83,"[0.0715157687664032, -1.4996063348701973, 0.07131702104677373, 0.07167617856945796, 0.07163933664560318, 0.0715564638376236]","[0.7143672704696655, 0.7027339935302734, 0.7115832567214966, 0.7122282981872559, 0.7097299695014954, 0.7106393575668335]","[0.10537350164718662, -1.46542282514771, 0.10537350164718662, 0.10537350164718662, 0.10537350164718662, 0.10537350164718662]","[0.10537350164718662, -1.46542282514771, 0.10537350164718662, 0.10537350164718662, 0.10537350164718662, 0.10537350164718662]",0.002,7,1
0,84,"[0.07284139096736908, -1.4981309112957497, 0.07274133363832647, 0.07315830766644282, 0.07307631522417068, 0.07296845316886902]","[0.717347264289856, 0.7094240784645081, 0.7129952311515808, 0.7144789695739746, 0.7130281925201416, 0.7138667106628418]","[0.1059310825431016, -1.4648652442517949, 0.1059310825431016, 0.1059310825431016, 0.1059310825431016, 0.1059310825431016]","[0.1059310825431016, -1.4648652442517949, 0.1059310825431016, 0.1059310825431016, 0.1059310825431016, 0.1059310825431016]",0.002,7,1
0,85,"[0.07420944422483444, -1.4967038866928597, 0.07422334352602178, 0.07460372030224605, 0.07445333153009415, 0.0743432343006134]","[0.7174134850502014, 0.7143090963363647, 0.7155868411064148, 0.714591920375824, 0.7138550877571106, 0.7163637280464172]","[0.10648836589435366, -1.464307960900543, 0.10648836589435366, 0.10648836589435366, 0.10648836589435366, 0.10648836589435366]","[0.10648836589435366, -1.464307960900543, 0.10648836589435366, 0.10648836589435366, 0.10648836589435366, 0.10648836589435366]",0.002,7,1
0,86,"[0.07564292848110199, -1.495233216588833, 0.07563382783998662, 0.07604198038067622, 0.0758780688047409, 0.0757736787199974]","[0.7178573608398438, 0.7154020667076111, 0.7161949872970581, 0.7145766615867615, 0.7183365225791931, 0.7194676995277405]","[0.1070453501356167, -1.4637509766592798, 0.1070453501356167, 0.1070453501356167, 0.1070453501356167, 0.1070453501356167]","[0.1070453501356167, -1.4637509766592798, 0.1070453501356167, 0.1070453501356167, 0.1070453501356167, 0.1070453501356167]",0.002,7,1
0,87,"[0.07710016518831253, -1.4938368287733574, 0.0770500341998499, 0.07756940900769038, 0.07724864780902863, 0.07718714326620102]","[0.716735303401947, 0.717395544052124, 0.7160545587539673, 0.7117725014686584, 0.7197072505950928, 0.7229741811752319]","[0.1076020337024048, -1.4631942930924917, 0.1076020337024048, 0.1076020337024048, 0.1076020337024048, 0.1076020337024048]","[0.1076020337024048, -1.4631942930924917, 0.1076020337024048, 0.1076020337024048, 0.1076020337024048, 0.1076020337024048]",0.002,7,1
0,88,"[0.07855655252933502, -1.4923583728126069, 0.07846957841982061, 0.07885996877636714, 0.07872297614812851, 0.0786551684141159]","[0.7193589210510254, 0.7234909534454346, 0.7208250164985657, 0.7148406505584717, 0.7214993238449097, 0.7252213358879089]","[0.10815841503107655, -1.46263791176382, 0.10815841503107655, 0.10815841503107655, 0.10815841503107655, 0.10815841503107655]","[0.10815841503107655, -1.46263791176382, 0.10815841503107655, 0.10815841503107655, 0.10815841503107655, 0.10815841503107655]",0.002,7,1
0,89,"[0.0800156369805336, -1.4908700299314042, 0.07992870012392217, 0.08030466615643306, 0.08018086850643158, 0.08016103506088257]","[0.7230427265167236, 0.7268349528312683, 0.7219017744064331, 0.7145363092422485, 0.7229210734367371, 0.7266443967819214]","[0.10871449255883957, -1.462081834236057, 0.10871449255883957, 0.10871449255883957, 0.10871449255883957, 0.10871449255883957]","[0.10871449255883957, -1.462081834236057, 0.10871449255883957, 0.10871449255883957, 0.10871449255883957, 0.10871449255883957]",0.002,7,1
0,90,"[0.0814967080950737, -1.4894332376173516, 0.08143502870668584, 0.08174066125836177, 0.08153054863214493, 0.08158595860004425]","[0.7242905497550964, 0.7288037538528442, 0.7236074805259705, 0.7163808941841125, 0.7257662415504456, 0.7264790534973145]","[0.10927026472375466, -1.4615260620711419, 0.10927026472375466, 0.10927026472375466, 0.10927026472375466, 0.10927026472375466]","[0.10927026472375466, -1.4615260620711419, 0.10927026472375466, 0.10927026472375466, 0.10927026472375466, 0.10927026472375466]",0.002,7,1
0,91,"[0.08289756625890732, -1.4879326087287446, 0.0828011671649378, 0.08313731729473872, 0.08307704329490662, 0.08306591957807541]","[0.7266520857810974, 0.7264821529388428, 0.7260125279426575, 0.7191328406333923, 0.724639356136322, 0.7281700968742371]","[0.1098257299647405, -1.460970596830156, 0.1098257299647405, 0.1098257299647405, 0.1098257299647405, 0.1098257299647405]","[0.1098257299647405, -1.460970596830156, 0.1098257299647405, 0.1098257299647405, 0.1098257299647405, 0.1098257299647405]",0.002,7,1
0,92,"[0.08433660864830017, -1.4865155977061768, 0.08433372179140264, 0.0845528083988647, 0.08448314666748047, 0.08453193306922913]","[0.7248421311378479, 0.7302985787391663, 0.7286278009414673, 0.7228020429611206, 0.7265289425849915, 0.7295207977294922]","[0.11038088672157781, -1.4604154400733187, 0.11038088672157781, 0.11038088672157781, 0.11038088672157781, 0.11038088672157781]","[0.11038088672157781, -1.4604154400733187, 0.11038088672157781, 0.11038088672157781, 0.11038088672157781, 0.11038088672157781]",0.002,7,1
0,93,"[0.08583074063062668, -1.4850236934474488, 0.085731331502096, 0.08587638914074702, 0.08592469245195389, 0.08604573458433151]","[0.7255726456642151, 0.7297646403312683, 0.7281047105789185, 0.7253442406654358, 0.7262488603591919, 0.729192316532135]","[0.11093573343491375, -1.4598605933599829, 0.11093573343491375, 0.11093573343491375, 0.11093573343491375, 0.11093573343491375]","[0.11093573343491375, -1.4598605933599829, 0.11093573343491375, 0.11093573343491375, 0.11093573343491375, 0.11093573343491375]",0.002,7,1
0,94,"[0.08734580874443054, -1.4835716274431725, 0.08720380464662725, 0.0873005825230102, 0.0874517634510994, 0.08755125850439072]","[0.7257422208786011, 0.7285957932472229, 0.7232968807220459, 0.7259026765823364, 0.7295101881027222, 0.7289829254150391]","[0.11149026854626641, -1.4593060582486301, 0.11149026854626641, 0.11149026854626641, 0.11149026854626641, 0.11149026854626641]","[0.11149026854626641, -1.4593060582486301, 0.11149026854626641, 0.11149026854626641, 0.11149026854626641, 0.11149026854626641]",0.002,7,1
0,95,"[0.08882235735654831, -1.4820687261274834, 0.08863956132997686, 0.08873216688122554, 0.0888889729976654, 0.08898485451936722]","[0.7274560332298279, 0.7272427082061768, 0.7215665578842163, 0.7254552841186523, 0.7297283411026001, 0.7252187728881836]","[0.11204449049802913, -1.4587518362968674, 0.11204449049802913, 0.11204449049802913, 0.11204449049802913, 0.11204449049802913]","[0.11204449049802913, -1.4587518362968674, 0.11204449049802913, 0.11204449049802913, 0.11204449049802913, 0.11204449049802913]",0.002,7,1
0,96,"[0.09021496027708054, -1.4806169357946892, 0.09009439149965459, 0.09016267835583491, 0.09040451049804688, 0.09048059582710266]","[0.7270539999008179, 0.723520040512085, 0.7294104695320129, 0.7281836271286011, 0.7279062271118164, 0.7246480584144592]","[0.11259839773347476, -1.4581979290614218, 0.11259839773347476, 0.11259839773347476, 0.11259839773347476, 0.11259839773347476]","[0.11259839773347476, -1.4581979290614218, 0.11259839773347476, 0.11259839773347476, 0.11259839773347476, 0.11259839773347476]",0.002,7,1
0,97,"[0.09163352102041245, -1.4791080814651032, 0.09161979356874639, 0.09165851652111812, 0.0918847844004631, 0.09192656725645065]","[0.7302916646003723, 0.7261148691177368, 0.7263650894165039, 0.730891227722168, 0.7271154522895813, 0.7263437509536743]","[0.11315198869676027, -1.4576443380981363, 0.11315198869676027, 0.11315198869676027, 0.11315198869676027, 0.11315198869676027]","[0.11315198869676027, -1.4576443380981363, 0.11315198869676027, 0.11315198869676027, 0.11315198869676027, 0.11315198869676027]",0.002,7,1
0,98,"[0.09307866543531418, -1.4776246783188363, 0.09304696718324834, 0.09311191617932124, 0.09328201413154602, 0.09343491494655609]","[0.7297033667564392, 0.7231152057647705, 0.7256730198860168, 0.732761561870575, 0.725857675075531, 0.7232443690299988]","[0.11370526183293096, -1.4570910649619655, 0.11370526183293096, 0.11370526183293096, 0.11370526183293096, 0.11370526183293096]","[0.11370526183293096, -1.4570910649619655, 0.11370526183293096, 0.11370526183293096, 0.11370526183293096, 0.11370526183293096]",0.002,7,1
0,99,"[0.09449482709169388, -1.476186679010727, 0.09442359605898076, 0.09459666788067622, 0.09479247033596039, 0.09485787153244019]","[0.7276990413665771, 0.7215616703033447, 0.7261737585067749, 0.7333614230155945, 0.7251273393630981, 0.721927285194397]","[0.11425821558792479, -1.4565381112069717, 0.11425821558792479, 0.11425821558792479, 0.11425821558792479, 0.11425821558792479]","[0.11425821558792479, -1.4565381112069717, 0.11425821558792479, 0.11425821558792479, 0.11425821558792479, 0.11425821558792479]",0.002,7,1
0,100,"[0.09591792523860931, -1.4746983361295243, 0.09593516985048467, 0.09604804098095698, 0.0962744951248169, 0.09630950540304184]","[0.7268210649490356, 0.7189435362815857, 0.7245588898658752, 0.7304801344871521, 0.7231580018997192, 0.7205030918121338]","[0.11481084840857694, -1.4559854783863195, 0.11481084840857694, 0.11481084840857694, 0.11481084840857694, 0.11481084840857694]","[0.11481084840857694, -1.4559854783863195, 0.11481084840857694, 0.11481084840857694, 0.11481084840857694, 0.11481084840857694]",0.002,7,1
0,101,"[0.09741353243589401, -1.4732669678381463, 0.09740335146059209, 0.09748391687359614, 0.09770653396844864, 0.09769302606582642]","[0.7264294624328613, 0.7200032472610474, 0.7227466702461243, 0.7276849150657654, 0.722166895866394, 0.7183884978294373]","[0.11536315874262389, -1.4554331680522727, 0.11536315874262389, 0.11536315874262389, 0.11536315874262389, 0.11536315874262389]","[0.11536315874262389, -1.4554331680522727, 0.11536315874262389, 0.11536315874262389, 0.11536315874262389, 0.11536315874262389]",0.002,7,1
0,102,"[0.09885277599096298, -1.471854993408062, 0.09888202348817998, 0.09905521451916499, 0.09914293885231018, 0.09908410161733627]","[0.726310133934021, 0.7157952189445496, 0.7207098603248596, 0.7243763208389282, 0.7212132215499878, 0.7178964614868164]","[0.11591514503870809, -1.4548811817561884, 0.11591514503870809, 0.11591514503870809, 0.11591514503870809, 0.11591514503870809]","[0.11591514503870809, -1.4548811817561884, 0.11591514503870809, 0.11591514503870809, 0.11591514503870809, 0.11591514503870809]",0.002,7,1
0,103,"[0.10041537135839462, -1.4704191845706482, 0.10027963319887334, 0.10052756845440669, 0.10055503994226456, 0.10056242346763611]","[0.7226058840751648, 0.7151291370391846, 0.7204302549362183, 0.7240820527076721, 0.7195925712585449, 0.7187007665634155]","[0.11646680574638203, -1.4543295210485145, 0.11646680574638203, 0.11646680574638203, 0.11646680574638203, 0.11646680574638203]","[0.11646680574638203, -1.4543295210485145, 0.11646680574638203, 0.11646680574638203, 0.11646680574638203, 0.11646680574638203]",0.002,7,1
0,104,"[0.10179874300956726, -1.4689026188901444, 0.10171634355653936, 0.10205893098797603, 0.10203012824058533, 0.10194198042154312]","[0.7236877083778381, 0.7156297564506531, 0.7217919230461121, 0.7218560576438904, 0.7172887325286865, 0.7172460556030273]","[0.11701813931611282, -1.4537781874787838, 0.11701813931611282, 0.11701813931611282, 0.11701813931611282, 0.11701813931611282]","[0.11701813931611282, -1.4537781874787838, 0.11701813931611282, 0.11701813931611282, 0.11701813931611282, 0.11701813931611282]",0.002,7,1
0,105,"[0.10327962785959244, -1.4674888414195557, 0.10321504274477178, 0.10350052892651362, 0.10339360684156418, 0.10339348018169403]","[0.7232136726379395, 0.7133726477622986, 0.7170485854148865, 0.7216755151748657, 0.7152155637741089, 0.7175807952880859]","[0.11756914419928645, -1.45322718259561, 0.11756914419928645, 0.11756914419928645, 0.11756914419928645, 0.11756914419928645]","[0.11756914419928645, -1.45322718259561, 0.11756914419928645, 0.11756914419928645, 0.11756914419928645, 0.11756914419928645]",0.002,7,1
0,106,"[0.10469987988471985, -1.4661157143167038, 0.10463506380190069, 0.10499779760327144, 0.10482452809810638, 0.10469222068786621]","[0.7216653227806091, 0.7122872471809387, 0.7188200354576111, 0.7183470129966736, 0.7127653360366821, 0.7165676355361938]","[0.11811981884821209, -1.4526765079466846, 0.11811981884821209, 0.11811981884821209, 0.11811981884821209, 0.11811981884821209]","[0.11811981884821209, -1.4526765079466846, 0.11811981884821209, 0.11811981884821209, 0.11811981884821209, 0.11811981884821209]",0.002,7,1
0,107,"[0.10610613226890564, -1.4646411773613472, 0.10609132448305303, 0.1064789730259399, 0.10622826218605042, 0.10612814128398895]","[0.7165643572807312, 0.7159646153450012, 0.7163180112838745, 0.7161684036254883, 0.7127201557159424, 0.7166635990142822]","[0.11867016171612652, -1.45212616507877, 0.11867016171612652, 0.11867016171612652, 0.11867016171612652, 0.11867016171612652]","[0.11867016171612652, -1.45212616507877, 0.11867016171612652, 0.11867016171612652, 0.11867016171612652, 0.11867016171612652]",0.002,7,1
0,108,"[0.10749894380569458, -1.4632214096239586, 0.1074603239642542, 0.10782711088146968, 0.10762503743171692, 0.10752704739570618]","[0.7139098048210144, 0.7107411623001099, 0.7134537696838379, 0.709344744682312, 0.7125415802001953, 0.714664101600647]","[0.11922017125719844, -1.451576155537698, 0.11922017125719844, 0.11922017125719844, 0.11922017125719844, 0.11922017125719844]","[0.11922017125719844, -1.451576155537698, 0.11922017125719844, 0.11922017125719844, 0.11922017125719844, 0.11922017125719844]",0.002,7,1
0,109,"[0.10899066925048828, -1.4618391555598755, 0.10886842409242803, 0.10927753030743403, 0.10905646532773972, 0.10897444933652878]","[0.711080014705658, 0.7103230953216553, 0.7090939879417419, 0.7038735151290894, 0.7109544277191162, 0.7127557992935181]","[0.11976984592653282, -1.4510264808683637, 0.11976984592653282, 0.11976984592653282, 0.11976984592653282, 0.11976984592653282]","[0.11976984592653282, -1.4510264808683637, 0.11976984592653282, 0.11976984592653282, 0.11976984592653282, 0.11976984592653282]",0.002,7,1
0,110,"[0.11041232943534851, -1.4604432967356225, 0.11033708253969365, 0.11067418634381099, 0.11047997325658798, 0.11036688834428787]","[0.7120249271392822, 0.7124730348587036, 0.7096576690673828, 0.7008090019226074, 0.7105854153633118, 0.7120910286903381]","[0.12031918418017519, -1.4504771426147214, 0.12031918418017519, 0.12031918418017519, 0.12031918418017519, 0.12031918418017519]","[0.12031918418017519, -1.4504771426147214, 0.12031918418017519, 0.12031918418017519, 0.12031918418017519, 0.12031918418017519]",0.002,7,1
0,111,"[0.11182291060686111, -1.4590557304075737, 0.11169130006899053, 0.11200205862011714, 0.11187184602022171, 0.11185434460639954]","[0.7088009715080261, 0.7117466926574707, 0.7069450616836548, 0.6976372599601746, 0.7072946429252625, 0.7099737524986267]","[0.12086818447511613, -1.4499281423197805, 0.12086818447511613, 0.12086818447511613, 0.12086818447511613, 0.12086818447511613]","[0.12086818447511613, -1.4499281423197805, 0.12086818447511613, 0.12086818447511613, 0.12086818447511613, 0.12086818447511613]",0.002,7,1
0,112,"[0.11319411545991898, -1.4576323565891762, 0.11309844652284795, 0.11344365655865474, 0.11324936896562576, 0.11325745284557343]","[0.7051374912261963, 0.7071239352226257, 0.7039602398872375, 0.6952600479125977, 0.7034254670143127, 0.7065721154212952]","[0.12141684526929539, -1.4493794815256011, 0.12141684526929539, 0.12141684526929539, 0.12141684526929539, 0.12141684526929539]","[0.12141684526929539, -1.4493794815256011, 0.12141684526929539, 0.12141684526929539, 0.12141684526929539, 0.12141684526929539]",0.002,7,1
0,113,"[0.11466028541326523, -1.4562464740923424, 0.11460382143129522, 0.11477856218304439, 0.1146458238363266, 0.11468555778265]","[0.7015379071235657, 0.7032676935195923, 0.7008392214775085, 0.6941019296646118, 0.7018550634384155, 0.7046938538551331]","[0.12196516502160637, -1.44883116177329, 0.12196516502160637, 0.12196516502160637, 0.12196516502160637, 0.12196516502160637]","[0.12196516502160637, -1.44883116177329, 0.12196516502160637, 0.12196516502160637, 0.12196516502160637, 0.12196516502160637]",0.002,7,1
0,114,"[0.11599089205265045, -1.4548659932664414, 0.11597901979555303, 0.11609594404187007, 0.11606024950742722, 0.11609942466020584]","[0.6977894306182861, 0.7030097246170044, 0.700087308883667, 0.6960850954055786, 0.6990717649459839, 0.7008236646652222]","[0.12251314219190039, -1.4482831846029962, 0.12251314219190039, 0.12251314219190039, 0.12251314219190039, 0.12251314219190039]","[0.12251314219190039, -1.4482831846029962, 0.12251314219190039, 0.12251314219190039, 0.12251314219190039, 0.12251314219190039]",0.002,7,1
0,115,"[0.11740794032812119, -1.4534985584071656, 0.1173012892352503, 0.11739294111218257, 0.11748151481151581, 0.11751897633075714]","[0.6963333487510681, 0.6962980628013611, 0.6956770420074463, 0.6916805505752563, 0.6955956816673279, 0.6957110166549683]","[0.12306077524099104, -1.4477355515539054, 0.12306077524099104, 0.12306077524099104, 0.12306077524099104, 0.12306077524099104]","[0.12306077524099104, -1.4477355515539054, 0.12306077524099104, 0.12306077524099104, 0.12306077524099104, 0.12306077524099104]",0.002,7,1
0,116,"[0.1188303604722023, -1.4520450693419953, 0.11862403551210576, 0.11873166143383784, 0.11885891854763031, 0.1189102977514267]","[0.6926910281181335, 0.6918146014213562, 0.6888860464096069, 0.6885085105895996, 0.6951995491981506, 0.6917107701301575]","[0.12360806263065853, -1.447188264164238, 0.12360806263065853, 0.12360806263065853, 0.12360806263065853, 0.12360806263065853]","[0.12360806263065853, -1.447188264164238, 0.12360806263065853, 0.12360806263065853, 0.12360806263065853, 0.12360806263065853]",0.002,7,1
0,117,"[0.12023802101612091, -1.4506612581065674, 0.12005788484682256, 0.12009434282269282, 0.1202673465013504, 0.12027917802333832]","[0.6905962228775024, 0.6851996779441833, 0.6871387958526611, 0.6852207183837891, 0.6906266212463379, 0.6880014538764954]","[0.12415500282365388, -1.4466413239712428, 0.12415500282365388, 0.12415500282365388, 0.12415500282365388, 0.12415500282365388]","[0.12415500282365388, -1.4466413239712428, 0.12415500282365388, 0.12415500282365388, 0.12415500282365388, 0.12415500282365388]",0.002,7,1
0,118,"[0.12155502289533615, -1.4493122485331078, 0.12143212953676397, 0.12143866598095698, 0.1216202825307846, 0.12169107794761658]","[0.6875666379928589, 0.6816753149032593, 0.6818172931671143, 0.6858133673667908, 0.6864336133003235, 0.6820875406265259]","[0.12470159428370346, -1.446094732511193, 0.12470159428370346, 0.12470159428370346, 0.12470159428370346, 0.12470159428370346]","[0.12470159428370346, -1.446094732511193, 0.12470159428370346, 0.12470159428370346, 0.12470159428370346, 0.12470159428370346]",0.002,7,1
0,119,"[0.1228991374373436, -1.4478952300599595, 0.12280828157533819, 0.12283973276104732, 0.12304103374481201, 0.12308792769908905]","[0.6851846575737, 0.6778508424758911, 0.6790456771850586, 0.6876722574234009, 0.6803434491157532, 0.6786552667617798]","[0.1252478354755131, -1.4455484913193835, 0.1252478354755131, 0.1252478354755131, 0.1252478354755131, 0.1252478354755131]","[0.1252478354755131, -1.4455484913193835, 0.1252478354755131, 0.1252478354755131, 0.1252478354755131, 0.1252478354755131]",0.002,7,1
0,120,"[0.12427565455436707, -1.4465537455729027, 0.12413913408388311, 0.1241881090351562, 0.12439689040184021, 0.12443254142999649]","[0.6821708083152771, 0.6717057824134827, 0.6770092844963074, 0.6848013997077942, 0.6748148798942566, 0.6753286719322205]","[0.1257937248647725, -1.445002601930124, 0.1257937248647725, 0.1257937248647725, 0.1257937248647725, 0.1257937248647725]","[0.1257937248647725, -1.445002601930124, 0.1257937248647725, 0.1257937248647725, 0.1257937248647725, 0.1257937248647725]",0.002,7,1
0,121,"[0.12552510201931, -1.445218027835228, 0.12546044984926397, 0.12554304182019038, 0.1258067488670349, 0.12582235038280487]","[0.6757538318634033, 0.6662614345550537, 0.6716628074645996, 0.6797496676445007, 0.6714605689048767, 0.6708517670631409]","[0.1263392609181595, -1.444457065876737, 0.1263392609181595, 0.1263392609181595, 0.1263392609181595, 0.1263392609181595]","[0.1263392609181595, -1.444457065876737, 0.1263392609181595, 0.1263392609181595, 0.1263392609181595, 0.1263392609181595]",0.002,7,1
0,122,"[0.1269507259130478, -1.4438161712935944, 0.12683660188783819, 0.1268670993992309, 0.1271103173494339, 0.12711577117443085]","[0.6710747480392456, 0.6618974804878235, 0.6659441590309143, 0.6764289736747742, 0.6669583320617676, 0.6665400862693787]","[0.1268844421033444, -1.4439118846915522, 0.1268844421033444, 0.1268844421033444, 0.1268844421033444, 0.1268844421033444]","[0.1268844421033444, -1.4439118846915522, 0.1268844421033444, 0.1268844421033444, 0.1268844421033444, 0.1268844421033444]",0.002,7,1
0,123,"[0.12820717692375183, -1.4425496769002457, 0.12819272676576787, 0.12824432432141109, 0.12846910953521729, 0.12845593690872192]","[0.6660934090614319, 0.659756064414978, 0.6636521220207214, 0.6697924733161926, 0.6631126999855042, 0.6617369651794434]","[0.12742926688899436, -1.4433670599059023, 0.12742926688899436, 0.12742926688899436, 0.12742926688899436, 0.12742926688899436]","[0.12742926688899436, -1.4433670599059023, 0.12742926688899436, 0.12742926688899436, 0.12742926688899436, 0.12742926688899436]",0.002,7,1
0,124,"[0.12962833046913147, -1.4412468832782288, 0.12944490114320928, 0.12957124292340083, 0.12980277836322784, 0.12981972098350525]","[0.6645918488502502, 0.6536784172058105, 0.6566400527954102, 0.6615327596664429, 0.6573704481124878, 0.6560959219932556]","[0.12797373374477752, -1.442822593050119, 0.12797373374477752, 0.12797373374477752, 0.12797373374477752, 0.12797373374477752]","[0.12797373374477752, -1.442822593050119, 0.12797373374477752, 0.12797373374477752, 0.12797373374477752, 0.12797373374477752]",0.002,7,1
0,125,"[0.13097691535949707, -1.4399156731418152, 0.1308506170855921, 0.1309400039860229, 0.13103745877742767, 0.13107173144817352]","[0.657412588596344, 0.6498647332191467, 0.6521153450012207, 0.658003032207489, 0.6528102159500122, 0.6522863507270813]","[0.12851784114136747, -1.4422784856535291, 0.12851784114136747, 0.12851784114136747, 0.12851784114136747, 0.12851784114136747]","[0.12851784114136747, -1.4422784856535291, 0.12851784114136747, 0.12851784114136747, 0.12851784114136747, 0.12851784114136747]",0.002,7,1
0,126,"[0.1322583705186844, -1.4386435163072129, 0.13214189211000615, 0.132297082538269, 0.13237056136131287, 0.13231515884399414]","[0.6516978740692139, 0.6454566717147827, 0.6475332975387573, 0.6512508392333984, 0.6488432884216309, 0.6477404236793518]","[0.12906158755044736, -1.4417347392444493, 0.12906158755044736, 0.12906158755044736, 0.12906158755044736, 0.12906158755044736]","[0.12906158755044736, -1.4417347392444493, 0.12906158755044736, 0.12906158755044736, 0.12906158755044736, 0.12906158755044736]",0.002,7,1
0,127,"[0.13357846438884735, -1.4373046618751069, 0.13350135484804326, 0.13362149774517817, 0.13360509276390076, 0.13362419605255127]","[0.648175060749054, 0.6429008841514587, 0.6470407247543335, 0.6487095952033997, 0.6424404382705688, 0.6445083022117615]","[0.12960497144471436, -1.4411913553501823, 0.12960497144471436, 0.12960497144471436, 0.12960497144471436, 0.12960497144471436]","[0.12960497144471436, -1.4411913553501823, 0.12960497144471436, 0.12960497144471436, 0.12960497144471436, 0.12960497144471436]",0.002,7,1
0,128,"[0.13485847413539886, -1.4360091251185914, 0.1347430388080042, 0.13495127737011714, 0.13486020267009735, 0.1348704695701599]","[0.6430355310440063, 0.6409366130828857, 0.6427152752876282, 0.6413494348526001, 0.6397101283073425, 0.6417298913002014]","[0.13014799129788393, -1.4406483354970125, 0.13014799129788393, 0.13014799129788393, 0.13014799129788393, 0.13014799129788393]","[0.13014799129788393, -1.4406483354970125, 0.13014799129788393, 0.13014799129788393, 0.13014799129788393, 0.13014799129788393]",0.002,7,1
0,129,"[0.13611681759357452, -1.434754343037941, 0.1360400358783167, 0.13630072652783198, 0.13615962862968445, 0.13617384433746338]","[0.6387438774108887, 0.6365032196044922, 0.6354263424873352, 0.6355961561203003, 0.6315345168113708, 0.6346091032028198]","[0.13069064558469398, -1.4401056812102027, 0.13069064558469398, 0.13069064558469398, 0.13069064558469398, 0.13069064558469398]","[0.13069064558469398, -1.4401056812102027, 0.13069064558469398, 0.13069064558469398, 0.13069064558469398, 0.13069064558469398]",0.002,7,1
0,130,"[0.13732655346393585, -1.4335200649550934, 0.13728601137270147, 0.13755027830090327, 0.13731956481933594, 0.1373717188835144]","[0.6298869848251343, 0.6307271718978882, 0.6326172947883606, 0.6318449974060059, 0.6288292407989502, 0.6296454071998596]","[0.13123293278090936, -1.4395633940139871, 0.13123293278090936, 0.13123293278090936, 0.13123293278090936, 0.13123293278090936]","[0.13123293278090936, -1.4395633940139871, 0.13123293278090936, 0.13123293278090936, 0.13123293278090936, 0.13123293278090936]",0.002,7,1
0,131,"[0.13856394588947296, -1.4322316509536286, 0.13852960268129522, 0.138858361835144, 0.1386292725801468, 0.13855990767478943]","[0.620771050453186, 0.6270475387573242, 0.6229968070983887, 0.6209882497787476, 0.6252073049545288, 0.6264943480491638]","[0.1317748513633259, -1.4390214754315707, 0.1317748513633259, 0.1317748513633259, 0.1317748513633259, 0.1317748513633259]","[0.1317748513633259, -1.4390214754315707, 0.1317748513633259, 0.1317748513633259, 0.1317748513633259, 0.1317748513633259]",0.002,7,1
0,132,"[0.13988330960273743, -1.430977613931038, 0.13978606859316045, 0.14005343496289058, 0.13982917368412018, 0.13975264132022858]","[0.6167498826980591, 0.6240146160125732, 0.622247576713562, 0.6116690039634705, 0.6202685832977295, 0.6204676628112793]","[0.1323163998097749, -1.4384799269851216, 0.1323163998097749, 0.1323163998097749, 0.1323163998097749, 0.1323163998097749]","[0.1323163998097749, -1.4384799269851216, 0.1323163998097749, 0.1323163998097749, 0.1323163998097749, 0.1323163998097749]",0.002,7,1
0,133,"[0.14110487699508667, -1.4297661644271393, 0.14096385637392217, 0.14125077306713862, 0.1409984976053238, 0.14097987115383148]","[0.6131207346916199, 0.6216518878936768, 0.6158713698387146, 0.6061861515045166, 0.6163159012794495, 0.6171995401382446]","[0.13285757659912725, -1.4379387501957692, 0.13285757659912725, 0.13285757659912725, 0.13285757659912725, 0.13285757659912725]","[0.13285757659912725, -1.4379387501957692, 0.13285757659912725, 0.13285757659912725, 0.13285757659912725, 0.13285757659912725]",0.002,7,1
0,134,"[0.14232604205608368, -1.428515912299492, 0.14222461382021123, 0.1424134212681274, 0.1422097086906433, 0.14223837852478027]","[0.6076882481575012, 0.6163857579231262, 0.6111698150634766, 0.6001608967781067, 0.6113954782485962, 0.6126296520233154]","[0.13339838021129782, -1.4373979465835987, 0.13339838021129782, 0.13339838021129782, 0.13339838021129782, 0.13339838021129782]","[0.13339838021129782, -1.4373979465835987, 0.13339838021129782, 0.13339838021129782, 0.13339838021129782, 0.13339838021129782]",0.002,7,1
0,135,"[0.1434653252363205, -1.4272385996631165, 0.14342195192445928, 0.14360885202374263, 0.14338769018650055, 0.14340002834796906]","[0.6002470254898071, 0.609729528427124, 0.6057189702987671, 0.5968437194824219, 0.6050864458084106, 0.6058255434036255]","[0.13393880912724965, -1.4368575176676468, 0.13393880912724965, 0.13393880912724965, 0.13393880912724965, 0.13393880912724965]","[0.13393880912724965, -1.4368575176676468, 0.13393880912724965, 0.13393880912724965, 0.13393880912724965, 0.13393880912724965]",0.002,7,1
0,136,"[0.14468616247177124, -1.4261292678168793, 0.14458829561342412, 0.1448557811924438, 0.1446438580751419, 0.144663468003273]","[0.5955552458763123, 0.6007130146026611, 0.6040667295455933, 0.5941188335418701, 0.598865270614624, 0.6012386083602905]","[0.13447886182899826, -1.4363174649658983, 0.13447886182899826, 0.13447886182899826, 0.13447886182899826, 0.13447886182899826]","[0.13447886182899826, -1.4363174649658983, 0.13447886182899826, 0.13447886182899826, 0.13447886182899826, 0.13447886182899826]",0.002,7,1
0,137,"[0.145862877368927, -1.4248397064260026, 0.14582759538759404, 0.14594285070385737, 0.14578595757484436, 0.14584344625473022]","[0.5901587009429932, 0.5934553742408752, 0.5939754247665405, 0.5880337953567505, 0.5933942198753357, 0.5955579876899719]","[0.1350185367996159, -1.4357777899952806, 0.1350185367996159, 0.1350185367996159, 0.1350185367996159, 0.1350185367996159]","[0.1350185367996159, -1.4357777899952806, 0.1350185367996159, 0.1350185367996159, 0.1350185367996159, 0.1350185367996159]",0.002,7,1
0,138,"[0.14709709584712982, -1.4236758810332795, 0.14700395265688115, 0.14702753602947993, 0.1469719409942627, 0.14701512455940247]","[0.5826089382171631, 0.5868067145347595, 0.5899354815483093, 0.5826213955879211, 0.5884549617767334, 0.588800311088562]","[0.13555783252323578, -1.4352384942716607, 0.13555783252323578, 0.13555783252323578, 0.13555783252323578, 0.13555783252323578]","[0.13555783252323578, -1.4352384942716607, 0.13555783252323578, 0.13555783252323578, 0.13555783252323578, 0.13555783252323578]",0.002,7,1
0,139,"[0.1482318788766861, -1.422510178094246, 0.14813262621034795, 0.1481455999561767, 0.1482134461402893, 0.14822018146514893]","[0.5784025192260742, 0.5821847915649414, 0.5837110877037048, 0.5762099623680115, 0.584061324596405, 0.5813443064689636]","[0.13609674748505646, -1.43469957930984, 0.13609674748505646, 0.13609674748505646, 0.13609674748505646, 0.13609674748505646]","[0.13609674748505646, -1.43469957930984, 0.13609674748505646, 0.13609674748505646, 0.13609674748505646, 0.13609674748505646]",0.002,7,1
0,140,"[0.1493690013885498, -1.4213108134320755, 0.14925939241518194, 0.14929394304241939, 0.14932118356227875, 0.14938512444496155]","[0.5725803375244141, 0.5747433304786682, 0.5732481479644775, 0.5694688558578491, 0.5772221684455872, 0.5757037401199341]","[0.13663528017134585, -1.4341610466235508, 0.13663528017134585, 0.13663528017134585, 0.13663528017134585, 0.13663528017134585]","[0.13663528017134585, -1.4341610466235508, 0.13663528017134585, 0.13663528017134585, 0.13663528017134585, 0.13663528017134585]",0.002,7,1
0,141,"[0.15046504139900208, -1.4202044022134324, 0.1504157225238245, 0.15041343748059077, 0.15047666430473328, 0.1505737006664276]","[0.5657883882522583, 0.5653478503227234, 0.5672423839569092, 0.5675860643386841, 0.5700334906578064, 0.5667234063148499]","[0.1371734290694457, -1.4336228977254508, 0.1371734290694457, 0.1371734290694457, 0.1371734290694457, 0.1371734290694457]","[0.1371734290694457, -1.4336228977254508, 0.1371734290694457, 0.1371734290694457, 0.1371734290694457, 0.1371734290694457]",0.002,7,1
0,142,"[0.15160612761974335, -1.4190651637366791, 0.15165311494936162, 0.15145794927563472, 0.1515980213880539, 0.15164288878440857]","[0.5597543716430664, 0.5592605471611023, 0.5637367367744446, 0.5657850503921509, 0.5635451078414917, 0.5598962903022766]","[0.13771119266777582, -1.4330851341271207, 0.13771119266777582, 0.13771119266777582, 0.13771119266777582, 0.13771119266777582]","[0.13771119266777582, -1.4330851341271207, 0.13771119266777582, 0.13771119266777582, 0.13771119266777582, 0.13771119266777582]",0.002,7,1
0,143,"[0.15271048247814178, -1.4179629993489762, 0.1527031103717249, 0.15255610525097651, 0.15272998809814453, 0.1528371423482895]","[0.5539124608039856, 0.5522663593292236, 0.5580961108207703, 0.5608829259872437, 0.5563413500785828, 0.5545051693916321]","[0.13824856945583813, -1.4325477573390584, 0.13824856945583813, 0.13824856945583813, 0.13824856945583813, 0.13824856945583813]","[0.13824856945583813, -1.4325477573390584, 0.13824856945583813, 0.13824856945583813, 0.13824856945583813, 0.13824856945583813]",0.002,7,1
0,144,"[0.15377677977085114, -1.4168360096267243, 0.15376359621156865, 0.15365104257550044, 0.15390059351921082, 0.15392020344734192]","[0.5508726239204407, 0.5463958382606506, 0.551369845867157, 0.5550471544265747, 0.5492163896560669, 0.5476105809211731]","[0.13878555792422115, -1.4320107688706754, 0.13878555792422115, 0.13878555792422115, 0.13878555792422115, 0.13878555792422115]","[0.13878555792422115, -1.4320107688706754, 0.13878555792422115, 0.13878555792422115, 0.13878555792422115, 0.13878555792422115]",0.002,7,1
0,145,"[0.15482012927532196, -1.4157457214644928, 0.15481454530824834, 0.15474168836560054, 0.15500447154045105, 0.15502579510211945]","[0.5441741347312927, 0.5364381670951843, 0.5452199578285217, 0.5473027229309082, 0.54301518201828, 0.5396135449409485]","[0.13932215656460414, -1.4314741702302924, 0.13932215656460414, 0.13932215656460414, 0.13932215656460414, 0.13932215656460414]","[0.13932215656460414, -1.4314741702302924, 0.13932215656460414, 0.13932215656460414, 0.13932215656460414, 0.13932215656460414]",0.002,7,1
0,146,"[0.15590235590934753, -1.4146642547896882, 0.1559832731830042, 0.15580765783276362, 0.15603259205818176, 0.1561446487903595]","[0.5341623425483704, 0.5289450883865356, 0.5374584794044495, 0.5409416556358337, 0.5360753536224365, 0.5328105092048645]","[0.13985836386976125, -1.4309379629251353, 0.13985836386976125, 0.13985836386976125, 0.13985836386976125, 0.13985836386976125]","[0.13985836386976125, -1.4309379629251353, 0.13985836386976125, 0.13985836386976125, 0.13985836386976125, 0.13985836386976125]",0.002,7,1
0,147,"[0.1569540798664093, -1.4136392784169693, 0.1570652166949671, 0.1568853098103027, 0.1571781188249588, 0.15714742243289948]","[0.5293833017349243, 0.521439790725708, 0.528083324432373, 0.5355061292648315, 0.5281705856323242, 0.5248780846595764]","[0.14039417833356588, -1.4304021484613307, 0.14039417833356588, 0.14039417833356588, 0.14039417833356588, 0.14039417833356588]","[0.14039417833356588, -1.4304021484613307, 0.14039417833356588, 0.14039417833356588, 0.14039417833356588, 0.14039417833356588]",0.002,7,1
0,148,"[0.1580086648464203, -1.4125851851752778, 0.15807658830751592, 0.15790121137585444, 0.15812423825263977, 0.15823788940906525]","[0.5202731490135193, 0.5164307355880737, 0.5208031535148621, 0.5295426249504089, 0.5202175378799438, 0.5197916030883789]","[0.14092959845099487, -1.4298667283439017, 0.14092959845099487, 0.14092959845099487, 0.14092959845099487, 0.14092959845099487]","[0.14092959845099487, -1.4298667283439017, 0.14092959845099487, 0.14092959845099487, 0.14092959845099487, 0.14092959845099487]",0.002,7,1
