Arnibjarnst/BoxLift/logs/ur_rtde/trajectory_dur=10.0_delay=0.2_gain=100_lh=0.05_real.csv
arm_idx,step,actual_q,actual_qd,target_q,expected_q,loop_time,robot_mode,safety_mode
0,-1,"[-0.012100044881002248, -1.582799573937887, -0.012021930888295174, -0.012204126720764208, -0.012153450642720998, -0.01207906404604131]","[0.044642750173807144, 0.04778830707073212, 0.04740704223513603, 0.04743311181664467, 0.04607512801885605, 0.04633103683590889]","[0.0, -1.5707963267948966, 0.0, 0.0, 0.0, 0.0]","[0.0, -1.5707963267948966, 0.0, 0.0, 0.0, 0.0]",0.002,7,1
0,-1,"[-0.011311356221334279, -1.5819064579405726, -0.011176226660609245, -0.011351661091186571, -0.011317078267232716, -0.011286083851949513]","[0.06049659103155136, 0.06216847524046898, 0.06153208762407303, 0.06382280588150024, 0.06256614625453949, 0.06217367202043533]","[0.0, -1.5707963267948966, 0.0, 0.0, 0.0, 0.0]","[0.0, -1.5707963267948966, 0.0, 0.0, 0.0, 0.0]",0.002,7,1
0,-1,"[-0.010733429585592091, -1.5813948116698207, -0.010640524327754974, -0.010858134632446337, -0.010758225117818654, -0.010720554982320607]","[0.06901374459266663, 0.07000043243169785, 0.07258351892232895, 0.07506942003965378, 0.0699920728802681, 0.0720813050866127]","[0.0, -1.5707963267948966, 0.0, 0.0, 0.0, 0.0]","[0.0, -1.5707963267948966, 0.0, 0.0, 0.0, 0.0]",0.002,7,1
0,-1,"[-0.010223213826314748, -1.580832143823141, -0.010028895922005177, -0.010203198795654345, -0.010134045277730763, -0.01011974016298467]","[0.07704544812440872, 0.07673703134059906, 0.07774532586336136, 0.08204032480716705, 0.0794965997338295, 0.07665374875068665]","[0.0, -1.5707963267948966, 0.0, 0.0, 0.0, 0.0]","[0.0, -1.5707963267948966, 0.0, 0.0, 0.0, 0.0]",0.002,7,1
0,-1,"[-0.009096924458638966, -1.5797902546324671, -0.008971720933914185, -0.009185866718627977, -0.009084049855367482, -0.009040180836812794]","[0.0913788378238678, 0.0875263586640358, 0.08995583653450012, 0.0966864675283432, 0.09527917206287384, 0.09269985556602478]","[0.0, -1.5707963267948966, 0.0, 0.0, 0.0, 0.0]","[0.0, -1.5707963267948966, 0.0, 0.0, 0.0, 0.0]",0.002,7,1
0,-1,"[-0.008127991353170216, -1.5788423023619593, -0.008058532141149044, -0.008201078777648974, -0.008044068013326466, -0.00801116624941045]","[0.10165012627840042, 0.09768790751695633, 0.10023162513971329, 0.10303911566734314, 0.1016351506114006, 0.10029768198728561]","[0.0, -1.5707963267948966, 0.0, 0.0, 0.0, 0.0]","[0.0, -1.5707963267948966, 0.0, 0.0, 0.0, 0.0]",0.002,7,1
0,-1,"[-0.005852524434224904, -1.5766827068724574, -0.005860331933945417, -0.005912618046142626, -0.005844418202535451, -0.005768124257222951]","[0.11653557419776917, 0.07128135859966278, 0.09270656853914261, 0.10972357541322708, 0.1076989471912384, 0.10507789254188538]","[0.0, -1.5707963267948966, 0.0, 0.0, 0.0, 0.0]","[0.0, -1.5707963267948966, 0.0, 0.0, 0.0, 0.0]",0.002,7,1
0,-1,"[-0.004953686391012013, -1.5758034191527308, -0.004959495272487402, -0.004984692936279345, -0.004832092915670216, -0.00477010408510381]","[0.09704798460006714, 0.08726726472377777, 0.09562289714813232, 0.10042282938957214, 0.09834866225719452, 0.09690402448177338]","[0.0, -1.5707963267948966, 0.0, 0.0, 0.0, 0.0]","[0.0, -1.5707963267948966, 0.0, 0.0, 0.0, 0.0]",0.002,7,1
0,-1,"[-0.003697697316304982, -1.5744124851622523, -0.0036184086930006742, -0.0036663574031372548, -0.003453079854146779, -0.003522698079244435]","[0.08285635709762573, 0.08815363049507141, 0.086244136095047, 0.0865425169467926, 0.08284278959035873, 0.08363591879606247]","[0.0, -1.5707963267948966, 0.0, 0.0, 0.0, 0.0]","[0.0, -1.5707963267948966, 0.0, 0.0, 0.0, 0.0]",0.002,7,1
0,-1,"[-0.002346817647115529, -1.5729881725706996, -0.002300162333995104, -0.0022947353175659657, -0.002183262501851857, -0.002221409474508107]","[0.06820473074913025, 0.06774506717920303, 0.06596309691667557, 0.06790146231651306, 0.06508629024028778, 0.06411463022232056]","[0.0, -1.5707963267948966, 0.0, 0.0, 0.0, 0.0]","[0.0, -1.5707963267948966, 0.0, 0.0, 0.0, 0.0]",0.002,7,1
0,-1,"[-0.0015857855426233414, -1.5722810230650843, -0.001474196556955576, -0.0015149873546143056, -0.0014026800738733414, -0.0014570395099084976]","[0.055789560079574585, 0.0539899617433548, 0.05615204945206642, 0.05649208649992943, 0.05398941412568092, 0.0542011596262455]","[0.0, -1.5707963267948966, 0.0, 0.0, 0.0, 0.0]","[0.0, -1.5707963267948966, 0.0, 0.0, 0.0, 0.0]",0.002,7,1
0,-1,"[-0.0009992758380334976, -1.5717007122435511, -0.0009549988899379969, -0.0009697240642090321, -0.0008896032916467789, -0.0009272734271448257]","[0.045674487948417664, 0.040357742458581924, 0.04411499947309494, 0.0456024594604969, 0.04085196182131767, 0.04301825910806656]","[0.0, -1.5707963267948966, 0.0, 0.0, 0.0, 0.0]","[0.0, -1.5707963267948966, 0.0, 0.0, 0.0, 0.0]",0.002,7,1
0,-1,"[-0.0005520025836389664, -1.5713006458678187, -0.00048168053035624325, -0.0005421203425903798, -0.00042421022524052887, -0.0004671255694788101]","[0.03316699340939522, 0.02816937491297722, 0.03240180015563965, 0.03347079083323479, 0.03021358512341976, 0.030261294916272163]","[0.0, -1.5707963267948966, 0.0, 0.0, 0.0, 0.0]","[0.0, -1.5707963267948966, 0.0, 0.0, 0.0, 0.0]",0.002,7,1
0,-1,"[-0.00012809434999638825, -1.5710035763182582, -7.347174687311053e-05, -8.67408565063954e-05, -9.328523744756012e-05, -0.00010472932924443512]","[0.014621293172240257, 0.013084805570542812, 0.015070686116814613, 0.01553592924028635, 0.012669301591813564, 0.012309196405112743]","[0.0, -1.5707963267948966, 0.0, 0.0, 0.0, 0.0]","[0.0, -1.5707963267948966, 0.0, 0.0, 0.0, 0.0]",0.002,7,1
0,-1,"[-4.083315004521637e-05, -1.5708862743773402, -7.374727283604443e-05, -1.9268398620653215e-05, -2.557436098271637e-05, -8.5179005758107e-05]","[0.0011942401761189103, 0.0009611111599951982, 0.00010135343472938985, -0.0010574189946055412, -0.00517947506159544, 5.518659236258827e-05]","[0.0, -1.5707963267948966, 0.0, 0.0, 0.0, 0.0]","[0.0, -1.5707963267948966, 0.0, 0.0, 0.0, 0.0]",0.002,7,1
0,-1,"[-0.00010091463197881012, -1.5708385906615199, -0.0001010871710604988, -4.3110256530809465e-05, -7.325807680302887e-05, -0.00011855760683232575]","[-0.0018913769163191319, 0.00798251386731863, 0.001653493964113295, -0.0007670805207453668, -0.0002652911643963307, -0.00041728175710886717]","[0.0, -1.5707963267948966, 0.0, 0.0, 0.0, 0.0]","[0.0, -1.5707963267948966, 0.0, 0.0, 0.0, 0.0]",0.002,7,1
0,-1,"[-5.5615101949513246e-05, -1.5708924732603968, -7.486343383789062e-05, -4.2991047241258684e-05, -6.562868227177887e-05, -6.133714784795075e-05]","[-9.649549259952653e-15, -0.001297847949899733, -0.00172119727358222, 0.00013295453391037881, -2.0870116657079052e-07, 9.16315839276649e-05]","[0.0, -1.5707963267948966, 0.0, 0.0, 0.0, 0.0]","[0.0, -1.5707963267948966, 0.0, 0.0, 0.0, 0.0]",0.002,7,1
0,-1,"[-7.087389101201325e-05, -1.5710107288756312, -0.00012925594637636095, -7.183969531254775e-05, -5.704561342412262e-05, -0.00013047853578740387]","[0.0002721819619182497, -0.005288104526698589, -0.0010015791049227118, 0.0001843106874730438, -3.793043570204935e-12, 6.509374361485243e-05]","[0.0, -1.5707963267948966, 0.0, 0.0, 0.0, 0.0]","[0.0, -1.5707963267948966, 0.0, 0.0, 0.0, 0.0]",0.002,7,1
0,-1,"[-4.4171010152638246e-05, -1.571000715295309, -0.00013946295075584203, -7.648885760502822e-05, -8.613268007451325e-05, -7.611909975224762e-05]","[0.000132144516101107, -0.0027237345930188894, -0.0009379045222885907, 0.00022720839479006827, 0.0007044636877253652, 0.00013605285494122654]","[0.0, -1.5707963267948966, 0.0, 0.0, 0.0, 0.0]","[0.0, -1.5707963267948966, 0.0, 0.0, 0.0, 0.0]",0.002,7,1
0,-1,"[-0.00012475648988896637, -1.5709911785521449, -6.578218744834885e-05, -7.2793369628954e-05, -5.799928774052887e-05, -4.750887026006012e-05]","[5.353178130462766e-05, -1.4444493672272074e-06, -0.0002855734492186457, 0.0006348044262267649, 0.0011198550928384066, 0.0005981912254355848]","[0.0, -1.5707963267948966, 0.0, 0.0, 0.0, 0.0]","[0.0, -1.5707963267948966, 0.0, 0.0, 0.0, 0.0]",0.002,7,1
0,-1,"[-8.565584291631012e-05, -1.5709387264647425, -6.113767449278384e-05, -5.205095324711806e-05, -8.885060445606996e-06, -3.987947572881012e-05]","[3.94510971091222e-05, 0.0014437447534874082, -0.00012896087719127536, 0.0005592039087787271, 0.0007779871812090278, 0.0005176018457859755]","[0.0, -1.5707963267948966, 0.0, 0.0, 0.0, 0.0]","[0.0, -1.5707963267948966, 0.0, 0.0, 0.0, 0.0]",0.002,7,1
0,-1,"[-6.372133363896637e-05, -1.5709144077696742, -0.00010778653813758865, -4.454076800541884e-05, -2.9865895406544496e-05, -0.00010329881776982575]","[3.123547867289744e-05, 0.0025436822324991226, 7.01688404660672e-05, 0.0011298561003059149, 0.0008916645310819149, 0.0005383872194215655]","[0.0, -1.5707963267948966, 0.0, 0.0, 0.0, 0.0]","[0.0, -1.5707963267948966, 0.0, 0.0, 0.0, 0.0]",0.002,7,1
0,-1,"[-0.0001023451434534195, -1.5709134540953578, -7.03002224327065e-05, -8.531034503178603e-05, -2.557436098271637e-05, -0.0001061598407190445]","[5.170411168364808e-05, 0.0008246238576248288, 5.7048629969358444e-05, 0.0005411392194218934, 0.0007841354236006737, 0.0005971168866381049]","[0.0, -1.5707963267948966, 0.0, 0.0, 0.0, 0.0]","[0.0, -1.5707963267948966, 0.0, 0.0, 0.0, 0.0]",0.002,7,1
0,-1,"[-7.230440248662262e-05, -1.5709387264647425, -5.842447353643365e-05, 2.1024341247510847e-05, -8.279481996709137e-05, -4.464784731084137e-05]","[0.00017513602506369352, 7.378914597211406e-05, 2.4005510567803867e-05, 0.0003770073817577213, 0.001017400179989636, 0.0005676216096617281]","[0.0, -1.5707963267948966, 0.0, 0.0, 0.0, 0.0]","[0.0, -1.5707963267948966, 0.0, 0.0, 0.0, 0.0]",0.002,7,1
0,-1,"[-6.467500795537262e-05, -1.5710121593871058, -6.578218744834885e-05, 1.3514156005811628e-05, -1.732503072560121e-06, -2.843538393193512e-05]","[0.0005587353953160346, 2.96253025908709e-14, 2.0664881958509795e-05, 0.0002656703582033515, 0.000757839938160032, 0.0006033485988155007]","[0.0, -1.5707963267948966, 0.0, 0.0, 0.0, 0.0]","[0.0, -1.5707963267948966, 0.0, 0.0, 0.0, 0.0]",0.002,7,1
0,-1,"[-4.5124684469044496e-05, -1.5710107288756312, -8.953368524089456e-05, -1.6168957092332903e-05, -3.701845277959137e-05, -3.7495289937794496e-05]","[0.0004812032275367528, -0.0002808780409395695, 1.8536798961577006e-05, 0.0002481151313986629, 0.0007032187422737479, 0.0006333236815407872]","[0.0, -1.5707963267948966, 0.0, 0.0, 0.0, 0.0]","[0.0, -1.5707963267948966, 0.0, 0.0, 0.0, 0.0]",0.002,7,1
0,-1,"[-0.000115696583883107, -1.570970197717184, -0.00011112139327451587, 2.5435084960889753e-05, -1.732503072560121e-06, -2.9865895406544496e-05]","[0.00042186398059129715, -1.9367629278121967e-08, 1.7125867088907398e-05, 0.00021481346630025655, 0.0007784731569699943, 0.0005471230251714587]","[0.0, -1.5707963267948966, 0.0, 0.0, 0.0, 0.0]","[0.0, -1.5707963267948966, 0.0, 0.0, 0.0, 0.0]",0.002,7,1
0,-1,"[-6.467500795537262e-05, -1.5708729229369105, -0.00011230456584598869, -4.454076800541884e-05, 1.0912895049841609e-05, 1.2554645763884764e-05]","[0.000276285718427971, 0.0013443618081510067, 7.18891024007462e-05, 0.00018784916028380394, 0.0003931904793716967, 0.00042420896352268755]","[0.0, -1.5707963267948966, 0.0, 0.0, 0.0, 0.0]","[0.0, -1.5707963267948966, 0.0, 0.0, 0.0, 0.0]",0.002,7,1
0,-1,"[-9.042421449834137e-05, -1.570902486840719, -9.1824411356356e-05, 3.8071269653272566e-05, 3.574418951757252e-05, -1.3653432027638246e-05]","[0.0005128175835125148, 0.0022084373049438, 8.698760211700574e-05, 0.00011989408812951297, 0.00031590997241437435, 0.0003341665433254093]","[0.0, -1.5707963267948966, 0.0, 0.0, 0.0, 0.0]","[0.0, -1.5707963267948966, 0.0, 0.0, 0.0, 0.0]",0.002,7,1
0,-1,"[-5.7522450582325746e-05, -1.570911546746725, -0.00012022948067169636, -4.248028137254778e-06, 8.904527931008488e-05, -1.3653432027638246e-05]","[0.00044069672003388405, 0.0008667827933095396, 0.00025255855871364474, 0.00010205357830272987, 0.00024283290258608758, 0.0002534757659304887]","[0.0, -1.5707963267948966, 0.0, 0.0, 0.0, 0.0]","[0.0, -1.5707963267948966, 0.0, 0.0, 0.0, 0.0]",0.002,7,1
0,-1,"[3.814697265625e-06, -1.570874353448385, -7.486343383789062e-05, 1.649438824458116e-05, -3.415742983037262e-05, 0.0]","[0.0011608436470851302, 0.00025340565480291843, 0.00017429514264222234, 0.00010365749039920047, 0.00021210919658187777, 0.0002191409730585292]","[0.0, -1.5707963267948966, 0.0, 0.0, 0.0, 0.0]","[0.0, -1.5707963267948966, 0.0, 0.0, 0.0, 0.0]",0.002,7,1
0,-1,"[3.814697265625e-06, -1.5708729229369105, -8.398985664825886e-05, -2.8089886047411028e-05, -1.7468129293263246e-05, -3.892580141240387e-05]","[0.0008030607714317739, 0.00010588430450297892, 0.0001414276339346543, 9.295140625908971e-05, 0.00018024766177404672, 0.0001452545984648168]","[0.0, -1.5707963267948966, 0.0, 0.0, 0.0, 0.0]","[0.0, -1.5707963267948966, 0.0, 0.0, 0.0, 0.0]",0.002,7,1
0,-1,"[-5.070363179981996e-06, -1.5708567104735316, -7.03002224327065e-05, 1.6271557612412835e-07, -6.705919374638825e-05, -2.080598940068512e-05]","[0.0013593307230621576, 8.571396028855816e-05, 0.00012563350901473314, 0.00010145350825041533, 0.00011377024929970503, 0.00012391345808282495]","[0.0, -1.5707963267948966, 0.0, 0.0, 0.0, 0.0]","[0.0, -1.5707963267948966, 0.0, 0.0, 0.0, 0.0]",0.002,7,1
0,-1,"[-4.2263661519825746e-05, -1.5709225140013636, -7.359860319411382e-05, -2.367914233403212e-05, -1.732503072560121e-06, -2.080598940068512e-05]","[0.0003631850122474134, 0.0010240342235192657, 0.00012912529928144068, 9.251804294763133e-05, 9.812053031055257e-05, 0.00010634255886543542]","[0.0, -1.5707963267948966, 0.0, 0.0, 0.0, 0.0]","[0.0, -1.5707963267948966, 0.0, 0.0, 0.0, 0.0]",0.002,7,1
0,-1,"[-3.7495289937794496e-05, -1.5708667240538539, -3.7295816582627594e-05, 1.649438824458116e-05, -1.7468129293263246e-05, -1.1746083394825746e-05]","[-1.627008076876546e-11, 0.0014045402640476823, 0.00014891514729242772, 8.502636774210259e-05, 0.00010410255345050246, 0.00011175277904840186]","[0.0, -1.5707963267948966, 0.0, 0.0, 0.0, 0.0]","[0.0, -1.5707963267948966, 0.0, 0.0, 0.0, 0.0]",0.002,7,1
0,-1,"[-3.7495289937794496e-05, -1.5708428821959437, -4.1895153117366135e-05, -7.34746966557509e-06, 2.384185791015625e-06, -5.3707753316700746e-05]","[-9.488194300412523e-23, 0.001577188028022647, 0.0005823548417538404, 7.865692168707028e-05, 9.332527406513691e-05, 9.941754979081452e-05]","[0.0, -1.5707963267948966, 0.0, 0.0, 0.0, 0.0]","[0.0, -1.5707963267948966, 0.0, 0.0, 0.0, 0.0]",0.002,7,1
0,-1,"[-4.2263661519825746e-05, -1.5708428821959437, -7.939338684082031e-05, 7.434482238721785e-06, -1.732503072560121e-06, 4.543256727629341e-05]","[-5.533213539793745e-34, 0.0006106304936110973, 0.0003773197822738439, 8.362874359590933e-05, 9.86494414974004e-05, 0.0001044447926688008]","[0.0, -1.5707963267948966, 0.0, 0.0, 0.0, 0.0]","[0.0, -1.5707963267948966, 0.0, 0.0, 0.0, 0.0]",0.002,7,1
0,-1,"[-3.034273256474762e-05, -1.5708590946593226, -7.486343383789062e-05, 4.0813083312940535e-05, -3.8448964254200746e-05, 0.0]","[0.0, -1.1187230002508534e-15, 0.0002801717782858759, 3.6908615053121707e-10, 9.799899271456525e-05, 9.088742808671668e-05]","[0.0, -1.5707963267948966, 0.0, 0.0, 0.0, 0.0]","[0.0, -1.5707963267948966, 0.0, 0.0, 0.0, 0.0]",0.002,7,1
0,-1,"[-5.418459047490387e-05, -1.570871492425436, -2.26165047934046e-05, 7.434482238721785e-06, 1.399382199451793e-05, 3.328842694827472e-06]","[0.0, -6.524036071689252e-27, 0.00025275087682530284, 2.859711608361586e-17, 9.129843965638429e-05, 8.364708628505468e-05]","[0.0, -1.5707963267948966, 0.0, 0.0, 0.0, 0.0]","[0.0, -1.5707963267948966, 0.0, 0.0, 0.0, 0.0]",0.002,7,1
0,-1,"[5.1852701290044934e-05, -1.5707805913737793, -8.398985664825886e-05, 3.7952060363721785e-05, 3.8886071706656367e-05, -8.885060445606996e-06]","[0.0, -9.248569864543793e-44, 0.00020415184553712606, 6.167568683474032e-28, 9.098722512135282e-05, 8.530070044798777e-05]","[0.0, -1.5707963267948966, 0.0, 0.0, 0.0, 0.0]","[0.0, -1.5707963267948966, 0.0, 0.0, 0.0, 0.0]",0.002,7,1
0,-1,"[-1.8421803609669496e-05, -1.5707848829082032, -3.45826156262774e-05, 3.7952060363721785e-05, 6.463069894380169e-06, -2.557436098271637e-05]","[0.0, 0.0, 0.0005427882424555719, 2.0372301282108483e-37, 7.831861876184121e-05, 6.704528914269758e-07]","[0.0, -1.5707963267948966, 0.0, 0.0, 0.0, 0.0]","[0.0, -1.5707963267948966, 0.0, 0.0, 0.0, 0.0]",0.002,7,1
0,-1,"[-3.034273256474762e-05, -1.5708428821959437, -5.700709152733907e-06, 7.434482238721785e-06, 4.771327803609893e-05, -1.3653432027638246e-05]","[0.0, 0.0, 0.0005493478965945542, 3.702230542746167e-42, 7.322097371798009e-05, 1.2185160866429179e-11]","[0.0, -1.5707963267948966, 0.0, 0.0, 0.0, 0.0]","[0.0, -1.5707963267948966, 0.0, 0.0, 0.0, 0.0]",0.002,7,1
0,-1,"[-1.2222920553028871e-05, -1.570834299127096, -1.0263918738928623e-05, -3.703058276371962e-05, -7.56422625940445e-05, 2.4385213691857643e-05]","[0.0, 0.0, 0.0004977399948984385, 0.0, 6.670848961221054e-05, 9.441168610029647e-19]","[0.0, -1.5707963267948966, 0.0, 0.0, 0.0, 0.0]","[0.0, -1.5707963267948966, 0.0, 0.0, 0.0, 0.0]",0.002,7,1
0,-1,"[1.8978120351675898e-05, -1.5708371601500453, -4.366385837784037e-05, 1.649438824458116e-05, 2.716159724514e-05, -1.794496645146637e-05]","[0.0, 0.0, 0.0004186895093880594, 0.0, 6.125980871729553e-05, 7.31510101113862e-26]","[0.0, -1.5707963267948966, 0.0, 0.0, 0.0, 0.0]","[0.0, -1.5707963267948966, 0.0, 0.0, 0.0, 0.0]",0.002,7,1
0,-1,"[3.9976119296625257e-05, -1.5708385906615199, -5.842447353643365e-05, 1.649438824458116e-05, 5.202865577302873e-05, 1.2554645763884764e-05]","[0.0, 0.0, 0.00040592101868242025, 0.0, 5.663393676513806e-05, 5.667803969543051e-33]","[0.0, -1.5707963267948966, 0.0, 0.0, 0.0, 0.0]","[0.0, -1.5707963267948966, 0.0, 0.0, 0.0, 0.0]",0.002,7,1
0,-1,"[-2.1282826558888246e-05, -1.5708142719664515, -3.169774936395697e-05, 1.2083644531202253e-05, -1.0315571920216371e-05, 1.976780367840547e-05]","[0.0, 0.0, 0.0006795909139327705, 0.0, 5.2657793276011944e-05, 4.067104237037711e-05]","[0.0, -1.5707963267948966, 0.0, 0.0, 0.0, 0.0]","[0.0, -1.5707963267948966, 0.0, 0.0, 0.0, 0.0]",0.002,7,1
0,-1,"[-5.070363179981996e-06, -1.5708099804320277, -6.911806121934205e-05, 1.2083644531202253e-05, 1.5242118024616502e-05, -1.3653432027638246e-05]","[0.0, 0.0, 4.142667745814597e-18, 0.0, 5.903324357126039e-11, 1.3136688189075568e-14]","[0.0, -1.5707963267948966, 0.0, 0.0, 0.0, 0.0]","[0.0, -1.5707963267948966, 0.0, 0.0, 0.0, 0.0]",0.002,7,1
0,-1,"[-5.070363179981996e-06, -1.5708261928954066, -2.263762871734798e-05, -2.069891009526259e-05, 2.384185791015625e-06, 3.3471199003543006e-06]","[0.0, 0.00021805326105095446, 2.5223372357846707e-44, 0.0, 1.5108362856998965e-27, 3.3620673629139597e-31]","[0.0, -1.5707963267948966, 0.0, 0.0, 0.0, 0.0]","[0.0, -1.5707963267948966, 0.0, 0.0, 0.0, 0.0]",0.002,7,1
0,-1,"[-3.0199159795074593e-07, -1.5708710155882777, -1.0293918421666604e-05, 7.434482238721785e-06, -3.511110414677887e-05, 3.169774936395697e-05]","[0.0, 0.00015713556786067784, -0.0, 0.0, 4.990493322498161e-37, 1.1105290329774175e-40]","[0.0, -1.5707963267948966, 0.0, 0.0, 0.0, 0.0]","[0.0, -1.5707963267948966, 0.0, 0.0, 0.0, 0.0]",0.002,7,1
0,-1,"[-4.655519594365387e-05, -1.5708462200560511, 1.794496645146637e-05, 7.434482238721785e-06, -6.324449648076325e-05, 2.9057635401841253e-05]","[0.0, 0.00013377836148720235, -0.0, 0.0, 5.927492504093976e-43, 0.0]","[0.0, -1.5707963267948966, 0.0, 0.0, 0.0, 0.0]","[0.0, -1.5707963267948966, 0.0, 0.0, 0.0, 0.0]",0.002,7,1
0,-1,"[-3.4634266988575746e-05, -1.5708261928954066, -2.7179718017578125e-05, -2.5228863098192278e-05, -1.9375477926075746e-05, -2.9865895406544496e-05]","[0.0, 0.00011443968105595559, -0.0, 0.0, 0.0, 5.252706714031774e-09]","[0.0, -1.5707963267948966, 0.0, 0.0, 0.0, 0.0]","[0.0, -1.5707963267948966, 0.0, 0.0, 0.0, 0.0]",0.002,7,1
0,-1,"[1.4543533325195312e-05, -1.5708595714964808, -4.0770093619357795e-05, -4.248028137254778e-06, -8.279481996709137e-05, -3.2726918355763246e-05]","[0.0, 9.252052404917777e-05, -0.0, 0.0, 0.0, 1.1328568068689028e-19]","[0.0, -1.5707963267948966, 0.0, 0.0, 0.0, 0.0]","[0.0, -1.5707963267948966, 0.0, 0.0, 0.0, 0.0]",0.002,7,1
0,-1,"[-9.361897603810121e-06, -1.5708142719664515, -4.818188972421922e-05, 1.649438824458116e-05, 4.339790393714793e-05, -3.4634266988575746e-05]","[0.0, 7.184178684838116e-05, -0.0, 0.0, 0.0, 2.8993172839919354e-36]","[0.0, -1.5707963267948966, 0.0, 0.0, 0.0, 0.0]","[0.0, -1.5707963267948966, 0.0, 0.0, 0.0, 0.0]",0.002,7,1
0,1,"[-5.070363179981996e-06, -1.5708219013609828, 4.369417299443512e-05, 3.0237385253428783e-06, -5.418459047490387e-05, 3.3286003144894494e-06]","[0.0, 7.644662400707603e-05, -0.0, 0.0, 0.0, 1.401298464324817e-45]","[0.04418479434657463, -1.5266115324483218, 0.04418479434657463, 0.04418479434657463, 0.04418479434657463, 0.04418479434657463]","[0.04418479434657463, -1.5266115324483218, 0.04418479434657463, 0.04418479434657463, 0.04418479434657463, 0.04418479434657463]",0.002,7,1
0,2,"[-4.5124684469044496e-05, -1.5707401557559315, 5.0846730367481996e-05, 2.1024341247510847e-05, 8.794355380814523e-05, 0.00010087842383654788]","[0.021823700517416, 0.09792723506689072, 0.0653584823012352, 0.03506133705377579, 0.03297296538949013, 0.03388045355677605]","[0.04461996713404648, -1.52617635966085, 0.04461996713404648, 0.04461996713404648, 0.04461996713404648, 0.04461996713404648]","[0.04461996713404648, -1.52617635966085, 0.04461996713404648, 0.04461996713404648, 0.04461996713404648, 0.04461996713404648]",0.002,7,1
0,3,"[5.637955473503098e-05, -1.57053183709316, 0.00013524690736943512, 0.00014130651440424913, 0.0001766655477695167, 0.00018002986325882375]","[0.029764844104647636, 0.11722744256258011, 0.08102413266897202, 0.05286555364727974, 0.05172736942768097, 0.054356276988983154]","[0.045055069432306895, -1.5257412573625897, 0.045055069432306895, 0.045055069432306895, 0.045055069432306895, 0.045055069432306895]","[0.045055069432306895, -1.5257412573625897, 0.045055069432306895, 0.045055069432306895, 0.045055069432306895, 0.045055069432306895]",0.002,7,1
0,4,"[0.00022307594190351665, -1.5704445370104914, 0.0002687613116663101, 0.00019399702038569444, 0.0002476723166182637, 0.0002925669541582465]","[0.03322118893265724, 0.11092560738325119, 0.07670686393976212, 0.05714336782693863, 0.05840931832790375, 0.06098170951008797]","[0.045490100553995036, -1.5253062262409016, 0.045490100553995036, 0.045490100553995036, 0.045490100553995036, 0.045490100553995036]","[0.045490100553995036, -1.5253062262409016, 0.045490100553995036, 0.045490100553995036, 0.045490100553995036, 0.045490100553995036]",0.002,7,1
0,5,"[0.0002560913562774658, -1.5702304325862606, 0.0004914442645471695, 0.00028352319683833116, 0.00039187955553643405, 0.00043828628258779645]","[0.044239629060029984, 0.10500454902648926, 0.07787474244832993, 0.05790356546640396, 0.06054220721125603, 0.06123307719826698]","[0.04592505981186254, -1.524871266983034, 0.04592505981186254, 0.04592505981186254, 0.04592505981186254, 0.04592505981186254]","[0.04592505981186254, -1.524871266983034, 0.04592505981186254, 0.04592505981186254, 0.04592505981186254, 0.04592505981186254]",0.002,7,1
0,6,"[0.0004089616413693875, -1.5699830012493585, 0.000645939503804982, 0.0005027490803222179, 0.00051668263040483, 0.0005716431769542396]","[0.05478439852595329, 0.11128246784210205, 0.08578308671712875, 0.06340111792087555, 0.0641944408416748, 0.06308643519878387]","[0.0463599465187745, -1.524436380276122, 0.0463599465187745, 0.0463599465187745, 0.0463599465187745, 0.0463599465187745]","[0.0463599465187745, -1.524436380276122, 0.0463599465187745, 0.0463599465187745, 0.0463599465187745, 0.0463599465187745]",0.002,7,1
0,7,"[0.0005710389232262969, -1.5697743954700236, 0.000859562550679982, 0.0006968218037108898, 0.0006245999247767031, 0.000673508970066905]","[0.0709727481007576, 0.11025447398424149, 0.0906481221318245, 0.07011108845472336, 0.06927192211151123, 0.06903602182865143]","[0.0467947599877107, -1.5240015668071858, 0.0467947599877107, 0.0467947599877107, 0.0467947599877107, 0.0467947599877107]","[0.0467947599877107, -1.5240015668071858, 0.0467947599877107, 0.0467947599877107, 0.0467947599877107, 0.0467947599877107]",0.002,7,1
0,8,"[0.0007345245103351772, -1.56961680893831, 0.0009840170489709976, 0.0008304554172973155, 0.0008181669400073588, 0.0008522234275005758]","[0.08089351654052734, 0.09783434867858887, 0.0828142762184143, 0.0797487199306488, 0.07641100883483887, 0.07761091738939285]","[0.047229499531766576, -1.52356682726313, 0.047229499531766576, 0.047229499531766576, 0.047229499531766576, 0.047229499531766576]","[0.047229499531766576, -1.52356682726313, 0.047229499531766576, 0.047229499531766576, 0.047229499531766576, 0.047229499531766576]",0.002,7,1
0,9,"[0.0009265479748137295, -1.5694159012385462, 0.0011923948871057632, 0.0010028320499877452, 0.0009043694008141756, 0.0009763510315679014]","[0.09345873445272446, 0.06332921236753464, 0.0822291150689125, 0.08479022979736328, 0.08393347263336182, 0.08203644305467606]","[0.047664164464154356, -1.5231321623307421, 0.047664164464154356, 0.047664164464154356, 0.047664164464154356, 0.047664164464154356]","[0.047664164464154356, -1.5231321623307421, 0.047664164464154356, 0.047664164464154356, 0.047664164464154356, 0.047664164464154356]",0.002,7,1
0,10,"[0.0010945138055831194, -1.5693165522864838, 0.0013878981219690445, 0.0012475687214354991, 0.001200636732392013, 0.0011669653467833996]","[0.10081697255373001, 0.07365211844444275, 0.0943121388554573, 0.09397371858358383, 0.09154774993658066, 0.09052233397960663]","[0.048098754098204126, -1.5226975726966925, 0.048098754098204126, 0.048098754098204126, 0.048098754098204126, 0.048098754098204126]","[0.048098754098204126, -1.5226975726966925, 0.048098754098204126, 0.048098754098204126, 0.048098754098204126, 0.048098754098204126]",0.002,7,1
0,11,"[0.0012445830507203937, -1.5691833611675357, 0.0015848318683069351, 0.0013866859623412608, 0.0013473386643454432, 0.0013679593103006482]","[0.10628968477249146, 0.09985186904668808, 0.10908260196447372, 0.10210994631052017, 0.09927452355623245, 0.09923909604549408]","[0.048533267747364967, -1.5222630590475317, 0.048533267747364967, 0.048533267747364967, 0.048533267747364967, 0.048533267747364967]","[0.048533267747364967, -1.5222630590475317, 0.048533267747364967, 0.048533267747364967, 0.048533267747364967, 0.048533267747364967]",0.002,7,1
0,12,"[0.0015203652437776327, -1.5689674162170668, 0.0017078558551233414, 0.0015572744556884288, 0.0016255640657618642, 0.0015960525488480926]","[0.11149992793798447, 0.10652519762516022, 0.10758490860462189, 0.10545314103364944, 0.10782154649496078, 0.10712496191263199]","[0.048967704725205966, -1.5218286220696906, 0.048967704725205966, 0.048967704725205966, 0.048967704725205966, 0.048967704725205966]","[0.048967704725205966, -1.5218286220696906, 0.048967704725205966, 0.048967704725205966, 0.048967704725205966, 0.048967704725205966]",0.002,7,1
0,13,"[0.0016735863173380494, -1.5687546402080734, 0.0019210020648401382, 0.0017868715473632335, 0.0018205163069069386, 0.0017789704725146294]","[0.11872772872447968, 0.10928614437580109, 0.11054331809282303, 0.11100352555513382, 0.11827113479375839, 0.1166384220123291]","[0.049402064345417336, -1.5213942624494792, 0.049402064345417336, 0.049402064345417336, 0.049402064345417336, 0.049402064345417336]","[0.049402064345417336, -1.5213942624494792, 0.049402064345417336, 0.049402064345417336, 0.049402064345417336, 0.049402064345417336]",0.002,7,1
0,14,"[0.0019718618132174015, -1.5685462332661082, 0.0021689573871057632, 0.0020516353794555187, 0.002118305768817663, 0.0020942450501024723]","[0.1267201453447342, 0.11496943235397339, 0.1187242940068245, 0.11781410127878189, 0.12168005108833313, 0.12203507125377655]","[0.04983634592181149, -1.5209599808730851, 0.04983634592181149, 0.04983634592181149, 0.04983634592181149, 0.04983634592181149]","[0.04983634592181149, -1.5209599808730851, 0.04983634592181149, 0.04983634592181149, 0.04983634592181149, 0.04983634592181149]",0.002,7,1
0,15,"[0.0023420953657478094, -1.5683269263575603, 0.0024784247027795914, 0.002270980472228956, 0.002313205972313881, 0.0023229627404361963]","[0.13349294662475586, 0.12241871654987335, 0.129062220454216, 0.12546703219413757, 0.1330515444278717, 0.1300053894519806]","[0.05027054876832418, -1.5205257780265724, 0.05027054876832418, 0.05027054876832418, 0.05027054876832418, 0.05027054876832418]","[0.05027054876832418, -1.5205257780265724, 0.05027054876832418, 0.05027054876832418, 0.05027054876832418, 0.05027054876832418]",0.002,7,1
0,16,"[0.002600381849333644, -1.5680499975899984, 0.0027797857867639664, 0.0025766330906371593, 0.0026387260295450687, 0.002607987727969885]","[0.14268870651721954, 0.13464996218681335, 0.13910599052906036, 0.13541154563426971, 0.13915908336639404, 0.1372830867767334]","[0.05070467219901544, -1.5200916545958811, 0.05070467219901544, 0.05070467219901544, 0.05070467219901544, 0.05070467219901544]","[0.05070467219901544, -1.5200916545958811, 0.05070467219901544, 0.05070467219901544, 0.05070467219901544, 0.05070467219901544]",0.002,7,1
0,17,"[0.002862934023141861, -1.567773623890691, 0.00303823152651006, 0.002909107799194288, 0.0028780894353985786, 0.002921689534559846]","[0.15701594948768616, 0.13758458197116852, 0.15069131553173065, 0.1471269130706787, 0.1468220353126526, 0.1456349939107895]","[0.051138715528070866, -1.5196576112668256, 0.051138715528070866, 0.051138715528070866, 0.051138715528070866, 0.051138715528070866]","[0.051138715528070866, -1.5196576112668256, 0.051138715528070866, 0.051138715528070866, 0.051138715528070866, 0.051138715528070866]",0.002,7,1
0,18,"[0.0031988215632736683, -1.5674487206018348, 0.003388230000631154, 0.003179593677185011, 0.003184370929375291, 0.0032047731801867485]","[0.16261863708496094, 0.14780297875404358, 0.15608859062194824, 0.15485598146915436, 0.15421731770038605, 0.15393586456775665]","[0.051572678069802536, -1.519223648725094, 0.051572678069802536, 0.051572678069802536, 0.051572678069802536, 0.051572678069802536]","[0.051572678069802536, -1.519223648725094, 0.051572678069802536, 0.051572678069802536, 0.051572678069802536, 0.051572678069802536]",0.002,7,1
0,19,"[0.0035856629256159067, -1.5671279500569035, 0.0036390463458459976, 0.003536029452941847, 0.0035895395558327436, 0.0035783187486231327]","[0.17069903016090393, 0.15492600202560425, 0.1628115177154541, 0.16236206889152527, 0.15986087918281555, 0.16193507611751556]","[0.05200655913865015, -1.5187897676562465, 0.05200655913865015, 0.05200655913865015, 0.05200655913865015, 0.05200655913865015]","[0.05200655913865015, -1.5187897676562465, 0.05200655913865015, 0.05200655913865015, 0.05200655913865015, 0.05200655913865015]",0.002,7,1
0,20,"[0.003921713680028915, -1.5668605564026912, 0.004033867512838185, 0.0038278537937621593, 0.003930937964469194, 0.0039051722269505262]","[0.17673231661319733, 0.1612587571144104, 0.16827592253684998, 0.1698903739452362, 0.16841869056224823, 0.16921992599964142]","[0.05244035804918214, -1.5183559687457144, 0.05244035804918214, 0.05244035804918214, 0.05244035804918214, 0.05244035804918214]","[0.05244035804918214, -1.5183559687457144, 0.05244035804918214, 0.05244035804918214, 0.05244035804918214, 0.05244035804918214]",0.002,7,1
0,21,"[0.0043025994673371315, -1.5665249724737187, 0.004354302083150685, 0.004135294551513624, 0.0042837923392653465, 0.004266412928700447]","[0.18496491014957428, 0.1686311513185501, 0.17184828221797943, 0.17338334023952484, 0.17932812869548798, 0.17638470232486725]","[0.05287407411609672, -1.5179222526787999, 0.05287407411609672, 0.05287407411609672, 0.05287407411609672, 0.05287407411609672]","[0.05287407411609672, -1.5179222526787999, 0.05287407411609672, 0.05287407411609672, 0.05287407411609672, 0.05287407411609672]",0.002,7,1
0,22,"[0.0047315675765275955, -1.5661929899691422, 0.0047639052020471695, 0.004565520877502394, 0.00465333741158247, 0.0046051242388784885]","[0.18974515795707703, 0.17550647258758545, 0.18122117221355438, 0.18019893765449524, 0.1860802173614502, 0.18501883745193481]","[0.05330770665422299, -1.5174886201406736, 0.05330770665422299, 0.05330770665422299, 0.05330770665422299, 0.05330770665422299]","[0.05330770665422299, -1.5174886201406736, 0.05330770665422299, 0.05330770665422299, 0.05330770665422299, 0.05330770665422299]",0.002,7,1
0,23,"[0.005184490699321032, -1.5658332209898909, 0.00514394441713506, 0.0049443679996947765, 0.004992282018065453, 0.004984758794307709]","[0.1982210874557495, 0.18454499542713165, 0.19013343751430511, 0.19131040573120117, 0.19282212853431702, 0.19354553520679474]","[0.05374125497852198, -1.5170550718163747, 0.05374125497852198, 0.05374125497852198, 0.05374125497852198, 0.05374125497852198]","[0.05374125497852198, -1.5170550718163747, 0.05374125497852198, 0.05374125497852198, 0.05374125497852198, 0.05374125497852198]",0.002,7,1
0,24,"[0.005567416548728943, -1.5654402913390477, 0.005537335072652638, 0.00545458375897212, 0.005418278742581606, 0.005410619545727968]","[0.20835232734680176, 0.19389426708221436, 0.19850441813468933, 0.20309880375862122, 0.2014094591140747, 0.20175233483314514]","[0.05417471840408779, -1.5166216083908088, 0.05417471840408779, 0.05417471840408779, 0.05417471840408779, 0.05417471840408779]","[0.05417471840408779, -1.5166216083908088, 0.05417471840408779, 0.05417471840408779, 0.05417471840408779, 0.05417471840408779]",0.002,7,1
0,25,"[0.005951345432549715, -1.5650982039845367, 0.005975071583883107, 0.005885167712829542, 0.005850692745298147, 0.0058096121065318584]","[0.21541447937488556, 0.2018490433692932, 0.20809638500213623, 0.2147066444158554, 0.2057057023048401, 0.21050286293029785]","[0.05460809624614861, -1.516188230548748, 0.05460809624614861, 0.05460809624614861, 0.05460809624614861, 0.05460809624614861]","[0.05460809624614861, -1.516188230548748, 0.05460809624614861, 0.05460809624614861, 0.05460809624614861, 0.05460809624614861]",0.002,7,1
0,26,"[0.006428836844861507, -1.5646201263046642, 0.00639516512026006, 0.006282849902770948, 0.006256511900573969, 0.006259829271584749]","[0.22163626551628113, 0.2114286571741104, 0.21600216627120972, 0.22027423977851868, 0.2124304324388504, 0.21626557409763336]","[0.05504138782006785, -1.5157549389748286, 0.05504138782006785, 0.05504138782006785, 0.05504138782006785, 0.05504138782006785]","[0.05504138782006785, -1.5157549389748286, 0.05504138782006785, 0.05504138782006785, 0.05504138782006785, 0.05504138782006785]",0.002,7,1
0,27,"[0.006856423337012529, -1.5641957654482503, 0.006855789815084279, 0.006748958224914503, 0.006724576931446791, 0.006729385815560818]","[0.2269127368927002, 0.21765603125095367, 0.2248198240995407, 0.22512030601501465, 0.22312608361244202, 0.2241176962852478]","[0.055474592441345186, -1.5153217343535514, 0.055474592441345186, 0.055474592441345186, 0.055474592441345186, 0.055474592441345186]","[0.055474592441345186, -1.5153217343535514, 0.055474592441345186, 0.055474592441345186, 0.055474592441345186, 0.055474592441345186]",0.002,7,1
0,28,"[0.007298532873392105, -1.5637594217299302, 0.007291142140523732, 0.007216377849243116, 0.007173378020524979, 0.007138640154153109]","[0.23420940339565277, 0.22445927560329437, 0.23072977364063263, 0.2287614643573761, 0.22902455925941467, 0.23118501901626587]","[0.0559077094256177, -1.5148886173692788, 0.0559077094256177, 0.0559077094256177, 0.0559077094256177, 0.0559077094256177]","[0.0559077094256177, -1.5148886173692788, 0.0559077094256177, 0.0559077094256177, 0.0559077094256177, 0.0559077094256177]",0.002,7,1
0,29,"[0.00786530040204525, -1.5633120865425845, 0.007777992879049123, 0.007726235980651808, 0.007732936646789312, 0.007619974669069052]","[0.24126750230789185, 0.23460982739925385, 0.23945927619934082, 0.23516656458377838, 0.23541294038295746, 0.23938515782356262]","[0.05634073808866088, -1.5144555887062356, 0.05634073808866088, 0.05634073808866088, 0.05634073808866088, 0.05634073808866088]","[0.05634073808866088, -1.5144555887062356, 0.05634073808866088, 0.05634073808866088, 0.05634073808866088, 0.05634073808866088]",0.002,7,1
0,30,"[0.008296034298837185, -1.5627995750731607, 0.008284870778219044, 0.008137984866760206, 0.008201448246836662, 0.00810368824750185]","[0.24675342440605164, 0.24261777102947235, 0.24393557012081146, 0.24333807826042175, 0.24456124007701874, 0.2456878125667572]","[0.05677367774638972, -1.514022649048507, 0.05677367774638972, 0.05677367774638972, 0.05677367774638972, 0.05677367774638972]","[0.05677367774638972, -1.514022649048507, 0.05677367774638972, 0.05677367774638972, 0.05677367774638972, 0.05677367774638972]",0.002,7,1
0,31,"[0.008866305463016033, -1.5622615276700635, 0.00876933733095342, 0.008745356197021437, 0.008703020401299, 0.008629011921584606]","[0.2556207776069641, 0.25063300132751465, 0.2524316608905792, 0.25009751319885254, 0.25136250257492065, 0.2516385614871979]","[0.05720652771485992, -1.5135897990800367, 0.05720652771485992, 0.05720652771485992, 0.05720652771485992, 0.05720652771485992]","[0.05720652771485992, -1.5135897990800367, 0.05720652771485992, 0.05720652771485992, 0.05720652771485992, 0.05720652771485992]",0.002,7,1
0,32,"[0.009374519810080528, -1.5618367449245234, 0.009306732808248341, 0.009233041400573683, 0.00917882565408945, 0.009153574705123901]","[0.26103001832962036, 0.2591879367828369, 0.25907596945762634, 0.25935429334640503, 0.2599213719367981, 0.2580144703388214]","[0.057639287310268766, -1.5131570394846279, 0.057639287310268766, 0.057639287310268766, 0.057639287310268766, 0.057639287310268766]","[0.057639287310268766, -1.5131570394846279, 0.057639287310268766, 0.057639287310268766, 0.057639287310268766, 0.057639287310268766]",0.002,7,1
0,33,"[0.009898179210722446, -1.5612539884499093, 0.009830300007955373, 0.009804292316101026, 0.009739857167005539, 0.009627297520637512]","[0.26815325021743774, 0.26609888672828674, 0.2676539421081543, 0.2671440839767456, 0.2645942270755768, 0.2664388418197632]","[0.05807195584895635, -1.5127243709459401, 0.05807195584895635, 0.05807195584895635, 0.05807195584895635, 0.05807195584895635]","[0.05807195584895635, -1.5127243709459401, 0.05807195584895635, 0.05807195584895635, 0.05807195584895635, 0.05807195584895635]",0.002,7,1
0,34,"[0.010459454730153084, -1.5606410114890714, 0.010399643574849904, 0.010358377093933058, 0.010255390778183937, 0.010201919823884964]","[0.2755824029445648, 0.2714633643627167, 0.2727836072444916, 0.2728872001171112, 0.27230751514434814, 0.2724044620990753]","[0.05850453264740661, -1.51229179414749, 0.05850453264740661, 0.05850453264740661, 0.05850453264740661, 0.05850453264740661]","[0.05850453264740661, -1.51229179414749, 0.05850453264740661, 0.05850453264740661, 0.05850453264740661, 0.05850453264740661]",0.002,7,1
0,35,"[0.010969099588692188, -1.5601184491864224, 0.01095134416689092, 0.010944886798522901, 0.010788089595735073, 0.010720436461269855]","[0.28349751234054565, 0.27870798110961914, 0.27810728549957275, 0.27941784262657166, 0.27782031893730164, 0.2783519923686981]","[0.05893701702224843, -1.511859309772648, 0.05893701702224843, 0.05893701702224843, 0.05893701702224843, 0.05893701702224843]","[0.05893701702224843, -1.511859309772648, 0.05893701702224843, 0.05893701702224843, 0.05893701702224843, 0.05893701702224843]",0.002,7,1
0,36,"[0.011628960259258747, -1.559541319762804, 0.011565510426656544, 0.011493011111877394, 0.011356906965374947, 0.011305676773190498]","[0.2881714403629303, 0.2864723205566406, 0.28573647141456604, 0.2847193777561188, 0.28355202078819275, 0.28613200783729553]","[0.059369408290256664, -1.5114269185046398, 0.059369408290256664, 0.059369408290256664, 0.059369408290256664, 0.059369408290256664]","[0.059369408290256664, -1.5114269185046398, 0.059369408290256664, 0.059369408290256664, 0.059369408290256664, 0.059369408290256664]",0.002,7,1
0,37,"[0.012146567925810814, -1.5589862971431394, 0.012074295674459279, 0.012071772212646437, 0.01199423335492611, 0.0118875028565526]","[0.2935560643672943, 0.292812317609787, 0.2898860573768616, 0.2892853915691376, 0.2902698516845703, 0.2930801808834076]","[0.05980170576835331, -1.5109946210265432, 0.05980170576835331, 0.05980170576835331, 0.05980170576835331, 0.05980170576835331]","[0.05980170576835331, -1.5109946210265432, 0.05980170576835331, 0.05980170576835331, 0.05980170576835331, 0.05980170576835331]",0.002,7,1
0,38,"[0.012697894126176834, -1.558433548813202, 0.012688461934224904, 0.012619419688842726, 0.012554156593978405, 0.012498902156949043]","[0.2990923523902893, 0.2999558746814728, 0.29639771580696106, 0.2939819097518921, 0.29749879240989685, 0.3011002242565155]","[0.060233908773608465, -1.510562418021288, 0.060233908773608465, 0.060233908773608465, 0.060233908773608465, 0.060233908773608465]","[0.060233908773608465, -1.510562418021288, 0.060233908773608465, 0.060233908773608465, 0.060233908773608465, 0.060233908773608465]",0.002,7,1
0,39,"[0.013360094279050827, -1.5577766180834551, 0.013338867818013966, 0.013306422824523878, 0.013130308128893375, 0.01311478577554226]","[0.3043622672557831, 0.3069487512111664, 0.3032984435558319, 0.2988155484199524, 0.30280745029449463, 0.3065072000026703]","[0.060666016623241524, -1.510130310171655, 0.060666016623241524, 0.060666016623241524, 0.060666016623241524, 0.060666016623241524]","[0.060666016623241524, -1.510130310171655, 0.060666016623241524, 0.060666016623241524, 0.060666016623241524, 0.060666016623241524]",0.002,7,1
0,40,"[0.013979396782815456, -1.5571293461001297, 0.013913933430806935, 0.01392309247937007, 0.013767733238637447, 0.013745376840233803]","[0.31124451756477356, 0.3147408962249756, 0.309671014547348, 0.30669060349464417, 0.30990928411483765, 0.31554114818573]","[0.061098028634622194, -1.5096982981602745, 0.061098028634622194, 0.061098028634622194, 0.061098028634622194, 0.061098028634622194]","[0.061098028634622194, -1.5096982981602745, 0.061098028634622194, 0.061098028634622194, 0.061098028634622194, 0.061098028634622194]",0.002,7,1
0,41,"[0.014618569985032082, -1.5564352881959458, 0.014550511037008107, 0.014561458224914503, 0.014446709305047989, 0.014370178803801537]","[0.31907111406326294, 0.3235568106174469, 0.3198978006839752, 0.315247118473053, 0.3166581094264984, 0.32176125049591064]","[0.06152994412527155, -1.509266382669625, 0.06152994412527155, 0.06152994412527155, 0.06152994412527155, 0.06152994412527155]","[0.06152994412527155, -1.509266382669625, 0.06152994412527155, 0.06152994412527155, 0.06152994412527155, 0.06152994412527155]",0.002,7,1
0,42,"[0.015333176590502262, -1.555837989119329, 0.0151751677142542, 0.015202088946960401, 0.01501164399087429, 0.01499175000935793]","[0.3266430199146271, 0.32900676131248474, 0.32591813802719116, 0.32260701060295105, 0.3237454891204834, 0.32681459188461304]","[0.06196176241286319, -1.5088345643820333, 0.06196176241286319, 0.06196176241286319, 0.06196176241286319, 0.06196176241286319]","[0.06196176241286319, -1.5088345643820333, 0.06196176241286319, 0.06196176241286319, 0.06196176241286319, 0.06196176241286319]",0.002,7,1
0,43,"[0.01597284898161888, -1.5551775081879278, 0.015949074422017873, 0.015861316318176222, 0.015697520226240158, 0.015672782436013222]","[0.32885465025901794, 0.3374378979206085, 0.32986772060394287, 0.3276796340942383, 0.33243051171302795, 0.33398476243019104]","[0.062393482815224256, -1.5084028439796724, 0.062393482815224256, 0.062393482815224256, 0.062393482815224256, 0.062393482815224256]","[0.062393482815224256, -1.5084028439796724, 0.062393482815224256, 0.062393482815224256, 0.062393482815224256, 0.062393482815224256]",0.002,7,1
0,44,"[0.016656827181577682, -1.5544598785093804, 0.016591374074117482, 0.016537590617797804, 0.016372596845030785, 0.01633884571492672]","[0.335775762796402, 0.33973366022109985, 0.3364090621471405, 0.3315597474575043, 0.34139037132263184, 0.34145358204841614]","[0.06282510465033653, -1.50797122214456, 0.06282510465033653, 0.06282510465033653, 0.06282510465033653, 0.06282510465033653]","[0.06282510465033653, -1.50797122214456, 0.06282510465033653, 0.06282510465033653, 0.06282510465033653, 0.06282510465033653]",0.002,7,1
0,45,"[0.017296385020017624, -1.5538549789092322, 0.017227951680318654, 0.017179890269897413, 0.017024442553520203, 0.0170064065605402]","[0.3411075174808502, 0.3472133278846741, 0.34176716208457947, 0.33743253350257874, 0.3472512364387512, 0.34872087836265564]","[0.06325662723633747, -1.507539699558559, 0.06325662723633747, 0.06325662723633747, 0.06325662723633747, 0.06325662723633747]","[0.06325662723633747, -1.507539699558559, 0.06325662723633747, 0.06325662723633747, 0.06325662723633747, 0.06325662723633747]",0.002,7,1
0,46,"[0.0179473664611578, -1.55309993707154, 0.01795989671816045, 0.017825766200683546, 0.01771695166826248, 0.017757192254066467]","[0.34600138664245605, 0.35056689381599426, 0.34704598784446716, 0.3429665267467499, 0.3523521423339844, 0.3542706370353699]","[0.0636880498915214, -1.5071082769033752, 0.0636880498915214, 0.0636880498915214, 0.0636880498915214, 0.0636880498915214]","[0.0636880498915214, -1.5071082769033752, 0.0636880498915214, 0.0636880498915214, 0.0636880498915214, 0.0636880498915214]",0.002,7,1
0,47,"[0.01866798661649227, -1.5523432914963742, 0.01860076585878545, 0.018481655711791944, 0.018430406227707863, 0.018434692174196243]","[0.35112208127975464, 0.3559975326061249, 0.35184985399246216, 0.34927839040756226, 0.35701796412467957, 0.35954710841178894]","[0.06411937193434043, -1.506676954860556, 0.06411937193434043, 0.06411937193434043, 0.06411937193434043, 0.06411937193434043]","[0.06411937193434043, -1.506676954860556, 0.06411937193434043, 0.06411937193434043, 0.06411937193434043, 0.06411937193434043]",0.002,7,1
0,48,"[0.019427841529250145, -1.5516403795084734, 0.019303623829976857, 0.019228263492248487, 0.01919533498585224, 0.01914665289223194]","[0.3596348762512207, 0.36168843507766724, 0.35749977827072144, 0.35618138313293457, 0.36276593804359436, 0.36186885833740234]","[0.06455059268340568, -1.506245734111491, 0.06455059268340568, 0.06455059268340568, 0.06455059268340568, 0.06455059268340568]","[0.06455059268340568, -1.506245734111491, 0.06455059268340568, 0.06455059268340568, 0.06455059268340568, 0.06455059268340568]",0.002,7,1
0,49,"[0.020179051905870438, -1.5509366330555459, 0.020028416310445607, 0.0199168163486938, 0.019911911338567734, 0.019927820190787315]","[0.36233487725257874, 0.3643873929977417, 0.3641194701194763, 0.36263591051101685, 0.36762863397598267, 0.36752209067344666]","[0.06498171145748827, -1.5058146153374083, 0.06498171145748827, 0.06498171145748827, 0.06498171145748827, 0.06498171145748827]","[0.06498171145748827, -1.5058146153374083, 0.06498171145748827, 0.06498171145748827, 0.06498171145748827, 0.06498171145748827]",0.002,7,1
0,50,"[0.020894113928079605, -1.5501737047782918, 0.020833317433492482, 0.020666523570678663, 0.020641108974814415, 0.020593510940670967]","[0.3691965639591217, 0.3720683753490448, 0.3669065833091736, 0.36771348118782043, 0.37098824977874756, 0.37180161476135254]","[0.06541272757552037, -1.5053835992193763, 0.06541272757552037, 0.06541272757552037, 0.06541272757552037, 0.06541272757552037]","[0.06541272757552037, -1.5053835992193763, 0.06541272757552037, 0.06541272757552037, 0.06541272757552037, 0.06541272757552037]",0.002,7,1
0,51,"[0.021604279056191444, -1.5493548319539805, 0.02151805559267217, 0.021449132556579542, 0.021443547680974007, 0.02144574746489525]","[0.3729896545410156, 0.37524551153182983, 0.37288662791252136, 0.3733767569065094, 0.37642624974250793, 0.3767680823802948]","[0.06584364035659639, -1.5049526864383003, 0.06584364035659639, 0.06584364035659639, 0.06584364035659639, 0.06584364035659639]","[0.06584364035659639, -1.5049526864383003, 0.06584364035659639, 0.06584364035659639, 0.06584364035659639, 0.06584364035659639]",0.002,7,1
0,52,"[0.022392315790057182, -1.5486196645400305, 0.02222615877260381, 0.0221140819736938, 0.022066853940486908, 0.022212548181414604]","[0.37644392251968384, 0.37878531217575073, 0.3752695918083191, 0.3820245862007141, 0.3800950348377228, 0.3804096281528473]","[0.06627444911997396, -1.5045218776749225, 0.06627444911997396, 0.06627444911997396, 0.06627444911997396, 0.06627444911997396]","[0.06627444911997396, -1.5045218776749225, 0.06627444911997396, 0.06627444911997396, 0.06627444911997396, 0.06627444911997396]",0.002,7,1
0,53,"[0.023170230910182, -1.5477867417833586, 0.02300149599184209, 0.022892757053039503, 0.022897586226463318, 0.022967126220464706]","[0.3830057382583618, 0.38162022829055786, 0.3816276490688324, 0.3855096697807312, 0.3861653804779053, 0.3844163417816162]","[0.06670515318507503, -1.5040911736098215, 0.06670515318507503, 0.06670515318507503, 0.06670515318507503, 0.06670515318507503]","[0.06670515318507503, -1.5040911736098215, 0.06670515318507503, 0.06670515318507503, 0.06670515318507503, 0.06670515318507503]",0.002,7,1
0,54,"[0.02397339604794979, -1.5469740529409428, 0.023797337208883107, 0.023594780559204054, 0.023631516844034195, 0.02374430000782013]","[0.3862707018852234, 0.3861941695213318, 0.3838239908218384, 0.38957154750823975, 0.39252424240112305, 0.3892294764518738]","[0.06713575187148693, -1.5036605749234095, 0.06713575187148693, 0.06713575187148693, 0.06713575187148693, 0.06713575187148693]","[0.06713575187148693, -1.5036605749234095, 0.06713575187148693, 0.06713575187148693, 0.06713575187148693, 0.06713575187148693]",0.002,7,1
0,55,"[0.024738840758800507, -1.5462313939682026, 0.02455169359316045, 0.024372859592102003, 0.024465877562761307, 0.024543093517422676]","[0.39182767271995544, 0.3896125853061676, 0.3878571093082428, 0.39422667026519775, 0.3959154486656189, 0.3932837247848511]","[0.06756624449896355, -1.503230082295933, 0.06756624449896355, 0.06756624449896355, 0.06756624449896355, 0.06756624449896355]","[0.06756624449896355, -1.503230082295933, 0.06756624449896355, 0.06756624449896355, 0.06756624449896355, 0.06756624449896355]",0.002,7,1
0,56,"[0.025456124916672707, -1.545411118572094, 0.025368992482320607, 0.025133534068725538, 0.025279054418206215, 0.02535889483988285]","[0.39918720722198486, 0.39358535408973694, 0.39280879497528076, 0.39935189485549927, 0.40144091844558716, 0.39760804176330566]","[0.0679966303874262, -1.5027996964074704, 0.0679966303874262, 0.0679966303874262, 0.0679966303874262, 0.0679966303874262]","[0.0679966303874262, -1.5027996964074704, 0.0679966303874262, 0.0679966303874262, 0.0679966303874262, 0.0679966303874262]",0.002,7,1
0,57,"[0.02634601853787899, -1.5446153090200205, 0.026098076497213185, 0.025947495097778273, 0.026178548112511635, 0.026132427155971527]","[0.4014793336391449, 0.3982899487018585, 0.39835691452026367, 0.4047505855560303, 0.40571174025535583, 0.40151891112327576]","[0.06842690885696494, -1.5023694179379317, 0.06842690885696494, 0.06842690885696494, 0.06842690885696494, 0.06842690885696494]","[0.06842690885696494, -1.5023694179379317, 0.06842690885696494, 0.06842690885696494, 0.06842690885696494, 0.06842690885696494]",0.002,7,1
0,58,"[0.02711540274322033, -1.54379469648514, 0.0269702116595667, 0.026773853892944288, 0.026940248906612396, 0.026990694925189018]","[0.4057067632675171, 0.4006630480289459, 0.4062221646308899, 0.4105745553970337, 0.41069483757019043, 0.4066476821899414]","[0.0688570792278394, -1.5019392475670572, 0.0688570792278394, 0.0688570792278394, 0.0688570792278394, 0.0688570792278394]","[0.0688570792278394, -1.5019392475670572, 0.0688570792278394, 0.0688570792278394, 0.0688570792278394, 0.0688570792278394]",0.002,7,1
0,59,"[0.027881473302841187, -1.5429665625891467, 0.027785603200094044, 0.027627392406127882, 0.027784790843725204, 0.027833186089992523]","[0.4097716212272644, 0.4032972455024719, 0.4111337661743164, 0.4167554974555969, 0.41210487484931946, 0.4126938581466675]","[0.0692871408204801, -1.5015091859744165, 0.0692871408204801, 0.0692871408204801, 0.0692871408204801, 0.0692871408204801]","[0.0692871408204801, -1.5015091859744165, 0.0692871408204801, 0.0692871408204801, 0.0692871408204801, 0.0692871408204801]",0.002,7,1
0,60,"[0.028684241697192192, -1.5421473712525149, 0.028583351765767873, 0.02839927255596919, 0.02863028272986412, 0.02864883281290531]","[0.4128655195236206, 0.4091391861438751, 0.4150361120700836, 0.41986531019210815, 0.41792386770248413, 0.4166412353515625]","[0.06971709295548933, -1.5010792338394072, 0.06971709295548933, 0.06971709295548933, 0.06971709295548933, 0.06971709295548933]","[0.06971709295548933, -1.5010792338394072, 0.06971709295548933, 0.06971709295548933, 0.06971709295548933, 0.06971709295548933]",0.002,7,1
0,61,"[0.029475556686520576, -1.5412910760245104, 0.029465977345601857, 0.029263659114501905, 0.029461286962032318, 0.029510557651519775]","[0.4176523983478546, 0.41272398829460144, 0.41867560148239136, 0.4251542389392853, 0.4219161570072174, 0.42004504799842834]","[0.07014693495364233, -1.5006493918412542, 0.07014693495364233, 0.07014693495364233, 0.07014693495364233, 0.07014693495364233]","[0.07014693495364233, -1.5006493918412542, 0.07014693495364233, 0.07014693495364233, 0.07014693495364233, 0.07014693495364233]",0.002,7,1
0,62,"[0.030359303578734398, -1.5404563297382374, 0.030334297810689748, 0.030121369952819776, 0.0303378626704216, 0.030392726883292198]","[0.42291948199272156, 0.4157680571079254, 0.4226541519165039, 0.4289805591106415, 0.4242818057537079, 0.4217715859413147]","[0.07057666613588828, -1.5002196606590084, 0.07057666613588828, 0.07057666613588828, 0.07057666613588828, 0.07057666613588828]","[0.07057666613588828, -1.5002196606590084, 0.07057666613588828, 0.07057666613588828, 0.07057666613588828, 0.07057666613588828]",0.002,7,1
0,63,"[0.031153054907917976, -1.5395310458591958, 0.031174484883443654, 0.030972762698791456, 0.031173689290881157, 0.03121158853173256]","[0.4254319965839386, 0.4172569513320923, 0.42587339878082275, 0.4329492449760437, 0.429146409034729, 0.42595434188842773]","[0.07100628582335153, -1.499790040971545, 0.07100628582335153, 0.07100628582335153, 0.07100628582335153, 0.07100628582335153]","[0.07100628582335153, -1.499790040971545, 0.07100628582335153, 0.07100628582335153, 0.07100628582335153, 0.07100628582335153]",0.002,7,1
0,64,"[0.03199893981218338, -1.5387518902174016, 0.03204662004579717, 0.031850023860595655, 0.032099999487400055, 0.03210921213030815]","[0.42980635166168213, 0.42156362533569336, 0.4282977283000946, 0.4377780556678772, 0.4298889636993408, 0.4282507300376892]","[0.07143579333733246, -1.4993605334575641, 0.07143579333733246, 0.07143579333733246, 0.07143579333733246, 0.07143579333733246]","[0.07143579333733246, -1.4993605334575641, 0.07143579333733246, 0.07143579333733246, 0.07143579333733246, 0.07143579333733246]",0.002,7,1
0,65,"[0.03286566212773323, -1.537889440809824, 0.03286296526064092, 0.03278307496990962, 0.032963454723358154, 0.03294278681278229]","[0.43374595046043396, 0.4233676493167877, 0.43047019839286804, 0.4427502453327179, 0.4343675971031189, 0.43118834495544434]","[0.07186518799930869, -1.498931138795588, 0.07186518799930869, 0.07186518799930869, 0.07186518799930869, 0.07186518799930869]","[0.07186518799930869, -1.498931138795588, 0.07186518799930869, 0.07186518799930869, 0.07186518799930869, 0.07186518799930869]",0.002,7,1
0,66,"[0.03369972109794617, -1.537025523637869, 0.033802334462301076, 0.03364984571423335, 0.03384839743375778, 0.03380170091986656]","[0.437726229429245, 0.4298146963119507, 0.4353094696998596, 0.4437994956970215, 0.4354783296585083, 0.43417179584503174]","[0.07229446913093615, -1.4985018576639604, 0.07229446913093615, 0.07229446913093615, 0.07229446913093615, 0.07229446913093615]","[0.07229446913093615, -1.4985018576639604, 0.07229446913093615, 0.07229446913093615, 0.07229446913093615, 0.07229446913093615]",0.002,7,1
0,67,"[0.03462323173880577, -1.5361001056483765, 0.034656826649801076, 0.03456859170880122, 0.03470027819275856, 0.034707505255937576]","[0.4388766586780548, 0.4325273334980011, 0.43830928206443787, 0.44367897510528564, 0.43910545110702515, 0.43628793954849243]","[0.07272363605405009, -1.4980726907408464, 0.07272363605405009, 0.07272363605405009, 0.07272363605405009, 0.07272363605405009]","[0.07272363605405009, -1.4980726907408464, 0.07272363605405009, 0.07272363605405009, 0.07272363605405009, 0.07272363605405009]",0.002,7,1
0,68,"[0.03551822900772095, -1.5352630887976666, 0.03556234041322881, 0.03549139081921382, 0.03562139719724655, 0.03556413576006889]","[0.44343098998069763, 0.4354614317417145, 0.4382959008216858, 0.44668126106262207, 0.44050994515419006, 0.43942737579345703]","[0.07315268809066618, -1.4976436387042305, 0.07315268809066618, 0.07315268809066618, 0.07315268809066618, 0.07315268809066618]","[0.07315268809066618, -1.4976436387042305, 0.07315268809066618, 0.07315268809066618, 0.07315268809066618, 0.07315268809066618]",0.002,7,1
0,69,"[0.03648573160171509, -1.5343565245023747, 0.03644925752748662, 0.03640191137280269, 0.036472953855991364, 0.03644305095076561]","[0.44777441024780273, 0.4390670955181122, 0.44111666083335876, 0.4469183683395386, 0.44467413425445557, 0.44244706630706787]","[0.07358162456298162, -1.4972147022319149, 0.07358162456298162, 0.07358162456298162, 0.07358162456298162, 0.07358162456298162]","[0.07358162456298162, -1.4972147022319149, 0.07358162456298162, 0.07358162456298162, 0.07358162456298162, 0.07358162456298162]",0.002,7,1
0,70,"[0.03736630454659462, -1.5334859018078824, 0.037357632313863576, 0.037291451091430616, 0.037411585450172424, 0.03730909153819084]","[0.4509519934654236, 0.44301778078079224, 0.44408532977104187, 0.4489891827106476, 0.4471801817417145, 0.4471608102321625]","[0.07401044479337612, -1.4967858820015205, 0.07401044479337612, 0.07401044479337612, 0.07401044479337612, 0.07401044479337612]","[0.07401044479337612, -1.4967858820015205, 0.07401044479337612, 0.07401044479337612, 0.07401044479337612, 0.07401044479337612]",0.002,7,1
0,71,"[0.038280338048934937, -1.5326077689281483, 0.038280789052144826, 0.03819028913464351, 0.038269877433776855, 0.0382271409034729]","[0.4519227147102356, 0.4456392824649811, 0.4495333433151245, 0.4494629204273224, 0.44967174530029297, 0.44914326071739197]","[0.07443914810441309, -1.4963571786904835, 0.07443914810441309, 0.07443914810441309, 0.07443914810441309, 0.07443914810441309]","[0.07443914810441309, -1.4963571786904835, 0.07443914810441309, 0.07443914810441309, 0.07443914810441309, 0.07443914810441309]",0.002,7,1
0,72,"[0.03921140357851982, -1.5317577396384259, 0.039161507283346, 0.03918854772534175, 0.039173614233732224, 0.039110057055950165]","[0.4544232189655304, 0.4520106613636017, 0.45505887269973755, 0.4529776871204376, 0.4511531889438629, 0.45249632000923157]","[0.07486773381884058, -1.495928592976056, 0.07486773381884058, 0.07486773381884058, 0.07486773381884058, 0.07486773381884058]","[0.07486773381884058, -1.495928592976056, 0.07486773381884058, 0.07486773381884058, 0.07486773381884058, 0.07486773381884058]",0.002,7,1
0,73,"[0.04006810113787651, -1.5308367063156147, 0.040096584950582326, 0.04013053953137202, 0.04009228199720383, 0.0399552620947361]","[0.4562886357307434, 0.45471909642219543, 0.4549742639064789, 0.4574129581451416, 0.4532574713230133, 0.45614880323410034]","[0.07529620125959248, -1.495500125535304, 0.07529620125959248, 0.07529620125959248, 0.07529620125959248, 0.07529620125959248]","[0.07529620125959248, -1.495500125535304, 0.07529620125959248, 0.07529620125959248, 0.07529620125959248, 0.07529620125959248]",0.002,7,1
0,74,"[0.04096990078687668, -1.5298797239414235, 0.04101163545717412, 0.041058822269103956, 0.04100848361849785, 0.04087985306978226]","[0.4582558870315552, 0.45613759756088257, 0.4570159614086151, 0.45967572927474976, 0.4558522403240204, 0.4587153196334839]","[0.07572454974978947, -1.4950717770451072, 0.07572454974978947, 0.07572454974978947, 0.07572454974978947, 0.07572454974978947]","[0.07572454974978947, -1.4950717770451072, 0.07572454974978947, 0.07572454974978947, 0.07572454974978947, 0.07572454974978947]",0.002,7,1
0,75,"[0.04193846136331558, -1.5289922815612336, 0.04194766679872686, 0.041962190265319776, 0.04187237098813057, 0.04176760092377663]","[0.46178731322288513, 0.45767197012901306, 0.45985147356987, 0.4609752595424652, 0.45757603645324707, 0.4611520767211914]","[0.07615277861274017, -1.4946435481821565, 0.07615277861274017, 0.07615277861274017, 0.07615277861274017, 0.07615277861274017]","[0.07615277861274017, -1.4946435481821565, 0.07615277861274017, 0.07615277861274017, 0.07615277861274017, 0.07615277861274017]",0.002,7,1
0,76,"[0.04278585687279701, -1.5280618530562897, 0.04286700883974248, 0.04291348039593501, 0.0429176464676857, 0.04265414923429489]","[0.46152085065841675, 0.46120211482048035, 0.45791277289390564, 0.45973846316337585, 0.4609435200691223, 0.4626036584377289]","[0.07658088717194218, -1.4942154396229543, 0.07658088717194218, 0.07658088717194218, 0.07658088717194218, 0.07658088717194218]","[0.07658088717194218, -1.4942154396229543, 0.07658088717194218, 0.07658088717194218, 0.07658088717194218, 0.07658088717194218]",0.002,7,1
0,77,"[0.04373190179467201, -1.5271455322257061, 0.04373485246767217, 0.04383198797192378, 0.04374196007847786, 0.043570347130298615]","[0.46465587615966797, 0.46259698271751404, 0.46259284019470215, 0.460286021232605, 0.46454164385795593, 0.4653264880180359]","[0.07700887475108316, -1.4937874520438135, 0.07700887475108316, 0.07700887475108316, 0.07700887475108316, 0.07700887475108316]","[0.07700887475108316, -1.4937874520438135, 0.07700887475108316, 0.07700887475108316, 0.07700887475108316, 0.07700887475108316]",0.002,7,1
0,78,"[0.0446624681353569, -1.5262426820448418, 0.04477054277528936, 0.04487125455822749, 0.04462581127882004, 0.04448145627975464]","[0.46705132722854614, 0.4652285873889923, 0.4637669026851654, 0.45962515473365784, 0.4649393856525421, 0.4663401246070862]","[0.07743674067404187, -1.4933595861208546, 0.07743674067404187, 0.07743674067404187, 0.07743674067404187, 0.07743674067404187]","[0.07743674067404187, -1.4933595861208546, 0.07743674067404187, 0.07743674067404187, 0.07743674067404187, 0.07743674067404187]",0.002,7,1
0,79,"[0.04563382640480995, -1.5252940256944676, 0.04559451738466436, 0.04583494245495601, 0.04554957523941994, 0.045420464128255844]","[0.4648793935775757, 0.46745508909225464, 0.4672730267047882, 0.4626867175102234, 0.4681166410446167, 0.46969717741012573]","[0.07786448426488929, -1.4929318425300073, 0.07786448426488929, 0.07786448426488929, 0.07786448426488929, 0.07786448426488929]","[0.07786448426488929, -1.4929318425300073, 0.07786448426488929, 0.07786448426488929, 0.07786448426488929, 0.07786448426488929]",0.002,7,1
0,80,"[0.04659624397754669, -1.5243019808879872, 0.046528164540426076, 0.04671291887249751, 0.04650025814771652, 0.046407707035541534]","[0.46879181265830994, 0.4699741303920746, 0.467265784740448, 0.4656921625137329, 0.46827438473701477, 0.47365766763687134]","[0.07829210484788961, -1.492504221947007, 0.07829210484788961, 0.07829210484788961, 0.07829210484788961, 0.07829210484788961]","[0.07829210484788961, -1.492504221947007, 0.07829210484788961, 0.07829210484788961, 0.07829210484788961, 0.07829210484788961]",0.002,7,1
0,81,"[0.047480933368206024, -1.523428128366806, 0.04742652574648076, 0.04763619482006831, 0.04740823060274124, 0.04736277461051941]","[0.4723564684391022, 0.4718106687068939, 0.47084394097328186, 0.4691186547279358, 0.4717118740081787, 0.4747246205806732]","[0.07871960174750138, -1.4920767250473952, 0.07871960174750138, 0.07871960174750138, 0.07871960174750138, 0.07871960174750138]","[0.07871960174750138, -1.4920767250473952, 0.07871960174750138, 0.07871960174750138, 0.07871960174750138, 0.07871960174750138]",0.002,7,1
0,82,"[0.04845627397298813, -1.522485413854458, 0.04837161699403936, 0.048483653659484816, 0.04845118522644043, 0.04826027527451515]","[0.47221097350120544, 0.4733296036720276, 0.4705256521701813, 0.46671798825263977, 0.47350773215293884, 0.477687805891037]","[0.07914697428837855, -1.491649352506518, 0.07914697428837855, 0.07914697428837855, 0.07914697428837855, 0.07914697428837855]","[0.07914697428837855, -1.491649352506518, 0.07914697428837855, 0.07914697428837855, 0.07914697428837855, 0.07914697428837855]",0.002,7,1
0,83,"[0.04933604970574379, -1.5215991784683247, 0.04928809801210576, 0.04942850648846431, 0.04925099015235901, 0.04926960915327072]","[0.4739936590194702, 0.47151079773902893, 0.47171106934547424, 0.46571826934814453, 0.4750940799713135, 0.4786113202571869]","[0.07957422179537149, -1.4912221049995251, 0.07957422179537149, 0.07957422179537149, 0.07957422179537149, 0.07957422179537149]","[0.07957422179537149, -1.4912221049995251, 0.07957422179537149, 0.07957422179537149, 0.07957422179537149, 0.07957422179537149]",0.002,7,1
0,84,"[0.050349704921245575, -1.5205778081766148, 0.05029327074159795, 0.05033211290325923, 0.050249554216861725, 0.050159040838479996]","[0.47626128792762756, 0.4730697572231293, 0.474637508392334, 0.4671591818332672, 0.4785501956939697, 0.4805314540863037]","[0.08000134359352813, -1.4907949832013685, 0.08000134359352813, 0.08000134359352813, 0.08000134359352813, 0.08000134359352813]","[0.08000134359352813, -1.4907949832013685, 0.08000134359352813, 0.08000134359352813, 0.08000134359352813, 0.08000134359352813]",0.002,7,1
0,85,"[0.05130275338888168, -1.5196351644447823, 0.051169697438375294, 0.05132727205242915, 0.051178716123104095, 0.051176782697439194]","[0.4747692048549652, 0.4726450741291046, 0.47376134991645813, 0.4703950881958008, 0.47827601432800293, 0.4799436032772064]","[0.08042833900809497, -1.4903679877868017, 0.08042833900809497, 0.08042833900809497, 0.08042833900809497, 0.08042833900809497]","[0.08042833900809497, -1.4903679877868017, 0.08042833900809497, 0.08042833900809497, 0.08042833900809497, 0.08042833900809497]",0.002,7,1
0,86,"[0.05221753939986229, -1.5186921221068879, 0.052176777516500294, 0.05220095693554683, 0.05212651565670967, 0.05217253416776657]","[0.4776151776313782, 0.47406837344169617, 0.47415000200271606, 0.47220543026924133, 0.4799124598503113, 0.48086097836494446]","[0.08085520736451816, -1.4899411194303784, 0.08085520736451816, 0.08085520736451816, 0.08085520736451816, 0.08085520736451816]","[0.08085520736451816, -1.4899411194303784, 0.08085520736451816, 0.08085520736451816, 0.08085520736451816, 0.08085520736451816]",0.002,7,1
0,87,"[0.05323881655931473, -1.5177372072688122, 0.053084675465719044, 0.053117676372192335, 0.05307793244719505, 0.053144097328186035]","[0.4766765236854553, 0.4742194712162018, 0.4768674969673157, 0.47771427035331726, 0.4788380265235901, 0.4801904261112213]","[0.08128194798844461, -1.489514378806452, 0.08128194798844461, 0.08128194798844461, 0.08128194798844461, 0.08128194798844461]","[0.08128194798844461, -1.489514378806452, 0.08128194798844461, 0.08128194798844461, 0.08128194798844461, 0.08128194798844461]",0.002,7,1
0,88,"[0.054175738245248795, -1.5167857122472306, 0.05401069322694951, 0.05409078180279536, 0.05405223369598389, 0.0540916733443737]","[0.4801087975502014, 0.47411203384399414, 0.47459468245506287, 0.47900035977363586, 0.47992974519729614, 0.4799032211303711]","[0.08170856020572298, -1.4890877665891735, 0.08170856020572298, 0.08170856020572298, 0.08170856020572298, 0.08170856020572298]","[0.08170856020572298, -1.4890877665891735, 0.08170856020572298, 0.08170856020572298, 0.08170856020572298, 0.08170856020572298]",0.002,7,1
0,89,"[0.05514201521873474, -1.5158266064575692, 0.05499250093568975, 0.05494932710614009, 0.05496376007795334, 0.05505780875682831]","[0.479119211435318, 0.4718336760997772, 0.47476211190223694, 0.47830620408058167, 0.47991275787353516, 0.47985920310020447]","[0.0821350433424048, -1.4886612834524917, 0.0821350433424048, 0.0821350433424048, 0.0821350433424048, 0.0821350433424048]","[0.0821350433424048, -1.4886612834524917, 0.0821350433424048, 0.0821350433424048, 0.0821350433424048, 0.0821350433424048]",0.002,7,1
0,90,"[0.05610772594809532, -1.5148497980884095, 0.055953327809469044, 0.055963440532348585, 0.05599253624677658, 0.05603853985667229]","[0.4778088927268982, 0.4722195267677307, 0.4744638502597809, 0.4788256287574768, 0.482255756855011, 0.4799969494342804]","[0.0825613967247455, -1.488234930070151, 0.0825613967247455, 0.0825613967247455, 0.0825613967247455, 0.0825613967247455]","[0.0825613967247455, -1.488234930070151, 0.0825613967247455, 0.0825613967247455, 0.0825613967247455, 0.0825613967247455]",0.002,7,1
0,91,"[0.05704932287335396, -1.5138948459974308, 0.056884113942281544, 0.05682019769635005, 0.05693655461072922, 0.057033706456422806]","[0.48021194338798523, 0.4727382957935333, 0.4736086428165436, 0.48121652007102966, 0.4831603467464447, 0.4793411195278168]","[0.0829876196792055, -1.4878087071156911, 0.0829876196792055, 0.0829876196792055, 0.0829876196792055, 0.0829876196792055]","[0.0829876196792055, -1.4878087071156911, 0.0829876196792055, 0.0829876196792055, 0.0829876196792055, 0.0829876196792055]",0.002,7,1
0,92,"[0.058035578578710556, -1.5129608672908326, 0.05785733858217412, 0.05776445447888179, 0.057928416877985, 0.058019381016492844]","[0.48118939995765686, 0.47258204221725464, 0.47676098346710205, 0.4828026592731476, 0.4817560315132141, 0.4803317189216614]","[0.08341371153245129, -1.4873826152624452, 0.08341371153245129, 0.08341371153245129, 0.08341371153245129, 0.08341371153245129]","[0.08341371153245129, -1.4873826152624452, 0.08341371153245129, 0.08341371153245129, 0.08341371153245129, 0.08341371153245129]",0.002,7,1
0,93,"[0.05894872546195984, -1.5120302823236962, 0.05878001848329717, 0.058760567302368116, 0.05892552062869072, 0.05903239548206329]","[0.4811114966869354, 0.4732080101966858, 0.4760715663433075, 0.484258770942688, 0.48151978850364685, 0.4794985055923462]","[0.08383967161135646, -1.48695665518354, 0.08383967161135646, 0.08383967161135646, 0.08383967161135646, 0.08383967161135646]","[0.08383967161135646, -1.48695665518354, 0.08383967161135646, 0.08383967161135646, 0.08383967161135646, 0.08383967161135646]",0.002,7,1
0,94,"[0.05989347770810127, -1.5110260930708428, 0.059702698384420216, 0.05970863878216548, 0.05987782031297684, 0.059924110770225525]","[0.4798165559768677, 0.4727786183357239, 0.4799797534942627, 0.48607680201530457, 0.4825134575366974, 0.47919461131095886]","[0.08426549924300272, -1.4865308275518938, 0.08426549924300272, 0.08426549924300272, 0.08426549924300272, 0.08426549924300272]","[0.08426549924300272, -1.4865308275518938, 0.08426549924300272, 0.08426549924300272, 0.08426549924300272, 0.08426549924300272]",0.002,7,1
0,95,"[0.06085341423749924, -1.5100914661637326, 0.06074268022646123, 0.06063608705487056, 0.06083052605390549, 0.06090017408132553]","[0.48345550894737244, 0.47324782609939575, 0.4800492525100708, 0.48611533641815186, 0.4793893098831177, 0.4791910946369171]","[0.0846911937546811, -1.4861051330402155, 0.0846911937546811, 0.0846911937546811, 0.0846911937546811, 0.0846911937546811]","[0.0846911937546811, -1.4861051330402155, 0.0846911937546811, 0.0846911937546811, 0.0846911937546811, 0.0846911937546811]",0.002,7,1
0,96,"[0.0618458017706871, -1.5091603484800835, 0.06168586412538701, 0.06171266614880366, 0.06185262277722359, 0.06192634999752045]","[0.47970709204673767, 0.47146520018577576, 0.47945162653923035, 0.48574361205101013, 0.48068952560424805, 0.47860077023506165]","[0.08511675447389287, -1.4856795723210037, 0.08511675447389287, 0.08511675447389287, 0.08511675447389287, 0.08511675447389287]","[0.08511675447389287, -1.4856795723210037, 0.08511675447389287, 0.08511675447389287, 0.08511675447389287, 0.08511675447389287]",0.002,7,1
0,97,"[0.06274915486574173, -1.508181446497776, 0.06268340746034795, 0.06256858884777827, 0.06289473921060562, 0.06288663297891617]","[0.47925204038619995, 0.47218582034111023, 0.4777769446372986, 0.484422504901886, 0.48145055770874023, 0.4759255647659302]","[0.0855421807283507, -1.4852541460665458, 0.0855421807283507, 0.0855421807283507, 0.0855421807283507, 0.0855421807283507]","[0.0855421807283507, -1.4852541460665458, 0.0855421807283507, 0.0855421807283507, 0.0855421807283507, 0.0855421807283507]",0.002,7,1
0,98,"[0.06369420140981674, -1.507254072730877, 0.06358796754945928, 0.06362394868817134, 0.06378953903913498, 0.06383814662694931]","[0.48058372735977173, 0.47032490372657776, 0.47777047753334045, 0.4829629957675934, 0.4779360294342041, 0.4758986234664917]","[0.08596747184597962, -1.484828854948917, 0.08596747184597962, 0.08596747184597962, 0.08596747184597962, 0.08596747184597962]","[0.08596747184597962, -1.484828854948917, 0.08596747184597962, 0.08596747184597962, 0.08596747184597962, 0.08596747184597962]",0.002,7,1
0,99,"[0.06471400707960129, -1.5062738519958039, 0.06457835832704717, 0.0646027761646728, 0.06474226713180542, 0.06477886438369751]","[0.48009422421455383, 0.4703274965286255, 0.47683727741241455, 0.4833489954471588, 0.47823941707611084, 0.4759274423122406]","[0.0863926271549182, -1.4844036996399783, 0.0863926271549182, 0.0863926271549182, 0.0863926271549182, 0.0863926271549182]","[0.0863926271549182, -1.4844036996399783, 0.0863926271549182, 0.0863926271549182, 0.0863926271549182, 0.0863926271549182]",0.002,7,1
0,100,"[0.0656435638666153, -1.5052861732295533, 0.06557876268495733, 0.06559531270947261, 0.06574811786413193, 0.06573783606290817]","[0.47892123460769653, 0.4726939797401428, 0.47544828057289124, 0.4823058247566223, 0.47698885202407837, 0.4738331139087677]","[0.08681764598351958, -1.483978680811377, 0.08681764598351958, 0.08681764598351958, 0.08681764598351958, 0.08681764598351958]","[0.08681764598351958, -1.483978680811377, 0.08681764598351958, 0.08681764598351958, 0.08681764598351958, 0.08681764598351958]",0.002,7,1
0,101,"[0.06661391258239746, -1.5043674570373078, 0.06652242342104131, 0.06660644590344234, 0.06663091480731964, 0.06663250178098679]","[0.47836920619010925, 0.4719211459159851, 0.4756130576133728, 0.48085588216781616, 0.4753980338573456, 0.47111156582832336]","[0.08724252766035244, -1.4835537991345442, 0.08724252766035244, 0.08724252766035244, 0.08724252766035244, 0.08724252766035244]","[0.08724252766035244, -1.4835537991345442, 0.08724252766035244, 0.08724252766035244, 0.08724252766035244, 0.08724252766035244]",0.002,7,1
0,102,"[0.0675550326704979, -1.5034247946790238, 0.06748992601503545, 0.06753401338543696, 0.06759559363126755, 0.06758252531290054]","[0.47533631324768066, 0.47067880630493164, 0.4736630618572235, 0.480673223733902, 0.4722737967967987, 0.4720747172832489]","[0.08766727151420217, -1.4831290552806944, 0.08766727151420217, 0.08766727151420217, 0.08766727151420217, 0.08766727151420217]","[0.08766727151420217, -1.4831290552806944, 0.08766727151420217, 0.08766727151420217, 0.08766727151420217, 0.08766727151420217]",0.002,7,1
0,103,"[0.0685700997710228, -1.5024331671050568, 0.06842548051942998, 0.0684777933308105, 0.06864234060049057, 0.06849455833435059]","[0.47428274154663086, 0.47274354100227356, 0.4742528200149536, 0.4780879318714142, 0.4734466075897217, 0.47187650203704834]","[0.08809187687407186, -1.4827044499208246, 0.08809187687407186, 0.08809187687407186, 0.08809187687407186, 0.08809187687407186]","[0.08809187687407186, -1.4827044499208246, 0.08809187687407186, 0.08809187687407186, 0.08809187687407186, 0.08809187687407186]",0.002,7,1
0,104,"[0.0694819763302803, -1.5015272435596962, 0.06938583055605108, 0.06944517671551509, 0.06953401863574982, 0.06949643790721893]","[0.4732825458049774, 0.470688134431839, 0.4727717936038971, 0.4722924530506134, 0.47151249647140503, 0.4714511036872864]","[0.0885163430691834, -1.4822799837257132, 0.0885163430691834, 0.0885163430691834, 0.0885163430691834, 0.0885163430691834]","[0.0885163430691834, -1.4822799837257132, 0.0885163430691834, 0.0885163430691834, 0.0885163430691834, 0.0885163430691834]",0.002,7,1
0,105,"[0.07042786478996277, -1.500559688811638, 0.07035285631288701, 0.07043902456249995, 0.07043739408254623, 0.07038229703903198]","[0.4730348587036133, 0.4739397168159485, 0.4739782512187958, 0.46932846307754517, 0.47065499424934387, 0.47206854820251465]","[0.08894066942897857, -1.481855657365918, 0.08894066942897857, 0.08894066942897857, 0.08894066942897857, 0.08894066942897857]","[0.08894066942897857, -1.481855657365918, 0.08894066942897857, 0.08894066942897857, 0.08894066942897857, 0.08894066942897857]",0.002,7,1
0,106,"[0.07135038822889328, -1.4995922160199662, 0.07128507295717412, 0.07143013059582515, 0.07139036804437637, 0.0713217630982399]","[0.47274917364120483, 0.4715316593647003, 0.4736292362213135, 0.4709065556526184, 0.4696497321128845, 0.47079116106033325]","[0.08936485528312, -1.4814314715117765, 0.08936485528312, 0.08936485528312, 0.08936485528312, 0.08936485528312]","[0.08936485528312, -1.4814314715117765, 0.08936485528312, 0.08936485528312, 0.08936485528312, 0.08936485528312]",0.002,7,1
0,107,"[0.07232895493507385, -1.4986816358617325, 0.07226592699159795, 0.07239548742260737, 0.07233273237943649, 0.07227020710706711]","[0.46972787380218506, 0.4740484356880188, 0.47004401683807373, 0.46992459893226624, 0.46731528639793396, 0.4709051549434662]","[0.08978889996149231, -1.4810074268334041, 0.08978889996149231, 0.08978889996149231, 0.08978889996149231, 0.08978889996149231]","[0.08978889996149231, -1.4810074268334041, 0.08978889996149231, 0.08978889996149231, 0.08978889996149231, 0.08978889996149231]",0.002,7,1
0,108,"[0.07325214892625809, -1.4977187153748055, 0.07323772112001592, 0.07328633844342036, 0.07325594872236252, 0.07315076887607574]","[0.46794450283050537, 0.46946966648101807, 0.4684686064720154, 0.47013500332832336, 0.46644073724746704, 0.4676381051540375]","[0.09021280279420313, -1.4805835240006935, 0.09021280279420313, 0.09021280279420313, 0.09021280279420313, 0.09021280279420313]","[0.09021280279420313, -1.4805835240006935, 0.09021280279420313, 0.09021280279420313, 0.09021280279420313, 0.09021280279420313]",0.002,7,1
0,109,"[0.07419461011886597, -1.4968534272960206, 0.07419377962221319, 0.07433454572644038, 0.0742136612534523, 0.07407945394515991]","[0.46476104855537415, 0.4692894518375397, 0.4681108593940735, 0.4668528139591217, 0.46445658802986145, 0.4669938385486603]","[0.09063656311158419, -1.4801597636833124, 0.09063656311158419, 0.09063656311158419, 0.09063656311158419, 0.09063656311158419]","[0.09063656311158419, -1.4801597636833124, 0.09063656311158419, 0.09063656311158419, 0.09063656311158419, 0.09063656311158419]",0.002,7,1
0,110,"[0.07509996742010117, -1.495925360625126, 0.07502729097475225, 0.07525543748822017, 0.0750555768609047, 0.07498609274625778]","[0.4650757610797882, 0.46506473422050476, 0.4656413197517395, 0.46413084864616394, 0.4654572606086731, 0.46638593077659607]","[0.09106018024419235, -1.4797361465507042, 0.09106018024419235, 0.09106018024419235, 0.09106018024419235, 0.09106018024419235]","[0.09106018024419235, -1.4797361465507042, 0.09106018024419235, 0.09106018024419235, 0.09106018024419235, 0.09106018024419235]",0.002,7,1
0,111,"[0.07602410018444061, -1.4949466821602364, 0.07599336305727178, 0.07614354669537349, 0.07603538036346436, 0.07592818140983582]","[0.4625409245491028, 0.46554651856422424, 0.4605615735054016, 0.45621904730796814, 0.46429046988487244, 0.4655872881412506]","[0.0914836535228107, -1.4793126732720858, 0.0914836535228107, 0.0914836535228107, 0.0914836535228107, 0.0914836535228107]","[0.0914836535228107, -1.4793126732720858, 0.0914836535228107, 0.0914836535228107, 0.0914836535228107, 0.0914836535228107]",0.002,7,1
0,112,"[0.0769580751657486, -1.4940036621740838, 0.07686359087099248, 0.077129526729248, 0.0769103616476059, 0.07685580849647522]","[0.4616025388240814, 0.46281716227531433, 0.4605408012866974, 0.454345703125, 0.4642997086048126, 0.46514761447906494]","[0.09190698227844955, -1.478889344516447, 0.09190698227844955, 0.09190698227844955, 0.09190698227844955, 0.09190698227844955]","[0.09190698227844955, -1.478889344516447, 0.09190698227844955, 0.09190698227844955, 0.09190698227844955, 0.09190698227844955]",0.002,7,1
0,113,"[0.0779009535908699, -1.4931014266661187, 0.07781821886171514, 0.07800547658886714, 0.07780022919178009, 0.07775383442640305]","[0.45964398980140686, 0.46293404698371887, 0.46027398109436035, 0.4531444013118744, 0.45905613899230957, 0.4624406099319458]","[0.09233016584234753, -1.4784661609525491, 0.09233016584234753, 0.09233016584234753, 0.09233016584234753, 0.09233016584234753]","[0.09233016584234753, -1.4784661609525491, 0.09233016584234753, 0.09233016584234753, 0.09233016584234753, 0.09233016584234753]",0.002,7,1
0,114,"[0.07878175377845764, -1.492183232014515, 0.07873756090273076, 0.07889716207470698, 0.07876840978860855, 0.07865665853023529]","[0.4591366648674011, 0.4631465971469879, 0.45646488666534424, 0.4526602625846863, 0.4599570035934448, 0.46237337589263916]","[0.09275320354597265, -1.478043123248924, 0.09275320354597265, 0.09275320354597265, 0.09275320354597265, 0.09275320354597265]","[0.09275320354597265, -1.478043123248924, 0.09275320354597265, 0.09275320354597265, 0.09275320354597265, 0.09275320354597265]",0.002,7,1
0,115,"[0.07970955222845078, -1.4912702602199097, 0.07961637178529912, 0.07979886114086909, 0.07961222529411316, 0.07956811785697937]","[0.4555012285709381, 0.4581667482852936, 0.45545098185539246, 0.4510617256164551, 0.45765912532806396, 0.46136391162872314]","[0.09317609472102331, -1.4776202320738732, 0.09317609472102331, 0.09317609472102331, 0.09317609472102331, 0.09317609472102331]","[0.09317609472102331, -1.4776202320738732, 0.09317609472102331, 0.09317609472102331, 0.09317609472102331, 0.09317609472102331]",0.002,7,1
0,116,"[0.08061406016349792, -1.4904373076609154, 0.08045465150942022, 0.08063916742291255, 0.08053046464920044, 0.08054116368293762]","[0.4525570869445801, 0.4558095335960388, 0.45312950015068054, 0.4490343928337097, 0.45591747760772705, 0.4599187970161438]","[0.09359883869942948, -1.477197488095467, 0.09359883869942948, 0.09359883869942948, 0.09359883869942948, 0.09359883869942948]","[0.09359883869942948, -1.477197488095467, 0.09359883869942948, 0.09359883869942948, 0.09359883869942948, 0.09359883869942948]",0.002,7,1
0,117,"[0.08154183626174927, -1.4894806382111092, 0.08145314851869756, 0.0815785366245727, 0.08142881095409393, 0.08143573254346848]","[0.45243337750434875, 0.45370063185691833, 0.44990667700767517, 0.4466210603713989, 0.45466843247413635, 0.4560537040233612]","[0.09402143481335355, -1.476774891981543, 0.09402143481335355, 0.09402143481335355, 0.09402143481335355, 0.09402143481335355]","[0.09402143481335355, -1.476774891981543, 0.09402143481335355, 0.09402143481335355, 0.09402143481335355, 0.09402143481335355]",0.002,7,1
0,118,"[0.0824665054678917, -1.4886160281351586, 0.08231956163515264, 0.08245603620495601, 0.08231797814369202, 0.0823804959654808]","[0.45021677017211914, 0.4483264982700348, 0.4502987265586853, 0.4438517987728119, 0.4530866742134094, 0.4549880921840668]","[0.0944438823951916, -1.476352444399705, 0.0944438823951916, 0.0944438823951916, 0.0944438823951916, 0.0944438823951916]","[0.0944438823951916, -1.476352444399705, 0.0944438823951916, 0.0944438823951916, 0.0944438823951916, 0.0944438823951916]",0.002,7,1
0,119,"[0.08333753794431686, -1.4876959708384057, 0.08317023912538701, 0.08332900583233638, 0.08324460685253143, 0.0832795798778534]","[0.44750070571899414, 0.44758427143096924, 0.44571399688720703, 0.4443843960762024, 0.4502137005329132, 0.45176607370376587]","[0.09486618077757428, -1.4759301460173222, 0.09486618077757428, 0.09486618077757428, 0.09486618077757428, 0.09486618077757428]","[0.09486618077757428, -1.4759301460173222, 0.09486618077757428, 0.09486618077757428, 0.09486618077757428, 0.09486618077757428]",0.002,7,1
0,120,"[0.08420828729867935, -1.4868093070438881, 0.08411151567567998, 0.08419172346081538, 0.0841483324766159, 0.08418940752744675]","[0.44584497809410095, 0.4435074031352997, 0.4450485408306122, 0.44479313492774963, 0.44668734073638916, 0.4483073055744171]","[0.09528832929336797, -1.4755079975015286, 0.09528832929336797, 0.09528832929336797, 0.09528832929336797, 0.09528832929336797]","[0.09528832929336797, -1.4755079975015286, 0.09528832929336797, 0.09528832929336797, 0.09528832929336797, 0.09528832929336797]",0.002,7,1
0,121,"[0.08515884727239609, -1.485916943555214, 0.08499461809267217, 0.08501224100079341, 0.0850696787238121, 0.08505604416131973]","[0.44320395588874817, 0.44098541140556335, 0.4411032199859619, 0.44437554478645325, 0.44312769174575806, 0.4448101818561554]","[0.09571032727567588, -1.4750859995192207, 0.09571032727567588, 0.09571032727567588, 0.09571032727567588, 0.09571032727567588]","[0.09571032727567588, -1.4750859995192207, 0.09571032727567588, 0.09571032727567588, 0.09571032727567588, 0.09571032727567588]",0.002,7,1
0,122,"[0.08600787818431854, -1.4849899050644417, 0.08586198488344365, 0.08584003030743403, 0.08594822883605957, 0.0859300047159195]","[0.4408282935619354, 0.4370175004005432, 0.43724325299263, 0.44223126769065857, 0.44191116094589233, 0.44169676303863525]","[0.09613217405783886, -1.4746641527370576, 0.09613217405783886, 0.09613217405783886, 0.09613217405783886, 0.09613217405783886]","[0.09613217405783886, -1.4746641527370576, 0.09613217405783886, 0.09613217405783886, 0.09613217405783886, 0.09613217405783886]",0.002,7,1
0,123,"[0.08699338138103485, -1.4841229182532807, 0.08670074144472295, 0.08675627290692134, 0.08674363046884537, 0.08690882474184036]","[0.43764057755470276, 0.4332152009010315, 0.4325249493122101, 0.4387838840484619, 0.4406385123729706, 0.43840688467025757]","[0.09655386897343679, -1.4742424578214597, 0.09655386897343679, 0.09655386897343679, 0.09655386897343679, 0.09655386897343679]","[0.09655386897343679, -1.4742424578214597, 0.09655386897343679, 0.09655386897343679, 0.09655386897343679, 0.09655386897343679]",0.002,7,1
0,124,"[0.08784259855747223, -1.483255573814251, 0.08761912981142217, 0.08757249891247554, 0.08766643702983856, 0.08781079947948456]","[0.43633216619491577, 0.4304254651069641, 0.43081820011138916, 0.43469297885894775, 0.43799278140068054, 0.43533992767333984]","[0.09697541135628937, -1.4738209154386073, 0.09697541135628937, 0.09697541135628937, 0.09697541135628937, 0.09697541135628937]","[0.09697541135628937, -1.4738209154386073, 0.09697541135628937, 0.09697541135628937, 0.09697541135628937, 0.09697541135628937]",0.002,7,1
0,125,"[0.08867251127958298, -1.4823629048517724, 0.08846170106996709, 0.08843771993603511, 0.08863192796707153, 0.08867395669221878]","[0.4329169988632202, 0.42778679728507996, 0.4267314374446869, 0.433973103761673, 0.43450459837913513, 0.42948204278945923]","[0.0973968005404573, -1.4733995262544393, 0.0973968005404573, 0.0973968005404573, 0.0973968005404573, 0.0973968005404573]","[0.0973968005404573, -1.4733995262544393, 0.0973968005404573, 0.0973968005404573, 0.0973968005404573, 0.0973968005404573]",0.002,7,1
0,126,"[0.08948176354169846, -1.4815096867135544, 0.08929664293398076, 0.08931212007489009, 0.08944389224052429, 0.08952462673187256]","[0.4304215908050537, 0.42655298113822937, 0.42816653847694397, 0.4349201023578644, 0.4317002296447754, 0.42732322216033936]","[0.09781803586024324, -1.4729782909346534, 0.09781803586024324, 0.09781803586024324, 0.09781803586024324, 0.09781803586024324]","[0.09781803586024324, -1.4729782909346534, 0.09781803586024324, 0.09781803586024324, 0.09781803586024324, 0.09781803586024324]",0.002,7,1
0,127,"[0.09037494659423828, -1.4806583535722275, 0.09018165269960576, 0.09008304655041499, 0.09036274999380112, 0.09040159732103348]","[0.42830902338027954, 0.4220185875892639, 0.42517587542533875, 0.43330612778663635, 0.42729809880256653, 0.4263380467891693]","[0.09823911665019303, -1.4725572101447035, 0.09823911665019303, 0.09823911665019303, 0.09823911665019303, 0.09823911665019303]","[0.09823911665019303, -1.4725572101447035, 0.09823911665019303, 0.09823911665019303, 0.09823911665019303, 0.09823911665019303]",0.002,7,1
0,128,"[0.09118648618459702, -1.4797423493913193, 0.0909197966205042, 0.09098128854718013, 0.09120851755142212, 0.09120102226734161]","[0.42499303817749023, 0.42115092277526855, 0.4217354357242584, 0.4299219250679016, 0.42405492067337036, 0.42265480756759644]","[0.09866004224509654, -1.4721362845498, 0.09866004224509654, 0.09866004224509654, 0.09866004224509654, 0.09866004224509654]","[0.09866004224509654, -1.4721362845498, 0.09866004224509654, 0.09866004224509654, 0.09866004224509654, 0.09866004224509654]",0.002,7,1
0,129,"[0.09201095998287201, -1.478924461906292, 0.09177142778505498, 0.0917847591587524, 0.09203729033470154, 0.09212423115968704]","[0.42130860686302185, 0.41773849725723267, 0.4193744957447052, 0.4256700873374939, 0.4226171374320984, 0.41965290904045105]","[0.09908081197998884, -1.4717155148149077, 0.09908081197998884, 0.09908081197998884, 0.09908081197998884, 0.09908081197998884]","[0.09908081197998884, -1.4717155148149077, 0.09908081197998884, 0.09908081197998884, 0.09908081197998884, 0.09908081197998884]",0.002,7,1
0,130,"[0.09287307411432266, -1.4780943182161828, 0.092628304158346, 0.09263937055554194, 0.09286303073167801, 0.09293005615472794]","[0.41934865713119507, 0.4131636619567871, 0.41881099343299866, 0.4237965941429138, 0.4183986485004425, 0.41591930389404297]","[0.09950142519015123, -1.4712949016047454, 0.09950142519015123, 0.09950142519015123, 0.09950142519015123, 0.09950142519015123]","[0.09950142519015123, -1.4712949016047454, 0.09950142519015123, 0.09950142519015123, 0.09950142519015123, 0.09950142519015123]",0.002,7,1
0,131,"[0.09372630715370178, -1.4772781518152733, 0.09348756471742803, 0.09350864469494624, 0.09372840076684952, 0.09378159046173096]","[0.4147217571735382, 0.41203609108924866, 0.41547223925590515, 0.42045435309410095, 0.4153769016265869, 0.41370266675949097]","[0.09992188121111227, -1.4708744455837843, 0.09992188121111227, 0.09992188121111227, 0.09992188121111227, 0.09992188121111227]","[0.09992188121111227, -1.4708744455837843, 0.09992188121111227, 0.09992188121111227, 0.09992188121111227, 0.09992188121111227]",0.002,7,1
0,132,"[0.09450861811637878, -1.4763714385083695, 0.0943368116961878, 0.0943874555775146, 0.094559445977211, 0.09462516009807587]","[0.4137020409107208, 0.40884071588516235, 0.4122236371040344, 0.4193064868450165, 0.41094040870666504, 0.40897896885871887]","[0.10034217937864888, -1.4704541474162476, 0.10034217937864888, 0.10034217937864888, 0.10034217937864888, 0.10034217937864888]","[0.10034217937864888, -1.4704541474162476, 0.10034217937864888, 0.10034217937864888, 0.10034217937864888, 0.10034217937864888]",0.002,7,1
0,133,"[0.09533411264419556, -1.4755941045335312, 0.0952227751361292, 0.09517077981915278, 0.09536478668451309, 0.09537062793970108]","[0.41146019101142883, 0.4065299928188324, 0.4080566465854645, 0.4176662266254425, 0.40950605273246765, 0.4061594009399414]","[0.10076231902878728, -1.4700340077661094, 0.10076231902878728, 0.10076231902878728, 0.10076231902878728, 0.10076231902878728]","[0.10076231902878728, -1.4700340077661094, 0.10076231902878728, 0.10076231902878728, 0.10076231902878728, 0.10076231902878728]",0.002,7,1
0,134,"[0.09617868810892105, -1.474707917576172, 0.09602529207338506, 0.09604911386456294, 0.09617511928081512, 0.09619533270597458]","[0.40763333439826965, 0.4043518900871277, 0.4057773947715759, 0.4107625484466553, 0.40430933237075806, 0.403213232755661]","[0.10118229949780419, -1.4696140272970923, 0.10118229949780419, 0.10118229949780419, 0.10118229949780419, 0.10118229949780419]","[0.10118229949780419, -1.4696140272970923, 0.10118229949780419, 0.10118229949780419, 0.10118229949780419, 0.10118229949780419]",0.002,7,1
0,135,"[0.09693398326635361, -1.4739265602878113, 0.09680253664125615, 0.09684471666302485, 0.09698988497257233, 0.09701096266508102]","[0.4028671085834503, 0.4007236361503601, 0.40328702330589294, 0.40755364298820496, 0.4015519618988037, 0.39883533120155334]","[0.10160212012222773, -1.4691942066726689, 0.10160212012222773, 0.10160212012222773, 0.10160212012222773, 0.10160212012222773]","[0.10160212012222773, -1.4691942066726689, 0.10160212012222773, 0.10160212012222773, 0.10160212012222773, 0.10160212012222773]",0.002,7,1
0,136,"[0.09770575165748596, -1.4730620470694085, 0.09760648408998662, 0.09765796243634028, 0.09777635335922241, 0.09775412827730179]","[0.3988274931907654, 0.3995943069458008, 0.3994755744934082, 0.40430065989494324, 0.39698779582977295, 0.39558279514312744]","[0.10202178023883857, -1.468774546556058, 0.10202178023883857, 0.10202178023883857, 0.10202178023883857, 0.10202178023883857]","[0.10202178023883857, -1.468774546556058, 0.10202178023883857, 0.10202178023883857, 0.10202178023883857, 0.10202178023883857]",0.002,7,1
0,137,"[0.09854312241077423, -1.4722317171147843, 0.09840041795839483, 0.09843735277142329, 0.09860699623823166, 0.0985487774014473]","[0.39583832025527954, 0.39557284116744995, 0.39698269963264465, 0.39962926506996155, 0.39519089460372925, 0.392375111579895]","[0.10244127918467097, -1.4683550476102256, 0.10244127918467097, 0.10244127918467097, 0.10244127918467097, 0.10244127918467097]","[0.10244127918467097, -1.4683550476102256, 0.10244127918467097, 0.10244127918467097, 0.10244127918467097, 0.10244127918467097]",0.002,7,1
0,138,"[0.09935393929481506, -1.471515068118908, 0.09927875200380498, 0.09928862630810542, 0.09934794157743454, 0.09929690510034561]","[0.3903598487377167, 0.3940731883049011, 0.39495134353637695, 0.39420077204704285, 0.3908412754535675, 0.38972821831703186]","[0.10286061629701376, -1.4679357104978827, 0.10286061629701376, 0.10286061629701376, 0.10286061629701376, 0.10286061629701376]","[0.10286061629701376, -1.4679357104978827, 0.10286061629701376, 0.10286061629701376, 0.10286061629701376, 0.10286061629701376]",0.002,7,1
0,139,"[0.10009150207042694, -1.4707196292332192, 0.09999639192690069, 0.10011808454479976, 0.10016991198062897, 0.1001344695687294]","[0.38859841227531433, 0.39097943902015686, 0.38915228843688965, 0.38745540380477905, 0.3873104453086853, 0.38787153363227844]","[0.10327979091341144, -1.4675165358814852, 0.10327979091341144, 0.10327979091341144, 0.10327979091341144, 0.10327979091341144]","[0.10327979091341144, -1.4675165358814852, 0.10327979091341144, 0.10327979091341144, 0.10327979091341144, 0.10327979091341144]",0.002,7,1
0,140,"[0.10089166462421417, -1.4699308660677453, 0.10078746477235967, 0.10091547548260493, 0.10089269280433655, 0.10082730650901794]","[0.38700050115585327, 0.3868798613548279, 0.3875619173049927, 0.3846445381641388, 0.38301241397857666, 0.3841038942337036]","[0.10369880237166522, -1.4670975244232314, 0.10369880237166522, 0.10369880237166522, 0.10369880237166522, 0.10369880237166522]","[0.10369880237166522, -1.4670975244232314, 0.10369880237166522, 0.10369880237166522, 0.10369880237166522, 0.10369880237166522]",0.002,7,1
0,141,"[0.10162080824375153, -1.4691543144038697, 0.10153085390199834, 0.10164563238110347, 0.10161948204040527, 0.10156147181987762]","[0.38361990451812744, 0.38437339663505554, 0.38453859090805054, 0.38374605774879456, 0.3803252875804901, 0.38263648748397827]","[0.10411765000983408, -1.4666786767850626, 0.10411765000983408, 0.10411765000983408, 0.10411765000983408, 0.10411765000983408]","[0.10411765000983408, -1.4666786767850626, 0.10411765000983408, 0.10411765000983408, 0.10411765000983408, 0.10411765000983408]",0.002,7,1
0,142,"[0.10241725295782089, -1.468432070021965, 0.10232001939882451, 0.10247592508282466, 0.10236946493387222, 0.10234253853559494]","[0.37756890058517456, 0.38105544447898865, 0.3786201775074005, 0.3804096281528473, 0.3770220875740051, 0.3802758753299713]","[0.10453633316623578, -1.4662599936286607, 0.10453633316623578, 0.10453633316623578, 0.10453633316623578, 0.10453633316623578]","[0.10453633316623578, -1.4662599936286607, 0.10453633316623578, 0.10453633316623578, 0.10453633316623578, 0.10453633316623578]",0.002,7,1
0,143,"[0.1030774787068367, -1.4676113736680527, 0.1031115690814417, 0.10320405542340083, 0.10311265289783478, 0.10306072235107422]","[0.37294039130210876, 0.37890684604644775, 0.3787541389465332, 0.37572693824768066, 0.37349602580070496, 0.3771650493144989]","[0.10495485117944792, -1.4658414756154485, 0.10495485117944792, 0.10495485117944792, 0.10495485117944792, 0.10495485117944792]","[0.10495485117944792, -1.4658414756154485, 0.10495485117944792, 0.10495485117944792, 0.10495485117944792, 0.10495485117944792]",0.002,7,1
0,144,"[0.10383740067481995, -1.4669287365726014, 0.10380727449526006, 0.10396890222515864, 0.1038246899843216, 0.10380976647138596]","[0.3717195987701416, 0.37610509991645813, 0.3758971393108368, 0.3690580725669861, 0.3702351748943329, 0.3737890422344208]","[0.10537320338830898, -1.4654231234065875, 0.10537320338830898, 0.10537320338830898, 0.10537320338830898, 0.10537320338830898]","[0.10537320338830898, -1.4654231234065875, 0.10537320338830898, 0.10537320338830898, 0.10537320338830898, 0.10537320338830898]",0.002,7,1
0,145,"[0.1046290397644043, -1.4661809739521523, 0.10460502306093389, 0.10475282251324458, 0.10455936193466187, 0.10456231981515884]","[0.3671620786190033, 0.3702356815338135, 0.3684227466583252, 0.364356130361557, 0.3680531978607178, 0.36842599511146545]","[0.10579138913191942, -1.4650049376629772, 0.10579138913191942, 0.10579138913191942, 0.10579138913191942, 0.10579138913191942]","[0.10579138913191942, -1.4650049376629772, 0.10579138913191942, 0.10579138913191942, 0.10579138913191942, 0.10579138913191942]",0.002,7,1
0,146,"[0.10531657934188843, -1.4654733401587983, 0.10526162782777959, 0.10548822462048335, 0.10532321035861969, 0.10522351413965225]","[0.36455222964286804, 0.36884167790412903, 0.36343735456466675, 0.361974835395813, 0.3653953969478607, 0.36651572585105896]","[0.10620940774964259, -1.464586919045254, 0.10620940774964259, 0.10620940774964259, 0.10620940774964259, 0.10620940774964259]","[0.10620940774964259, -1.464586919045254, 0.10620940774964259, 0.10620940774964259, 0.10620940774964259, 0.10620940774964259]",0.002,7,1
0,147,"[0.10604690760374069, -1.4647948753884812, 0.10605460802187139, 0.10623697816815181, 0.10598841309547424, 0.10597995668649673]","[0.35941019654273987, 0.3633783161640167, 0.36369404196739197, 0.35823947191238403, 0.361293226480484, 0.3630087375640869]","[0.10662725858110593, -1.4641690682137907, 0.10662725858110593, 0.10662725858110593, 0.10662725858110593, 0.10662725858110593]","[0.10662725858110593, -1.4641690682137907, 0.10662725858110593, 0.10662725858110593, 0.10662725858110593, 0.10662725858110593]",0.002,7,1
0,148,"[0.10676638782024384, -1.4640629452518006, 0.10668498674501592, 0.10699038087811275, 0.10674884915351868, 0.10665807873010635]","[0.35821533203125, 0.3599846065044403, 0.3578993082046509, 0.35377705097198486, 0.35574594140052795, 0.3594048023223877]","[0.10704494096620197, -1.4637513858286946, 0.10704494096620197, 0.10704494096620197, 0.10704494096620197, 0.10704494096620197]","[0.10704494096620197, -1.4637513858286946, 0.10704494096620197, 0.10704494096620197, 0.10704494096620197, 0.10704494096620197]",0.002,7,1
0,149,"[0.10747665911912918, -1.4633387115648766, 0.10743457475771123, 0.10766617834057612, 0.10743419826030731, 0.10728699713945389]","[0.35153523087501526, 0.35600510239601135, 0.35294485092163086, 0.3492666482925415, 0.35478833317756653, 0.35706162452697754]","[0.10746245424508928, -1.4633338725498073, 0.10746245424508928, 0.10746245424508928, 0.10746245424508928, 0.10746245424508928]","[0.10746245424508928, -1.4633338725498073, 0.10746245424508928, 0.10746245424508928, 0.10746245424508928, 0.10746245424508928]",0.002,7,1
0,150,"[0.10820518434047699, -1.4626514104059716, 0.10815602937807256, 0.10833935319866939, 0.10807961225509644, 0.10805892199277878]","[0.3475722372531891, 0.3524865210056305, 0.34973084926605225, 0.34560728073120117, 0.35025128722190857, 0.3536071479320526]","[0.10787979775819356, -1.462916529036703, 0.10787979775819356, 0.10787979775819356, 0.10787979775819356, 0.10787979775819356]","[0.10787979775819356, -1.462916529036703, 0.10787979775819356, 0.10787979775819356, 0.10787979775819356, 0.10787979775819356]",0.002,7,1
