Arnibjarnst/BoxLift/logs/ur_rtde/trajectory_dur=7.5_delay=0.2_gain=200_lh=0.03_real.csv
arm_idx,step,actual_q,actual_qd,target_q,expected_q,loop_time,robot_mode,safety_mode
0,-1,"[0.03708532825112343, -1.5337636072984715, 0.03711063066591436, 0.03716234743084712, 0.03727007657289505, 0.037174373865127563]","[-0.04078521206974983, -0.04334089159965515, -0.04203987121582031, -0.03864732384681702, -0.04066177085042, -0.03820637986063957]","[0.0, -1.5707963267948966, 0.0, 0.0, 0.0, 0.0]","[0.0, -1.5707963267948966, 0.0, 0.0, 0.0, 0.0]",0.002,7,1
0,-1,"[0.0363563597202301, -1.534532358204462, 0.036275688801900685, 0.03646306573834224, 0.03649706766009331, 0.03644566610455513]","[-0.05655394867062569, -0.05757167190313339, -0.05568542703986168, -0.05380614474415779, -0.056488797068595886, -0.0571846105158329]","[0.0, -1.5707963267948966, 0.0, 0.0, 0.0, 0.0]","[0.0, -1.5707963267948966, 0.0, 0.0, 0.0, 0.0]",0.002,7,1
0,-1,"[0.035425130277872086, -1.5354119513979931, 0.03539497057069951, 0.035470767612121534, 0.035585835576057434, 0.03556433320045471]","[-0.07025761157274246, -0.06993337720632553, -0.06987321376800537, -0.06947300583124161, -0.07183872908353806, -0.07216303050518036]","[0.0, -1.5707963267948966, 0.0, 0.0, 0.0, 0.0]","[0.0, -1.5707963267948966, 0.0, 0.0, 0.0, 0.0]",0.002,7,1
0,-1,"[0.034153010696172714, -1.5367082220366974, 0.034101311360494435, 0.0342297989078979, 0.03434690460562706, 0.03426843136548996]","[-0.08686502277851105, -0.08509788662195206, -0.08490407466888428, -0.08534533530473709, -0.08715631812810898, -0.08709992468357086]","[0.0, -1.5707963267948966, 0.0, 0.0, 0.0, 0.0]","[0.0, -1.5707963267948966, 0.0, 0.0, 0.0, 0.0]",0.002,7,1
0,-1,"[0.033328067511320114, -1.537448589955904, 0.03334409395326787, 0.033432288760803175, 0.03354325890541077, 0.03355049714446068]","[-0.09619367122650146, -0.09369736909866333, -0.09351284056901932, -0.0955708920955658, -0.09716567397117615, -0.09482154250144958]","[0.0, -1.5707963267948966, 0.0, 0.0, 0.0, 0.0]","[0.0, -1.5707963267948966, 0.0, 0.0, 0.0, 0.0]",0.002,7,1
0,-1,"[0.03232238069176674, -1.5384107765606423, 0.032369438801900685, 0.032403870219848585, 0.03255297988653183, 0.03249331936240196]","[-0.10370272397994995, -0.10140485316514969, -0.10313635319471359, -0.104287289083004, -0.1098622977733612, -0.10558371990919113]","[0.0, -1.5707963267948966, 0.0, 0.0, 0.0, 0.0]","[0.0, -1.5707963267948966, 0.0, 0.0, 0.0, 0.0]",0.002,7,1
0,-1,"[0.03103650175035, -1.5397062239101906, 0.031008545552388966, 0.031094236964843702, 0.03112741932272911, 0.031163420528173447]","[-0.11530165374279022, -0.11360479891300201, -0.11349115520715714, -0.11418405920267105, -0.11685053259134293, -0.11571173369884491]","[0.0, -1.5707963267948966, 0.0, 0.0, 0.0, 0.0]","[0.0, -1.5707963267948966, 0.0, 0.0, 0.0, 0.0]",0.002,7,1
0,-1,"[0.029587868601083755, -1.5412324641695996, 0.02952605882753545, 0.02959410726513667, 0.02965056337416172, 0.029652414843440056]","[-0.1274779736995697, -0.12549744546413422, -0.12495087832212448, -0.1257273256778717, -0.12899897992610931, -0.12759143114089966]","[0.0, -1.5707963267948966, 0.0, 0.0, 0.0, 0.0]","[0.0, -1.5707963267948966, 0.0, 0.0, 0.0, 0.0]",0.002,7,1
0,-1,"[0.02717890962958336, -1.5437491715750475, 0.027151409779683888, 0.027215762729309034, 0.02709638513624668, 0.027118496596813202]","[-0.14470864832401276, -0.14364111423492432, -0.142419695854187, -0.1460382491350174, -0.14532381296157837, -0.14597474038600922]","[0.0, -1.5707963267948966, 0.0, 0.0, 0.0, 0.0]","[0.0, -1.5707963267948966, 0.0, 0.0, 0.0, 0.0]",0.002,7,1
0,-1,"[0.024724045768380165, -1.5461500448039551, 0.02471810976137334, 0.024729176158569288, 0.02461388148367405, 0.024649109691381454]","[-0.16254949569702148, -0.15931983292102814, -0.16161270439624786, -0.16220539808273315, -0.1602925807237625, -0.16265375912189484]","[0.0, -1.5707963267948966, 0.0, 0.0, 0.0, 0.0]","[0.0, -1.5707963267948966, 0.0, 0.0, 0.0, 0.0]",0.002,7,1
0,-1,"[0.023381223902106285, -1.5475453783622761, 0.023398701344625294, 0.023415132159851026, 0.023288659751415253, 0.023263568058609962]","[-0.17370684444904327, -0.16457979381084442, -0.169692263007164, -0.17317721247673035, -0.16734375059604645, -0.16929928958415985]","[0.0, -1.5707963267948966, 0.0, 0.0, 0.0, 0.0]","[0.0, -1.5707963267948966, 0.0, 0.0, 0.0, 0.0]",0.002,7,1
0,-1,"[0.020916106179356575, -1.5499597669443865, 0.020879093800679982, 0.02096645414318843, 0.02080371417105198, 0.020754985511302948]","[-0.18568915128707886, -0.1789790838956833, -0.18305926024913788, -0.18756501376628876, -0.18280306458473206, -0.18361209332942963]","[0.0, -1.5707963267948966, 0.0, 0.0, 0.0, 0.0]","[0.0, -1.5707963267948966, 0.0, 0.0, 0.0, 0.0]",0.002,7,1
0,-1,"[0.01738657057285309, -1.5532764431885262, 0.01749593416322881, 0.017493172282836866, 0.01742575317621231, 0.017407670617103577]","[-0.1929444819688797, -0.14895100891590118, -0.1682533472776413, -0.18621650338172913, -0.18481382727622986, -0.18186943233013153]","[0.0, -1.5707963267948966, 0.0, 0.0, 0.0, 0.0]","[0.0, -1.5707963267948966, 0.0, 0.0, 0.0, 0.0]",0.002,7,1
0,-1,"[0.015268678776919842, -1.555363973868527, 0.015439812337056935, 0.015400572414062452, 0.015300381928682327, 0.01527580339461565]","[-0.17110320925712585, -0.19193300604820251, -0.1812150478363037, -0.1752585470676422, -0.17526395618915558, -0.17345887422561646]","[0.0, -1.5707963267948966, 0.0, 0.0, 0.0, 0.0]","[0.0, -1.5707963267948966, 0.0, 0.0, 0.0, 0.0]",0.002,7,1
0,-1,"[0.012924110516905785, -1.5576872893473883, 0.013094250355855763, 0.012994213695190382, 0.012989635579288006, 0.01296582818031311]","[-0.15888109803199768, -0.1625414788722992, -0.16270525753498077, -0.16289874911308289, -0.1600257158279419, -0.15978296101093292]","[0.0, -1.5707963267948966, 0.0, 0.0, 0.0, 0.0]","[0.0, -1.5707963267948966, 0.0, 0.0, 0.0, 0.0]",0.002,7,1
0,-1,"[0.011340038850903511, -1.5591852555847545, 0.011513535176412404, 0.011378212566039991, 0.011389720253646374, 0.011459535919129848]","[-0.14957742393016815, -0.1512218415737152, -0.15174652636051178, -0.15195174515247345, -0.15173743665218353, -0.1531175822019577]","[0.0, -1.5707963267948966, 0.0, 0.0, 0.0, 0.0]","[0.0, -1.5707963267948966, 0.0, 0.0, 0.0, 0.0]",0.002,7,1
0,-1,"[0.009641764685511589, -1.5608467816239973, 0.009806458150045216, 0.009645624751708937, 0.009766402654349804, 0.009743483737111092]","[-0.13970842957496643, -0.14051321148872375, -0.14296317100524902, -0.1433081030845642, -0.13888044655323029, -0.14189788699150085]","[0.0, -1.5707963267948966, 0.0, 0.0, 0.0, 0.0]","[0.0, -1.5707963267948966, 0.0, 0.0, 0.0, 0.0]",0.002,7,1
0,-1,"[0.007510500494390726, -1.562977110301592, 0.007613960896627248, 0.007511540050170851, 0.0075928582809865475, 0.00763244042173028]","[-0.12367891520261765, -0.12591472268104553, -0.12746308743953705, -0.12435874342918396, -0.12573952972888947, -0.1274086833000183]","[0.0, -1.5707963267948966, 0.0, 0.0, 0.0, 0.0]","[0.0, -1.5707963267948966, 0.0, 0.0, 0.0, 0.0]",0.002,7,1
0,-1,"[0.0065290904603898525, -1.56397290181879, 0.00672322908510381, 0.006528182620666456, 0.006628095638006926, 0.0066652134992182255]","[-0.11573611199855804, -0.11785027384757996, -0.11841762065887451, -0.11529076099395752, -0.1169922798871994, -0.11748693138360977]","[0.0, -1.5707963267948966, 0.0, 0.0, 0.0, 0.0]","[0.0, -1.5707963267948966, 0.0, 0.0, 0.0, 0.0]",0.002,7,1
0,-1,"[0.004691680893301964, -1.5659193850918491, 0.0046914259540002945, 0.004635615939758253, 0.004712124355137348, 0.004752364009618759]","[-0.09902141988277435, -0.10060513019561768, -0.1004125326871872, -0.09568635374307632, -0.09984324872493744, -0.09805800020694733]","[0.0, -1.5707963267948966, 0.0, 0.0, 0.0, 0.0]","[0.0, -1.5707963267948966, 0.0, 0.0, 0.0, 0.0]",0.002,7,1
0,-1,"[0.0035711699165403843, -1.5670428460328658, 0.0035656134234827164, 0.0035535532185058116, 0.003574659815058112, 0.003632273757830262]","[-0.08446865528821945, -0.09041950851678848, -0.08549201488494873, -0.08163481205701828, -0.08806797116994858, -0.08658409863710403]","[0.0, -1.5707963267948966, 0.0, 0.0, 0.0, 0.0]","[0.0, -1.5707963267948966, 0.0, 0.0, 0.0, 0.0]",0.002,7,1
0,-1,"[0.0026501354295760393, -1.5681004876135667, 0.0026457945453088882, 0.0026232439228515148, 0.0027170295361429453, 0.0026655769906938076]","[-0.07084668427705765, -0.07866773754358292, -0.07514854520559311, -0.07202737778425217, -0.07292541116476059, -0.07424068450927734]","[0.0, -1.5707963267948966, 0.0, 0.0, 0.0, 0.0]","[0.0, -1.5707963267948966, 0.0, 0.0, 0.0, 0.0]",0.002,7,1
0,-1,"[0.0018372776685282588, -1.5689443367630993, 0.0018451849566858414, 0.0018572050281981944, 0.0018784446874633431, 0.0018965292256325483]","[-0.06086164712905884, -0.06517957150936127, -0.06288617849349976, -0.05937328562140465, -0.06414461880922318, -0.061415914446115494]","[0.0, -1.5707963267948966, 0.0, 0.0, 0.0, 0.0]","[0.0, -1.5707963267948966, 0.0, 0.0, 0.0, 0.0]",0.002,7,1
0,-1,"[0.0009161621564999223, -1.5699071449092408, 0.0008676687823694351, 0.0008930402943114757, 0.0009408532059751451, 0.0009655046742409468]","[-0.0428263321518898, -0.04573160409927368, -0.04433044046163559, -0.04479169473052025, -0.04483687877655029, -0.043828632682561874]","[0.0, -1.5707963267948966, 0.0, 0.0, 0.0, 0.0]","[0.0, -1.5707963267948966, 0.0, 0.0, 0.0, 0.0]",0.002,7,1
0,-1,"[0.00034456801950000226, -1.5704157370240246, 0.00035554567445927887, 0.0004302698322753429, 0.0004675120871979743, 0.0004002141940873116]","[-0.028216848149895668, -0.029917769134044647, -0.02968173660337925, -0.029554421082139015, -0.030008140951395035, -0.030259501188993454]","[0.0, -1.5707963267948966, 0.0, 0.0, 0.0, 0.0]","[0.0, -1.5707963267948966, 0.0, 0.0, 0.0, 0.0]",0.002,7,1
0,-1,"[8.20068089524284e-05, -1.5707047575745783, 8.088747133427887e-05, 5.666791882319444e-05, 0.00010533857130212709, 0.00015163421630859375]","[-0.014444898813962936, -0.01663396693766117, -0.015809020027518272, -0.015840763226151466, -0.015759188681840897, -0.015500873327255249]","[0.0, -1.5707963267948966, 0.0, 0.0, 0.0, 0.0]","[0.0, -1.5707963267948966, 0.0, 0.0, 0.0, 0.0]",0.002,7,1
0,-1,"[-3.4634266988575746e-05, -1.5708652935423792, -9.307110303780064e-05, 3.366052593989366e-05, 3.765519068110734e-05, 1.8029211787506938e-05]","[-0.004387022461742163, -0.005938468500971794, -0.00440205167979002, -0.0037676505744457245, -0.004538858775049448, -0.003959832713007927]","[0.0, -1.5707963267948966, 0.0, 0.0, 0.0, 0.0]","[0.0, -1.5707963267948966, 0.0, 0.0, 0.0, 0.0]",0.002,7,1
0,-1,"[5.338435585144907e-05, -1.5709315739073695, 2.271333803349762e-05, 7.2165126464796e-05, 8.720768528291956e-05, 0.00012009144120384008]","[0.003126021008938551, -0.005677191540598869, 0.0017544642323628068, 2.942575179076812e-07, 0.0006560719339177012, 0.0008155516115948558]","[0.0, -1.5707963267948966, 0.0, 0.0, 0.0, 0.0]","[0.0, -1.5707963267948966, 0.0, 0.0, 0.0, 0.0]",0.002,7,1
0,-1,"[8.200079901143909e-05, -1.5708123646178187, 2.557436098271637e-05, 0.00010053693737788194, 0.000144581965287216, 7.959604408824816e-05]","[0.0005355054745450616, 0.0020284808706492186, 0.0014562783762812614, 0.00031783716985955834, -0.0001530433219159022, 0.00035475357435643673]","[0.0, -1.5707963267948966, 0.0, 0.0, 0.0, 0.0]","[0.0, -1.5707963267948966, 0.0, 0.0, 0.0, 0.0]",0.002,7,1
0,-1,"[0.00014050002209842205, -1.5707860959394857, 8.70863543909195e-05, 4.3793315551710066e-05, 7.82012939453125e-05, 6.319890235317871e-05]","[0.00015191322017926723, 0.0035525306593626738, 0.0018943795002996922, 0.0011648776708170772, -0.0002538799599278718, 0.00015289269504137337]","[0.0, -1.5707963267948966, 0.0, 0.0, 0.0, 0.0]","[0.0, -1.5707963267948966, 0.0, 0.0, 0.0, 0.0]",0.002,7,1
0,-1,"[0.00012111663818359375, -1.570766643886902, 5.227724184209137e-05, 8.861600842280382e-05, 1.680565401329659e-05, 0.00010083365486934781]","[6.0233083786442876e-05, 0.0010891490383073688, 0.0006595472223125398, 2.1580942328319752e-12, -0.0006281965179368854, -0.0001691445941105485]","[0.0, -1.5707963267948966, 0.0, 0.0, 0.0, 0.0]","[0.0, -1.5707963267948966, 0.0, 0.0, 0.0, 0.0]",0.002,7,1
0,-1,"[9.85860824584961e-05, -1.5707830709264563, -2.850770761142485e-05, 4.832326855463975e-05, 0.00011778018961194903, 7.960505172377452e-05]","[4.297437408240512e-05, 0.00035519382799975574, 0.0003831476788036525, -0.00054120336426422, -0.0006824552547186613, -0.0005230325041338801]","[0.0, -1.5707963267948966, 0.0, 0.0, 0.0, 0.0]","[0.0, -1.5707963267948966, 0.0, 0.0, 0.0, 0.0]",0.002,7,1
0,-1,"[7.919692870927975e-05, -1.5707740408054924, 2.366701234990387e-05, 2.7342433593702253e-05, 0.00010425217624288052, 5.8686731790658087e-05]","[6.011379082337953e-05, -0.0006436892435885966, 7.578232180094346e-05, -0.0005830855225212872, -0.001022958429530263, -0.0007296831463463604]","[0.0, -1.5707963267948966, 0.0, 0.0, 0.0, 0.0]","[0.0, -1.5707963267948966, 0.0, 0.0, 0.0, 0.0]",0.002,7,1
0,-1,"[9.560013131704181e-05, -1.5708023510374964, 8.422533144170075e-05, 4.5581454894971785e-05, 5.897067239857279e-05, 3.173720324411988e-05]","[2.5053403078345582e-05, -0.00034639015211723745, 6.0499151004478335e-05, -0.0006859269342385232, -0.0006643410306423903, -0.0008778887568041682]","[0.0, -1.5707963267948966, 0.0, 0.0, 0.0, 0.0]","[0.0, -1.5707963267948966, 0.0, 0.0, 0.0, 0.0]",0.002,7,1
0,-1,"[2.94952405965887e-05, -1.5707546129163639, 6.181398500615387e-05, 7.434482238721785e-06, -4.8939381734669496e-05, 6.76841227686964e-05]","[2.437972241621511e-13, 0.00021375184587668628, 6.967283843550831e-05, -0.00048429559683427215, -0.0005873605841770768, -0.0011398177593946457]","[0.0, -1.5707963267948966, 0.0, 0.0, 0.0, 0.0]","[0.0, -1.5707963267948966, 0.0, 0.0, 0.0, 0.0]",0.002,7,1
0,-1,"[2.94952405965887e-05, -1.5707545946646242, 1.1746083394825746e-05, 2.4481410644483503e-05, 1.3915007002651691e-05, 2.2604794139624573e-05]","[2.5590989136452266e-28, 0.0005677009467035532, 7.700006972299889e-05, -0.0004074423632118851, -0.0003996632294729352, -0.0006793300854042172]","[0.0, -1.5707963267948966, 0.0, 0.0, 0.0, 0.0]","[0.0, -1.5707963267948966, 0.0, 0.0, 0.0, 0.0]",0.002,7,1
0,-1,"[5.789375427411869e-05, -1.5707425453222932, 9.185472597295075e-05, 4.832326855463975e-05, 2.586034133855719e-05, 3.16739096888341e-05]","[8.291179794843038e-36, 0.00041727046482264996, 7.093256863299757e-05, -0.0004136014322284609, -0.00036346158594824374, -0.0005692453123629093]","[0.0, -1.5707963267948966, 0.0, 0.0, 0.0, 0.0]","[0.0, -1.5707963267948966, 0.0, 0.0, 0.0, 0.0]",0.002,7,1
0,-1,"[7.462501525878906e-05, -1.5708114109435023, 7.087389101201325e-05, -9.135609008836809e-06, -6.024037496388246e-06, 4.9839873099699616e-05]","[0.0, -0.0005886181606911123, -2.124138700310141e-05, -0.0003206807596143335, -0.00024188226961996406, -0.00045895829680375755]","[0.0, -1.5707963267948966, 0.0, 0.0, 0.0, 0.0]","[0.0, -1.5707963267948966, 0.0, 0.0, 0.0, 0.0]",0.002,7,1
0,-1,"[4.149055530433543e-05, -1.5708114109435023, 1.6514454976856996e-05, 4.0932292602491316e-05, 4.3968422687612474e-05, 6.92722387611866e-05]","[0.0, -0.0004502878582570702, -2.2631738829659298e-05, -0.0002561424334999174, -0.0001766107598086819, -0.0002912252093665302]","[0.0, -1.5707963267948966, 0.0, 0.0, 0.0, 0.0]","[0.0, -1.5707963267948966, 0.0, 0.0, 0.0, 0.0]",0.002,7,1
0,-1,"[3.7008285289630294e-05, -1.570795201456196, 2.7958546773731996e-05, 3.830968823237413e-05, 3.193920201738365e-05, 2.4264645617222413e-05]","[-0.00047199608525261283, -3.687236658921681e-17, -1.0198702993235997e-10, -0.00018261026707477868, -9.81838529696688e-05, -0.00019606440037023276]","[0.0, -1.5707963267948966, 0.0, 0.0, 0.0, 0.0]","[0.0, -1.5707963267948966, 0.0, 0.0, 0.0, 0.0]",0.002,7,1
0,-1,"[8.82152235135436e-05, -1.5707728114160382, 2.080598940068512e-05, 5.011140789790147e-05, -5.4661427633106996e-05, -4.178682436162262e-05]","[-0.00040982989594340324, 0.0005964965675957501, -3.3042591904219277e-18, -0.00016085125389508903, -9.030220098793507e-05, -0.00017680470773484558]","[0.0, -1.5707963267948966, 0.0, 0.0, 0.0, 0.0]","[0.0, -1.5707963267948966, 0.0, 0.0, 0.0, 0.0]",0.002,7,1
0,-1,"[7.145704876165837e-05, -1.5707922092727422, 4.5124684469044496e-05, 2.114355053706163e-05, -2.175966371709137e-05, -3.4634266988575746e-05]","[-0.0004276061663404107, 0.00023237896675709635, -3.468427957873642e-33, -0.00012989508104510605, -9.337253140984103e-05, -0.000147773782373406]","[0.0, -1.5707963267948966, 0.0, 0.0, 0.0, 0.0]","[0.0, -1.5707963267948966, 0.0, 0.0, 0.0, 0.0]",0.002,7,1
0,-1,"[-3.163014547169496e-06, -1.5707848486493567, 5.227724184209137e-05, 5.023061718745225e-05, 4.8387242713943124e-05, -2.9865895406544496e-05]","[-0.00038365257205441594, 0.00013814872363582253, -1.1237292645113573e-40, -0.00011849319707835093, -8.733207505429164e-05, -0.00013656217197421938]","[0.0, -1.5707963267948966, 0.0, 0.0, 0.0, 0.0]","[0.0, -1.5707963267948966, 0.0, 0.0, 0.0, 0.0]",0.002,7,1
0,-1,"[-3.163014547169496e-06, -1.57079061403768, 4.116688863575746e-06, 1.3752574584913191e-05, 5.56379854970146e-05, -8.885060445606996e-06]","[-0.00024281450896523893, -0.00015163060743361712, -0.0, -0.00011544341396074742, -7.62359268264845e-05, -9.034878166858107e-05]","[0.0, -1.5707963267948966, 0.0, 0.0, 0.0, 0.0]","[0.0, -1.5707963267948966, 0.0, 0.0, 0.0, 0.0]",0.002,7,1
0,-1,"[1.7592292351764627e-05, -1.5707785920497663, -4.76837158203125e-06, -9.016399719286028e-06, 4.0966835513245314e-05, -1.3653432027638246e-05]","[-0.0004931366420350969, -0.0001210400732816197, -0.0, -0.00010400802420917898, -7.605625432915986e-05, -7.326424383791164e-05]","[0.0, -1.5707963267948966, 0.0, 0.0, 0.0, 0.0]","[0.0, -1.5707963267948966, 0.0, 0.0, 0.0, 0.0]",0.002,7,1
0,-1,"[-1.0792409078419496e-05, -1.5707785828875167, 2.080598940068512e-05, 2.4600619934034285e-05, -2.652803529912262e-05, -8.885060445606996e-06]","[-0.00044459340278990567, -8.831922605168074e-05, -0.0, -9.323318226961419e-05, -7.514953176723793e-05, -6.57687705825083e-05]","[0.0, -1.5707963267948966, 0.0, 0.0, 0.0, 0.0]","[0.0, -1.5707963267948966, 0.0, 0.0, 0.0, 0.0]",0.002,7,1
0,-1,"[5.200526720727794e-05, -1.5707591761059412, 5.418459047490387e-05, 2.4481410644483503e-05, 1.8358230590820312e-05, 1.2506007806223352e-05]","[-0.0007627859595231712, -3.17112535412889e-05, -0.0, -9.527234215056524e-05, -2.6217553568130825e-06, -5.888396117370576e-05]","[0.0, -1.5707963267948966, 0.0, 0.0, 0.0, 0.0]","[0.0, -1.5707963267948966, 0.0, 0.0, 0.0, 0.0]",0.002,7,1
0,-1,"[2.6601599529385567e-05, -1.5707591396024618, 1.1746083394825746e-05, 2.9130572936963972e-05, -5.227724184209137e-05, -1.794496645146637e-05]","[-0.0004649024340324104, -2.6177160179940984e-05, -0.0, -8.826512930681929e-05, -2.0313592930150393e-13, -5.459742897073738e-05]","[0.0, -1.5707963267948966, 0.0, 0.0, 0.0, 0.0]","[0.0, -1.5707963267948966, 0.0, 0.0, 0.0, 0.0]",0.002,7,1
0,-1,"[-1.985231508427887e-05, -1.5707695075855845, 0.0, 1.9951457641553816e-05, 6.4373016357421875e-06, 1.2481688827392645e-05]","[-3.059449795728142e-07, -6.083660991862416e-05, -0.0, -5.370001963456161e-05, -6.840858986834064e-05, -2.1216465029283427e-07]","[0.0, -1.5707963267948966, 0.0, 0.0, 0.0, 0.0]","[0.0, -1.5707963267948966, 0.0, 0.0, 0.0, 0.0]",0.002,7,1
0,-1,"[5.652332038152963e-05, -1.5707455645427508, 4.5124684469044496e-05, -4.367237426805559e-06, -5.9429799215138246e-05, 0.0]","[-7.755297144424606e-28, -6.500429299194366e-05, -0.0, -5.470466857282474e-10, -7.033016299828887e-05, -1.950726306093167e-20]","[0.0, -1.5707963267948966, 0.0, 0.0, 0.0, 0.0]","[0.0, -1.5707963267948966, 0.0, 0.0, 0.0, 0.0]",0.002,7,1
0,-1,"[3.559303149813786e-05, -1.5707740016026328, 2.366701234990387e-05, 2.114355053706163e-05, -1.0792409078419496e-05, 3.337860107421875e-06]","[-8.141544077727187e-43, 1.954713479790371e-05, -0.0, -1.8069681640568756e-19, -6.369378388626501e-05, -6.443507830981538e-30]","[0.0, -1.5707963267948966, 0.0, 0.0, 0.0, 0.0]","[0.0, -1.5707963267948966, 0.0, 0.0, 0.0, 0.0]",0.002,7,1
0,-1,"[6.867487536510453e-05, -1.570738039598229, 1.1746083394825746e-05, 5.464136090083116e-05, -6.705919374638825e-05, -6.705919374638825e-05]","[0.0, 3.502984327496961e-05, -0.0, -2.1442688935820444e-25, -6.014648897689767e-05, -7.646297308990163e-36]","[0.0, -1.5707963267948966, 0.0, 0.0, 0.0, 0.0]","[0.0, -1.5707963267948966, 0.0, 0.0, 0.0, 0.0]",0.002,7,1
0,-1,"[3.8504600524902344e-05, -1.570718556340882, 1.603761781865387e-05, -4.465997729496962e-05, 3.4761429560603574e-05, -1.794496645146637e-05]","[0.0, 3.101675974903628e-05, -0.0, -1.0847749314491044e-33, -2.3359686580903816e-12, -3.923635700109488e-44]","[0.0, -1.5707963267948966, 0.0, 0.0, 0.0, 0.0]","[0.0, -1.5707963267948966, 0.0, 0.0, 0.0, 0.0]",0.002,7,1
0,-1,"[1.902580333990045e-05, -1.570778564815857, 6.6105519429982e-05, 6.656228985590928e-05, 6.479072908405215e-05, -7.788287561538709e-07]","[0.0, 2.8556471079355106e-05, -0.0, -1.2872664004919208e-39, -2.7720162359244293e-18, -0.0]","[0.0, -1.5707963267948966, 0.0, 0.0, 0.0, 0.0]","[0.0, -1.5707963267948966, 0.0, 0.0, 0.0, 0.0]",0.002,7,1
0,-1,"[2.658367156982422e-05, -1.570834299127096, 1.889864076787262e-05, 1.2083644531202253e-05, 4.0948871173895895e-05, 1.0764599210233428e-05]","[0.0, 2.82026235698396e-10, -0.0, -0.0, -2.1477825293577054e-25, -0.0]","[0.0, -1.5707963267948966, 0.0, 0.0, 0.0, 0.0]","[0.0, -1.5707963267948966, 0.0, 0.0, 0.0, 0.0]",0.002,7,1
0,-1,"[-1.732503072560121e-06, -1.5707994900145472, 6.977711812794496e-06, 9.222621581983503e-06, 3.0297353077912703e-05, 7.90977446740726e-06]","[0.0, 3.9717355463029664e-27, -0.0, -0.0, -4.632144400573949e-36, -0.0]","[0.0, -1.5707963267948966, 0.0, 0.0, 0.0, 0.0]","[0.0, -1.5707963267948966, 0.0, 0.0, 0.0, 0.0]",0.002,7,1
0,-1,"[3.111076512141153e-05, -1.5708233318724574, 2.7958546773731996e-05, 4.692668579053816e-06, -1.732503072560121e-06, 3.337860107421875e-06]","[0.0, 2.3161905371396897e-38, -0.0, -0.0, -3.587324068671532e-43, -0.0]","[0.0, -1.5707963267948966, 0.0, 0.0, 0.0, 0.0]","[0.0, -1.5707963267948966, 0.0, 0.0, 0.0, 0.0]",0.002,7,1
0,-1,"[2.2107584300101735e-05, -1.5708114109435023, 2.366701234990387e-05, 1.6732806823682722e-05, -4.7985707418263246e-05, -3.4634266988575746e-05]","[0.0, 0.0, -0.0, -0.0, -0.0, -0.0]","[0.0, -1.5707963267948966, 0.0, 0.0, 0.0, 0.0]","[0.0, -1.5707963267948966, 0.0, 0.0, 0.0, 0.0]",0.002,7,1
0,-1,"[5.196034908294678e-05, -1.5708114109435023, -3.296229988336563e-05, 3.366052593989366e-05, -2.209340230763246e-06, -2.080598940068512e-05]","[0.0, 0.0, -0.0, -0.0, -0.0, -0.0]","[0.0, -1.5707963267948966, 0.0, 0.0, 0.0, 0.0]","[0.0, -1.5707963267948966, 0.0, 0.0, 0.0, 0.0]",0.002,7,1
0,-1,"[1.001340842776699e-05, -1.5708114109435023, 2.9865895406544496e-05, 9.222621581983503e-06, -2.652803529912262e-05, -5.547200338185121e-06]","[0.0, 0.0, -4.680616440312296e-22, -0.0, -0.0, -0.0]","[0.0, -1.5707963267948966, 0.0, 0.0, 0.0, 0.0]","[0.0, -1.5707963267948966, 0.0, 0.0, 0.0, 0.0]",0.002,7,1
0,-1,"[4.3034997361246496e-05, -1.5707621829972886, 8.885060445606996e-06, -4.918993029789931e-05, -2.175966371709137e-05, -2.557436098271637e-05]","[0.0, 0.0, -2.7295873303826095e-33, -0.0, -0.0, -0.0]","[0.0, -1.5707963267948966, 0.0, 0.0, 0.0, 0.0]","[0.0, -1.5707963267948966, 0.0, 0.0, 0.0, 0.0]",0.002,7,1
0,-1,"[3.5569071769714355e-05, -1.5707545856715406, 0.0, -4.367237426805559e-06, -3.415742983037262e-05, -1.3653432027638246e-05]","[0.0, 0.0, -0.0, -0.0, -0.0, -0.0]","[0.0, -1.5707963267948966, 0.0, 0.0, 0.0, 0.0]","[0.0, -1.5707963267948966, 0.0, 0.0, 0.0, 0.0]",0.002,7,1
0,1,"[2.6638068447937258e-05, -1.570709356911113, 8.885060445606996e-06, 2.114355053706163e-05, 4.394149800646119e-05, 7.921933502075262e-06]","[2.8990500140935183e-05, 0.0038503685500472784, 0.002142924116924405, 1.1517217899381649e-05, -0.0, 2.39685414271662e-05]","[0.05879002119914294, -1.5120063055957536, 0.05879002119914294, 0.05879002119914294, 0.05879002119914294, 0.05879002119914294]","[0.05879002119914294, -1.5120063055957536, 0.05879002119914294, 0.05879002119914294, 0.05879002119914294, 0.05879002119914294]",0.002,7,1
0,2,"[5.9587157011264935e-05, -1.5705758242441625, 0.00019246736635381012, 9.946405377192491e-05, 0.00017922019469551742, 0.0001500790094723925]","[0.04403271898627281, 0.20874397456645966, 0.14318004250526428, 0.07605860382318497, 0.05995747447013855, 0.06502746790647507]","[0.05936660287344685, -1.5114297239214498, 0.05936660287344685, 0.05936660287344685, 0.05936660287344685, 0.05936660287344685]","[0.05936660287344685, -1.5114297239214498, 0.05936660287344685, 0.05936660287344685, 0.05936660287344685, 0.05936660287344685]",0.002,7,1
0,3,"[0.00020851768204011023, -1.570206544802506, 0.0003579298602502945, 0.00024871408428950303, 0.0003337874077260494, 0.0003182539949193597]","[0.058264024555683136, 0.2620447278022766, 0.17505855858325958, 0.11949532479047775, 0.10355408489704132, 0.10631249845027924]","[0.05994301779578886, -1.5108533089991076, 0.05994301779578886, 0.05994301779578886, 0.05994301779578886, 0.05994301779578886]","[0.05994301779578886, -1.5108533089991076, 0.05994301779578886, 0.05994301779578886, 0.05994301779578886, 0.05994301779578886]",0.002,7,1
0,4,"[0.0002863785775844008, -1.56983897430867, 0.000668827687398732, 0.0004066663929442882, 0.0005883517442271113, 0.0005716432351619005]","[0.07451014220714569, 0.27422046661376953, 0.1757674217224121, 0.131720632314682, 0.12102200835943222, 0.12494019418954849]","[0.06051926434710513, -1.5102770624477915, 0.06051926434710513, 0.06051926434710513, 0.06051926434710513, 0.06051926434710513]","[0.06051926434710513, -1.5102770624477915, 0.06051926434710513, 0.06051926434710513, 0.06051926434710513, 0.06051926434710513]",0.002,7,1
0,5,"[0.0005802011583000422, -1.5692550771967326, 0.0011327902423303726, 0.0007403331943969249, 0.0008212325628846884, 0.0008205818012356758]","[0.10554187744855881, 0.2654361426830292, 0.18749365210533142, 0.13561436533927917, 0.13215264678001404, 0.1387959122657776]","[0.06109534090880478, -1.5097009858860917, 0.06109534090880478, 0.06109534090880478, 0.06109534090880478, 0.06109534090880478]","[0.06109534090880478, -1.5097009858860917, 0.06109534090880478, 0.06109534090880478, 0.06109534090880478, 0.06109534090880478]",0.002,7,1
0,6,"[0.0009482128662057221, -1.5687392994626244, 0.0016153494464319351, 0.0009093719669799327, 0.001092777238227427, 0.001148977898992598]","[0.13017450273036957, 0.2717934250831604, 0.20756356418132782, 0.14700576663017273, 0.15068113803863525, 0.1531880795955658]","[0.061671245862774365, -1.5091250809321222, 0.061671245862774365, 0.061671245862774365, 0.061671245862774365, 0.061671245862774365]","[0.061671245862774365, -1.5091250809321222, 0.061671245862774365, 0.061671245862774365, 0.061671245862774365, 0.061671245862774365]",0.002,7,1
0,7,"[0.0013036316959187388, -1.5682296576308836, 0.00215322176088506, 0.0014108854481200694, 0.0013511847937479615, 0.0014979912666603923]","[0.1630006581544876, 0.28559058904647827, 0.22987285256385803, 0.17121542990207672, 0.1711149364709854, 0.1734885275363922]","[0.06224697759138249, -1.508549349203514, 0.06224697759138249, 0.06224697759138249, 0.06224697759138249, 0.06224697759138249]","[0.06224697759138249, -1.508549349203514, 0.06224697759138249, 0.06224697759138249, 0.06224697759138249, 0.06224697759138249]",0.002,7,1
0,8,"[0.0018361490219831467, -1.567821328095608, 0.0026963392840784195, 0.002074881190917921, 0.0015388908796012402, 0.0018670547287911177]","[0.20687830448150635, 0.2636861801147461, 0.23147977888584137, 0.1996924877166748, 0.19301006197929382, 0.19550946354866028]","[0.06282253447748433, -1.5079737923174121, 0.06282253447748433, 0.06282253447748433, 0.06282253447748433, 0.06282253447748433]","[0.06282253447748433, -1.5079737923174121, 0.06282253447748433, 0.06282253447748433, 0.06282253447748433, 0.06282253447748433]",0.002,7,1
0,9,"[0.0022167866118252277, -1.5674992986353864, 0.003003899251119435, 0.0025828319736938, 0.001960059627890587, 0.002232922939583659]","[0.23936888575553894, 0.22209703922271729, 0.2128547877073288, 0.23380298912525177, 0.2088441550731659, 0.21715639531612396]","[0.06339791490442616, -1.5073984118904704, 0.06339791490442616, 0.06339791490442616, 0.06339791490442616, 0.06339791490442616]","[0.06339791490442616, -1.5073984118904704, 0.06339791490442616, 0.06339791490442616, 0.06339791490442616, 0.06339791490442616]",0.002,7,1
0,10,"[0.0027542179450392723, -1.5671063545490433, 0.003216568623678029, 0.002962632770202589, 0.0025296981912106276, 0.0027686171233654022]","[0.25199639797210693, 0.1952848881483078, 0.2156883031129837, 0.25809919834136963, 0.22948740422725677, 0.23744302988052368]","[0.06397311725604987, -1.5068232095388467, 0.06397311725604987, 0.06397311725604987, 0.06397311725604987, 0.06397311725604987]","[0.06397311725604987, -1.5068232095388467, 0.06397311725604987, 0.06397311725604987, 0.06397311725604987, 0.06397311725604987]",0.002,7,1
0,11,"[0.0032298434525728226, -1.5668487453698, 0.0035708586322229507, 0.003308101291320753, 0.0031303847208619118, 0.003302016295492649]","[0.2661572992801666, 0.18943080306053162, 0.24256260693073273, 0.2629518508911133, 0.25712862610816956, 0.25688332319259644]","[0.0645481399166976, -1.506248186878199, 0.0645481399166976, 0.0645481399166976, 0.0645481399166976, 0.0645481399166976]","[0.0645481399166976, -1.506248186878199, 0.0645481399166976, 0.0645481399166976, 0.0645481399166976, 0.0645481399166976]",0.002,7,1
0,12,"[0.0037594817113131285, -1.566465283078589, 0.004080597554342091, 0.0036254364201049327, 0.0038004275411367416, 0.003875493071973324]","[0.28330180048942566, 0.24431073665618896, 0.25312167406082153, 0.26375070214271545, 0.2847554683685303, 0.2767018675804138]","[0.06512298127121614, -1.5056733455236804, 0.06512298127121614, 0.06512298127121614, 0.06512298127121614, 0.06512298127121614]","[0.06512298127121614, -1.5056733455236804, 0.06512298127121614, 0.06512298127121614, 0.06512298127121614, 0.06512298127121614]",0.002,7,1
0,13,"[0.004310981370508671, -1.5659297586283465, 0.004610840474263966, 0.00418202459301753, 0.004381504841148853, 0.004459993913769722]","[0.30208224058151245, 0.2663920819759369, 0.2695566713809967, 0.2720034718513489, 0.3127792179584503, 0.29463836550712585]","[0.06569763970496163, -1.505098687089935, 0.06569763970496163, 0.06569763970496163, 0.06569763970496163, 0.06569763970496163]","[0.06569763970496163, -1.505098687089935, 0.06569763970496163, 0.06569763970496163, 0.06569763970496163, 0.06569763970496163]",0.002,7,1
0,14,"[0.005010081920772791, -1.5653973908959706, 0.005307022725240529, 0.004934473628662062, 0.005074400920420885, 0.005062261130660772]","[0.3235401511192322, 0.2776564359664917, 0.29329413175582886, 0.2966689169406891, 0.3304274082183838, 0.31838861107826233]","[0.06627211360380393, -1.5045242131910925, 0.06627211360380393, 0.06627211360380393, 0.06627211360380393, 0.06627211360380393]","[0.06627211360380393, -1.5045242131910925, 0.06627211360380393, 0.06627211360380393, 0.06627211360380393, 0.06627211360380393]",0.002,7,1
0,15,"[0.005791765637695789, -1.5648407407901068, 0.006019894276754201, 0.005770249957702589, 0.005735244136303663, 0.005778956227004528]","[0.3431607484817505, 0.29257187247276306, 0.3244343400001526, 0.3338078558444977, 0.34765881299972534, 0.34126704931259155]","[0.06684640135413125, -1.5039499254407653, 0.06684640135413125, 0.06684640135413125, 0.06684640135413125, 0.06684640135413125]","[0.06684640135413125, -1.5039499254407653, 0.06684640135413125, 0.06684640135413125, 0.06684640135413125, 0.06684640135413125]",0.002,7,1
0,16,"[0.006670008413493633, -1.5641972583583375, 0.006728951131002248, 0.006598396892211866, 0.006320295389741659, 0.006468620151281357]","[0.3674275279045105, 0.31678223609924316, 0.35114625096321106, 0.3708135783672333, 0.36039865016937256, 0.36371785402297974]","[0.06742050134285471, -1.503375825452042, 0.06742050134285471, 0.06742050134285471, 0.06742050134285471, 0.06742050134285471]","[0.06742050134285471, -1.503375825452042, 0.06742050134285471, 0.06742050134285471, 0.06742050134285471, 0.06742050134285471]",0.002,7,1
0,17,"[0.007464823313057423, -1.56350062720988, 0.007440869008199513, 0.007428570384643507, 0.007208036258816719, 0.007212061434984207]","[0.39279377460479736, 0.33845192193984985, 0.3709658682346344, 0.3972257375717163, 0.3752251863479614, 0.38306862115859985]","[0.06799441195741276, -1.5028019148374838, 0.06799441195741276, 0.06799441195741276, 0.06799441195741276, 0.06799441195741276]","[0.06799441195741276, -1.5028019148374838, 0.06799441195741276, 0.06799441195741276, 0.06799441195741276, 0.06799441195741276]",0.002,7,1
0,18,"[0.008226744830608368, -1.5627878189883013, 0.008231941853658498, 0.008129640216491651, 0.007933002896606922, 0.00808019656687975]","[0.4115607738494873, 0.3599696457386017, 0.3873744010925293, 0.4102787971496582, 0.39736559987068176, 0.40273454785346985]","[0.06856813158577582, -1.5022281952091208, 0.06856813158577582, 0.06856813158577582, 0.06856813158577582, 0.06856813158577582]","[0.06856813158577582, -1.5022281952091208, 0.06856813158577582, 0.06856813158577582, 0.06856813158577582, 0.06856813158577582]",0.002,7,1
0,19,"[0.008996018208563328, -1.5620584853789587, 0.009017292653219044, 0.008874459857604933, 0.008958869613707066, 0.008864725939929485]","[0.4271748661994934, 0.37828266620635986, 0.40302032232284546, 0.4120171070098877, 0.4215230941772461, 0.4178816080093384]","[0.06914165861645073, -1.5016546681784457, 0.06914165861645073, 0.06914165861645073, 0.06914165861645073, 0.06914165861645073]","[0.06914165861645073, -1.5016546681784457, 0.06914165861645073, 0.06914165861645073, 0.06914165861645073, 0.06914165861645073]",0.002,7,1
0,20,"[0.009776565246284008, -1.5613198245740314, 0.009793583546773732, 0.009667678470275831, 0.009786960668861866, 0.009802132844924927]","[0.43942171335220337, 0.39453282952308655, 0.41644486784935, 0.4191845953464508, 0.4452729821205139, 0.4360050857067108]","[0.06971499143848532, -1.5010813353564112, 0.06971499143848532, 0.06971499143848532, 0.06971499143848532, 0.06971499143848532]","[0.06971499143848532, -1.5010813353564112, 0.06971499143848532, 0.06971499143848532, 0.06971499143848532, 0.06971499143848532]",0.002,7,1
0,21,"[0.01064196228981018, -1.5604142763516684, 0.010651890431539357, 0.01064090311016841, 0.010713387280702591, 0.010602468624711037]","[0.4526618719100952, 0.41180339455604553, 0.4313604235649109, 0.435535728931427, 0.46472591161727905, 0.454700767993927]","[0.07028812844147295, -1.5005081983534236, 0.07028812844147295, 0.07028812844147295, 0.07028812844147295, 0.07028812844147295]","[0.07028812844147295, -1.5005081983534236, 0.07028812844147295, 0.07028812844147295, 0.07028812844147295, 0.07028812844147295]",0.002,7,1
0,22,"[0.011693187057971954, -1.5596049952185531, 0.011570755635396779, 0.01166026174511714, 0.011613509617745876, 0.011564184911549091]","[0.47178083658218384, 0.4309251308441162, 0.45180338621139526, 0.4624520242214203, 0.47647911310195923, 0.472697377204895]","[0.07086106801555694, -1.4999352587793395, 0.07086106801555694, 0.07086106801555694, 0.07086106801555694, 0.07086106801555694]","[0.07086106801555694, -1.4999352587793395, 0.07086106801555694, 0.07086106801555694, 0.07086106801555694, 0.07086106801555694]",0.002,7,1
0,23,"[0.012778623029589653, -1.5586214412799855, 0.012593094502584279, 0.012730641955993605, 0.012574906460940838, 0.012541028670966625]","[0.49590978026390076, 0.45420041680336, 0.47241660952568054, 0.4926621913909912, 0.4902730882167816, 0.49349114298820496]","[0.07143380855143525, -1.4993625182434613, 0.07143380855143525, 0.07143380855143525, 0.07143380855143525, 0.07143380855143525]","[0.07143380855143525, -1.4993625182434613, 0.07143380855143525, 0.07143380855143525, 0.07143380855143525, 0.07143380855143525]",0.002,7,1
0,24,"[0.013818064704537392, -1.557647769605257, 0.013574902211324513, 0.013743444080017042, 0.013559719547629356, 0.013546218164265156]","[0.5152738094329834, 0.47586384415626526, 0.49091053009033203, 0.5171136856079102, 0.5072805285453796, 0.5127186179161072]","[0.07200634844036483, -1.4987899783545318, 0.07200634844036483, 0.07200634844036483, 0.07200634844036483, 0.07200634844036483]","[0.07200634844036483, -1.4987899783545318, 0.07200634844036483, 0.07200634844036483, 0.07200634844036483, 0.07200634844036483]",0.002,7,1
0,25,"[0.014828224666416645, -1.5566528656384726, 0.014587227498189748, 0.014847083682678175, 0.014546963386237621, 0.01461109984666109]","[0.5320523977279663, 0.4981832504272461, 0.5166391730308533, 0.5312641859054565, 0.5251667499542236, 0.5303417444229126]","[0.07257868607416625, -1.4982176407207304, 0.07257868607416625, 0.07257868607416625, 0.07257868607416625, 0.07257868607416625]","[0.07257868607416625, -1.4982176407207304, 0.07257868607416625, 0.07257868607416625, 0.07257868607416625, 0.07257868607416625]",0.002,7,1
0,26,"[0.01586279645562172, -1.5555676205879827, 0.01572114626039678, 0.015945597285888624, 0.01562477182596922, 0.015695851296186447]","[0.543178141117096, 0.5203309655189514, 0.5339063405990601, 0.5422885417938232, 0.5398309826850891, 0.5446892976760864]","[0.07315081984522818, -1.4976455069496684, 0.07315081984522818, 0.07315081984522818, 0.07315081984522818, 0.07315081984522818]","[0.07315081984522818, -1.4976455069496684, 0.07315081984522818, 0.07315081984522818, 0.07315081984522818, 0.07315081984522818]",0.002,7,1
0,27,"[0.016992216929793358, -1.5544830554029723, 0.016751591359273732, 0.01693849145855708, 0.01683003269135952, 0.01679854840040207]","[0.5568357706069946, 0.5336952209472656, 0.5475982427597046, 0.5531689524650574, 0.5593082904815674, 0.5608447790145874]","[0.07372274814651193, -1.4970735786483846, 0.07372274814651193, 0.07372274814651193, 0.07372274814651193, 0.07372274814651193]","[0.07372274814651193, -1.4970735786483846, 0.07372274814651193, 0.07372274814651193, 0.07372274814651193, 0.07372274814651193]",0.002,7,1
0,28,"[0.018133604899048805, -1.5533512470177193, 0.017892185841695607, 0.017990155810974073, 0.017929067835211754, 0.017977671697735786]","[0.5715756416320801, 0.549726128578186, 0.557888925075531, 0.5639122128486633, 0.5764759182929993, 0.5764996409416199]","[0.0742944693715559, -1.4965018574233406, 0.0742944693715559, 0.0742944693715559, 0.0742944693715559, 0.0742944693715559]","[0.0742944693715559, -1.4965018574233406, 0.0742944693715559, 0.0742944693715559, 0.0742944693715559, 0.0742944693715559]",0.002,7,1
0,29,"[0.019353915005922318, -1.55217323944483, 0.018996540700094044, 0.019221349353454542, 0.019163643941283226, 0.0191110260784626]","[0.5871148705482483, 0.5699024200439453, 0.5721596479415894, 0.5765752196311951, 0.5928076505661011, 0.5906524062156677]","[0.07486598191448017, -1.4959303448804164, 0.07486598191448017, 0.07486598191448017, 0.07486598191448017, 0.07486598191448017]","[0.07486598191448017, -1.4959303448804164, 0.07486598191448017, 0.07486598191448017, 0.07486598191448017, 0.07486598191448017]",0.002,7,1
0,30,"[0.020547308027744293, -1.5509384342334052, 0.020183388386861623, 0.02031199514355464, 0.020326955243945122, 0.020371070131659508]","[0.6035568714141846, 0.5870665907859802, 0.5909044146537781, 0.5945836305618286, 0.6059428453445435, 0.6056857109069824]","[0.07543728416999097, -1.4953590426249055, 0.07543728416999097, 0.07543728416999097, 0.07543728416999097, 0.07543728416999097]","[0.07543728416999097, -1.4953590426249055, 0.07543728416999097, 0.07543728416999097, 0.07543728416999097, 0.07543728416999097]",0.002,7,1
0,31,"[0.02169235609471798, -1.549686136921384, 0.021482769642965138, 0.021630688304565382, 0.021505793556571007, 0.021593252196907997]","[0.6179496049880981, 0.6060430407524109, 0.6088640689849854, 0.6138426065444946, 0.6185239553451538, 0.6188063621520996]","[0.07600837453338521, -1.4947879522615113, 0.07600837453338521, 0.07600837453338521, 0.07600837453338521, 0.07600837453338521]","[0.07600837453338521, -1.4947879522615113, 0.07600837453338521, 0.07600837453338521, 0.07600837453338521, 0.07600837453338521]",0.002,7,1
0,32,"[0.02289094589650631, -1.5483843025616189, 0.022702995930806935, 0.022856279010436964, 0.022778242826461792, 0.022916853427886963]","[0.6285298466682434, 0.6212120652198792, 0.6249178647994995, 0.633854866027832, 0.6308603286743164, 0.6329849362373352]","[0.07657925140055495, -1.4942170753943416, 0.07657925140055495, 0.07657925140055495, 0.07657925140055495, 0.07657925140055495]","[0.07657925140055495, -1.4942170753943416, 0.07657925140055495, 0.07657925140055495, 0.07657925140055495, 0.07657925140055495]",0.002,7,1
0,33,"[0.024257175624370575, -1.5470562943122168, 0.0239947477923792, 0.02404729902233882, 0.02410774677991867, 0.02414342202246189]","[0.642827570438385, 0.635101854801178, 0.637385904788971, 0.6473128199577332, 0.649192214012146, 0.6460764408111572]","[0.07714991316799193, -1.4936464136269045, 0.07714991316799193, 0.07714991316799193, 0.07714991316799193, 0.07714991316799193]","[0.07714991316799193, -1.4936464136269045, 0.07714991316799193, 0.07714991316799193, 0.07714991316799193, 0.07714991316799193]",0.002,7,1
0,34,"[0.02552020363509655, -1.5456368711641808, 0.025217358266012013, 0.02537052213635249, 0.02539234608411789, 0.02553727477788925]","[0.6571552753448486, 0.6483963131904602, 0.647582471370697, 0.6573365330696106, 0.6601943373680115, 0.6598101258277893]","[0.0777203582327921, -1.4930759685621044, 0.0777203582327921, 0.0777203582327921, 0.0777203582327921, 0.0777203582327921]","[0.0777203582327921, -1.4930759685621044, 0.0777203582327921, 0.0777203582327921, 0.0777203582327921, 0.0777203582327921]",0.002,7,1
0,35,"[0.02679550088942051, -1.5442486212453623, 0.02662545839418584, 0.026614947909973097, 0.02680385671555996, 0.02689618617296219]","[0.6694926619529724, 0.6637517809867859, 0.662148654460907, 0.6679750680923462, 0.6740239262580872, 0.6673860549926758]","[0.07829058499266005, -1.4925057418022365, 0.07829058499266005, 0.07829058499266005, 0.07829058499266005, 0.07829058499266005]","[0.07829058499266005, -1.4925057418022365, 0.07829058499266005, 0.07829058499266005, 0.07829058499266005, 0.07829058499266005]",0.002,7,1
0,36,"[0.02815883979201317, -1.5428532150438805, 0.027892414723531544, 0.02795033037152095, 0.028245773166418076, 0.02821882627904415]","[0.6824979186058044, 0.6742695569992065, 0.6759335994720459, 0.6813592910766602, 0.6830912828445435, 0.6797053813934326]","[0.07886059184591358, -1.491935734948983, 0.07886059184591358, 0.07886059184591358, 0.07886059184591358, 0.07886059184591358]","[0.07886059184591358, -1.491935734948983, 0.07886059184591358, 0.07886059184591358, 0.07886059184591358, 0.07886059184591358]",0.002,7,1
0,37,"[0.029502829536795616, -1.5414559815875073, 0.029334370289937794, 0.029344840640685987, 0.029659677296876907, 0.029635751619935036]","[0.6935161352157593, 0.689414381980896, 0.6855771541595459, 0.6933760046958923, 0.6944611072540283, 0.6935769319534302]","[0.07943037719148822, -1.4913659496034084, 0.07943037719148822, 0.07943037719148822, 0.07943037719148822, 0.07943037719148822]","[0.07943037719148822, -1.4913659496034084, 0.07943037719148822, 0.07943037719148822, 0.07943037719148822, 0.07943037719148822]",0.002,7,1
0,38,"[0.030827824026346207, -1.5400343605181952, 0.030785385762349904, 0.03072742998089595, 0.031066706404089928, 0.031052395701408386]","[0.7047096490859985, 0.7003974318504333, 0.6999183297157288, 0.7069692611694336, 0.7071629762649536, 0.7019837498664856]","[0.07999993942894161, -1.4907963873659549, 0.07999993942894161, 0.07999993942894161, 0.07999993942894161, 0.07999993942894161]","[0.07999993942894161, -1.4907963873659549, 0.07999993942894161, 0.07999993942894161, 0.07999993942894161, 0.07999993942894161]",0.002,7,1
0,39,"[0.032244835048913956, -1.5385874708047886, 0.03219920793642217, 0.032277031535766554, 0.032494064420461655, 0.03243418037891388]","[0.7127443552017212, 0.7100106477737427, 0.7119952440261841, 0.7210876941680908, 0.7156540751457214, 0.7117451429367065]","[0.08056927695845807, -1.4902270498364385, 0.08056927695845807, 0.08056927695845807, 0.08056927695845807, 0.08056927695845807]","[0.08056927695845807, -1.4902270498364385, 0.08056927695845807, 0.08056927695845807, 0.08056927695845807, 0.08056927695845807]",0.002,7,1
0,40,"[0.03367339074611664, -1.5370831836811085, 0.0336836020099085, 0.033757372493408155, 0.03390311822295189, 0.0338924266397953]","[0.7232822179794312, 0.7222704887390137, 0.721160352230072, 0.7364745736122131, 0.7241871356964111, 0.7229017615318298]","[0.08113838818085317, -1.4896579386140434, 0.08113838818085317, 0.08113838818085317, 0.08113838818085317, 0.08113838818085317]","[0.08113838818085317, -1.4896579386140434, 0.08113838818085317, 0.08113838818085317, 0.08113838818085317, 0.08113838818085317]",0.002,7,1
0,41,"[0.03519284725189209, -1.535545029943325, 0.03506309190859014, 0.035336418742797804, 0.035401102155447006, 0.03539394214749336]","[0.7357640266418457, 0.7337255477905273, 0.7293754816055298, 0.7448880076408386, 0.7322694659233093, 0.7312636375427246]","[0.08170727149757809, -1.4890890552973184, 0.08170727149757809, 0.08170727149757809, 0.08170727149757809, 0.08170727149757809]","[0.08170727149757809, -1.4890890552973184, 0.08170727149757809, 0.08170727149757809, 0.08170727149757809, 0.08170727149757809]",0.002,7,1
0,42,"[0.03667820990085602, -1.5340872605196019, 0.036659065877096, 0.03687266885723872, 0.03689897432923317, 0.03680064156651497]","[0.7437896132469177, 0.7436145544052124, 0.736388087272644, 0.750068187713623, 0.7410207390785217, 0.7397802472114563]","[0.08227592531072411, -1.4885204014841724, 0.08227592531072411, 0.08227592531072411, 0.08227592531072411, 0.08227592531072411]","[0.08227592531072411, -1.4885204014841724, 0.08227592531072411, 0.08227592531072411, 0.08227592531072411, 0.08227592531072411]",0.002,7,1
0,43,"[0.038206931203603745, -1.5325354386917134, 0.03811389604677373, 0.03837959348645015, 0.03838038817048073, 0.03827853873372078]","[0.7506451606750488, 0.7520418167114258, 0.746825635433197, 0.7554457187652588, 0.750495433807373, 0.7503142356872559]","[0.08284434802302726, -1.4879519787718694, 0.08284434802302726, 0.08284434802302726, 0.08284434802302726, 0.08284434802302726]","[0.08284434802302726, -1.4879519787718694, 0.08284434802302726, 0.08284434802302726, 0.08284434802302726, 0.08284434802302726]",0.002,7,1
0,44,"[0.0396871380507946, -1.5310310696116467, 0.039710823689596, 0.03991214811291499, 0.03992914408445358, 0.039819322526454926]","[0.7598670125007629, 0.7590305805206299, 0.7569944858551025, 0.7591968774795532, 0.7583043575286865, 0.7582138180732727]","[0.08341253803787262, -1.487383788757024, 0.08341253803787262, 0.08341253803787262, 0.08341253803787262, 0.08341253803787262]","[0.08341253803787262, -1.487383788757024, 0.08341253803787262, 0.08341253803787262, 0.08341253803787262, 0.08341253803787262]",0.002,7,1
0,45,"[0.04123970493674278, -1.529500951325037, 0.04125529924501592, 0.04161183416333003, 0.04142975062131882, 0.041344426572322845]","[0.7674941420555115, 0.7726796865463257, 0.761863648891449, 0.7657554745674133, 0.7658846378326416, 0.7651864886283875]","[0.0839804937592989, -1.4868158330355976, 0.0839804937592989, 0.0839804937592989, 0.0839804937592989, 0.0839804937592989]","[0.0839804937592989, -1.4868158330355976, 0.0839804937592989, 0.0839804937592989, 0.0839804937592989, 0.0839804937592989]",0.002,7,1
0,46,"[0.04274498671293259, -1.5278825660100956, 0.04278737703432256, 0.043093963260314894, 0.04295790567994118, 0.04287193715572357]","[0.7722712755203247, 0.7767922282218933, 0.7709554433822632, 0.7739970088005066, 0.7726565599441528, 0.7749718427658081]","[0.08454821359200293, -1.4862481132028935, 0.08454821359200293, 0.08454821359200293, 0.08454821359200293, 0.08454821359200293]","[0.08454821359200293, -1.4862481132028935, 0.08454821359200293, 0.08454821359200293, 0.08454821359200293, 0.08454821359200293]",0.002,7,1
0,47,"[0.04434632509946823, -1.5263580356589337, 0.04432994524110967, 0.04471270620312495, 0.04449453949928284, 0.044378381222486496]","[0.7792813181877136, 0.7817322611808777, 0.7795051336288452, 0.7799829244613647, 0.7805086374282837, 0.7835620045661926]","[0.08511569594134409, -1.4856806308535524, 0.08511569594134409, 0.08511569594134409, 0.08511569594134409, 0.08511569594134409]","[0.08511569594134409, -1.4856806308535524, 0.08511569594134409, 0.08511569594134409, 0.08511569594134409, 0.08511569594134409]",0.002,7,1
0,48,"[0.045862045139074326, -1.5247458455017586, 0.04587394395937139, 0.04629795133557124, 0.046037670224905014, 0.04594483599066734]","[0.7838749885559082, 0.7874127626419067, 0.784400463104248, 0.7825031280517578, 0.7878140211105347, 0.7908200025558472]","[0.08568293921334884, -1.4851133875815477, 0.08568293921334884, 0.08568293921334884, 0.08568293921334884, 0.08568293921334884]","[0.08568293921334884, -1.4851133875815477, 0.08568293921334884, 0.08568293921334884, 0.08568293921334884, 0.08568293921334884]",0.002,7,1
0,49,"[0.047502290457487106, -1.5231480610421677, 0.04747134843935186, 0.04781882345166011, 0.04764457046985626, 0.047527581453323364]","[0.7922252416610718, 0.7936045527458191, 0.7904006838798523, 0.7877374291419983, 0.7952966690063477, 0.7976003289222717]","[0.08624994181471513, -1.4845463849801814, 0.08624994181471513, 0.08624994181471513, 0.08624994181471513, 0.08624994181471513]","[0.08624994181471513, -1.4845463849801814, 0.08624994181471513, 0.08624994181471513, 0.08624994181471513, 0.08624994181471513]",0.002,7,1
0,50,"[0.04908591881394386, -1.5215341572514554, 0.04904824892152959, 0.049403472537658644, 0.04920068383216858, 0.049174267798662186]","[0.7993284463882446, 0.7979009747505188, 0.796400249004364, 0.7925683856010437, 0.8009368777275085, 0.8042805194854736]","[0.08681670215281696, -1.4839796246420796, 0.08681670215281696, 0.08681670215281696, 0.08681670215281696, 0.08681670215281696]","[0.08681670215281696, -1.4839796246420796, 0.08681670215281696, 0.08681670215281696, 0.08681670215281696, 0.08681670215281696]",0.002,7,1
0,51,"[0.05062131956219673, -1.5199605983546753, 0.050652329121724904, 0.050969048137329054, 0.050778068602085114, 0.0507388636469841]","[0.8043336868286133, 0.8014993667602539, 0.8014017939567566, 0.7977563142776489, 0.8039983510971069, 0.8082306981086731]","[0.0873832186357088, -1.4834131081591877, 0.0873832186357088, 0.0873832186357088, 0.0873832186357088, 0.0873832186357088]","[0.0873832186357088, -1.4834131081591877, 0.0873832186357088, 0.0873832186357088, 0.0873832186357088, 0.0873832186357088]",0.002,7,1
0,52,"[0.05229707062244415, -1.5182984818569203, 0.05226499239076787, 0.05259553968395991, 0.05235336348414421, 0.05239631235599518]","[0.8070194721221924, 0.8049929141998291, 0.8041666746139526, 0.8031359910964966, 0.8096398115158081, 0.8123452067375183]","[0.08794948967213004, -1.4828468371227665, 0.08794948967213004, 0.08794948967213004, 0.08794948967213004, 0.08794948967213004]","[0.08794948967213004, -1.4828468371227665, 0.08794948967213004, 0.08794948967213004, 0.08794948967213004, 0.08794948967213004]",0.002,7,1
0,53,"[0.05386507511138916, -1.5166412007859726, 0.05384427705873662, 0.05403046190228267, 0.053988825529813766, 0.05407903343439102]","[0.8090181350708008, 0.8099348545074463, 0.809865415096283, 0.8134588599205017, 0.8134007453918457, 0.8166623115539551]","[0.08851551367150956, -1.482280813123387, 0.08851551367150956, 0.08851551367150956, 0.08851551367150956, 0.08851551367150956]","[0.08851551367150956, -1.482280813123387, 0.08851551367150956, 0.08851551367150956, 0.08851551367150956, 0.08851551367150956]",0.002,7,1
0,54,"[0.05549648031592369, -1.5150405292264004, 0.05549031892885381, 0.055658026332519484, 0.05567323416471481, 0.05573080852627754]","[0.8158110976219177, 0.8110840916633606, 0.8137694001197815, 0.8169388175010681, 0.8193963766098022, 0.818813145160675]","[0.08908128904397009, -1.4817150377509265, 0.08908128904397009, 0.08908128904397009, 0.08908128904397009, 0.08908128904397009]","[0.08908128904397009, -1.4817150377509265, 0.08908128904397009, 0.08908128904397009, 0.08908128904397009, 0.08908128904397009]",0.002,7,1
0,55,"[0.057214830070734024, -1.513455220764019, 0.057108704243795216, 0.05726472913708491, 0.05726534500718117, 0.05734512209892273]","[0.8189298510551453, 0.8094654083251953, 0.812400758266449, 0.8187379837036133, 0.8254484534263611, 0.8191578388214111]","[0.08964681420033266, -1.481149512594564, 0.08964681420033266, 0.08964681420033266, 0.08964681420033266, 0.08964681420033266]","[0.08964681420033266, -1.481149512594564, 0.08964681420033266, 0.08964681420033266, 0.08964681420033266, 0.08964681420033266]",0.002,7,1
0,56,"[0.058844804763793945, -1.5117742356709023, 0.058750454579488576, 0.05885605394329829, 0.059040915220975876, 0.05910569801926613]","[0.8237901926040649, 0.8090546131134033, 0.8168328404426575, 0.8206025958061218, 0.8263516426086426, 0.8228213787078857]","[0.09021208755212123, -1.4805842392427753, 0.09021208755212123, 0.09021208755212123, 0.09021208755212123, 0.09021208755212123]","[0.09021208755212123, -1.4805842392427753, 0.09021208755212123, 0.09021208755212123, 0.09021208755212123, 0.09021208755212123]",0.002,7,1
0,57,"[0.06047096848487854, -1.5101094295135518, 0.06039125124086553, 0.060532017345092726, 0.06060916557908058, 0.06072428077459335]","[0.8275300860404968, 0.8128952980041504, 0.8196555376052856, 0.8262805938720703, 0.8277599811553955, 0.82405024766922]","[0.09077710751156703, -1.4800192192833295, 0.09077710751156703, 0.09077710751156703, 0.09077710751156703, 0.09077710751156703]","[0.09077710751156703, -1.4800192192833295, 0.09077710751156703, 0.09077710751156703, 0.09077710751156703, 0.09077710751156703]",0.002,7,1
0,58,"[0.06207527220249176, -1.5084364053658028, 0.062078301106588185, 0.06216256200756831, 0.06235172972083092, 0.06240754947066307]","[0.8289614319801331, 0.8106211423873901, 0.8229759335517883, 0.832275927066803, 0.8261128664016724, 0.8242337703704834]","[0.09134187249161291, -1.4794544543032837, 0.09134187249161291, 0.09134187249161291, 0.09134187249161291, 0.09134187249161291]","[0.09134187249161291, -1.4794544543032837, 0.09134187249161291, 0.09134187249161291, 0.09134187249161291, 0.09134187249161291]",0.002,7,1
0,59,"[0.06369175761938095, -1.506872059111931, 0.06369287172426397, 0.06387321531262202, 0.06402751058340073, 0.06409427523612976]","[0.8282410502433777, 0.8087339401245117, 0.820351779460907, 0.834463894367218, 0.8279121518135071, 0.8276301622390747]","[0.091906380905918, -1.4788899458889786, 0.091906380905918, 0.091906380905918, 0.091906380905918, 0.091906380905918]","[0.091906380905918, -1.4788899458889786, 0.091906380905918, 0.091906380905918, 0.091906380905918, 0.091906380905918]",0.002,7,1
0,60,"[0.06536968797445297, -1.5052478548935433, 0.06533652940859014, 0.06552497922863765, 0.06576844304800034, 0.06579084694385529]","[0.8271654844284058, 0.8077226281166077, 0.821485698223114, 0.8341203331947327, 0.8275412917137146, 0.825756847858429]","[0.09247063116886214, -1.4783256956260344, 0.09247063116886214, 0.09247063116886214, 0.09247063116886214, 0.09247063116886214]","[0.09247063116886214, -1.4783256956260344, 0.09247063116886214, 0.09247063116886214, 0.09247063116886214, 0.09247063116886214]",0.002,7,1
0,61,"[0.06708662211894989, -1.5036174815944214, 0.06701785722841436, 0.06722371160473628, 0.06748134642839432, 0.06734088808298111]","[0.8294022083282471, 0.8087002038955688, 0.8182786107063293, 0.8274986147880554, 0.8289863467216492, 0.8236273527145386]","[0.09303462169555024, -1.4777617050993463, 0.09303462169555024, 0.09303462169555024, 0.09303462169555024, 0.09303462169555024]","[0.09303462169555024, -1.4777617050993463, 0.09303462169555024, 0.09303462169555024, 0.09303462169555024, 0.09303462169555024]",0.002,7,1
0,62,"[0.06880364567041397, -1.5019581702402611, 0.06869393983949834, 0.06887344896282954, 0.06907526403665543, 0.06902825087308884]","[0.8286048769950867, 0.8071562051773071, 0.8187841773033142, 0.8260029554367065, 0.82845139503479, 0.8237366080284119]","[0.09359835090181669, -1.4771979758930798, 0.09359835090181669, 0.09359835090181669, 0.09359835090181669, 0.09359835090181669]","[0.09359835090181669, -1.4771979758930798, 0.09359835090181669, 0.09359835090181669, 0.09359835090181669, 0.09359835090181669]",0.002,7,1
0,63,"[0.07043513655662537, -1.5003770676306267, 0.07036334673036748, 0.07064084588970942, 0.07076007127761841, 0.07061931490898132]","[0.8304418921470642, 0.8070853352546692, 0.8189648389816284, 0.8272261619567871, 0.8250337839126587, 0.8255723714828491]","[0.09416181720422998, -1.4766345095906666, 0.09416181720422998, 0.09416181720422998, 0.09416181720422998, 0.09416181720422998]","[0.09416181720422998, -1.4766345095906666, 0.09416181720422998, 0.09416181720422998, 0.09416181720422998, 0.09416181720422998]",0.002,7,1
0,64,"[0.07218077778816223, -1.4987685543349762, 0.0719369093524378, 0.07242898523297114, 0.0722910612821579, 0.07226713001728058]","[0.831265389919281, 0.8082686066627502, 0.8209251165390015, 0.8288787007331848, 0.8231918215751648, 0.8259426951408386]","[0.09472501902009701, -1.4760713077747996, 0.09472501902009701, 0.09472501902009701, 0.09472501902009701, 0.09472501902009701]","[0.09472501902009701, -1.4760713077747996, 0.09472501902009701, 0.09472501902009701, 0.09472501902009701, 0.09472501902009701]",0.002,7,1
0,65,"[0.07373633235692978, -1.4971401926926156, 0.07368642488588506, 0.074161096210144, 0.07399404793977737, 0.07386885583400726]","[0.8302366733551025, 0.8059515357017517, 0.8175292611122131, 0.8271052241325378, 0.8182042241096497, 0.8236487507820129]","[0.09528795476746764, -1.475508372027429, 0.09528795476746764, 0.09528795476746764, 0.09528795476746764, 0.09528795476746764]","[0.09528795476746764, -1.475508372027429, 0.09528795476746764, 0.09528795476746764, 0.09528795476746764, 0.09528795476746764]",0.002,7,1
0,66,"[0.07539898157119751, -1.4955538895777245, 0.07528573671449834, 0.07578329622235103, 0.07553914934396744, 0.07548792660236359]","[0.8263920545578003, 0.8027090430259705, 0.8182209134101868, 0.8269838094711304, 0.8191366195678711, 0.8234405517578125]","[0.09585062286513904, -1.4749457039297575, 0.09585062286513904, 0.09585062286513904, 0.09585062286513904, 0.09585062286513904]","[0.09585062286513904, -1.4749457039297575, 0.09585062286513904, 0.09585062286513904, 0.09585062286513904, 0.09585062286513904]",0.002,7,1
0,67,"[0.07707251608371735, -1.493833103483059, 0.0768807570086878, 0.07742397367443843, 0.07713310420513153, 0.07711264491081238]","[0.8210938572883606, 0.8026755452156067, 0.8124539852142334, 0.8180350661277771, 0.8196516633033752, 0.823430061340332]","[0.09641302173266018, -1.4743833050622364, 0.09641302173266018, 0.09641302173266018, 0.09641302173266018, 0.09641302173266018]","[0.09641302173266018, -1.4743833050622364, 0.09641302173266018, 0.09641302173266018, 0.09641302173266018, 0.09641302173266018]",0.002,7,1
0,68,"[0.07867255061864853, -1.492289626305439, 0.07852727571596319, 0.07904617368664546, 0.07878423482179642, 0.07875102013349533]","[0.8157888650894165, 0.8001203536987305, 0.8115764856338501, 0.8091747760772705, 0.8180400729179382, 0.8211227059364319]","[0.0969751497903362, -1.4738211770045604, 0.0969751497903362, 0.0969751497903362, 0.0969751497903362, 0.0969751497903362]","[0.0969751497903362, -1.4738211770045604, 0.0969751497903362, 0.0969751497903362, 0.0969751497903362, 0.0969751497903362]",0.002,7,1
0,69,"[0.08032801747322083, -1.490669661467411, 0.08017951646913701, 0.08060996114697261, 0.08041263371706009, 0.08040472865104675]","[0.8176491856575012, 0.7998515963554382, 0.8081836700439453, 0.803426206111908, 0.8175805807113647, 0.8194081783294678]","[0.09753700545923298, -1.4732593213356635, 0.09753700545923298, 0.09753700545923298, 0.09753700545923298, 0.09753700545923298]","[0.09753700545923298, -1.4732593213356635, 0.09753700545923298, 0.09753700545923298, 0.09753700545923298, 0.09753700545923298]",0.002,7,1
0,70,"[0.08194615691900253, -1.4891259756735344, 0.08168679872621709, 0.08217398702587886, 0.0820174515247345, 0.08204177767038345]","[0.8149885535240173, 0.7970532178878784, 0.8015077710151672, 0.7993009090423584, 0.8123977184295654, 0.8152717351913452]","[0.09809858716118151, -1.472697739633715, 0.09809858716118151, 0.09809858716118151, 0.09809858716118151, 0.09809858716118151]","[0.09809858716118151, -1.472697739633715, 0.09809858716118151, 0.09809858716118151, 0.09809858716118151, 0.09809858716118151]",0.002,7,1
0,71,"[0.08363449573516846, -1.48745962352071, 0.08332807222475225, 0.08373288690533442, 0.08368320018053055, 0.083692267537117]","[0.8109363317489624, 0.7943004965782166, 0.8004639148712158, 0.7981123924255371, 0.8092456459999084, 0.8120014667510986]","[0.09865989331878224, -1.4721364334761142, 0.09865989331878224, 0.09865989331878224, 0.09865989331878224, 0.09865989331878224]","[0.09865989331878224, -1.4721364334761142, 0.09865989331878224, 0.09865989331878224, 0.09865989331878224, 0.09865989331878224]",0.002,7,1
0,72,"[0.08520377427339554, -1.48587620378051, 0.08495647112001592, 0.08528141557659907, 0.08527710288763046, 0.08531954139471054]","[0.8036985397338867, 0.7921032905578613, 0.7986204624176025, 0.7988448739051819, 0.8038935661315918, 0.8057551383972168]","[0.0992209223554096, -1.4715754044394869, 0.0992209223554096, 0.0992209223554096, 0.0992209223554096, 0.0992209223554096]","[0.0992209223554096, -1.4715754044394869, 0.0992209223554096, 0.0992209223554096, 0.0992209223554096, 0.0992209223554096]",0.002,7,1
0,73,"[0.08686675131320953, -1.4843594145825882, 0.08657294908632451, 0.08681599676098628, 0.08684840053319931, 0.08700352162122726]","[0.8000782132148743, 0.7871297597885132, 0.7925803065299988, 0.7971898317337036, 0.8010004162788391, 0.8011135458946228]","[0.09978167269521644, -1.47101465409968, 0.09978167269521644, 0.09978167269521644, 0.09978167269521644, 0.09978167269521644]","[0.09978167269521644, -1.47101465409968, 0.09978167269521644, 0.09978167269521644, 0.09978167269521644, 0.09978167269521644]",0.002,7,1
0,74,"[0.08838783204555511, -1.4827273872545739, 0.08816367784609014, 0.08838002263989253, 0.08853786438703537, 0.0886039137840271]","[0.7948911786079407, 0.7809699773788452, 0.7828729748725891, 0.7950114011764526, 0.7964581251144409, 0.7926288843154907]","[0.10034214276313845, -1.4704541840317582, 0.10034214276313845, 0.10034214276313845, 0.10034214276313845, 0.10034214276313845]","[0.10034214276313845, -1.4704541840317582, 0.10034214276313845, 0.10034214276313845, 0.10034214276313845, 0.10034214276313845]",0.002,7,1
0,75,"[0.08998709172010422, -1.4811215934208413, 0.08965522447694951, 0.08988265573468013, 0.09014486521482468, 0.09016237407922745]","[0.7904179096221924, 0.7770134806632996, 0.7826162576675415, 0.7888039350509644, 0.7915250658988953, 0.7857680916786194]","[0.10090233098489851, -1.4698939958099981, 0.10090233098489851, 0.10090233098489851, 0.10090233098489851, 0.10090233098489851]","[0.10090233098489851, -1.4698939958099981, 0.10090233098489851, 0.10090233098489851, 0.10090233098489851, 0.10090233098489851]",0.002,7,1
0,76,"[0.09151940047740936, -1.4795733255198975, 0.09116918245424444, 0.09145407258953853, 0.09174486994743347, 0.09173597395420074]","[0.7849196791648865, 0.768345057964325, 0.7781496047973633, 0.782457172870636, 0.7867816090583801, 0.7812368273735046]","[0.10146223578701119, -1.4693340910078854, 0.10146223578701119, 0.10146223578701119, 0.10146223578701119, 0.10146223578701119]","[0.10146223578701119, -1.4693340910078854, 0.10146223578701119, 0.10146223578701119, 0.10146223578701119, 0.10146223578701119]",0.002,7,1
0,77,"[0.09306498616933823, -1.4779569518617173, 0.09277517000307256, 0.09309510766949458, 0.09324466437101364, 0.0933535099029541]","[0.7823228240013123, 0.7610478401184082, 0.7712476849555969, 0.7793710827827454, 0.7780131697654724, 0.7757158279418945]","[0.1020218555967871, -1.4687744711981094, 0.1020218555967871, 0.1020218555967871, 0.1020218555967871, 0.1020218555967871]","[0.1020218555967871, -1.4687744711981094, 0.1020218555967871, 0.1020218555967871, 0.1020218555967871, 0.1020218555967871]",0.002,7,1
0,78,"[0.09455016255378723, -1.4764541772058983, 0.09428149858583623, 0.0946311193653564, 0.09485215693712234, 0.09489164501428604]","[0.7741303443908691, 0.7544319033622742, 0.7647777795791626, 0.7772102952003479, 0.7695298194885254, 0.7675284743309021]","[0.10258118884233744, -1.4682151379525592, 0.10258118884233744, 0.10258118884233744, 0.10258118884233744, 0.10258118884233744]","[0.10258118884233744, -1.4682151379525592, 0.10258118884233744, 0.10258118884233744, 0.10258118884233744, 0.10258118884233744]",0.002,7,1
0,79,"[0.09604771435260773, -1.4749299076250573, 0.09585267702211553, 0.09610096990551753, 0.09636052697896957, 0.09637735038995743]","[0.7650409936904907, 0.7479152679443359, 0.7570510506629944, 0.7730944156646729, 0.7613718509674072, 0.7610841393470764]","[0.10314023395257824, -1.4676560928423183, 0.10314023395257824, 0.10314023395257824, 0.10314023395257824, 0.10314023395257824]","[0.10314023395257824, -1.4676560928423183, 0.10314023395257824, 0.10314023395257824, 0.10314023395257824, 0.10314023395257824]",0.002,7,1
0,80,"[0.09758341312408447, -1.473406859939434, 0.09730655351747686, 0.09775332986798091, 0.0978948101401329, 0.09784699231386185]","[0.7573071718215942, 0.7421616911888123, 0.7510531544685364, 0.7644360065460205, 0.7563527822494507, 0.7535363435745239]","[0.1036989893572349, -1.4670973374376617, 0.1036989893572349, 0.1036989893572349, 0.1036989893572349, 0.1036989893572349]","[0.1036989893572349, -1.4670973374376617, 0.1036989893572349, 0.1036989893572349, 0.1036989893572349, 0.1036989893572349]",0.002,7,1
0,81,"[0.09915048629045486, -1.471941502099373, 0.09888726869692022, 0.09929363309826655, 0.09939280897378922, 0.09939427673816681]","[0.7515091300010681, 0.7376120686531067, 0.7432540059089661, 0.753811240196228, 0.749658465385437, 0.7451969385147095]","[0.10425745348684658, -1.46653887330805, 0.10425745348684658, 0.10425745348684658, 0.10425745348684658, 0.10425745348684658]","[0.10425745348684658, -1.46653887330805, 0.10425745348684658, 0.10425745348684658, 0.10425745348684658, 0.10425745348684658]",0.002,7,1
0,82,"[0.10070177167654037, -1.4704025027206917, 0.10032731691469365, 0.10074917852368159, 0.10087091475725174, 0.10080230981111526]","[0.7423284649848938, 0.7310808300971985, 0.7363951802253723, 0.7415331602096558, 0.7407669425010681, 0.737670361995697]","[0.10481562477277054, -1.465980702022126, 0.10481562477277054, 0.10481562477277054, 0.10481562477277054, 0.10481562477277054]","[0.10481562477277054, -1.465980702022126, 0.10481562477277054, 0.10481562477277054, 0.10481562477277054, 0.10481562477277054]",0.002,7,1
0,83,"[0.10221628844738007, -1.4689452362111588, 0.10190040269960576, 0.10229341566052241, 0.1022820696234703, 0.10219467431306839]","[0.7371354103088379, 0.7272969484329224, 0.733376145362854, 0.7355596423149109, 0.7315686941146851, 0.7311998605728149]","[0.10537350164718662, -1.46542282514771, 0.10537350164718662, 0.10537350164718662, 0.10537350164718662, 0.10537350164718662]","[0.10537350164718662, -1.46542282514771, 0.10537350164718662, 0.10537350164718662, 0.10537350164718662, 0.10537350164718662]",0.002,7,1
0,84,"[0.103598952293396, -1.467525766496994, 0.10329324403871709, 0.10384623586621089, 0.1037595272064209, 0.10367599874734879]","[0.7279638648033142, 0.7196502089500427, 0.7214980721473694, 0.7268700003623962, 0.7224025130271912, 0.7256490588188171]","[0.1059310825431016, -1.4648652442517949, 0.1059310825431016, 0.1059310825431016, 0.1059310825431016, 0.1059310825431016]","[0.1059310825431016, -1.4648652442517949, 0.1059310825431016, 0.1059310825431016, 0.1059310825431016, 0.1059310825431016]",0.002,7,1
0,85,"[0.10496398061513901, -1.466066264813282, 0.1047280470477503, 0.1053280073353271, 0.10511493682861328, 0.1050368994474411]","[0.7202351689338684, 0.712440013885498, 0.7163639664649963, 0.7187585830688477, 0.7145069241523743, 0.7180598974227905]","[0.10648836589435366, -1.464307960900543, 0.10648836589435366, 0.10648836589435366, 0.10648836589435366, 0.10648836589435366]","[0.10648836589435366, -1.464307960900543, 0.10648836589435366, 0.10648836589435366, 0.10648836589435366, 0.10648836589435366]",0.002,7,1
0,86,"[0.10635460913181305, -1.4646167692593117, 0.10615569749941045, 0.10670094072308345, 0.1064707338809967, 0.10645187646150589]","[0.7081913948059082, 0.7084779143333435, 0.7099345922470093, 0.7094393968582153, 0.7058824300765991, 0.7110631465911865]","[0.1070453501356167, -1.4637509766592798, 0.1070453501356167, 0.1070453501356167, 0.1070453501356167, 0.1070453501356167]","[0.1070453501356167, -1.4637509766592798, 0.1070453501356167, 0.1070453501356167, 0.1070453501356167, 0.1070453501356167]",0.002,7,1
0,87,"[0.10780643671751022, -1.4632307526520272, 0.1074898878680628, 0.10811178266491694, 0.10797346383333206, 0.10781508684158325]","[0.6948487758636475, 0.6988584995269775, 0.7011627554893494, 0.6956855058670044, 0.701202392578125, 0.7027270793914795]","[0.1076020337024048, -1.4631942930924917, 0.1076020337024048, 0.1076020337024048, 0.1076020337024048, 0.1076020337024048]","[0.1076020337024048, -1.4631942930924917, 0.1076020337024048, 0.1076020337024048, 0.1076020337024048, 0.1076020337024048]",0.002,7,1
0,88,"[0.10918650031089783, -1.4618466731956978, 0.1089561621295374, 0.1095244127460937, 0.10926423221826553, 0.1092059388756752]","[0.6883665919303894, 0.6919247508049011, 0.6899789571762085, 0.6830288767814636, 0.6924721002578735, 0.6937980055809021]","[0.10815841503107655, -1.46263791176382, 0.10815841503107655, 0.10815841503107655, 0.10815841503107655, 0.10815841503107655]","[0.10815841503107655, -1.46263791176382, 0.10815841503107655, 0.10815841503107655, 0.10815841503107655, 0.10815841503107655]",0.002,7,1
0,89,"[0.11058103293180466, -1.460516059105732, 0.11030990282167608, 0.11081997930493159, 0.11062698066234589, 0.11053651571273804]","[0.6812781691551208, 0.6854948997497559, 0.6832314729690552, 0.6701716780662537, 0.6838810443878174, 0.687853217124939]","[0.10871449255883957, -1.462081834236057, 0.10871449255883957, 0.10871449255883957, 0.10871449255883957, 0.10871449255883957]","[0.10871449255883957, -1.462081834236057, 0.10871449255883957, 0.10871449255883957, 0.10871449255883957, 0.10871449255883957]",0.002,7,1
0,90,"[0.11194499582052231, -1.4591231805137177, 0.11165506044496709, 0.11217288553204341, 0.11197127401828766, 0.11194279044866562]","[0.6723777651786804, 0.6803857684135437, 0.673898458480835, 0.6622161865234375, 0.6736898422241211, 0.6768673658370972]","[0.10927026472375466, -1.4615260620711419, 0.10927026472375466, 0.10927026472375466, 0.10927026472375466, 0.10927026472375466]","[0.10927026472375466, -1.4615260620711419, 0.10927026472375466, 0.10927026472375466, 0.10927026472375466, 0.10927026472375466]",0.002,7,1
0,91,"[0.1131950095295906, -1.4578082126430054, 0.11300546327699834, 0.11344782888378901, 0.11327631026506424, 0.11326608061790466]","[0.6614402532577515, 0.6711031198501587, 0.6657494902610779, 0.6568887829780579, 0.6638193130493164, 0.6669463515281677]","[0.1098257299647405, -1.460970596830156, 0.1098257299647405, 0.1098257299647405, 0.1098257299647405, 0.1098257299647405]","[0.1098257299647405, -1.460970596830156, 0.1098257299647405, 0.1098257299647405, 0.1098257299647405, 0.1098257299647405]",0.002,7,1
0,92,"[0.11450757086277008, -1.4564571914127846, 0.11434394518007451, 0.11469058572735591, 0.11453203856945038, 0.11456141620874405]","[0.650830864906311, 0.6572661995887756, 0.6558193564414978, 0.648815393447876, 0.6545360088348389, 0.6572194695472717]","[0.11038088672157781, -1.4604154400733187, 0.11038088672157781, 0.11038088672157781, 0.11038088672157781, 0.11038088672157781]","[0.11038088672157781, -1.4604154400733187, 0.11038088672157781, 0.11038088672157781, 0.11038088672157781, 0.11038088672157781]",0.002,7,1
0,93,"[0.11580555886030197, -1.455163837676384, 0.11556035677065069, 0.11588518201794429, 0.11585249751806259, 0.11594689637422562]","[0.6393197774887085, 0.6502445340156555, 0.6509374976158142, 0.6415161490440369, 0.6453559994697571, 0.6465994119644165]","[0.11093573343491375, -1.4598605933599829, 0.11093573343491375, 0.11093573343491375, 0.11093573343491375, 0.11093573343491375]","[0.11093573343491375, -1.4598605933599829, 0.11093573343491375, 0.11093573343491375, 0.11093573343491375, 0.11093573343491375]",0.002,7,1
0,94,"[0.11708377301692963, -1.4538270396045228, 0.11689263979067022, 0.11707942068066401, 0.11718763411045074, 0.11717898398637772]","[0.6318093538284302, 0.6450974941253662, 0.6404311656951904, 0.6306278109550476, 0.6357889175415039, 0.6356593370437622]","[0.11149026854626641, -1.4593060582486301, 0.11149026854626641, 0.11149026854626641, 0.11149026854626641, 0.11149026854626641]","[0.11149026854626641, -1.4593060582486301, 0.11149026854626641, 0.11149026854626641, 0.11149026854626641, 0.11149026854626641]",0.002,7,1
0,95,"[0.11830452084541321, -1.4525071394494553, 0.11810380617250615, 0.11828116952862544, 0.1184476763010025, 0.11849483847618103]","[0.6193703413009644, 0.634739100933075, 0.6294535994529724, 0.6199108362197876, 0.6274468302726746, 0.6234458088874817]","[0.11204449049802913, -1.4587518362968674, 0.11204449049802913, 0.11204449049802913, 0.11204449049802913, 0.11204449049802913]","[0.11204449049802913, -1.4587518362968674, 0.11204449049802913, 0.11204449049802913, 0.11204449049802913, 0.11204449049802913]",0.002,7,1
0,96,"[0.11956010013818741, -1.4512997654131432, 0.11941987672914678, 0.11949185907330317, 0.11973848193883896, 0.11971285939216614]","[0.6097104549407959, 0.6188881993293762, 0.6155038475990295, 0.6106712818145752, 0.6181334257125854, 0.6120259761810303]","[0.11259839773347476, -1.4581979290614218, 0.11259839773347476, 0.11259839773347476, 0.11259839773347476, 0.11259839773347476]","[0.11259839773347476, -1.4581979290614218, 0.11259839773347476, 0.11259839773347476, 0.11259839773347476, 0.11259839773347476]",0.002,7,1
0,97,"[0.1207079067826271, -1.4500305515578766, 0.12071592012514287, 0.1207093435474853, 0.1209355816245079, 0.12097079306840897]","[0.5995913147926331, 0.6102803945541382, 0.6082898378372192, 0.6051682829856873, 0.603003740310669, 0.6021977066993713]","[0.11315198869676027, -1.4576443380981363, 0.11315198869676027, 0.11315198869676027, 0.11315198869676027, 0.11315198869676027]","[0.11315198869676027, -1.4576443380981363, 0.11315198869676027, 0.11315198869676027, 0.11315198869676027, 0.11315198869676027]",0.002,7,1
0,98,"[0.12188968807458878, -1.4487869602492829, 0.12180978456606084, 0.12188999235119624, 0.12213454395532608, 0.12217754125595093]","[0.5905364155769348, 0.602268397808075, 0.5978851914405823, 0.5993173718452454, 0.5916152596473694, 0.5905151963233948]","[0.11370526183293096, -1.4570910649619655, 0.11370526183293096, 0.11370526183293096, 0.11370526183293096, 0.11370526183293096]","[0.11370526183293096, -1.4570910649619655, 0.11370526183293096, 0.11370526183293096, 0.11370526183293096, 0.11370526183293096]",0.002,7,1
0,99,"[0.12302522361278534, -1.447526016538479, 0.12299758592714483, 0.12307064115490718, 0.12323037534952164, 0.12331565469503403]","[0.5846951603889465, 0.5891768336296082, 0.5873933434486389, 0.590093195438385, 0.5787492394447327, 0.5780127644538879]","[0.11425821558792479, -1.4565381112069717, 0.11425821558792479, 0.11425821558792479, 0.11425821558792479, 0.11425821558792479]","[0.11425821558792479, -1.4565381112069717, 0.11425821558792479, 0.11425821558792479, 0.11425821558792479, 0.11425821558792479]",0.002,7,1
0,100,"[0.12410206347703934, -1.4463984009674569, 0.1241067091571253, 0.12416796266522212, 0.12445998936891556, 0.12446407973766327]","[0.5698075890541077, 0.5793272852897644, 0.5749098062515259, 0.5777711272239685, 0.5675404071807861, 0.5666858553886414]","[0.11481084840857694, -1.4559854783863195, 0.11481084840857694, 0.11481084840857694, 0.11481084840857694, 0.11481084840857694]","[0.11481084840857694, -1.4559854783863195, 0.11481084840857694, 0.11481084840857694, 0.11481084840857694, 0.11481084840857694]",0.002,7,1
0,101,"[0.12530748546123505, -1.4452251207879563, 0.12527400652040654, 0.12533895551647944, 0.12562060356140137, 0.12561887502670288]","[0.5563836693763733, 0.5640844106674194, 0.5641478896141052, 0.5639563798904419, 0.5574116706848145, 0.555460512638092]","[0.11536315874262389, -1.4554331680522727, 0.11536315874262389, 0.11536315874262389, 0.11536315874262389, 0.11536315874262389]","[0.11536315874262389, -1.4554331680522727, 0.11536315874262389, 0.11536315874262389, 0.11536315874262389, 0.11536315874262389]",0.002,7,1
0,102,"[0.12629848718643188, -1.4441286337426682, 0.1264107863055628, 0.1264023023792724, 0.12672284245491028, 0.1266857534646988]","[0.5458475351333618, 0.5480177998542786, 0.5539915561676025, 0.5523096919059753, 0.5469893217086792, 0.5445773005485535]","[0.11591514503870809, -1.4548811817561884, 0.11591514503870809, 0.11591514503870809, 0.11591514503870809, 0.11591514503870809]","[0.11591514503870809, -1.4548811817561884, 0.11591514503870809, 0.11591514503870809, 0.11591514503870809, 0.11591514503870809]",0.002,7,1
0,103,"[0.12743744254112244, -1.4430125814727326, 0.12746793428529912, 0.12752000867810054, 0.1277913898229599, 0.1277948021888733]","[0.535843551158905, 0.5381640195846558, 0.5386514663696289, 0.5385804772377014, 0.5354066491127014, 0.5321113467216492]","[0.11646680574638203, -1.4543295210485145, 0.11646680574638203, 0.11646680574638203, 0.11646680574638203, 0.11646680574638203]","[0.11646680574638203, -1.4543295210485145, 0.11646680574638203, 0.11646680574638203, 0.11646680574638203, 0.11646680574638203]",0.002,7,1
0,104,"[0.12849079072475433, -1.441925437455513, 0.12856847444643194, 0.12857524930920405, 0.1287996917963028, 0.12876559793949127]","[0.5249460339546204, 0.5280841588973999, 0.528086245059967, 0.5278550386428833, 0.5227636098861694, 0.5203565955162048]","[0.11701813931611282, -1.4537781874787838, 0.11701813931611282, 0.11701813931611282, 0.11701813931611282, 0.11701813931611282]","[0.11701813931611282, -1.4537781874787838, 0.11701813931611282, 0.11701813931611282, 0.11701813931611282, 0.11701813931611282]",0.002,7,1
0,105,"[0.12955079972743988, -1.4409722548774262, 0.12962562242616826, 0.1296664911457519, 0.12983866035938263, 0.12978558242321014]","[0.5147519111633301, 0.5150803327560425, 0.5163753628730774, 0.5169732570648193, 0.5088540315628052, 0.5092845559120178]","[0.11756914419928645, -1.45322718259561, 0.11756914419928645, 0.11756914419928645, 0.11756914419928645, 0.11756914419928645]","[0.11756914419928645, -1.45322718259561, 0.11756914419928645, 0.11756914419928645, 0.11756914419928645, 0.11756914419928645]",0.002,7,1
0,106,"[0.1305888593196869, -1.4399085205844422, 0.13059837022890264, 0.13067726671185298, 0.13075102865695953, 0.13075996935367584]","[0.5015899538993835, 0.5022643804550171, 0.5058287978172302, 0.5078080296516418, 0.49753260612487793, 0.4983771741390228]","[0.11811981884821209, -1.4526765079466846, 0.11811981884821209, 0.11811981884821209, 0.11811981884821209, 0.11811981884821209]","[0.11811981884821209, -1.4526765079466846, 0.11811981884821209, 0.11811981884821209, 0.11811981884821209, 0.11811981884821209]",0.002,7,1
0,107,"[0.1316113919019699, -1.4389425677112122, 0.13168126741518194, 0.13168589651074214, 0.13181021809577942, 0.13172586262226105]","[0.48892495036125183, 0.49152711033821106, 0.4956118166446686, 0.4934656620025635, 0.48562243580818176, 0.4869803190231323]","[0.11867016171612652, -1.45212616507877, 0.11867016171612652, 0.11867016171612652, 0.11867016171612652, 0.11867016171612652]","[0.11867016171612652, -1.45212616507877, 0.11867016171612652, 0.11867016171612652, 0.11867016171612652, 0.11867016171612652]",0.002,7,1
0,108,"[0.13250349462032318, -1.438044936662056, 0.13262778917421514, 0.13268737375225825, 0.13273769617080688, 0.13269048929214478]","[0.4788755178451538, 0.48182323575019836, 0.4834393560886383, 0.4794083833694458, 0.47421637177467346, 0.47658830881118774]","[0.11922017125719844, -1.451576155537698, 0.11922017125719844, 0.11922017125719844, 0.11922017125719844, 0.11922017125719844]","[0.11922017125719844, -1.451576155537698, 0.11922017125719844, 0.11922017125719844, 0.11922017125719844, 0.11922017125719844]",0.002,7,1
0,109,"[0.13348320126533508, -1.4370029878667374, 0.1335375944720667, 0.13369683801617427, 0.13360168039798737, 0.13355888426303864]","[0.4680667519569397, 0.46911320090293884, 0.47304677963256836, 0.46577689051628113, 0.4646949768066406, 0.46365073323249817]","[0.11976984592653282, -1.4510264808683637, 0.11976984592653282, 0.11976984592653282, 0.11976984592653282, 0.11976984592653282]","[0.11976984592653282, -1.4510264808683637, 0.11976984592653282, 0.11976984592653282, 0.11976984592653282, 0.11976984592653282]",0.002,7,1
0,110,"[0.13440915942192078, -1.4361221355250855, 0.13445026079286748, 0.13459674894299312, 0.13450229167938232, 0.13445985317230225]","[0.4560706913471222, 0.45928841829299927, 0.45900797843933105, 0.45253315567970276, 0.45140570402145386, 0.45356255769729614]","[0.12031918418017519, -1.4504771426147214, 0.12031918418017519, 0.12031918418017519, 0.12031918418017519, 0.12031918418017519]","[0.12031918418017519, -1.4504771426147214, 0.12031918418017519, 0.12031918418017519, 0.12031918418017519, 0.12031918418017519]",0.002,7,1
0,111,"[0.13526275753974915, -1.4352514457753678, 0.13539344469179326, 0.13547675191845698, 0.13536278903484344, 0.13538268208503723]","[0.44483667612075806, 0.44549402594566345, 0.4425516426563263, 0.44281911849975586, 0.43975529074668884, 0.4414001405239105]","[0.12086818447511613, -1.4499281423197805, 0.12086818447511613, 0.12086818447511613, 0.12086818447511613, 0.12086818447511613]","[0.12086818447511613, -1.4499281423197805, 0.12086818447511613, 0.12086818447511613, 0.12086818447511613, 0.12086818447511613]",0.002,7,1
0,112,"[0.13614684343338013, -1.4343711596778412, 0.13626081148256475, 0.13639156400646968, 0.13621099293231964, 0.13619349896907806]","[0.4304366111755371, 0.43340814113616943, 0.43095409870147705, 0.4319715201854706, 0.427360862493515, 0.43127280473709106]","[0.12141684526929539, -1.4493794815256011, 0.12141684526929539, 0.12141684526929539, 0.12141684526929539, 0.12141684526929539]","[0.12141684526929539, -1.4493794815256011, 0.12141684526929539, 0.12141684526929539, 0.12141684526929539, 0.12141684526929539]",0.002,7,1
0,113,"[0.13697874546051025, -1.4335362327149888, 0.13708669344057256, 0.13722889005627437, 0.13709113001823425, 0.1370527595281601]","[0.42019832134246826, 0.422794908285141, 0.42017844319343567, 0.4182594120502472, 0.4182596504688263, 0.42007216811180115]","[0.12196516502160637, -1.44883116177329, 0.12196516502160637, 0.12196516502160637, 0.12196516502160637, 0.12196516502160637]","[0.12196516502160637, -1.44883116177329, 0.12196516502160637, 0.12196516502160637, 0.12196516502160637, 0.12196516502160637]",0.002,7,1
0,114,"[0.13776126503944397, -1.4327624601176758, 0.1378720442401331, 0.13802353918041987, 0.1378450244665146, 0.1378178894519806]","[0.40776628255844116, 0.4106369912624359, 0.4079769551753998, 0.4016004800796509, 0.4089019000530243, 0.41026777029037476]","[0.12251314219190039, -1.4482831846029962, 0.12251314219190039, 0.12251314219190039, 0.12251314219190039, 0.12251314219190039]","[0.12251314219190039, -1.4482831846029962, 0.12251314219190039, 0.12251314219190039, 0.12251314219190039, 0.12251314219190039]",0.002,7,1
0,115,"[0.13856031000614166, -1.4319442075541993, 0.13866931596864873, 0.13878826677288814, 0.13862033188343048, 0.1386326551437378]","[0.39692261815071106, 0.40000149607658386, 0.3933362066745758, 0.3868786692619324, 0.3984605669975281, 0.3992455303668976]","[0.12306077524099104, -1.4477355515539054, 0.12306077524099104, 0.12306077524099104, 0.12306077524099104, 0.12306077524099104]","[0.12306077524099104, -1.4477355515539054, 0.12306077524099104, 0.12306077524099104, 0.12306077524099104, 0.12306077524099104]",0.002,7,1
0,116,"[0.139425590634346, -1.4311981958201905, 0.13940984407533819, 0.13963250696148677, 0.13940085470676422, 0.13936491310596466]","[0.38575929403305054, 0.3875769376754761, 0.3850533366203308, 0.37639662623405457, 0.38508719205856323, 0.3879387676715851]","[0.12360806263065853, -1.447188264164238, 0.12360806263065853, 0.12360806263065853, 0.12360806263065853, 0.12360806263065853]","[0.12360806263065853, -1.447188264164238, 0.12360806263065853, 0.12360806263065853, 0.12360806263065853, 0.12360806263065853]",0.002,7,1
0,117,"[0.14014220237731934, -1.4304881256869812, 0.14020806947817022, 0.1403621870228271, 0.1401059478521347, 0.14007671177387238]","[0.37431660294532776, 0.3748307228088379, 0.3722432255744934, 0.3676726818084717, 0.37359702587127686, 0.3760714828968048]","[0.12415500282365388, -1.4466413239712428, 0.12415500282365388, 0.12415500282365388, 0.12415500282365388, 0.12415500282365388]","[0.12415500282365388, -1.4466413239712428, 0.12415500282365388, 0.12415500282365388, 0.12415500282365388, 0.12415500282365388]",0.002,7,1
0,118,"[0.14093820750713348, -1.4297231447747727, 0.14094859758485967, 0.1410478788563232, 0.14087508618831635, 0.14086495339870453]","[0.36230480670928955, 0.36601522564888, 0.361150860786438, 0.3577054440975189, 0.36319398880004883, 0.3658001124858856]","[0.12470159428370346, -1.446094732511193, 0.12470159428370346, 0.12470159428370346, 0.12470159428370346, 0.12470159428370346]","[0.12470159428370346, -1.446094732511193, 0.12470159428370346, 0.12470159428370346, 0.12470159428370346, 0.12470159428370346]",0.002,7,1
0,119,"[0.14163681864738464, -1.429036707883217, 0.14156610170473272, 0.14177839338269038, 0.14156760275363922, 0.1415359228849411]","[0.35356464982032776, 0.3517218232154846, 0.35120517015457153, 0.3450583517551422, 0.35204413533210754, 0.35335075855255127]","[0.1252478354755131, -1.4455484913193835, 0.1252478354755131, 0.1252478354755131, 0.1252478354755131, 0.1252478354755131]","[0.1252478354755131, -1.4455484913193835, 0.1252478354755131, 0.1252478354755131, 0.1252478354755131, 0.1252478354755131]",0.002,7,1
0,120,"[0.14228542149066925, -1.4284431350282212, 0.14227420488466436, 0.14238051950421138, 0.1421618014574051, 0.14220264554023743]","[0.3405945897102356, 0.3416843116283417, 0.3382362127304077, 0.3335017263889313, 0.34078216552734375, 0.3429967761039734]","[0.1257937248647725, -1.445002601930124, 0.1257937248647725, 0.1257937248647725, 0.1257937248647725, 0.1257937248647725]","[0.1257937248647725, -1.445002601930124, 0.1257937248647725, 0.1257937248647725, 0.1257937248647725, 0.1257937248647725]",0.002,7,1
0,121,"[0.14297515153884888, -1.4278259140304108, 0.14286786714662725, 0.1430085140415649, 0.14285960793495178, 0.1428821086883545]","[0.32763671875, 0.32755452394485474, 0.32809075713157654, 0.32155275344848633, 0.32909390330314636, 0.3307410180568695]","[0.1263392609181595, -1.444457065876737, 0.1263392609181595, 0.1263392609181595, 0.1263392609181595, 0.1263392609181595]","[0.1263392609181595, -1.444457065876737, 0.1263392609181595, 0.1263392609181595, 0.1263392609181595, 0.1263392609181595]",0.002,7,1
0,122,"[0.14354346692562103, -1.4272066217711945, 0.14354068437685186, 0.14371375619854732, 0.14345982670783997, 0.1435391753911972]","[0.31756219267845154, 0.31611138582229614, 0.3165157437324524, 0.3122846484184265, 0.31945979595184326, 0.32004162669181824]","[0.1268844421033444, -1.4439118846915522, 0.1268844421033444, 0.1268844421033444, 0.1268844421033444, 0.1268844421033444]","[0.1268844421033444, -1.4439118846915522, 0.1268844421033444, 0.1268844421033444, 0.1268844421033444, 0.1268844421033444]",0.002,7,1
0,123,"[0.14423246681690216, -1.4266074013761063, 0.14406854311098272, 0.1441996532627563, 0.14407318830490112, 0.14413145184516907]","[0.30604663491249084, 0.30404046177864075, 0.30411893129348755, 0.30122026801109314, 0.30817151069641113, 0.3094943165779114]","[0.12742926688899436, -1.4433670599059023, 0.12742926688899436, 0.12742926688899436, 0.12742926688899436, 0.12742926688899436]","[0.12742926688899436, -1.4433670599059023, 0.12742926688899436, 0.12742926688899436, 0.12742926688899436, 0.12742926688899436]",0.002,7,1
0,124,"[0.14479200541973114, -1.4259529572776337, 0.14470082918276006, 0.14477090417828364, 0.14464238286018372, 0.1447250247001648]","[0.2941756248474121, 0.29370778799057007, 0.2950192987918854, 0.2925991117954254, 0.296631395816803, 0.29865315556526184]","[0.12797373374477752, -1.442822593050119, 0.12797373374477752, 0.12797373374477752, 0.12797373374477752, 0.12797373374477752]","[0.12797373374477752, -1.442822593050119, 0.12797373374477752, 0.12797373374477752, 0.12797373374477752, 0.12797373374477752]",0.002,7,1
0,125,"[0.1453379988670349, -1.4254214775613328, 0.14521819749941045, 0.14537076532330317, 0.1452634632587433, 0.14531169831752777]","[0.2823794484138489, 0.28115198016166687, 0.2819996178150177, 0.2832616865634918, 0.28766030073165894, 0.28737083077430725]","[0.12851784114136747, -1.4422784856535291, 0.12851784114136747, 0.12851784114136747, 0.12851784114136747, 0.12851784114136747]","[0.12851784114136747, -1.4422784856535291, 0.12851784114136747, 0.12851784114136747, 0.12851784114136747, 0.12851784114136747]",0.002,7,1
0,126,"[0.145908385515213, -1.424916611318924, 0.14580995241274053, 0.14584474145855708, 0.14588335156440735, 0.14585286378860474]","[0.2736107409000397, 0.2712734639644623, 0.27340206503868103, 0.2721225619316101, 0.2768694758415222, 0.27683591842651367]","[0.12906158755044736, -1.4417347392444493, 0.12906158755044736, 0.12906158755044736, 0.12906158755044736, 0.12906158755044736]","[0.12906158755044736, -1.4417347392444493, 0.12906158755044736, 0.12906158755044736, 0.12906158755044736, 0.12906158755044736]",0.002,7,1
0,127,"[0.14643941819667816, -1.424423487191536, 0.14631492296327764, 0.1464053827473144, 0.1463131308555603, 0.1464073807001114]","[0.26190775632858276, 0.2606706917285919, 0.26508378982543945, 0.26393696665763855, 0.2658088803291321, 0.26496249437332153]","[0.12960497144471436, -1.4411913553501823, 0.12960497144471436, 0.12960497144471436, 0.12960497144471436, 0.12960497144471436]","[0.12960497144471436, -1.4411913553501823, 0.12960497144471436, 0.12960497144471436, 0.12960497144471436, 0.12960497144471436]",0.002,7,1
0,128,"[0.14697670936584473, -1.4238895040801545, 0.14677983919252569, 0.1468629080006103, 0.14682510495185852, 0.14693394303321838]","[0.2511579990386963, 0.2529459595680237, 0.2528689503669739, 0.25369176268577576, 0.2549554109573364, 0.25489938259124756]","[0.13014799129788393, -1.4406483354970125, 0.13014799129788393, 0.13014799129788393, 0.13014799129788393, 0.13014799129788393]","[0.13014799129788393, -1.4406483354970125, 0.13014799129788393, 0.13014799129788393, 0.13014799129788393, 0.13014799129788393]",0.002,7,1
0,129,"[0.14742223918437958, -1.423418865805008, 0.14728147188295537, 0.14732126771893306, 0.14734476804733276, 0.14739806950092316]","[0.2430967539548874, 0.24313674867153168, 0.24200312793254852, 0.24353566765785217, 0.24593578279018402, 0.24472394585609436]","[0.13069064558469398, -1.4401056812102027, 0.13069064558469398, 0.13069064558469398, 0.13069064558469398, 0.13069064558469398]","[0.13069064558469398, -1.4401056812102027, 0.13069064558469398, 0.13069064558469398, 0.13069064558469398, 0.13069064558469398]",0.002,7,1
0,130,"[0.14791595935821533, -1.4229933035424729, 0.14769059816469365, 0.14774314939465327, 0.14781826734542847, 0.14789733290672302]","[0.23380891978740692, 0.23071607947349548, 0.23241622745990753, 0.23370638489723206, 0.2357322722673416, 0.23383988440036774]","[0.13123293278090936, -1.4395633940139871, 0.13123293278090936, 0.13123293278090936, 0.13123293278090936, 0.13123293278090936]","[0.13123293278090936, -1.4395633940139871, 0.13123293278090936, 0.13123293278090936, 0.13123293278090936, 0.13123293278090936]",0.002,7,1
0,131,"[0.14837054908275604, -1.4225478929332276, 0.14820844331850225, 0.14822415887799067, 0.14828413724899292, 0.1483399122953415]","[0.22410766780376434, 0.22027504444122314, 0.22135211527347565, 0.2241024225950241, 0.22522220015525818, 0.22322434186935425]","[0.1317748513633259, -1.4390214754315707, 0.1317748513633259, 0.1317748513633259, 0.1317748513633259, 0.1317748513633259]","[0.1317748513633259, -1.4390214754315707, 0.1317748513633259, 0.1317748513633259, 0.1317748513633259, 0.1317748513633259]",0.002,7,1
0,132,"[0.14879977703094482, -1.422120825653412, 0.14858657518495733, 0.14864151060070796, 0.14866511523723602, 0.14874058961868286]","[0.21283762156963348, 0.21166980266571045, 0.21100425720214844, 0.21439865231513977, 0.21468041837215424, 0.213098406791687]","[0.1323163998097749, -1.4384799269851216, 0.1323163998097749, 0.1323163998097749, 0.1323163998097749, 0.1323163998097749]","[0.1323163998097749, -1.4384799269851216, 0.1323163998097749, 0.1323163998097749, 0.1323163998097749, 0.1323163998097749]",0.002,7,1
0,133,"[0.14919701218605042, -1.421730862264969, 0.14899140993227178, 0.14902500688519282, 0.14906471967697144, 0.14919672906398773]","[0.20631814002990723, 0.20076802372932434, 0.20311647653579712, 0.20571421086788177, 0.20440690219402313, 0.20451198518276215]","[0.13285757659912725, -1.4379387501957692, 0.13285757659912725, 0.13285757659912725, 0.13285757659912725, 0.13285757659912725]","[0.13285757659912725, -1.4379387501957692, 0.13285757659912725, 0.13285757659912725, 0.13285757659912725, 0.13285757659912725]",0.002,7,1
0,134,"[0.14956027269363403, -1.4212809664062043, 0.14938146272768194, 0.1494329410740356, 0.1494709849357605, 0.14955468475818634]","[0.19585248827934265, 0.19117388129234314, 0.19531607627868652, 0.1981738656759262, 0.1965719759464264, 0.19409671425819397]","[0.13339838021129782, -1.4373979465835987, 0.13339838021129782, 0.13339838021129782, 0.13339838021129782, 0.13339838021129782]","[0.13339838021129782, -1.4373979465835987, 0.13339838021129782, 0.13339838021129782, 0.13339838021129782, 0.13339838021129782]",0.002,7,1
0,135,"[0.14995300769805908, -1.4208974552205582, 0.14979678789247686, 0.14988069116558833, 0.14985063672065735, 0.15004464983940125]","[0.18497678637504578, 0.18283003568649292, 0.18491153419017792, 0.18993428349494934, 0.18656843900680542, 0.18496815860271454]","[0.13393880912724965, -1.4368575176676468, 0.13393880912724965, 0.13393880912724965, 0.13393880912724965, 0.13393880912724965]","[0.13393880912724965, -1.4368575176676468, 0.13393880912724965, 0.13393880912724965, 0.13393880912724965, 0.13393880912724965]",0.002,7,1
0,136,"[0.15031741559505463, -1.420579509144165, 0.15014583269228154, 0.15014545499768062, 0.15023702383041382, 0.15029120445251465]","[0.1762952357530594, 0.1746034324169159, 0.17676231265068054, 0.18162715435028076, 0.178012415766716, 0.17402823269367218]","[0.13447886182899826, -1.4363174649658983, 0.13447886182899826, 0.13447886182899826, 0.13447886182899826, 0.13447886182899826]","[0.13447886182899826, -1.4363174649658983, 0.13447886182899826, 0.13447886182899826, 0.13447886182899826, 0.13447886182899826]",0.002,7,1
0,137,"[0.15065351128578186, -1.4202314031175156, 0.150522534047262, 0.1504724460789184, 0.15049690008163452, 0.15061749517917633]","[0.16783563792705536, 0.1675102561712265, 0.16914260387420654, 0.1728716939687729, 0.1667255014181137, 0.16596899926662445]","[0.1350185367996159, -1.4357777899952806, 0.1350185367996159, 0.1350185367996159, 0.1350185367996159, 0.1350185367996159]","[0.1350185367996159, -1.4357777899952806, 0.1350185367996159, 0.1350185367996159, 0.1350185367996159, 0.1350185367996159]",0.002,7,1
0,138,"[0.15099723637104034, -1.4198883187821885, 0.15082294145692998, 0.15087775766339107, 0.15093307197093964, 0.1509406864643097]","[0.15875005722045898, 0.15915262699127197, 0.16248095035552979, 0.16230806708335876, 0.15949608385562897, 0.15708012878894806]","[0.13555783252323578, -1.4352384942716607, 0.13555783252323578, 0.13555783252323578, 0.13555783252323578, 0.13555783252323578]","[0.13555783252323578, -1.4352384942716607, 0.13555783252323578, 0.13555783252323578, 0.13555783252323578, 0.13555783252323578]",0.002,7,1
0,139,"[0.1512768268585205, -1.4195763182691117, 0.1511166731463831, 0.1511351305195312, 0.15118488669395447, 0.15129639208316803]","[0.15088096261024475, 0.15240705013275146, 0.1530493199825287, 0.15429043769836426, 0.15131747722625732, 0.14994478225708008]","[0.13609674748505646, -1.43469957930984, 0.13609674748505646, 0.13609674748505646, 0.13609674748505646, 0.13609674748505646]","[0.13609674748505646, -1.43469957930984, 0.13609674748505646, 0.13609674748505646, 0.13609674748505646, 0.13609674748505646]",0.002,7,1
0,140,"[0.151540145277977, -1.419314296250679, 0.15139466920961553, 0.15141014635052485, 0.15145239233970642, 0.1515580415725708]","[0.14237889647483826, 0.14660705626010895, 0.14500775933265686, 0.14711706340312958, 0.14109228551387787, 0.14095081388950348]","[0.13663528017134585, -1.4341610466235508, 0.13663528017134585, 0.13663528017134585, 0.13663528017134585, 0.13663528017134585]","[0.13663528017134585, -1.4341610466235508, 0.13663528017134585, 0.13663528017134585, 0.13663528017134585, 0.13663528017134585]",0.002,7,1
0,141,"[0.15184958279132843, -1.4189705860665818, 0.1516812483416956, 0.1516621547886352, 0.15166863799095154, 0.15187819302082062]","[0.13282930850982666, 0.13658635318279266, 0.13766005635261536, 0.13718178868293762, 0.13344413042068481, 0.13150669634342194]","[0.1371734290694457, -1.4336228977254508, 0.1371734290694457, 0.1371734290694457, 0.1371734290694457, 0.1371734290694457]","[0.1371734290694457, -1.4336228977254508, 0.1371734290694457, 0.1371734290694457, 0.1371734290694457, 0.1371734290694457]",0.002,7,1
0,142,"[0.15204443037509918, -1.418738843207695, 0.15195209184755498, 0.1519377666660766, 0.15197190642356873, 0.15209345519542694]","[0.12712864577770233, 0.13022945821285248, 0.1309366375207901, 0.12919951975345612, 0.12574996054172516, 0.12340681254863739]","[0.13771119266777582, -1.4330851341271207, 0.13771119266777582, 0.13771119266777582, 0.13771119266777582, 0.13771119266777582]","[0.13771119266777582, -1.4330851341271207, 0.13771119266777582, 0.13771119266777582, 0.13771119266777582, 0.13771119266777582]",0.002,7,1
0,143,"[0.15231698751449585, -1.41847317040477, 0.15222675005067998, 0.15221433221783442, 0.15226015448570251, 0.15229815244674683]","[0.11631971597671509, 0.12318231910467148, 0.12245919555425644, 0.12143350392580032, 0.11854592710733414, 0.1161341741681099]","[0.13824856945583813, -1.4325477573390584, 0.13824856945583813, 0.13824856945583813, 0.13824856945583813, 0.13824856945583813]","[0.13824856945583813, -1.4325477573390584, 0.13824856945583813, 0.13824856945583813, 0.13824856945583813, 0.13824856945583813]",0.002,7,1
0,144,"[0.15249180793762207, -1.4182754916003724, 0.15236360231508428, 0.15230803071942134, 0.1525155007839203, 0.15254242718219757]","[0.11239750683307648, 0.11911099404096603, 0.11635443568229675, 0.11422213912010193, 0.11103277653455734, 0.10897326469421387]","[0.13878555792422115, -1.4320107688706754, 0.13878555792422115, 0.13878555792422115, 0.13878555792422115, 0.13878555792422115]","[0.13878555792422115, -1.4320107688706754, 0.13878555792422115, 0.13878555792422115, 0.13878555792422115, 0.13878555792422115]",0.002,7,1
0,145,"[0.1527036428451538, -1.417969436650612, 0.15264732042421514, 0.15258698045697017, 0.15265998244285583, 0.15271712839603424]","[0.10217112302780151, 0.1084245890378952, 0.10821989178657532, 0.10673472285270691, 0.10449756681919098, 0.1008945107460022]","[0.13932215656460414, -1.4314741702302924, 0.13932215656460414, 0.13932215656460414, 0.13932215656460414, 0.13932215656460414]","[0.13932215656460414, -1.4314741702302924, 0.13932215656460414, 0.13932215656460414, 0.13932215656460414, 0.13932215656460414]",0.002,7,1
0,146,"[0.15292832255363464, -1.4177442801049729, 0.15290815034975225, 0.15271584569897456, 0.15283018350601196, 0.1529609113931656]","[0.09642250835895538, 0.1065622866153717, 0.10275477170944214, 0.1015678197145462, 0.0950733944773674, 0.09450074285268784]","[0.13985836386976125, -1.4309379629251353, 0.13985836386976125, 0.13985836386976125, 0.13985836386976125, 0.13985836386976125]","[0.13985836386976125, -1.4309379629251353, 0.13985836386976125, 0.13985836386976125, 0.13985836386976125, 0.13985836386976125]",0.002,7,1
