Arnibjarnst/BoxLift/logs/ur_rtde/trajectory_dur=10.0_delay=1.0_ampl=20.0_sim.csv
arm_idx,step,actual_q,expected_q,loop_time,robot_mode,safety_mode
0,-1,"[0.29340807646438105, -1.2777515520646414, 0.29801145088810654, 0.28411977554255824, 0.29423758166667896, 0.30375510011924317]","[0.0, -1.5707963267948966, 0.0, 0.0, 0.0, 0.0]",0.002,7,1
0,-1,"[0.29283405272122376, -1.27832486504406, 0.29742842110036555, 0.2835639234370974, 0.2936619350790283, 0.3031608334525765]","[0.0, -1.5707963267948966, 0.0, 0.0, 0.0, 0.0]",0.002,7,1
0,-1,"[0.2921231236069702, -1.2790349138765462, 0.29670633798878143, 0.2828754999185549, 0.29294899606986713, 0.3024248334525765]","[0.0, -1.5707963267948966, 0.0, 0.0, 0.0, 0.0]",0.002,7,1
0,-1,"[0.29102775184669355, -1.280128929333122, 0.29559378058587876, 0.28181480389949615, 0.29185052754216495, 0.30129083345257646]","[0.0, -1.5707963267948966, 0.0, 0.0, 0.0, 0.0]",0.002,7,1
0,-1,"[0.2897913533871221, -1.2813637968678808, 0.29433798387008026, 0.28061754560637875, 0.29061063361318895, 0.30001083345257645]","[0.0, -1.5707963267948966, 0.0, 0.0, 0.0, 0.0]",0.002,7,1
0,-1,"[0.2890804242728685, -1.282073845700367, 0.29361590075849614, 0.2799291220878362, 0.2898976946040277, 0.2992748334525765]","[0.0, -1.5707963267948966, 0.0, 0.0, 0.0, 0.0]",0.002,7,1
0,-1,"[0.2874731062754256, -1.2836791734955542, 0.2919833650279582, 0.2783726863067836, 0.2882858324963589, 0.2976108334525765]","[0.0, -1.5707963267948966, 0.0, 0.0, 0.0, 0.0]",0.002,7,1
0,-1,"[0.28586385640538964, -1.2852864307712641, 0.29034886711505176, 0.27681437980964796, 0.28667203305442607, 0.2959448334525765]","[0.0, -1.5707963267948966, 0.0, 0.0, 0.0, 0.0]",0.002,7,1
0,-1,"[0.28433381331166996, -1.2868145793455277, 0.28879481867925116, 0.27533277267191514, 0.28513766431731824, 0.29436083345257646]","[0.0, -1.5707963267948966, 0.0, 0.0, 0.0, 0.0]",0.002,7,1
0,-1,"[0.28323650967880026, -1.2879105242826263, 0.28768029909398, 0.2742702059367734, 0.28403725845535205, 0.2932248334525765]","[0.0, -1.5707963267948966, 0.0, 0.0, 0.0, 0.0]",0.002,7,1
0,-1,"[0.28177794587102456, -1.2893672820775377, 0.2861988514058115, 0.2728578152941115, 0.28257457108601314, 0.2917148334525765]","[0.0, -1.5707963267948966, 0.0, 0.0, 0.0, 0.0]",0.002,7,1
0,-1,"[0.2799001657105504, -1.2912427371459536, 0.28429161014369264, 0.2710394792614394, 0.28069148218138085, 0.2897708334525765]","[0.0, -1.5707963267948966, 0.0, 0.0, 0.0, 0.0]",0.002,7,1
0,-1,"[0.27753362178402685, -1.2936063507867033, 0.2818879367423596, 0.26874785205976937, 0.2783182477079502, 0.2873208334525765]","[0.0, -1.5707963267948966, 0.0, 0.0, 0.0, 0.0]",0.002,7,1
0,-1,"[0.2757273209094967, -1.2954104150757644, 0.28005329622787284, 0.26699873252216816, 0.27650684017108684, 0.28545083345257644]","[0.0, -1.5707963267948966, 0.0, 0.0, 0.0, 0.0]",0.002,7,1
0,-1,"[0.27263632476056804, -1.2984975839126625, 0.2769138044383767, 0.2640055867893746, 0.27340710534864676, 0.28225083345257646]","[0.0, -1.5707963267948966, 0.0, 0.0, 0.0, 0.0]",0.002,7,1
0,-1,"[0.269728856507982, -1.301401452099869, 0.2739607199738819, 0.2611901590844657, 0.2704914172812891, 0.27924083345257644]","[0.0, -1.5707963267948966, 0.0, 0.0, 0.0, 0.0]",0.002,7,1
0,-1,"[0.26617421093671406, -1.3049516962623011, 0.2703503044159613, 0.2577480414917531, 0.26692672223548314, 0.2755608334525764]","[0.0, -1.5707963267948966, 0.0, 0.0, 0.0, 0.0]",0.002,7,1
0,-1,"[0.26286104943958116, -1.3082607553593508, 0.26698516165409514, 0.25453976340941503, 0.2636041939726802, 0.27213083345257644]","[0.0, -1.5707963267948966, 0.0, 0.0, 0.0, 0.0]",0.002,7,1
0,-1,"[0.25987051066549266, -1.3112475912090495, 0.26394770334775763, 0.25164389491293726, 0.2606052005319695, 0.26903483345257645]","[0.0, -1.5707963267948966, 0.0, 0.0, 0.0, 0.0]",0.002,7,1
0,-1,"[0.25779954324571047, -1.3133159943297708, 0.26184424384879523, 0.24963848727196558, 0.25852837820093466, 0.2668908334525764]","[0.0, -1.5707963267948966, 0.0, 0.0, 0.0, 0.0]",0.002,7,1
0,-1,"[0.25347214863721035, -1.3176380307014268, 0.2574489553435006, 0.24544808324605463, 0.25418874944951864, 0.26241083345257643]","[0.0, -1.5707963267948966, 0.0, 0.0, 0.0, 0.0]",0.002,7,1
0,-1,"[0.2512157214484924, -1.3198916639523617, 0.2551571263371684, 0.24326308686111536, 0.2519259430291374, 0.2600748334525764]","[0.0, -1.5707963267948966, 0.0, 0.0, 0.0, 0.0]",0.002,7,1
0,-1,"[0.2477151683098307, -1.3233878826601488, 0.25160165188556405, 0.23987334931872667, 0.2484154933427241, 0.2564508334525764]","[0.0, -1.5707963267948966, 0.0, 0.0, 0.0, 0.0]",0.002,7,1
0,-1,"[0.24407552034446717, -1.3270230239655953, 0.24790490030343235, 0.23634892021836226, 0.24476555558930096, 0.2526828334525764]","[0.0, -1.5707963267948966, 0.0, 0.0, 0.0, 0.0]",0.002,7,1
0,-1,"[0.23770034078730182, -1.3333903096916968, 0.24142969848759654, 0.23017555714447557, 0.23837235251801842, 0.2460828334525764]","[0.0, -1.5707963267948966, 0.0, 0.0, 0.0, 0.0]",0.002,7,1
0,-1,"[0.23232200748816595, -1.338761983467898, 0.23596698277387324, 0.22496748356941482, 0.23297881392697276, 0.24051483345257638]","[0.0, -1.5707963267948966, 0.0, 0.0, 0.0, 0.0]",0.002,7,1
0,-1,"[0.22525135379749162, -1.3458238821823016, 0.22878539530540082, 0.21812066270564956, 0.2258881705206412, 0.23319483345257636]","[0.0, -1.5707963267948966, 0.0, 0.0, 0.0, 0.0]",0.002,7,1
0,-1,"[0.2170273721687483, -1.3540376807689718, 0.22043238496297266, 0.21015702434033576, 0.21764093855868671, 0.22468083345257633]","[0.0, -1.5707963267948966, 0.0, 0.0, 0.0, 0.0]",0.002,7,1
0,-1,"[0.21155051336736533, -1.3595077580518495, 0.21486959794845917, 0.2048535442450422, 0.2121485959201758, 0.21901083345257633]","[0.0, -1.5707963267948966, 0.0, 0.0, 0.0, 0.0]",0.002,7,1
0,-1,"[0.20505942145461514, -1.3659908126093345, 0.20827666519051727, 0.19856793820617574, 0.20563915279305173, 0.21229083345257632]","[0.0, -1.5707963267948966, 0.0, 0.0, 0.0, 0.0]",0.002,7,1
0,-1,"[0.2017211456137722, -1.3693249549531838, 0.20488601405786144, 0.19533534081475873, 0.2022914391848165, 0.2088348334525763]","[0.0, -1.5707963267948966, 0.0, 0.0, 0.0, 0.0]",0.002,7,1
0,-1,"[0.19746136654602986, -1.3735794595065336, 0.20055940193546207, 0.19121041185175264, 0.19801961713264132, 0.2044248334525763]","[0.0, -1.5707963267948966, 0.0, 0.0, 0.0, 0.0]",0.002,7,1
0,-1,"[0.19310499384863355, -1.377930438086036, 0.19613468069464096, 0.18699194708459674, 0.19365092836726494, 0.19991483345257632]","[0.0, -1.5707963267948966, 0.0, 0.0, 0.0, 0.0]",0.002,7,1
0,-1,"[0.18774984302061465, -1.3832789580959606, 0.1906955111693389, 0.18180632210253192, 0.1882806377873876, 0.1943708334525763]","[0.0, -1.5707963267948966, 0.0, 0.0, 0.0, 0.0]",0.002,7,1
0,-1,"[0.18132639884649882, -1.3896944486771297, 0.18417128749733172, 0.17558622230517176, 0.18183903364840887, 0.18772086678590966]","[0.0, -1.5707963267948966, 0.0, 0.0, 0.0, 0.0]",0.002,7,1
0,-1,"[0.17662921162580658, -1.3943858197789094, 0.17940040458367917, 0.171037732042374, 0.17712856682995404, 0.1828580334525763]","[0.0, -1.5707963267948966, 0.0, 0.0, 0.0, 0.0]",0.002,7,1
0,-1,"[0.1699449646516249, -1.401061790230691, 0.17261128629193323, 0.16456508557380933, 0.17042542256533189, 0.17593806678590965]","[0.0, -1.5707963267948966, 0.0, 0.0, 0.0, 0.0]",0.002,7,1
0,-1,"[0.16319445444750055, -1.4078039418644144, 0.16575486514495, 0.15802827354359794, 0.16365582773545367, 0.16894950011924298]","[0.0, -1.5707963267948966, 0.0, 0.0, 0.0, 0.0]",0.002,7,1
0,-1,"[0.15739883666825932, -1.4135923834335973, 0.15986831803964474, 0.15241612529461004, 0.15784382494337865, 0.16294950011924297]","[0.0, -1.5707963267948966, 0.0, 0.0, 0.0, 0.0]",0.002,7,1
0,-1,"[0.1516032188890181, -1.4193808250027802, 0.15398177093433948, 0.14680397704562217, 0.1520318221513036, 0.15694950011924297]","[0.0, -1.5707963267948966, 0.0, 0.0, 0.0, 0.0]",0.002,7,1
0,-1,"[0.14580760110977686, -1.425169266571963, 0.1480952238290342, 0.14119182879663428, 0.14621981935922856, 0.15094950011924296]","[0.0, -1.5707963267948966, 0.0, 0.0, 0.0, 0.0]",0.002,7,1
0,-1,"[0.1390460470339954, -1.431922448402677, 0.1412275855395114, 0.1346443225061484, 0.13943914943514102, 0.14394950011924296]","[0.0, -1.5707963267948966, 0.0, 0.0, 0.0, 0.0]",0.002,7,1
0,-1,"[0.12938672139492008, -1.441569813737873, 0.13141671160928753, 0.12529077823587087, 0.12975251554686934, 0.13394953876188104]","[0.0, -1.5707963267948966, 0.0, 0.0, 0.0, 0.0]",0.002,7,1
0,-1,"[0.12264192947032065, -1.44830625417252, 0.12456609845777034, 0.11875950346392, 0.12298865516288296, 0.1269668920296297]","[0.0, -1.5707963267948966, 0.0, 0.0, 0.0, 0.0]",0.002,7,1
0,-1,"[0.11691882272117732, -1.4540222744957143, 0.11875320003161957, 0.1132175707926491, 0.11724936839961414, 0.12104196015819846]","[0.0, -1.5707963267948966, 0.0, 0.0, 0.0, 0.0]",0.002,7,1
0,-1,"[0.10944695359854423, -1.4614848918518586, 0.1111641023322171, 0.10598223561173903, 0.1097563752698208, 0.11330659588066186]","[0.0, -1.5707963267948966, 0.0, 0.0, 0.0, 0.0]",0.002,7,1
0,-1,"[0.10310598170615948, -1.467818012269559, 0.10472364487630356, 0.09984199730441101, 0.10339747657311715, 0.10674200987732307]","[0.0, -1.5707963267948966, 0.0, 0.0, 0.0, 0.0]",0.002,7,1
0,-1,"[0.0969543333278966, -1.473962043596, 0.09847548129249661, 0.09388508917321656, 0.09722843663428796, 0.10037342387398426]","[0.0, -1.5707963267948966, 0.0, 0.0, 0.0, 0.0]",0.002,7,1
0,-1,"[0.09015570274962298, -1.4807522560205921, 0.0915701847952152, 0.08730168009609673, 0.09041058538730906, 0.0933350398701685]","[0.0, -1.5707963267948966, 0.0, 0.0, 0.0, 0.0]",0.002,7,1
0,-1,"[0.08440974761590697, -1.4864910964371898, 0.08573407950877959, 0.08173762234233142, 0.08464838564392507, 0.08738645386682967]","[0.0, -1.5707963267948966, 0.0, 0.0, 0.0, 0.0]",0.002,7,1
0,-1,"[0.07963532927783926, -1.4912596030277605, 0.08088475377371562, 0.07711434583643487, 0.0798604693650471, 0.08244366586396784]","[0.0, -1.5707963267948966, 0.0, 0.0, 0.0, 0.0]",0.002,7,1
0,-1,"[0.07424097495606391, -1.4966472779891618, 0.07540576567833523, 0.07189075840977485, 0.0744508644577157, 0.07685907986062904]","[0.0, -1.5707963267948966, 0.0, 0.0, 0.0, 0.0]",0.002,7,1
0,-1,"[0.06903594414841044, -1.5018458638593017, 0.0701190714550615, 0.06685050115924845, 0.06923111830825879, 0.07147049385729023]","[0.0, -1.5707963267948966, 0.0, 0.0, 0.0, 0.0]",0.002,7,1
0,-1,"[0.06402023685487884, -1.5068553606381823, 0.0650246711038944, 0.061993574084855646, 0.06420123091667632, 0.06627790785395143]","[0.0, -1.5707963267948966, 0.0, 0.0, 0.0, 0.0]",0.002,7,1
0,-1,"[0.05851982465915523, -1.512348962151279, 0.059437961158201325, 0.056667286215509066, 0.05868526829512216, 0.06058352385013563]","[0.0, -1.5707963267948966, 0.0, 0.0, 0.0, 0.0]",0.002,7,1
0,-1,"[0.05390981061017053, -1.5169532680203162, 0.0547556191044056, 0.0522032095185454, 0.054062221098984925, 0.05581093784679683]","[0.0, -1.5707963267948966, 0.0, 0.0, 0.0, 0.0]",0.002,7,1
0,-1,"[0.048873047836786226, -1.5219837942078778, 0.04963983292713697, 0.047325893509117894, 0.04901121870079683, 0.05059655384298106]","[0.0, -1.5707963267948966, 0.0, 0.0, 0.0, 0.0]",0.002,7,1
0,-1,"[0.04466872703234839, -1.5261829091670727, 0.045369549170712564, 0.04325466718958337, 0.04479501170010483, 0.04624396783964224]","[0.0, -1.5707963267948966, 0.0, 0.0, 0.0, 0.0]",0.002,7,1
0,-1,"[0.03899097279540381, -1.531853633134146, 0.03960271480702604, 0.03775665132435771, 0.03910120566685771, 0.04036598783487255]","[0.0, -1.5707963267948966, 0.0, 0.0, 0.0, 0.0]",0.002,7,1
0,-1,"[0.03524643766811908, -1.5355935317288516, 0.03579943045428918, 0.03413065543257621, 0.03534608422100366, 0.03648940183153371]","[0.0, -1.5707963267948966, 0.0, 0.0, 0.0, 0.0]",0.002,7,1
0,-1,"[0.031691226054956334, -1.5391443412322987, 0.032188439973659055, 0.030687989716928377, 0.03178082153302414, 0.03280881582819495]","[0.0, -1.5707963267948966, 0.0, 0.0, 0.0, 0.0]",0.002,7,1
0,-1,"[0.02832533795591541, -1.5425060616444846, 0.028769743365135547, 0.027428654177414136, 0.028405417602919036, 0.029324229824856163]","[0.0, -1.5707963267948966, 0.0, 0.0, 0.0, 0.0]",0.002,7,1
0,-1,"[0.025148773370996358, -1.5456786929654118, 0.025543340628718603, 0.024352648814033484, 0.02521987243068835, 0.02603564382151735]","[0.0, -1.5707963267948966, 0.0, 0.0, 0.0, 0.0]",0.002,7,1
0,-1,"[0.02053953979669637, -1.5502822193261583, 0.020861791294727927, 0.019889327884582753, 0.020597607915745664, 0.021263865816270655]","[0.0, -1.5707963267948966, 0.0, 0.0, 0.0, 0.0]",0.002,7,1
0,-1,"[0.017849807105233595, -1.5529686215552738, 0.01812985851515664, 0.017284742974117084, 0.017900270978049304, 0.018479279812931848]","[0.0, -1.5707963267948966, 0.0, 0.0, 0.0, 0.0]",0.002,7,1
0,-1,"[0.015349397927892694, -1.555465934693129, 0.01559021960769208, 0.014863488239785061, 0.015392792798227417, 0.01589069380959307]","[0.0, -1.5707963267948966, 0.0, 0.0, 0.0, 0.0]",0.002,7,1
0,-1,"[0.012723612150672747, -1.5580884691879104, 0.012923237026230383, 0.01232082590193645, 0.012759583561542498, 0.013172309805777271]","[0.0, -1.5707963267948966, 0.0, 0.0, 0.0, 0.0]",0.002,7,1
0,-1,"[0.010628896217878714, -1.5601805914159232, 0.010795656416137112, 0.01029242154503357, 0.010658945577165846, 0.01100372380243847]","[0.0, -1.5707963267948966, 0.0, 0.0, 0.0, 0.0]",0.002,7,1
0,-1,"[0.008466759862998108, -1.5623400505851697, 0.008599597603099918, 0.00819873106710406, 0.008490696563846933, 0.008765339798622707]","[0.0, -1.5707963267948966, 0.0, 0.0, 0.0, 0.0]",0.002,7,1
0,-1,"[0.006777737174750942, -1.5640269819033392, 0.006884075290377989, 0.0065631770876302675, 0.006796898774915516, 0.007016753795283881]","[0.0, -1.5707963267948966, 0.0, 0.0, 0.0, 0.0]",0.002,7,1
0,-1,"[0.005278038000625762, -1.5655248241302484, 0.005360846849762846, 0.005110953284290176, 0.005292959743858627, 0.00546416779194514]","[0.0, -1.5707963267948966, 0.0, 0.0, 0.0, 0.0]",0.002,7,1
0,-1,"[0.0037959207985094334, -1.5670051061553787, 0.003855476230414767, 0.0036757548675752094, 0.0038066523914765393, 0.00392978378812936]","[0.0, -1.5707963267948966, 0.0, 0.0, 0.0, 0.0]",0.002,7,1
0,-1,"[0.0031475920819190595, -1.5676526321028366, 0.0031969756744255062, 0.003047950031201452, 0.003156490759958608, 0.0032585917862213987]","[0.0, -1.5707963267948966, 0.0, 0.0, 0.0, 0.0]",0.002,7,1
0,-1,"[0.0022910113626184447, -1.5685081521926394, 0.0023269557825479348, 0.002218485741620757, 0.0022974883685233927, 0.002371803783359605]","[0.0, -1.5707963267948966, 0.0, 0.0, 0.0, 0.0]",0.002,7,1
0,-1,"[0.0015735254700195989, -1.569224749684782, 0.0015982130211976697, 0.0015237130100156926, 0.0015779740440979295, 0.001629015780497789]","[0.0, -1.5707963267948966, 0.0, 0.0, 0.0, 0.0]",0.002,7,1
0,-1,"[0.0009122590012912712, -1.569885197364683, 0.0009265717284832609, 0.0008833799866958536, 0.0009148380836278558, 0.0009444297771590282]","[0.0, -1.5707963267948966, 0.0, 0.0, 0.0, 0.0]",0.002,7,1
0,-1,"[0.0005558381649272692, -1.5702411768760864, 0.0005645588900790588, 0.0005382422207327875, 0.0005574095962764258, 0.0005754397747741447]","[0.0, -1.5707963267948966, 0.0, 0.0, 0.0, 0.0]",0.002,7,1
0,-1,"[0.00021908896550970614, -1.5705775091082215, 0.0002225263233101571, 0.00021215335465391005, 0.00021970836030910101, 0.00022681512879724197]","[0.0, -1.5707963267948966, 0.0, 0.0, 0.0, 0.0]",0.002,7,1
0,-1,"[6.991755662855148e-05, -1.5707264958111047, 7.101451583918506e-05, 6.77042047892984e-05, 7.011522322880603e-05, 7.238319636498902e-05]","[0.0, -1.5707963267948966, 0.0, 0.0, 0.0, 0.0]",0.002,7,1
0,-1,"[3.904012936539747e-06, -1.5707924276159604, 3.965264260996637e-06, 3.7804251764583796e-06, 3.9150501209284094e-06, 4.041687790889981e-06]","[0.0, -1.5707963267948966, 0.0, 0.0, 0.0, 0.0]",0.002,7,1
0,-1,"[0.0, -1.5707963267948966, 0.0, 0.0, 0.0, 0.0]","[0.0, -1.5707963267948966, 0.0, 0.0, 0.0, 0.0]",0.002,7,1
0,-1,"[0.0, -1.5707963267948966, 0.0, 0.0, 0.0, 0.0]","[0.0, -1.5707963267948966, 0.0, 0.0, 0.0, 0.0]",0.002,7,1
0,-1,"[0.0, -1.5707963267948966, 0.0, 0.0, 0.0, 0.0]","[0.0, -1.5707963267948966, 0.0, 0.0, 0.0, 0.0]",0.002,7,1
0,-1,"[0.0, -1.5707963267948966, 0.0, 0.0, 0.0, 0.0]","[0.0, -1.5707963267948966, 0.0, 0.0, 0.0, 0.0]",0.002,7,1
0,-1,"[0.0, -1.5707963267948966, 0.0, 0.0, 0.0, 0.0]","[0.0, -1.5707963267948966, 0.0, 0.0, 0.0, 0.0]",0.002,7,1
0,-1,"[0.0, -1.5707963267948966, 0.0, 0.0, 0.0, 0.0]","[0.0, -1.5707963267948966, 0.0, 0.0, 0.0, 0.0]",0.002,7,1
0,-1,"[0.0, -1.5707963267948966, 0.0, 0.0, 0.0, 0.0]","[0.0, -1.5707963267948966, 0.0, 0.0, 0.0, 0.0]",0.002,7,1
0,-1,"[0.0, -1.5707963267948966, 0.0, 0.0, 0.0, 0.0]","[0.0, -1.5707963267948966, 0.0, 0.0, 0.0, 0.0]",0.002,7,1
0,-1,"[0.0, -1.5707963267948966, 0.0, 0.0, 0.0, 0.0]","[0.0, -1.5707963267948966, 0.0, 0.0, 0.0, 0.0]",0.002,7,1
0,-1,"[0.0, -1.5707963267948966, 0.0, 0.0, 0.0, 0.0]","[0.0, -1.5707963267948966, 0.0, 0.0, 0.0, 0.0]",0.002,7,1
0,-1,"[0.0, -1.5707963267948966, 0.0, 0.0, 0.0, 0.0]","[0.0, -1.5707963267948966, 0.0, 0.0, 0.0, 0.0]",0.002,7,1
0,-1,"[0.0, -1.5707963267948966, 0.0, 0.0, 0.0, 0.0]","[0.0, -1.5707963267948966, 0.0, 0.0, 0.0, 0.0]",0.002,7,1
0,-1,"[0.0, -1.5707963267948966, 0.0, 0.0, 0.0, 0.0]","[0.0, -1.5707963267948966, 0.0, 0.0, 0.0, 0.0]",0.002,7,1
0,-1,"[0.0, -1.5707963267948966, 0.0, 0.0, 0.0, 0.0]","[0.0, -1.5707963267948966, 0.0, 0.0, 0.0, 0.0]",0.002,7,1
0,-1,"[0.0, -1.5707963267948966, 0.0, 0.0, 0.0, 0.0]","[0.0, -1.5707963267948966, 0.0, 0.0, 0.0, 0.0]",0.002,7,1
0,-1,"[0.0, -1.5707963267948966, 0.0, 0.0, 0.0, 0.0]","[0.0, -1.5707963267948966, 0.0, 0.0, 0.0, 0.0]",0.002,7,1
0,-1,"[0.0, -1.5707963267948966, 0.0, 0.0, 0.0, 0.0]","[0.0, -1.5707963267948966, 0.0, 0.0, 0.0, 0.0]",0.002,7,1
0,-1,"[0.0, -1.5707963267948966, 0.0, 0.0, 0.0, 0.0]","[0.0, -1.5707963267948966, 0.0, 0.0, 0.0, 0.0]",0.002,7,1
0,-1,"[0.0, -1.5707963267948966, 0.0, 0.0, 0.0, 0.0]","[0.0, -1.5707963267948966, 0.0, 0.0, 0.0, 0.0]",0.002,7,1
0,-1,"[0.0, -1.5707963267948966, 0.0, 0.0, 0.0, 0.0]","[0.0, -1.5707963267948966, 0.0, 0.0, 0.0, 0.0]",0.002,7,1
0,-1,"[0.0, -1.5707963267948966, 0.0, 0.0, 0.0, 0.0]","[0.0, -1.5707963267948966, 0.0, 0.0, 0.0, 0.0]",0.002,7,1
0,-1,"[0.0, -1.5707963267948966, 0.0, 0.0, 0.0, 0.0]","[0.0, -1.5707963267948966, 0.0, 0.0, 0.0, 0.0]",0.002,7,1
0,-1,"[0.0, -1.5707963267948966, 0.0, 0.0, 0.0, 0.0]","[0.0, -1.5707963267948966, 0.0, 0.0, 0.0, 0.0]",0.002,7,1
0,-1,"[0.0, -1.5707963267948966, 0.0, 0.0, 0.0, 0.0]","[0.0, -1.5707963267948966, 0.0, 0.0, 0.0, 0.0]",0.002,7,1
0,-1,"[0.0, -1.5707963267948966, 0.0, 0.0, 0.0, 0.0]","[0.0, -1.5707963267948966, 0.0, 0.0, 0.0, 0.0]",0.002,7,1
0,-1,"[0.0, -1.5707963267948966, 0.0, 0.0, 0.0, 0.0]","[0.0, -1.5707963267948966, 0.0, 0.0, 0.0, 0.0]",0.002,7,1
0,-1,"[0.0, -1.5707963267948966, 0.0, 0.0, 0.0, 0.0]","[0.0, -1.5707963267948966, 0.0, 0.0, 0.0, 0.0]",0.002,7,1
0,-1,"[0.0, -1.5707963267948966, 0.0, 0.0, 0.0, 0.0]","[0.0, -1.5707963267948966, 0.0, 0.0, 0.0, 0.0]",0.002,7,1
0,-1,"[0.0, -1.5707963267948966, 0.0, 0.0, 0.0, 0.0]","[0.0, -1.5707963267948966, 0.0, 0.0, 0.0, 0.0]",0.002,7,1
0,-1,"[0.0, -1.5707963267948966, 0.0, 0.0, 0.0, 0.0]","[0.0, -1.5707963267948966, 0.0, 0.0, 0.0, 0.0]",0.002,7,1
0,-1,"[0.0, -1.5707963267948966, 0.0, 0.0, 0.0, 0.0]","[0.0, -1.5707963267948966, 0.0, 0.0, 0.0, 0.0]",0.002,7,1
0,-1,"[0.0, -1.5707963267948966, 0.0, 0.0, 0.0, 0.0]","[0.0, -1.5707963267948966, 0.0, 0.0, 0.0, 0.0]",0.002,7,1
0,-1,"[0.0, -1.5707963267948966, 0.0, 0.0, 0.0, 0.0]","[0.0, -1.5707963267948966, 0.0, 0.0, 0.0, 0.0]",0.002,7,1
0,-1,"[0.0, -1.5707963267948966, 0.0, 0.0, 0.0, 0.0]","[0.0, -1.5707963267948966, 0.0, 0.0, 0.0, 0.0]",0.002,7,1
0,-1,"[0.0, -1.5707963267948966, 0.0, 0.0, 0.0, 0.0]","[0.0, -1.5707963267948966, 0.0, 0.0, 0.0, 0.0]",0.002,7,1
0,-1,"[0.0, -1.5707963267948966, 0.0, 0.0, 0.0, 0.0]","[0.0, -1.5707963267948966, 0.0, 0.0, 0.0, 0.0]",0.002,7,1
0,-1,"[0.0, -1.5707963267948966, 0.0, 0.0, 0.0, 0.0]","[0.0, -1.5707963267948966, 0.0, 0.0, 0.0, 0.0]",0.002,7,1
0,-1,"[0.0, -1.5707963267948966, 0.0, 0.0, 0.0, 0.0]","[0.0, -1.5707963267948966, 0.0, 0.0, 0.0, 0.0]",0.002,7,1
0,-1,"[0.0, -1.5707963267948966, 0.0, 0.0, 0.0, 0.0]","[0.0, -1.5707963267948966, 0.0, 0.0, 0.0, 0.0]",0.002,7,1
0,-1,"[0.0, -1.5707963267948966, 0.0, 0.0, 0.0, 0.0]","[0.0, -1.5707963267948966, 0.0, 0.0, 0.0, 0.0]",0.002,7,1
0,1,"[0.0, -1.5707963267948966, 0.0, 0.0, 0.0, 0.0]","[0.20553054233787701, -1.3652657844570195, 0.20553054233787701, 0.20553054233787701, 0.20553054233787701, 0.20553054233787701]",0.002,7,1
0,2,"[0.00024568566078916583, -1.5705506411341075, 0.00024568566078916583, 0.00024568566078916583, 0.00024568566078916583, 0.00024568566078916583]","[0.20588500104172616, -1.3649113257531704, 0.20588500104172616, 0.20588500104172616, 0.20588500104172616, 0.20588500104172616]",0.002,7,1
0,3,"[0.00024568566078916583, -1.5705506411341075, 0.00024568566078916583, 0.00024568566078916583, 0.00024568566078916583, 0.00024568566078916583]","[0.20623913449496892, -1.3645571922999276, 0.20623913449496892, 0.20623913449496892, 0.20623913449496892, 0.20623913449496892]",0.002,7,1
0,4,"[0.0004904332685285423, -1.5703058935263678, 0.0004904332685285423, 0.0004904332685285423, 0.0004904332685285423, 0.0004904332685285423]","[0.20659294213815643, -1.36420338465674, 0.20659294213815643, 0.20659294213815643, 0.20659294213815643, 0.20659294213815643]",0.002,7,1
0,5,"[0.0008158702177307616, -1.5699804565771656, 0.0008158702177307616, 0.0008158702177307616, 0.0008158702177307616, 0.0008158702177307616]","[0.20694642341235464, -1.363849903382542, 0.20694642341235464, 0.20694642341235464, 0.20694642341235464, 0.20694642341235464]",0.002,7,1
0,6,"[0.0012215238509486628, -1.569574802943948, 0.0012215238509486628, 0.0012215238509486628, 0.0012215238509486628, 0.0012215238509486628]","[0.20729957775914493, -1.3634967490357517, 0.20729957775914493, 0.20729957775914493, 0.20729957775914493, 0.20729957775914493]",0.002,7,1
0,7,"[0.0017068921296821398, -1.5690894346652149, 0.0017068921296821398, 0.0017068921296821398, 0.0017068921296821398, 0.0017068921296821398]","[0.2076524046206253, -1.3631439221742712, 0.2076524046206253, 0.2076524046206253, 0.2076524046206253, 0.2076524046206253]",0.002,7,1
0,8,"[0.002271444011256285, -1.5685248827836409, 0.002271444011256285, 0.002271444011256285, 0.002271444011256285, 0.002271444011256285]","[0.20800490343941105, -1.3627914233554854, 0.20800490343941105, 0.20800490343941105, 0.20800490343941105, 0.20800490343941105]",0.002,7,1
0,9,"[0.0029146198350401406, -1.5678817069598567, 0.0029146198350401406, 0.0029146198350401406, 0.0029146198350401406, 0.0029146198350401406]","[0.20835707365863568, -1.3624392531362608, 0.20835707365863568, 0.20835707365863568, 0.20835707365863568, 0.20835707365863568]",0.002,7,1
0,10,"[0.003635831717795527, -1.5671604950771014, 0.003635831717795527, 0.003635831717795527, 0.003635831717795527, 0.003635831717795527]","[0.20870891472195183, -1.3620874120729447, 0.20870891472195183, 0.20870891472195183, 0.20870891472195183, 0.20870891472195183]",0.002,7,1
0,11,"[0.0044344639579430275, -1.5663618628369536, 0.0044344639579430275, 0.0044344639579430275, 0.0044344639579430275, 0.0044344639579430275]","[0.20906042607353215, -1.3617359007213645, 0.20906042607353215, 0.20906042607353215, 0.20906042607353215, 0.20906042607353215]",0.002,7,1
0,12,"[0.00530987344852992, -1.5654864533463666, 0.00530987344852992, 0.00530987344852992, 0.00530987344852992, 0.00530987344852992]","[0.20941160715807014, -1.3613847196368265, 0.20941160715807014, 0.20941160715807014, 0.20941160715807014, 0.20941160715807014]",0.002,7,1
0,13,"[0.00530987344852992, -1.5654864533463666, 0.00530987344852992, 0.00530987344852992, 0.00530987344852992, 0.00530987344852992]","[0.20976245742078098, -1.3610338693741155, 0.20976245742078098, 0.20976245742078098, 0.20976245742078098, 0.20976245742078098]",0.002,7,1
0,14,"[0.0062613900986826605, -1.564534936696214, 0.0062613900986826605, 0.0062613900986826605, 0.0062613900986826605, 0.0062613900986826605]","[0.2101129763074026, -1.360683350487494, 0.2101129763074026, 0.2101129763074026, 0.2101129763074026, 0.2101129763074026]",0.002,7,1
0,15,"[0.007288317263324424, -1.5635080095315725, 0.007288317263324424, 0.007288317263324424, 0.007288317263324424, 0.007288317263324424]","[0.2104631632641963, -1.3603331635307003, 0.2104631632641963, 0.2104631632641963, 0.2104631632641963, 0.2104631632641963]",0.002,7,1
0,16,"[0.008389932180936236, -1.5624063946139604, 0.008389932180936236, 0.008389932180936236, 0.008389932180936236, 0.008389932180936236]","[0.21081301773794792, -1.3599833090569486, 0.21081301773794792, 0.21081301773794792, 0.21081301773794792, 0.21081301773794792]",0.002,7,1
0,17,"[0.009565486419138314, -1.5612308403757584, 0.009565486419138314, 0.009565486419138314, 0.009565486419138314, 0.009565486419138314]","[0.21116253917596833, -1.3596337876189282, 0.21116253917596833, 0.21116253917596833, 0.21116253917596833, 0.21116253917596833]",0.002,7,1
0,18,"[0.010814206327866486, -1.5599821204670299, 0.010814206327866486, 0.010814206327866486, 0.010814206327866486, 0.010814206327866486]","[0.21151172702609466, -1.359284599768802, 0.21151172702609466, 0.21151172702609466, 0.21151172702609466, 0.21151172702609466]",0.002,7,1
0,19,"[0.01213529349991682, -1.55866103329498, 0.01213529349991682, 0.01213529349991682, 0.01213529349991682, 0.01213529349991682]","[0.211860580736691, -1.3589357460582057, 0.211860580736691, 0.211860580736691, 0.211860580736691, 0.211860580736691]",0.002,7,1
0,20,"[0.013527925238630065, -1.557268401556267, 0.013527925238630065, 0.013527925238630065, 0.013527925238630065, 0.013527925238630065]","[0.21220909975664934, -1.3585872270382473, 0.21220909975664934, 0.21220909975664934, 0.21220909975664934, 0.21220909975664934]",0.002,7,1
0,21,"[0.014991255032485966, -1.5558050717624115, 0.014991255032485966, 0.014991255032485966, 0.014991255032485966, 0.014991255032485966]","[0.2125572835353903, -1.3582390432595062, 0.2125572835353903, 0.2125572835353903, 0.2125572835353903, 0.2125572835353903]",0.002,7,1
0,22,"[0.016524413036376175, -1.5542719137585213, 0.016524413036376175, 0.016524413036376175, 0.016524413036376175, 0.016524413036376175]","[0.21290513152286422, -1.3578911952720323, 0.21290513152286422, 0.21290513152286422, 0.21290513152286422, 0.21290513152286422]",0.002,7,1
0,23,"[0.018126506559323168, -1.5526698202355744, 0.018126506559323168, 0.018126506559323168, 0.018126506559323168, 0.018126506559323168]","[0.2132526431695518, -1.3575436836253447, 0.2132526431695518, 0.2132526431695518, 0.2132526431695518, 0.2132526431695518]",0.002,7,1
0,24,"[0.019796759831922906, -1.5509995669629744, 0.019796759831922906, 0.019796759831922906, 0.019796759831922906, 0.019796759831922906]","[0.21359981792646524, -1.3571965088684312, 0.21359981792646524, 0.21359981792646524, 0.21359981792646524, 0.21359981792646524]",0.002,7,1
0,25,"[0.021534234933563424, -1.5492620918613342, 0.021534234933563424, 0.021534234933563424, 0.021534234933563424, 0.021534234933563424]","[0.21394665524514878, -1.3568496715497478, 0.21394665524514878, 0.21394665524514878, 0.21394665524514878, 0.21394665524514878]",0.002,7,1
0,26,"[0.023337972547888493, -1.5474583542470093, 0.023337972547888493, 0.023337972547888493, 0.023337972547888493, 0.023337972547888493]","[0.21429315457767983, -1.3565031722172167, 0.21429315457767983, 0.21429315457767983, 0.21429315457767983, 0.21429315457767983]",0.002,7,1
0,27,"[0.025206992474679044, -1.5455893343202192, 0.025206992474679044, 0.025206992474679044, 0.025206992474679044, 0.025206992474679044]","[0.21463931537666972, -1.3561570114182269, 0.21463931537666972, 0.21463931537666972, 0.21463931537666972, 0.21463931537666972]",0.002,7,1
0,28,"[0.027140294147017036, -1.5436560326478812, 0.027140294147017036, 0.027140294147017036, 0.027140294147017036, 0.027140294147017036]","[0.21498513709526454, -1.355811189699632, 0.21498513709526454, 0.21498513709526454, 0.21498513709526454, 0.21498513709526454]",0.002,7,1
0,29,"[0.029136857153493265, -1.541659469641405, 0.029136857153493265, 0.029136857153493265, 0.029136857153493265, 0.029136857153493265]","[0.2153306191871461, -1.3554657076077505, 0.2153306191871461, 0.2153306191871461, 0.2153306191871461, 0.2153306191871461]",0.002,7,1
0,30,"[0.031195641765219908, -1.5396006850296784, 0.031195641765219908, 0.031195641765219908, 0.031195641765219908, 0.031195641765219908]","[0.21567576110653278, -1.3551205656883638, 0.21567576110653278, 0.21567576110653278, 0.21567576110653278, 0.21567576110653278]",0.002,7,1
0,31,"[0.03331558946740821, -1.5374807373274901, 0.03331558946740821, 0.03331558946740821, 0.03331558946740821, 0.03331558946740821]","[0.21602056230818026, -1.3547757644867162, 0.21602056230818026, 0.21602056230818026, 0.21602056230818026, 0.21602056230818026]",0.002,7,1
0,32,"[0.03549562349527127, -1.5353007032996269, 0.03549562349527127, 0.03549562349527127, 0.03549562349527127, 0.03549562349527127]","[0.21636502224738252, -1.354431304547514, 0.21636502224738252, 0.21636502224738252, 0.21636502224738252, 0.21636502224738252]",0.002,7,1
0,33,"[0.037734649374011664, -1.5330616774208865, 0.037734649374011664, 0.037734649374011664, 0.037734649374011664, 0.037734649374011664]","[0.21670914037997266, -1.354087186414924, 0.21670914037997266, 0.21670914037997266, 0.21670914037997266, 0.21670914037997266]",0.002,7,1
0,34,"[0.04003155546265328, -1.5307647713322448, 0.04003155546265328, 0.04003155546265328, 0.04003155546265328, 0.04003155546265328]","[0.21705291616232372, -1.3537434106325728, 0.21705291616232372, 0.21705291616232372, 0.21705291616232372, 0.21705291616232372]",0.002,7,1
0,35,"[0.04238521350147694, -1.528411113293421, 0.04238521350147694, 0.04238521350147694, 0.04238521350147694, 0.04238521350147694]","[0.21739634905134966, -1.3533999777435468, 0.21739634905134966, 0.21739634905134966, 0.21739634905134966, 0.21739634905134966]",0.002,7,1
0,36,"[0.04479447916281906, -1.5260018476320791, 0.04479447916281906, 0.04479447916281906, 0.04479447916281906, 0.04479447916281906]","[0.21773943850450603, -1.3530568882903906, 0.21773943850450603, 0.21773943850450603, 0.21773943850450603, 0.21773943850450603]",0.002,7,1
0,37,"[0.04725819260499293, -1.5235381341899057, 0.04725819260499293, 0.04725819260499293, 0.04725819260499293, 0.04725819260499293]","[0.21808218397979098, -1.3527141428151055, 0.21808218397979098, 0.21808218397979098, 0.21808218397979098, 0.21808218397979098]",0.002,7,1
0,38,"[0.049775179029092294, -1.521021147765806, 0.049775179029092294, 0.049775179029092294, 0.049775179029092294, 0.049775179029092294]","[0.2184245849357461, -1.3523717418591505, 0.2184245849357461, 0.2184245849357461, 0.2184245849357461, 0.2184245849357461]",0.002,7,1
0,39,"[0.05234424923843723, -1.5184520775564607, 0.05234424923843723, 0.05234424923843723, 0.05234424923843723, 0.05234424923843723]","[0.21876664083145714, -1.3520296859634393, 0.21876664083145714, 0.21876664083145714, 0.21876664083145714, 0.21876664083145714]",0.002,7,1
0,40,"[0.054964200200422635, -1.515832126594475, 0.054964200200422635, 0.054964200200422635, 0.054964200200422635, 0.054964200200422635]","[0.21910835112655502, -1.3516879756683415, 0.21910835112655502, 0.21910835112655502, 0.21910835112655502, 0.21910835112655502]",0.002,7,1
0,41,"[0.057633815610530256, -1.5131625111843672, 0.057633815610530256, 0.057633815610530256, 0.057633815610530256, 0.057633815610530256]","[0.21944971528121668, -1.3513466115136799, 0.21944971528121668, 0.21944971528121668, 0.21944971528121668, 0.21944971528121668]",0.002,7,1
0,42,"[0.060338840173784686, -1.510457486621113, 0.060338840173784686, 0.060338840173784686, 0.060338840173784686, 0.060338840173784686]","[0.21979073275616584, -1.3510055940387307, 0.21979073275616584, 0.21979073275616584, 0.21979073275616584, 0.21979073275616584]",0.002,7,1
0,43,"[0.06303851649423979, -1.5077578103006575, 0.06303851649423979, 0.06303851649423979, 0.06303851649423979, 0.06303851649423979]","[0.2201314030126739, -1.3506649237822226, 0.2201314030126739, 0.2201314030126739, 0.2201314030126739, 0.2201314030126739]",0.002,7,1
0,44,"[0.06303851649423979, -1.5077578103006575, 0.06303851649423979, 0.06303851649423979, 0.06303851649423979, 0.06303851649423979]","[0.2204717255125607, -1.3503246012823358, 0.2204717255125607, 0.2204717255125607, 0.2204717255125607, 0.2204717255125607]",0.002,7,1
0,45,"[0.0657322561166425, -1.5050640706782543, 0.0657322561166425, 0.0657322561166425, 0.0657322561166425, 0.0657322561166425]","[0.22081169971819561, -1.3499846270767009, 0.22081169971819561, 0.22081169971819561, 0.22081169971819561, 0.22081169971819561]",0.002,7,1
0,46,"[0.06841974733839612, -1.5023765794565005, 0.06841974733839612, 0.06841974733839612, 0.06841974733839612, 0.06841974733839612]","[0.22115132509249807, -1.3496450017023984, 0.22115132509249807, 0.22115132509249807, 0.22115132509249807, 0.22115132509249807]",0.002,7,1
0,47,"[0.07110095435012516, -1.499695372444771, 0.07110095435012516, 0.07110095435012516, 0.07110095435012516, 0.07110095435012516]","[0.22149060109893873, -1.3493057256959577, 0.22149060109893873, 0.22149060109893873, 0.22149060109893873, 0.22149060109893873]",0.002,7,1
0,48,"[0.07377612751041025, -1.4970201992844858, 0.07377612751041025, 0.07377612751041025, 0.07377612751041025, 0.07377612751041025]","[0.2218295272015401, -1.3489667995933565, 0.2218295272015401, 0.2218295272015401, 0.2218295272015401, 0.2218295272015401]",0.002,7,1
0,49,"[0.07644579701754428, -1.4943505297773516, 0.07644579701754428, 0.07644579701754428, 0.07644579701754428, 0.07644579701754428]","[0.2221681028648774, -1.3486282239300191, 0.2221681028648774, 0.2221681028648774, 0.2221681028648774, 0.2221681028648774]",0.002,7,1
0,50,"[0.07911075408838494, -1.491685572706511, 0.07911075408838494, 0.07911075408838494, 0.07911075408838494, 0.07911075408838494]","[0.2225063275540795, -1.348289999240817, 0.2225063275540795, 0.2225063275540795, 0.2225063275540795, 0.2225063275540795]",0.002,7,1
0,51,"[0.08177202288761133, -1.4890243039072848, 0.08177202288761133, 0.08177202288761133, 0.08177202288761133, 0.08177202288761133]","[0.22284420073482983, -1.3479521260600666, 0.22284420073482983, 0.22284420073482983, 0.22284420073482983, 0.22284420073482983]",0.002,7,1
0,52,"[0.08443082573492686, -1.4863655010599688, 0.08443082573492686, 0.08443082573492686, 0.08443082573492686, 0.08443082573492686]","[0.223181721873367, -1.3476146049215296, 0.223181721873367, 0.223181721873367, 0.223181721873367, 0.223181721873367]",0.002,7,1
0,53,"[0.08708854353533328, -1.483707783259562, 0.08708854353533328, 0.08708854353533328, 0.08708854353533328, 0.08708854353533328]","[0.22351889043648573, -1.3472774363584108, 0.22351889043648573, 0.22351889043648573, 0.22351889043648573, 0.22351889043648573]",0.002,7,1
0,54,"[0.08974570011089343, -1.4810506266840022, 0.08974570011089343, 0.08974570011089343, 0.08974570011089343, 0.08974570011089343]","[0.22385570589153791, -1.3469406209033585, 0.22385570589153791, 0.22385570589153791, 0.22385570589153791, 0.22385570589153791]",0.002,7,1
0,55,"[0.0923983373700075, -1.478397989424888, 0.0923983373700075, 0.0923983373700075, 0.0923983373700075, 0.0923983373700075]","[0.22419216770643308, -1.3466041590884634, 0.22419216770643308, 0.22419216770643308, 0.22419216770643308, 0.22419216770643308]",0.002,7,1
0,56,"[0.09504397750656818, -1.475752349288327, 0.09504397750656818, 0.09504397750656818, 0.09504397750656818, 0.09504397750656818]","[0.22452827534963957, -1.346268051445257, 0.22452827534963957, 0.22452827534963957, 0.22452827534963957, 0.22452827534963957]",0.002,7,1
0,57,"[0.09768464171153608, -1.4731116850833592, 0.09768464171153608, 0.09768464171153608, 0.09768464171153608, 0.09768464171153608]","[0.22486402829018506, -1.3459322985047115, 0.22486402829018506, 0.22486402829018506, 0.22486402829018506, 0.22486402829018506]",0.002,7,1
0,58,"[0.10032243942561804, -1.4704738873692769, 0.10032243942561804, 0.10032243942561804, 0.10032243942561804, 0.10032243942561804]","[0.22519942599765783, -1.3455969007972388, 0.22519942599765783, 0.22519942599765783, 0.22519942599765783, 0.22519942599765783]",0.002,7,1
0,59,"[0.10295946681646345, -1.4678368599784317, 0.10295946681646345, 0.10295946681646345, 0.10295946681646345, 0.10295946681646345]","[0.22553446794220708, -1.3452618588526895, 0.22553446794220708, 0.22553446794220708, 0.22553446794220708, 0.22553446794220708]",0.002,7,1
0,60,"[0.10559491366712732, -1.465201413127768, 0.10559491366712732, 0.10559491366712732, 0.10559491366712732, 0.10559491366712732]","[0.2258691535945442, -1.3449271732003523, 0.2258691535945442, 0.2258691535945442, 0.2258691535945442, 0.2258691535945442]",0.002,7,1
0,61,"[0.10822472898157534, -1.4625715978133202, 0.10822472898157534, 0.10822472898157534, 0.10822472898157534, 0.10822472898157534]","[0.22620348242594343, -1.3445928443689532, 0.22620348242594343, 0.22620348242594343, 0.22620348242594343, 0.22620348242594343]",0.002,7,1
0,62,"[0.11084909800736693, -1.4599472287875281, 0.11084909800736693, 0.11084909800736693, 0.11084909800736693, 0.11084909800736693]","[0.2265374539082426, -1.344258872886654, 0.2265374539082426, 0.2265374539082426, 0.2265374539082426, 0.2265374539082426]",0.002,7,1
0,63,"[0.11347053340394872, -1.4573257933909467, 0.11347053340394872, 0.11347053340394872, 0.11347053340394872, 0.11347053340394872]","[0.2268710675138442, -1.3439252592810524, 0.2268710675138442, 0.2268710675138442, 0.2268710675138442, 0.2268710675138442]",0.002,7,1
0,64,"[0.1160913952052538, -1.4547049315896423, 0.1160913952052538, 0.1160913952052538, 0.1160913952052538, 0.1160913952052538]","[0.22720432271571592, -1.3435920040791807, 0.22720432271571592, 0.22720432271571592, 0.22720432271571592, 0.22720432271571592]",0.002,7,1
0,65,"[0.11870958046889635, -1.4520867463259997, 0.11870958046889635, 0.11870958046889635, 0.11870958046889635, 0.11870958046889635]","[0.22753721898739185, -1.3432591078075047, 0.22753721898739185, 0.22753721898739185, 0.22753721898739185, 0.22753721898739185]",0.002,7,1
0,66,"[0.12132181017274658, -1.449474516622149, 0.12132181017274658, 0.12132181017274658, 0.12132181017274658, 0.12132181017274658]","[0.22786975580297295, -1.3429265709919236, 0.22786975580297295, 0.22786975580297295, 0.22786975580297295, 0.22786975580297295]",0.002,7,1
0,67,"[0.12393002836232754, -1.4468662984325675, 0.12393002836232754, 0.12393002836232754, 0.12393002836232754, 0.12393002836232754]","[0.22820193263712804, -1.3425943941577685, 0.22820193263712804, 0.22820193263712804, 0.22820193263712804, 0.22820193263712804]",0.002,7,1
0,68,"[0.12653667416224365, -1.4442596526326517, 0.12653667416224365, 0.12653667416224365, 0.12653667416224365, 0.12653667416224365]","[0.2285337489650948, -1.3422625778298019, 0.2285337489650948, 0.2285337489650948, 0.2285337489650948, 0.2285337489650948]",0.002,7,1
0,69,"[0.12653667416224365, -1.4442596526326517, 0.12653667416224365, 0.12653667416224365, 0.12653667416224365, 0.12653667416224365]","[0.22886520426268017, -1.3419311225322164, 0.22886520426268017, 0.22886520426268017, 0.22886520426268017, 0.22886520426268017]",0.002,7,1
0,70,"[0.12914140228409673, -1.4416549245107984, 0.12914140228409673, 0.12914140228409673, 0.12914140228409673, 0.12914140228409673]","[0.22919629800626165, -1.341600028788635, 0.22919629800626165, 0.22919629800626165, 0.22919629800626165, 0.22919629800626165]",0.002,7,1
0,71,"[0.1317411162205022, -1.4390552105743932, 0.1317411162205022, 0.1317411162205022, 0.1317411162205022, 0.1317411162205022]","[0.22952702967278776, -1.3412692971221087, 0.22952702967278776, 0.22952702967278776, 0.22952702967278776, 0.22952702967278776]",0.002,7,1
0,72,"[0.13433665116356863, -1.436459675631327, 0.13433665116356863, 0.13433665116356863, 0.13433665116356863, 0.13433665116356863]","[0.22985739873977917, -1.3409389280551174, 0.22985739873977917, 0.22985739873977917, 0.22985739873977917, 0.22985739873977917]",0.002,7,1
0,73,"[0.1369303208877425, -1.433866005907154, 0.1369303208877425, 0.1369303208877425, 0.1369303208877425, 0.1369303208877425]","[0.23018740468532922, -1.3406089221095674, 0.23018740468532922, 0.23018740468532922, 0.23018740468532922, 0.23018740468532922]",0.002,7,1
0,74,"[0.1395217791331711, -1.431274547661725, 0.1395217791331711, 0.1395217791331711, 0.1395217791331711, 0.1395217791331711]","[0.23051704698810496, -1.3402792798067915, 0.23051704698810496, 0.23051704698810496, 0.23051704698810496, 0.23051704698810496]",0.002,7,1
0,75,"[0.14210852643594907, -1.4286878003589463, 0.14210852643594907, 0.14210852643594907, 0.14210852643594907, 0.14210852643594907]","[0.23084632512734793, -1.3399500016675487, 0.23084632512734793, 0.23084632512734793, 0.23084632512734793, 0.23084632512734793]",0.002,7,1
0,76,"[0.14469157882672903, -1.426104747968166, 0.14469157882672903, 0.14469157882672903, 0.14469157882672903, 0.14469157882672903]","[0.231175238582875, -1.3396210882120216, 0.231175238582875, 0.231175238582875, 0.231175238582875, 0.231175238582875]",0.002,7,1
0,77,"[0.14727286529354264, -1.423523461501353, 0.14727286529354264, 0.14727286529354264, 0.14727286529354264, 0.14727286529354264]","[0.23150378683507905, -1.3392925399598175, 0.23150378683507905, 0.23150378683507905, 0.23150378683507905, 0.23150378683507905]",0.002,7,1
0,78,"[0.14985124575607187, -1.4209450810388242, 0.14985124575607187, 0.14985124575607187, 0.14985124575607187, 0.14985124575607187]","[0.23183196936492995, -1.3389643574299666, 0.23183196936492995, 0.23183196936492995, 0.23183196936492995, 0.23183196936492995]",0.002,7,1
0,79,"[0.15242499486936484, -1.418371331925531, 0.15242499486936484, 0.15242499486936484, 0.15242499486936484, 0.15242499486936484]","[0.23215978565397538, -1.3386365411409211, 0.23215978565397538, 0.23215978565397538, 0.23215978565397538, 0.23215978565397538]",0.002,7,1
0,80,"[0.15499568672836816, -1.4158006400665286, 0.15499568672836816, 0.15499568672836816, 0.15499568672836816, 0.15499568672836816]","[0.23248723518434147, -1.3383090916105551, 0.23248723518434147, 0.23248723518434147, 0.23248723518434147, 0.23248723518434147]",0.002,7,1
0,81,"[0.15756427756824376, -1.4132320492266528, 0.15756427756824376, 0.15756427756824376, 0.15756427756824376, 0.15756427756824376]","[0.2328143174387339, -1.3379820093561627, 0.2328143174387339, 0.2328143174387339, 0.2328143174387339, 0.2328143174387339]",0.002,7,1
0,82,"[0.16012926343715117, -1.410667063357745, 0.16012926343715117, 0.16012926343715117, 0.16012926343715117, 0.16012926343715117]","[0.23314103190043844, -1.337655294894458, 0.23314103190043844, 0.23314103190043844, 0.23314103190043844, 0.23314103190043844]",0.002,7,1
0,83,"[0.16269033131731123, -1.4081059954775847, 0.16269033131731123, 0.16269033131731123, 0.16269033131731123, 0.16269033131731123]","[0.2334673780533219, -1.3373289487415747, 0.2334673780533219, 0.2334673780533219, 0.2334673780533219, 0.2334673780533219]",0.002,7,1
0,84,"[0.16524878267990983, -1.4055475441149854, 0.16524878267990983, 0.16524878267990983, 0.16524878267990983, 0.16524878267990983]","[0.23379335538183305, -1.3370029714130636, 0.23379335538183305, 0.23379335538183305, 0.23379335538183305, 0.23379335538183305]",0.002,7,1
0,85,"[0.16780435120748471, -1.402991975587411, 0.16780435120748471, 0.16780435120748471, 0.16780435120748471, 0.16780435120748471]","[0.2341189633710031, -1.3366773634238935, 0.2341189633710031, 0.2341189633710031, 0.2341189633710031, 0.2341189633710031]",0.002,7,1
0,86,"[0.1703561261411376, -1.4004402006537582, 0.1703561261411376, 0.1703561261411376, 0.1703561261411376, 0.1703561261411376]","[0.23444420150644696, -1.3363521252884496, 0.23444420150644696, 0.23444420150644696, 0.23444420150644696, 0.23444420150644696]",0.002,7,1
0,87,"[0.1729047738279596, -1.3978915529669367, 0.1729047738279596, 0.1729047738279596, 0.1729047738279596, 0.1729047738279596]","[0.2347690692743636, -1.336027257520533, 0.2347690692743636, 0.2347690692743636, 0.2347690692743636, 0.2347690692743636]",0.002,7,1
0,88,"[0.17545062238485715, -1.3953457044100395, 0.17545062238485715, 0.17545062238485715, 0.17545062238485715, 0.17545062238485715]","[0.23509356616153737, -1.3357027606333591, 0.23509356616153737, 0.23509356616153737, 0.23509356616153737, 0.23509356616153737]",0.002,7,1
0,89,"[0.17799312958655136, -1.3928031972083454, 0.17799312958655136, 0.17799312958655136, 0.17799312958655136, 0.17799312958655136]","[0.23541769165533827, -1.3353786351395582, 0.23541769165533827, 0.23541769165533827, 0.23541769165533827, 0.23541769165533827]",0.002,7,1
0,90,"[0.1805323202985162, -1.3902640064963805, 0.1805323202985162, 0.1805323202985162, 0.1805323202985162, 0.1805323202985162]","[0.2357414452437231, -1.3350548815511734, 0.2357414452437231, 0.2357414452437231, 0.2357414452437231, 0.2357414452437231]",0.002,7,1
0,91,"[0.18306845526794335, -1.3877278715269536, 0.18306845526794335, 0.18306845526794335, 0.18306845526794335, 0.18306845526794335]","[0.23606482641523624, -1.3347315003796603, 0.23606482641523624, 0.23606482641523624, 0.23606482641523624, 0.23606482641523624]",0.002,7,1
0,92,"[0.18560135079195195, -1.3851949760029454, 0.18560135079195195, 0.18560135079195195, 0.18560135079195195, 0.18560135079195195]","[0.23638783465901028, -1.3344084921358863, 0.23638783465901028, 0.23638783465901028, 0.23638783465901028, 0.23638783465901028]",0.002,7,1
0,93,"[0.18560135079195195, -1.3851949760029454, 0.18560135079195195, 0.18560135079195195, 0.18560135079195195, 0.18560135079195195]","[0.2367104694647671, -1.3340858573301295, 0.2367104694647671, 0.2367104694647671, 0.2367104694647671, 0.2367104694647671]",0.002,7,1
0,94,"[0.18813111257905268, -1.3826652142158453, 0.18813111257905268, 0.18813111257905268, 0.18813111257905268, 0.18813111257905268]","[0.23703273032281838, -1.3337635964720782, 0.23703273032281838, 0.23703273032281838, 0.23703273032281838, 0.23703273032281838]",0.002,7,1
0,95,"[0.19065776944183793, -1.3801385573530602, 0.19065776944183793, 0.19065776944183793, 0.19065776944183793, 0.19065776944183793]","[0.23735461672406663, -1.33344171007083, 0.23735461672406663, 0.23735461672406663, 0.23735461672406663, 0.23735461672406663]",0.002,7,1
0,96,"[0.19318098366292014, -1.3776153431319784, 0.19318098366292014, 0.19318098366292014, 0.19318098366292014, 0.19318098366292014]","[0.237676128160006, -1.3331201986348906, 0.237676128160006, 0.237676128160006, 0.237676128160006, 0.237676128160006]",0.002,7,1
0,97,"[0.19570122034354506, -1.3750951064513535, 0.19570122034354506, 0.19570122034354506, 0.19570122034354506, 0.19570122034354506]","[0.23799726412272276, -1.3327990626721737, 0.23799726412272276, 0.23799726412272276, 0.23799726412272276, 0.23799726412272276]",0.002,7,1
0,98,"[0.1982185506639917, -1.3725777761309068, 0.1982185506639917, 0.1982185506639917, 0.1982185506639917, 0.1982185506639917]","[0.23831802410489658, -1.33247830269, 0.23831802410489658, 0.23831802410489658, 0.23831802410489658, 0.23831802410489658]",0.002,7,1
0,99,"[0.20073209457168037, -1.3700642322232177, 0.20073209457168037, 0.20073209457168037, 0.20073209457168037, 0.20073209457168037]","[0.23863840759980093, -1.3321579191950956, 0.23863840759980093, 0.23863840759980093, 0.23863840759980093, 0.23863840759980093]",0.002,7,1
0,100,"[0.20324249598115396, -1.367553830813744, 0.20324249598115396, 0.20324249598115396, 0.20324249598115396, 0.20324249598115396]","[0.23895841410130417, -1.3318379126935924, 0.23895841410130417, 0.23895841410130417, 0.23895841410130417, 0.23895841410130417]",0.002,7,1
0,101,"[0.2057504690506527, -1.3650458577442448, 0.2057504690506527, 0.2057504690506527, 0.2057504690506527, 0.2057504690506527]","[0.23927804310387013, -1.3315182836910264, 0.23927804310387013, 0.23927804310387013, 0.23927804310387013, 0.23927804310387013]",0.002,7,1
0,102,"[0.2082545020762377, -1.3625418247186598, 0.2082545020762377, 0.2082545020762377, 0.2082545020762377, 0.2082545020762377]","[0.23959729410255903, -1.3311990326923375, 0.23959729410255903, 0.23959729410255903, 0.23959729410255903, 0.23959729410255903]",0.002,7,1
0,103,"[0.21075412353323653, -1.3600422032616608, 0.21075412353323653, 0.21075412353323653, 0.21075412353323653, 0.21075412353323653]","[0.23991616659302828, -1.3308801602018683, 0.23991616659302828, 0.23991616659302828, 0.23991616659302828, 0.23991616659302828]",0.002,7,1
0,104,"[0.21325043911371847, -1.3575458876811792, 0.21325043911371847, 0.21325043911371847, 0.21325043911371847, 0.21325043911371847]","[0.24023466007153318, -1.3305616667233633, 0.24023466007153318, 0.24023466007153318, 0.24023466007153318, 0.24023466007153318]",0.002,7,1
0,105,"[0.21574221698804671, -1.3550541098068507, 0.21574221698804671, 0.21574221698804671, 0.21574221698804671, 0.21574221698804671]","[0.2405527740349278, -1.3302435527599688, 0.2405527740349278, 0.2405527740349278, 0.2405527740349278, 0.2405527740349278]",0.002,7,1
0,106,"[0.21822786328991411, -1.3525684635049835, 0.21822786328991411, 0.21822786328991411, 0.21822786328991411, 0.21822786328991411]","[0.24087050798066584, -1.3299258188142307, 0.24087050798066584, 0.24087050798066584, 0.24087050798066584, 0.24087050798066584]",0.002,7,1
0,107,"[0.22070887966294206, -1.3500874471319557, 0.22070887966294206, 0.22070887966294206, 0.22070887966294206, 0.22070887966294206]","[0.24118786140680118, -1.3296084653880953, 0.24118786140680118, 0.24118786140680118, 0.24118786140680118, 0.24118786140680118]",0.002,7,1
0,108,"[0.2231852604066295, -1.3476110663882679, 0.2231852604066295, 0.2231852604066295, 0.2231852604066295, 0.2231852604066295]","[0.24150483381198895, -1.3292914929829076, 0.24150483381198895, 0.24150483381198895, 0.24150483381198895, 0.24150483381198895]",0.002,7,1
0,109,"[0.22565443883090855, -1.3451418879639885, 0.22565443883090855, 0.22565443883090855, 0.22565443883090855, 0.22565443883090855]","[0.24182142469548626, -1.3289749020994104, 0.24182142469548626, 0.24182142469548626, 0.24182142469548626, 0.24182142469548626]",0.002,7,1
0,110,"[0.22811740021277732, -1.3426789265821197, 0.22811740021277732, 0.22811740021277732, 0.22811740021277732, 0.22811740021277732]","[0.2421376335571528, -1.3286586932377438, 0.2421376335571528, 0.2421376335571528, 0.2421376335571528, 0.2421376335571528]",0.002,7,1
0,111,"[0.23057609260648804, -1.3402202341884086, 0.23057609260648804, 0.23057609260648804, 0.23057609260648804, 0.23057609260648804]","[0.24245345989745176, -1.3283428668974449, 0.24245345989745176, 0.24245345989745176, 0.24245345989745176, 0.24245345989745176]",0.002,7,1
0,112,"[0.23302820769266797, -1.337768119102229, 0.23302820769266797, 0.23302820769266797, 0.23302820769266797, 0.23302820769266797]","[0.2427689032174508, -1.3280274235774459, 0.2427689032174508, 0.2427689032174508, 0.2427689032174508, 0.2427689032174508]",0.002,7,1
0,113,"[0.23547291312992583, -1.3353234136649714, 0.23547291312992583, 0.23547291312992583, 0.23547291312992583, 0.23547291312992583]","[0.2430839630188225, -1.3277123637760742, 0.2430839630188225, 0.2430839630188225, 0.2430839630188225, 0.2430839630188225]",0.002,7,1
0,114,"[0.23791312969180137, -1.3328831971030954, 0.23791312969180137, 0.23791312969180137, 0.23791312969180137, 0.23791312969180137]","[0.24339863880384538, -1.3273976879910512, 0.24339863880384538, 0.24339863880384538, 0.24339863880384538, 0.24339863880384538]",0.002,7,1
0,115,"[0.24034828806609723, -1.3304480387287994, 0.24034828806609723, 0.24034828806609723, 0.24034828806609723, 0.24034828806609723]","[0.2437129300754045, -1.327083396719492, 0.2437129300754045, 0.2437129300754045, 0.2437129300754045, 0.2437129300754045]",0.002,7,1
0,116,"[0.24277554204621682, -1.3280207847486798, 0.24277554204621682, 0.24277554204621682, 0.24277554204621682, 0.24277554204621682]","[0.24402683633699257, -1.326769490457904, 0.24402683633699257, 0.24402683633699257, 0.24402683633699257, 0.24402683633699257]",0.002,7,1
0,117,"[0.2451976063576606, -1.3255987204372364, 0.2451976063576606, 0.2451976063576606, 0.2451976063576606, 0.2451976063576606]","[0.2443403570927104, -1.3264559697021863, 0.2443403570927104, 0.2443403570927104, 0.2443403570927104, 0.2443403570927104]",0.002,7,1
0,118,"[0.24761674523324662, -1.32317958156165, 0.24761674523324662, 0.24761674523324662, 0.24761674523324662, 0.24761674523324662]","[0.24465349184726773, -1.3261428349476287, 0.24465349184726773, 0.24465349184726773, 0.24465349184726773, 0.24465349184726773]",0.002,7,1
0,119,"[0.2500297409154005, -1.3207665858794968, 0.2500297409154005, 0.2500297409154005, 0.2500297409154005, 0.2500297409154005]","[0.2449662401059843, -1.3258300866889123, 0.2449662401059843, 0.2449662401059843, 0.2449662401059843, 0.2449662401059843]",0.002,7,1
0,120,"[0.25243612978969304, -1.3183601970052043, 0.25243612978969304, 0.25243612978969304, 0.25243612978969304, 0.25243612978969304]","[0.24527860137479035, -1.3255177254201063, 0.24527860137479035, 0.24527860137479035, 0.24527860137479035, 0.24527860137479035]",0.002,7,1
0,121,"[0.2548397208264022, -1.3159566059684948, 0.2548397208264022, 0.2548397208264022, 0.2548397208264022, 0.2548397208264022]","[0.24559057516022728, -1.3252057516346694, 0.24559057516022728, 0.24559057516022728, 0.24559057516022728, 0.24559057516022728]",0.002,7,1
0,122,"[0.2572395619539213, -1.3135567648409756, 0.2572395619539213, 0.2572395619539213, 0.2572395619539213, 0.2572395619539213]","[0.2459021609694489, -1.3248941658254476, 0.2459021609694489, 0.2459021609694489, 0.2459021609694489, 0.2459021609694489]",0.002,7,1
0,123,"[0.2572395619539213, -1.3135567648409756, 0.2572395619539213, 0.2572395619539213, 0.2572395619539213, 0.2572395619539213]","[0.24621335831022176, -1.3245829684846748, 0.24621335831022176, 0.24621335831022176, 0.24621335831022176, 0.24621335831022176]",0.002,7,1
0,124,"[0.2596320118867172, -1.3111643149081793, 0.2596320118867172, 0.2596320118867172, 0.2596320118867172, 0.2596320118867172]","[0.2465241666909262, -1.3242721601039704, 0.2465241666909262, 0.2465241666909262, 0.2465241666909262, 0.2465241666909262]",0.002,7,1
0,125,"[0.26201978792379865, -1.308776538871098, 0.26201978792379865, 0.26201978792379865, 0.26201978792379865, 0.26201978792379865]","[0.2468345856205569, -1.3239617411743396, 0.2468345856205569, 0.2468345856205569, 0.2468345856205569, 0.2468345856205569]",0.002,7,1
0,126,"[0.26440630861646797, -1.306390018178429, 0.26440630861646797, 0.26440630861646797, 0.26440630861646797, 0.26440630861646797]","[0.24714461460872394, -1.3236517121861726, 0.24714461460872394, 0.24714461460872394, 0.24714461460872394, 0.24714461460872394]",0.002,7,1
0,127,"[0.26678816998889104, -1.3040081568060051, 0.26678816998889104, 0.26678816998889104, 0.26678816998889104, 0.26678816998889104]","[0.24745425316565337, -1.3233420736292432, 0.24745425316565337, 0.24745425316565337, 0.24745425316565337, 0.24745425316565337]",0.002,7,1
0,128,"[0.2691628186385481, -1.301633508156348, 0.2691628186385481, 0.2691628186385481, 0.2691628186385481, 0.2691628186385481]","[0.24776350080218784, -1.3230328259927087, 0.24776350080218784, 0.24776350080218784, 0.24776350080218784, 0.24776350080218784]",0.002,7,1
0,129,"[0.2715343799384436, -1.2992619468564524, 0.2715343799384436, 0.2715343799384436, 0.2715343799384436, 0.2715343799384436]","[0.24807235702978792, -1.3227239697651085, 0.24807235702978792, 0.24807235702978792, 0.24807235702978792, 0.24807235702978792]",0.002,7,1
0,130,"[0.2739044877698193, -1.2968918390250765, 0.2739044877698193, 0.2739044877698193, 0.2739044877698193, 0.2739044877698193]","[0.24838082136053216, -1.3224155054343645, 0.24838082136053216, 0.24838082136053216, 0.24838082136053216, 0.24838082136053216]",0.002,7,1
0,131,"[0.2762694155051636, -1.294526911289732, 0.2762694155051636, 0.2762694155051636, 0.2762694155051636, 0.2762694155051636]","[0.24868889330711846, -1.322107433487778, 0.24868889330711846, 0.24868889330711846, 0.24868889330711846, 0.24868889330711846]",0.002,7,1
0,132,"[0.2786271700249016, -1.2921691567699938, 0.2786271700249016, 0.2786271700249016, 0.2786271700249016, 0.2786271700249016]","[0.24899657238286454, -1.321799754412032, 0.24899657238286454, 0.24899657238286454, 0.24899657238286454, 0.24899657238286454]",0.002,7,1
0,133,"[0.2809823232292527, -1.2898140035656427, 0.2809823232292527, 0.2809823232292527, 0.2809823232292527, 0.2809823232292527]","[0.24930385810170866, -1.321492468693188, 0.24930385810170866, 0.24930385810170866, 0.24930385810170866, 0.24930385810170866]",0.002,7,1
0,134,"[0.2833362135415532, -1.287460113253343, 0.2833362135415532, 0.2833362135415532, 0.2833362135415532, 0.2833362135415532]","[0.24961074997821056, -1.321185576816686, 0.24961074997821056, 0.24961074997821056, 0.24961074997821056, 0.24961074997821056]",0.002,7,1
0,135,"[0.28568531722436347, -1.2851110095705334, 0.28568531722436347, 0.28568531722436347, 0.28568531722436347, 0.28568531722436347]","[0.2499172475275523, -1.3208790792673444, 0.2499172475275523, 0.2499172475275523, 0.2499172475275523, 0.2499172475275523]",0.002,7,1
0,136,"[0.2880264963284438, -1.282769830466453, 0.2880264963284438, 0.2880264963284438, 0.2880264963284438, 0.2880264963284438]","[0.2502233502655386, -1.320572976529358, 0.2502233502655386, 0.2502233502655386, 0.2502233502655386, 0.2502233502655386]",0.002,7,1
0,137,"[0.2903640311213305, -1.2804322956735668, 0.2903640311213305, 0.2903640311213305, 0.2903640311213305, 0.2903640311213305]","[0.2505290577085981, -1.3202672690862984, 0.2505290577085981, 0.2505290577085981, 0.2505290577085981, 0.2505290577085981]",0.002,7,1
0,138,"[0.292701400274698, -1.2780949265201986, 0.292701400274698, 0.292701400274698, 0.292701400274698, 0.292701400274698]","[0.250834369373784, -1.3199619574211126, 0.250834369373784, 0.250834369373784, 0.250834369373784, 0.250834369373784]",0.002,7,1
0,139,"[0.2950353790440396, -1.2757609477508574, 0.2950353790440396, 0.2950353790440396, 0.2950353790440396, 0.2950353790440396]","[0.25113928477877434, -1.3196570420161222, 0.25113928477877434, 0.25113928477877434, 0.25113928477877434, 0.25113928477877434]",0.002,7,1
0,140,"[0.2973628385858892, -1.2734334882090073, 0.2973628385858892, 0.2973628385858892, 0.2973628385858892, 0.2973628385858892]","[0.2514438034418736, -1.319352523353023, 0.2514438034418736, 0.2514438034418736, 0.2514438034418736, 0.2514438034418736]",0.002,7,1
0,141,"[0.29968310623158795, -1.2711132205633087, 0.29968310623158795, 0.29968310623158795, 0.29968310623158795, 0.29968310623158795]","[0.25174792488201275, -1.3190484019128839, 0.25174792488201275, 0.25174792488201275, 0.25174792488201275, 0.25174792488201275]",0.002,7,1
0,142,"[0.3020011675452466, -1.2687951592496498, 0.3020011675452466, 0.3020011675452466, 0.3020011675452466, 0.3020011675452466]","[0.25205164861875046, -1.318744678176146, 0.25205164861875046, 0.25205164861875046, 0.25205164861875046, 0.25205164861875046]",0.002,7,1
0,143,"[0.3043184179171614, -1.266477908877735, 0.3043184179171614, 0.3043184179171614, 0.3043184179171614, 0.3043184179171614]","[0.2523549741722735, -1.318441352622623, 0.2523549741722735, 0.2523549741722735, 0.2523549741722735, 0.2523549741722735]",0.002,7,1
0,144,"[0.30663226589560594, -1.2641640608992901, 0.30663226589560594, 0.30663226589560594, 0.30663226589560594, 0.30663226589560594]","[0.2526579010633978, -1.3181384257314988, 0.2526579010633978, 0.2526579010633978, 0.2526579010633978, 0.2526579010633978]",0.002,7,1
0,145,"[0.30894032201624116, -1.2618560047786547, 0.30894032201624116, 0.30894032201624116, 0.30894032201624116, 0.30894032201624116]","[0.25296042881356906, -1.3178358979813276, 0.25296042881356906, 0.25296042881356906, 0.25296042881356906, 0.25296042881356906]",0.002,7,1
0,146,"[0.31124040971334227, -1.2595559170815536, 0.31124040971334227, 0.31124040971334227, 0.31124040971334227, 0.31124040971334227]","[0.25326255694486344, -1.3175337698500331, 0.25326255694486344, 0.25326255694486344, 0.25326255694486344, 0.25326255694486344]",0.002,7,1
0,147,"[0.3135348080336775, -1.2572615187612186, 0.3135348080336775, 0.3135348080336775, 0.3135348080336775, 0.3135348080336775]","[0.25356428497998856, -1.317232041814908, 0.25356428497998856, 0.25356428497998856, 0.25356428497998856, 0.25356428497998856]",0.002,7,1
0,148,"[0.3158281050963474, -1.2549682216985492, 0.3158281050963474, 0.3158281050963474, 0.3158281050963474, 0.3158281050963474]","[0.253865612442284, -1.3169307143526126, 0.253865612442284, 0.253865612442284, 0.253865612442284, 0.253865612442284]",0.002,7,1
0,149,"[0.31811994204437244, -1.252676384750524, 0.31811994204437244, 0.31811994204437244, 0.31811994204437244, 0.31811994204437244]","[0.2541665388557222, -1.3166297879391744, 0.2541665388557222, 0.2541665388557222, 0.2541665388557222, 0.2541665388557222]",0.002,7,1
0,150,"[0.32040873038323514, -1.2503875964116613, 0.32040873038323514, 0.32040873038323514, 0.32040873038323514, 0.32040873038323514]","[0.2544670637449091, -1.3163292630499874, 0.2544670637449091, 0.2544670637449091, 0.2544670637449091, 0.2544670637449091]",0.002,7,1
0,151,"[0.3226931608091514, -1.2481031659857447, 0.3226931608091514, 0.3226931608091514, 0.3226931608091514, 0.3226931608091514]","[0.2547671866350851, -1.3160291401598114, 0.2547671866350851, 0.2547671866350851, 0.2547671866350851, 0.2547671866350851]",0.002,7,1
0,152,"[0.3249722021638456, -1.245824124631051, 0.3249722021638456, 0.3249722021638456, 0.3249722021638456, 0.3249722021638456]","[0.2550669070521253, -1.3157294197427714, 0.2550669070521253, 0.2550669070521253, 0.2550669070521253, 0.2550669070521253]",0.002,7,1
0,153,"[0.3249722021638456, -1.245824124631051, 0.3249722021638456, 0.3249722021638456, 0.3249722021638456, 0.3249722021638456]","[0.2553662245225412, -1.3154301022723554, 0.2553662245225412, 0.2553662245225412, 0.2553662245225412, 0.2553662245225412]",0.002,7,1
0,154,"[0.32724510495552195, -1.2435512218393754, 0.32724510495552195, 0.32724510495552195, 0.32724510495552195, 0.32724510495552195]","[0.25566513857348033, -1.3151311882214163, 0.25566513857348033, 0.25566513857348033, 0.25566513857348033, 0.25566513857348033]",0.002,7,1
0,155,"[0.32951140422731895, -1.2412849225675782, 0.32951140422731895, 0.32951140422731895, 0.32951140422731895, 0.32951140422731895]","[0.2559636487327278, -1.3148326780621686, 0.2559636487327278, 0.2559636487327278, 0.2559636487327278, 0.2559636487327278]",0.002,7,1
0,156,"[0.33177091702410844, -1.2390254097707887, 0.33177091702410844, 0.33177091702410844, 0.33177091702410844, 0.33177091702410844]","[0.2562617545287067, -1.3145345722661899, 0.2562617545287067, 0.2562617545287067, 0.2562617545287067, 0.2562617545287067]",0.002,7,1
0,157,"[0.33402373114662154, -1.236772595648275, 0.33402373114662154, 0.33402373114662154, 0.33402373114662154, 0.33402373114662154]","[0.2565594554904789, -1.3142368713044177, 0.2565594554904789, 0.2565594554904789, 0.2565594554904789, 0.2565594554904789]",0.002,7,1
0,158,"[0.3362638881054608, -1.2345324386894356, 0.3362638881054608, 0.3362638881054608, 0.3362638881054608, 0.3362638881054608]","[0.256856751147746, -1.3139395756471506, 0.256856751147746, 0.256856751147746, 0.256856751147746, 0.256856751147746]",0.002,7,1
0,159,"[0.3384759857225299, -1.2323203410723664, 0.3384759857225299, 0.3384759857225299, 0.3384759857225299, 0.3384759857225299]","[0.2571536410308495, -1.313642685764047, 0.2571536410308495, 0.2571536410308495, 0.2571536410308495, 0.2571536410308495]",0.002,7,1
0,160,"[0.3406540657465286, -1.2301422610483677, 0.3406540657465286, 0.3406540657465286, 0.3406540657465286, 0.3406540657465286]","[0.2574501246707723, -1.3133462021241242, 0.2574501246707723, 0.2574501246707723, 0.2574501246707723, 0.2574501246707723]",0.002,7,1
0,161,"[0.3427941702352069, -1.2280021565596897, 0.3427941702352069, 0.3427941702352069, 0.3427941702352069, 0.3427941702352069]","[0.25774620159913886, -1.3130501251957578, 0.25774620159913886, 0.25774620159913886, 0.25774620159913886, 0.25774620159913886]",0.002,7,1
0,162,"[0.34489375943945405, -1.2259025673554431, 0.34489375943945405, 0.34489375943945405, 0.34489375943945405, 0.34489375943945405]","[0.2580418713482163, -1.3127544554466803, 0.2580418713482163, 0.2580418713482163, 0.2580418713482163, 0.2580418713482163]",0.002,7,1
0,163,"[0.34695110735795187, -1.223845219436945, 0.34695110735795187, 0.34695110735795187, 0.34695110735795187, 0.34695110735795187]","[0.2583371334509149, -1.3124591933439818, 0.2583371334509149, 0.2583371334509149, 0.2583371334509149, 0.2583371334509149]",0.002,7,1
0,164,"[0.34896484910284115, -1.2218314776920556, 0.34896484910284115, 0.34896484910284115, 0.34896484910284115, 0.34896484910284115]","[0.2586319874407889, -1.3121643393541076, 0.2586319874407889, 0.2586319874407889, 0.2586319874407889, 0.2586319874407889]",0.002,7,1
0,165,"[0.350933865505206, -1.219862461289691, 0.350933865505206, 0.350933865505206, 0.350933865505206, 0.350933865505206]","[0.2589264328520373, -1.3118698939428592, 0.2589264328520373, 0.2589264328520373, 0.2589264328520373, 0.2589264328520373]",0.002,7,1
0,166,"[0.3528572236968529, -1.2179391030980442, 0.3528572236968529, 0.3528572236968529, 0.3528572236968529, 0.3528572236968529]","[0.2592204692195046, -1.311575857575392, 0.2592204692195046, 0.2592204692195046, 0.2592204692195046, 0.2592204692195046]",0.002,7,1
0,167,"[0.35473412717409625, -1.2160621996208008, 0.35473412717409625, 0.35473412717409625, 0.35473412717409625, 0.35473412717409625]","[0.2595140960786814, -1.311282230716215, 0.2595140960786814, 0.2595140960786814, 0.2595140960786814, 0.2595140960786814]",0.002,7,1
0,168,"[0.35656388340388157, -1.2142324433910154, 0.35656388340388157, 0.35656388340388157, 0.35656388340388157, 0.35656388340388157]","[0.25980731296570536, -1.3109890138291913, 0.25980731296570536, 0.25980731296570536, 0.25980731296570536, 0.25980731296570536]",0.002,7,1
0,169,"[0.3583458822949534, -1.212450444499943, 0.3583458822949534, 0.3583458822949534, 0.3583458822949534, 0.3583458822949534]","[0.2601001194173617, -1.3106962073775348, 0.2601001194173617, 0.2601001194173617, 0.2601001194173617, 0.2601001194173617]",0.002,7,1
0,170,"[0.3600795813788233, -1.2107167454160734, 0.3600795813788233, 0.3600795813788233, 0.3600795813788233, 0.3600795813788233]","[0.260392514971084, -1.3104038118238126, 0.260392514971084, 0.260392514971084, 0.260392514971084, 0.260392514971084]",0.002,7,1
0,171,"[0.36176449530255345, -1.209031831492343, 0.36176449530255345, 0.36176449530255345, 0.36176449530255345, 0.36176449530255345]","[0.26068449916495506, -1.3101118276299415, 0.26068449916495506, 0.26068449916495506, 0.26068449916495506, 0.26068449916495506]",0.002,7,1
0,172,"[0.3634001881861858, -1.2073961386087104, 0.3634001881861858, 0.3634001881861858, 0.3634001881861858, 0.3634001881861858]","[0.2609760715377076, -1.309820255257189, 0.2609760715377076, 0.2609760715377076, 0.2609760715377076, 0.2609760715377076]",0.002,7,1
0,173,"[0.36498626793788913, -1.2058100588570078, 0.36498626793788913, 0.36498626793788913, 0.36498626793788913, 0.36498626793788913]","[0.26126723162872456, -1.309529095166172, 0.26126723162872456, 0.26126723162872456, 0.26126723162872456, 0.26126723162872456]",0.002,7,1
0,174,"[0.3665223819398081, -1.204273944855089, 0.3665223819398081, 0.3665223819398081, 0.3665223819398081, 0.3665223819398081]","[0.26155797897804073, -1.3092383478168559, 0.26155797897804073, 0.26155797897804073, 0.26155797897804073, 0.26155797897804073]",0.002,7,1
0,175,"[0.36800821371387316, -1.2027881130810236, 0.36800821371387316, 0.36800821371387316, 0.36800821371387316, 0.36800821371387316]","[0.26184831312634244, -1.308948013668554, 0.26184831312634244, 0.26184831312634244, 0.26184831312634244, 0.26184831312634244]",0.002,7,1
0,176,"[0.369443480301013, -1.2013528464938839, 0.369443480301013, 0.369443480301013, 0.369443480301013, 0.369443480301013]","[0.2621382336149691, -1.3086580931799274, 0.2621382336149691, 0.2621382336149691, 0.2621382336149691, 0.2621382336149691]",0.002,7,1
0,177,"[0.37082793016792287, -1.199968396626974, 0.37082793016792287, 0.37082793016792287, 0.37082793016792287, 0.37082793016792287]","[0.26242773998591346, -1.3083685868089832, 0.26242773998591346, 0.26242773998591346, 0.26242773998591346, 0.26242773998591346]",0.002,7,1
0,178,"[0.37216134150927066, -1.1986349852856257, 0.37216134150927066, 0.37216134150927066, 0.37216134150927066, 0.37216134150927066]","[0.2627168317818226, -1.3080794950130739, 0.2627168317818226, 0.2627168317818226, 0.2627168317818226, 0.2627168317818226]",0.002,7,1
0,179,"[0.3734435208497438, -1.1973528059451528, 0.3734435208497438, 0.3734435208497438, 0.3734435208497438, 0.3734435208497438]","[0.26300550854599836, -1.3077908182488982, 0.26300550854599836, 0.26300550854599836, 0.26300550854599836, 0.26300550854599836]",0.002,7,1
0,180,"[0.3746743018756455, -1.1961220249192506, 0.3746743018756455, 0.3746743018756455, 0.3746743018756455, 0.3746743018756455]","[0.2632937698223983, -1.3075025569724983, 0.2632937698223983, 0.2632937698223983, 0.2632937698223983, 0.2632937698223983]",0.002,7,1
0,181,"[0.37585354444357183, -1.1949427823513243, 0.37585354444357183, 0.37585354444357183, 0.37585354444357183, 0.37585354444357183]","[0.26358161515563655, -1.30721471163926, 0.26358161515563655, 0.26358161515563655, 0.26358161515563655, 0.26358161515563655]",0.002,7,1
0,182,"[0.37585354444357183, -1.1949427823513243, 0.37585354444357183, 0.37585354444357183, 0.37585354444357183, 0.37585354444357183]","[0.263869044090984, -1.3069272827039127, 0.263869044090984, 0.263869044090984, 0.263869044090984, 0.263869044090984]",0.002,7,1
0,183,"[0.3769811337264488, -1.1938151930684473, 0.3769811337264488, 0.3769811337264488, 0.3769811337264488, 0.3769811337264488]","[0.2641560561743696, -1.306640270620527, 0.2641560561743696, 0.2641560561743696, 0.2641560561743696, 0.2641560561743696]",0.002,7,1
0,184,"[0.3780569794664405, -1.1927393473284553, 0.3780569794664405, 0.3780569794664405, 0.3780569794664405, 0.3780569794664405]","[0.2644426509523807, -1.3063536758425158, 0.2644426509523807, 0.2644426509523807, 0.2644426509523807, 0.2644426509523807]",0.002,7,1
0,185,"[0.37908101531100424, -1.1917153114838914, 0.37908101531100424, 0.37908101531100424, 0.37908101531100424, 0.37908101531100424]","[0.264728827972264, -1.3060674988226326, 0.264728827972264, 0.264728827972264, 0.264728827972264, 0.264728827972264]",0.002,7,1
0,186,"[0.38005319821336464, -1.1907431285815306, 0.38005319821336464, 0.38005319821336464, 0.38005319821336464, 0.38005319821336464]","[0.265014586781926, -1.3057817400129705, 0.265014586781926, 0.265014586781926, 0.265014586781926, 0.265014586781926]",0.002,7,1
0,187,"[0.38097350788239465, -1.1898228189125009, 0.38097350788239465, 0.38097350788239465, 0.38097350788239465, 0.38097350788239465]","[0.2652999269299341, -1.3054963998649625, 0.2652999269299341, 0.2652999269299341, 0.2652999269299341, 0.2652999269299341]",0.002,7,1
0,188,"[0.381841867438509, -1.1889544593563866, 0.381841867438509, 0.381841867438509, 0.381841867438509, 0.381841867438509]","[0.2655848479655169, -1.3052114788293796, 0.2655848479655169, 0.2655848479655169, 0.2655848479655169, 0.2655848479655169]",0.002,7,1
0,189,"[0.38265816240041334, -1.1881381643944815, 0.38265816240041334, 0.38265816240041334, 0.38265816240041334, 0.38265816240041334]","[0.2658693494385652, -1.3049269773563315, 0.2658693494385652, 0.2658693494385652, 0.2658693494385652, 0.2658693494385652]",0.002,7,1
0,190,"[0.38342249293413483, -1.18737383386076, 0.38342249293413483, 0.38342249293413483, 0.38342249293413483, 0.38342249293413483]","[0.26615343089963256, -1.304642895895264, 0.26615343089963256, 0.26615343089963256, 0.26615343089963256, 0.26615343089963256]",0.002,7,1
0,191,"[0.3841349792033669, -1.186661347591528, 0.3841349792033669, 0.3841349792033669, 0.3841349792033669, 0.3841349792033669]","[0.2664370918999361, -1.3043592348949604, 0.2664370918999361, 0.2664370918999361, 0.2664370918999361, 0.2664370918999361]",0.002,7,1
0,192,"[0.3847958185400141, -1.1860005082548808, 0.3847958185400141, 0.3847958185400141, 0.3847958185400141, 0.3847958185400141]","[0.26672033199135714, -1.3040759948035394, 0.26672033199135714, 0.26672033199135714, 0.26672033199135714, 0.26672033199135714]",0.002,7,1
0,193,"[0.3854052227167537, -1.1853911040781409, 0.3854052227167537, 0.3854052227167537, 0.3854052227167537, 0.3854052227167537]","[0.26700315072644193, -1.3037931760684547, 0.26700315072644193, 0.26700315072644193, 0.26700315072644193, 0.26700315072644193]",0.002,7,1
0,194,"[0.3859633737429275, -1.1848329530519672, 0.3859633737429275, 0.3859633737429275, 0.3859633737429275, 0.3859633737429275]","[0.2672855476584024, -1.3035107791364942, 0.2672855476584024, 0.2672855476584024, 0.2672855476584024, 0.2672855476584024]",0.002,7,1
0,195,"[0.3864704690705063, -1.1843258577243887, 0.3864704690705063, 0.3864704690705063, 0.3864704690705063, 0.3864704690705063]","[0.26756752234111686, -1.3032288044537796, 0.26756752234111686, 0.26756752234111686, 0.26756752234111686, 0.26756752234111686]",0.002,7,1
0,196,"[0.38692672520176963, -1.1838696015931252, 0.38692672520176963, 0.38692672520176963, 0.38692672520176963, 0.38692672520176963]","[0.2678490743291306, -1.302947252465766, 0.2678490743291306, 0.2678490743291306, 0.2678490743291306, 0.2678490743291306]",0.002,7,1
0,197,"[0.3873323774884208, -1.183463949306474, 0.3873323774884208, 0.3873323774884208, 0.3873323774884208, 0.3873323774884208]","[0.2681302031776566, -1.3026661236172399, 0.2681302031776566, 0.2681302031776566, 0.2681302031776566, 0.2681302031776566]",0.002,7,1
0,198,"[0.3876876799243746, -1.1831086468705205, 0.3876876799243746, 0.3876876799243746, 0.3876876799243746, 0.3876876799243746]","[0.26841090844257665, -1.30238541835232, 0.26841090844257665, 0.26841090844257665, 0.26841090844257665, 0.26841090844257665]",0.002,7,1
0,199,"[0.3879929049323374, -1.1828034218625572, 0.3879929049323374, 0.3879929049323374, 0.3879929049323374, 0.3879929049323374]","[0.26869118968044126, -1.3021051371144554, 0.26869118968044126, 0.26869118968044126, 0.26869118968044126, 0.26869118968044126]",0.002,7,1
0,200,"[0.38824834314430284, -1.1825479836505917, 0.38824834314430284, 0.38824834314430284, 0.38824834314430284, 0.38824834314430284]","[0.2689710464484711, -1.3018252803464254, 0.2689710464484711, 0.2689710464484711, 0.2689710464484711, 0.2689710464484711]",0.002,7,1
0,201,"[0.3884543031760867, -1.1823420236188085, 0.3884543031760867, 0.3884543031760867, 0.3884543031760867, 0.3884543031760867]","[0.2692504783045572, -1.3015458484903393, 0.2692504783045572, 0.2692504783045572, 0.2692504783045572, 0.2692504783045572]",0.002,7,1
0,202,"[0.3886111113960274, -1.1821852153988681, 0.3886111113960274, 0.3886111113960274, 0.3886111113960274, 0.3886111113960274]","[0.269529484807262, -1.3012668419876345, 0.269529484807262, 0.269529484807262, 0.269529484807262, 0.269529484807262]",0.002,7,1
0,203,"[0.3887191116879789, -1.1820772151069168, 0.3887191116879789, 0.3887191116879789, 0.3887191116879789, 0.3887191116879789]","[0.26980806551582, -1.3009882612790766, 0.26980806551582, 0.26980806551582, 0.26980806551582, 0.26980806551582]",0.002,7,1
0,204,"[0.38877866520872534, -1.18201766158617, 0.38877866520872534, 0.38877866520872534, 0.38877866520872534, 0.38877866520872534]","[0.270086219990138, -1.3007101068047586, 0.270086219990138, 0.270086219990138, 0.270086219990138, 0.270086219990138]",0.002,7,1
0,205,"[0.3887901501399478, -1.182006176654948, 0.3887901501399478, 0.3887901501399478, 0.3887901501399478, 0.3887901501399478]","[0.2703639477907965, -1.3004323790041001, 0.2703639477907965, 0.2703639477907965, 0.2703639477907965, 0.2703639477907965]",0.002,7,1
0,206,"[0.3887539614348743, -1.1820423653600205, 0.3887539614348743, 0.3887539614348743, 0.3887539614348743, 0.3887539614348743]","[0.2706412484790499, -1.3001550783158466, 0.2706412484790499, 0.2706412484790499, 0.2706412484790499, 0.2706412484790499]",0.002,7,1
0,207,"[0.38867051055974855, -1.1821258162351462, 0.38867051055974855, 0.38867051055974855, 0.38867051055974855, 0.38867051055974855]","[0.2709181216168273, -1.2998782051780693, 0.2709181216168273, 0.2709181216168273, 0.2709181216168273, 0.2709181216168273]",0.002,7,1
0,208,"[0.3885402252302459, -1.1822561015646489, 0.3885402252302459, 0.3885402252302459, 0.3885402252302459, 0.3885402252302459]","[0.2711945667667334, -1.299601760028163, 0.2711945667667334, 0.2711945667667334, 0.2711945667667334, 0.2711945667667334]",0.002,7,1
0,209,"[0.3883635491429809, -1.1824327776519148, 0.3883635491429809, 0.3883635491429809, 0.3883635491429809, 0.3883635491429809]","[0.27147058349204883, -1.2993257433028478, 0.27147058349204883, 0.27147058349204883, 0.27147058349204883, 0.27147058349204883]",0.002,7,1
0,210,"[0.3881409417022361, -1.1826553850926587, 0.3881409417022361, 0.3881409417022361, 0.3881409417022361, 0.3881409417022361]","[0.27174617135673107, -1.2990501554381655, 0.27174617135673107, 0.27174617135673107, 0.27174617135673107, 0.27174617135673107]",0.002,7,1
0,211,"[0.38787287774205126, -1.1829234490528435, 0.38787287774205126, 0.38787287774205126, 0.38787287774205126, 0.38787287774205126]","[0.2720213299254151, -1.2987749968694815, 0.2720213299254151, 0.2720213299254151, 0.2720213299254151, 0.2720213299254151]",0.002,7,1
0,212,"[0.387559847243816, -1.1832364795510788, 0.387559847243816, 0.387559847243816, 0.387559847243816, 0.387559847243816]","[0.2722960587634143, -1.2985002680314823, 0.2722960587634143, 0.2722960587634143, 0.2722960587634143, 0.2722960587634143]",0.002,7,1
0,213,"[0.387559847243816, -1.1832364795510788, 0.387559847243816, 0.387559847243816, 0.387559847243816, 0.387559847243816]","[0.27257035743672053, -1.298225969358176, 0.27257035743672053, 0.27257035743672053, 0.27257035743672053, 0.27257035743672053]",0.002,7,1
0,214,"[0.3872023550494976, -1.1835939717453972, 0.3872023550494976, 0.3872023550494976, 0.3872023550494976, 0.3872023550494976]","[0.2728442255120056, -1.297952101282891, 0.2728442255120056, 0.2728442255120056, 0.2728442255120056, 0.2728442255120056]",0.002,7,1
0,215,"[0.3868009205706562, -1.1839954062242377, 0.3868009205706562, 0.3868009205706562, 0.3868009205706562, 0.3868009205706562]","[0.2731176625566214, -1.2976786642382752, 0.2731176625566214, 0.2731176625566214, 0.2731176625566214, 0.2731176625566214]",0.002,7,1
0,216,"[0.3863560774933763, -1.1844402493015167, 0.3863560774933763, 0.3863560774933763, 0.3863560774933763, 0.3863560774933763]","[0.2733906681386006, -1.297405658656296, 0.2733906681386006, 0.2733906681386006, 0.2733906681386006, 0.2733906681386006]",0.002,7,1
0,217,"[0.3858683734792665, -1.1849279533156256, 0.3858683734792665, 0.3858683734792665, 0.3858683734792665, 0.3858683734792665]","[0.2736632418266577, -1.2971330849682388, 0.2736632418266577, 0.2736632418266577, 0.2736632418266577, 0.2736632418266577]",0.002,7,1
0,218,"[0.3853383698626658, -1.1854579569322254, 0.3853383698626658, 0.3853383698626658, 0.3853383698626658, 0.3853383698626658]","[0.27393538319018945, -1.2968609436047072, 0.27393538319018945, 0.27393538319018945, 0.27393538319018945, 0.27393538319018945]",0.002,7,1
0,219,"[0.3847666413442017, -1.1860296854506895, 0.3847666413442017, 0.3847666413442017, 0.3847666413442017, 0.3847666413442017]","[0.27420709179927555, -1.296589234995621, 0.27420709179927555, 0.27420709179927555, 0.27420709179927555, 0.27420709179927555]",0.002,7,1
0,220,"[0.3841537756808471, -1.1866425511140442, 0.3841537756808471, 0.3841537756808471, 0.3841537756808471, 0.3841537756808471]","[0.2744783672246792, -1.2963179595702172, 0.2744783672246792, 0.2744783672246792, 0.2744783672246792, 0.2744783672246792]",0.002,7,1
0,221,"[0.3835003733726099, -1.1872959534222822, 0.3835003733726099, 0.3835003733726099, 0.3835003733726099, 0.3835003733726099]","[0.2747492090378483, -1.2960471177570483, 0.2747492090378483, 0.2747492090378483, 0.2747492090378483, 0.2747492090378483]",0.002,7,1
0,222,"[0.38280704734601745, -1.1879892794488747, 0.38280704734601745, 0.38280704734601745, 0.38280704734601745, 0.38280704734601745]","[0.2750196168109153, -1.2957767099839812, 0.2750196168109153, 0.2750196168109153, 0.2750196168109153, 0.2750196168109153]",0.002,7,1
0,223,"[0.3820744773075546, -1.1887218494873366, 0.3820744773075546, 0.3820744773075546, 0.3820744773075546, 0.3820744773075546]","[0.27528959011669873, -1.2955067366781978, 0.27528959011669873, 0.27528959011669873, 0.27528959011669873, 0.27528959011669873]",0.002,7,1
0,224,"[0.38130334976999425, -1.189492977024896, 0.38130334976999425, 0.38130334976999425, 0.38130334976999425, 0.38130334976999425]","[0.27555912852870323, -1.2952371982661934, 0.27555912852870323, 0.27555912852870323, 0.27555912852870323, 0.27555912852870323]",0.002,7,1
0,225,"[0.38049431575192116, -1.19030201104297, 0.38049431575192116, 0.38049431575192116, 0.38049431575192116, 0.38049431575192116]","[0.2758282316211205, -1.294968095173776, 0.2758282316211205, 0.2758282316211205, 0.2758282316211205, 0.2758282316211205]",0.002,7,1
0,226,"[0.3796480337396648, -1.1911482930552264, 0.3796480337396648, 0.3796480337396648, 0.3796480337396648, 0.3796480337396648]","[0.27609689896883016, -1.2946994278260664, 0.27609689896883016, 0.27609689896883016, 0.27609689896883016, 0.27609689896883016]",0.002,7,1
0,227,"[0.3787651729833055, -1.1920311538115858, 0.3787651729833055, 0.3787651729833055, 0.3787651729833055, 0.3787651729833055]","[0.27636513014739994, -1.2944311966474966, 0.27636513014739994, 0.27636513014739994, 0.27636513014739994, 0.27636513014739994]",0.002,7,1
0,228,"[0.37784641316454604, -1.1929499136303434, 0.37784641316454604, 0.37784641316454604, 0.37784641316454604, 0.37784641316454604]","[0.27663292473308665, -1.2941634020618098, 0.27663292473308665, 0.27663292473308665, 0.27663292473308665, 0.27663292473308665]",0.002,7,1
0,229,"[0.37689244406240796, -1.1939038827324815, 0.37689244406240796, 0.37689244406240796, 0.37689244406240796, 0.37689244406240796]","[0.2769002823028369, -1.2938960444920595, 0.2769002823028369, 0.2769002823028369, 0.2769002823028369, 0.2769002823028369]",0.002,7,1
0,230,"[0.3759039652169003, -1.19489236157799, 0.3759039652169003, 0.3759039652169003, 0.3759039652169003, 0.3759039652169003]","[0.27716720243428783, -1.2936291243606086, 0.27716720243428783, 0.27716720243428783, 0.27716720243428783, 0.27716720243428783]",0.002,7,1
0,231,"[0.3748816855907977, -1.1959146412040926, 0.3748816855907977, 0.3748816855907977, 0.3748816855907977, 0.3748816855907977]","[0.2774336847057673, -1.2933626420891293, 0.2774336847057673, 0.2774336847057673, 0.2774336847057673, 0.2774336847057673]",0.002,7,1
0,232,"[0.373826323229685, -1.1969700035652053, 0.373826323229685, 0.373826323229685, 0.373826323229685, 0.373826323229685]","[0.27769972869629506, -1.2930965980986016, 0.27769972869629506, 0.27769972869629506, 0.27769972869629506, 0.27769972869629506]",0.002,7,1
0,233,"[0.37273860492041244, -1.1980577218744788, 0.37273860492041244, 0.37273860492041244, 0.37273860492041244, 0.37273860492041244]","[0.2779653339855833, -1.2928309928093134, 0.2779653339855833, 0.2779653339855833, 0.2779653339855833, 0.2779653339855833]",0.002,7,1
0,234,"[0.371619265848099, -1.1991770609467913, 0.371619265848099, 0.371619265848099, 0.371619265848099, 0.371619265848099]","[0.2782305001540372, -1.2925658266408593, 0.2782305001540372, 0.2782305001540372, 0.2782305001540372, 0.2782305001540372]",0.002,7,1
0,235,"[0.370469049251839, -1.2003272775430514, 0.370469049251839, 0.370469049251839, 0.370469049251839, 0.370469049251839]","[0.2784952267827556, -1.292301100012141, 0.2784952267827556, 0.2784952267827556, 0.2784952267827556, 0.2784952267827556]",0.002,7,1
0,236,"[0.3692887060792591, -1.2015076207156312, 0.3692887060792591, 0.3692887060792591, 0.3692887060792591, 0.3692887060792591]","[0.2787595134535318, -1.2920368133413649, 0.2787595134535318, 0.2787595134535318, 0.2787595134535318, 0.2787595134535318]",0.002,7,1
0,237,"[0.3680789946400571, -1.2027173321548332, 0.3680789946400571, 0.3680789946400571, 0.3680789946400571, 0.3680789946400571]","[0.279023359748854, -1.2917729670460425, 0.279023359748854, 0.279023359748854, 0.279023359748854, 0.279023359748854]",0.002,7,1
0,238,"[0.3668406802586821, -1.2039556465362082, 0.3668406802586821, 0.3668406802586821, 0.3668406802586821, 0.3668406802586821]","[0.2792867652519062, -1.2915095615429903, 0.2792867652519062, 0.2792867652519062, 0.2792867652519062, 0.2792867652519062]",0.002,7,1
0,239,"[0.3655745349262922, -1.2052217918685972, 0.3655745349262922, 0.3655745349262922, 0.3655745349262922, 0.3655745349262922]","[0.27954972954656887, -1.2912465972483278, 0.27954972954656887, 0.27954972954656887, 0.27954972954656887, 0.27954972954656887]",0.002,7,1
0,240,"[0.36428133695213116, -1.2065149898427592, 0.36428133695213116, 0.36428133695213116, 0.36428133695213116, 0.36428133695213116]","[0.2798122522174192, -1.2909840745774774, 0.2798122522174192, 0.2798122522174192, 0.2798122522174192, 0.2798122522174192]",0.002,7,1
0,241,"[0.3629618706144786, -1.2078344561804109, 0.3629618706144786, 0.3629618706144786, 0.3629618706144786, 0.3629618706144786]","[0.28007433284973215, -1.2907219939451644, 0.28007433284973215, 0.28007433284973215, 0.28007433284973215, 0.28007433284973215]",0.002,7,1
0,242,"[0.3616169258112967, -1.209179400983592, 0.3616169258112967, 0.3616169258112967, 0.3616169258112967, 0.3616169258112967]","[0.2803359710294811, -1.2904603557654155, 0.2803359710294811, 0.2803359710294811, 0.2803359710294811, 0.2803359710294811]",0.002,7,1
0,243,"[0.3602472977107354, -1.210549029084154, 0.3602472977107354, 0.3602472977107354, 0.3602472977107354, 0.3602472977107354]","[0.2805971663433383, -1.2901991604515581, 0.2805971663433383, 0.2805971663433383, 0.2805971663433383, 0.2805971663433383]",0.002,7,1
0,244,"[0.3602472977107354, -1.210549029084154, 0.3602472977107354, 0.3602472977107354, 0.3602472977107354, 0.3602472977107354]","[0.2808579183786758, -1.2899384084162206, 0.2808579183786758, 0.2808579183786758, 0.2808579183786758, 0.2808579183786758]",0.002,7,1
0,245,"[0.358853786401621, -1.2119425403932684, 0.358853786401621, 0.358853786401621, 0.358853786401621, 0.358853786401621]","[0.2811182267235656, -1.2896781000713309, 0.2811182267235656, 0.2811182267235656, 0.2811182267235656, 0.2811182267235656]",0.002,7,1
0,246,"[0.35743719654407347, -1.213359130250815, 0.35743719654407347, 0.35743719654407347, 0.35743719654407347, 0.35743719654407347]","[0.28137809096678096, -1.2894182358281157, 0.28137809096678096, 0.28137809096678096, 0.28137809096678096, 0.28137809096678096]",0.002,7,1
0,247,"[0.35599833702039696, -1.2147979897744925, 0.35599833702039696, 0.35599833702039696, 0.35599833702039696, 0.35599833702039696]","[0.28163751069779647, -1.2891588160971001, 0.28163751069779647, 0.28163751069779647, 0.28163751069779647, 0.28163751069779647]",0.002,7,1
0,248,"[0.35453802058636974, -1.2162583062085197, 0.35453802058636974, 0.35453802058636974, 0.35453802058636974, 0.35453802058636974]","[0.28189648550678914, -1.2888998412881074, 0.28189648550678914, 0.28189648550678914, 0.28189648550678914, 0.28189648550678914]",0.002,7,1
0,249,"[0.35305706352307986, -1.2177392632718096, 0.35305706352307986, 0.35305706352307986, 0.35305706352307986, 0.35305706352307986]","[0.28215501498463874, -1.2886413118102578, 0.28215501498463874, 0.28215501498463874, 0.28215501498463874, 0.28215501498463874]",0.002,7,1
0,250,"[0.3515562852894396, -1.2192400415054507, 0.3515562852894396, 0.3515562852894396, 0.3515562852894396, 0.3515562852894396]","[0.2824130987229285, -1.288383228071968, 0.2824130987229285, 0.2824130987229285, 0.2824130987229285, 0.2824130987229285]",0.002,7,1
0,251,"[0.3500365081755117, -1.2207598186193813, 0.3500365081755117, 0.3500365081755117, 0.3500365081755117, 0.3500365081755117]","[0.28267073631394607, -1.2881255904809505, 0.28267073631394607, 0.28267073631394607, 0.28267073631394607, 0.28267073631394607]",0.002,7,1
0,252,"[0.348498556956784, -1.222297769838109, 0.348498556956784, 0.348498556956784, 0.348498556956784, 0.348498556956784]","[0.2829279273506836, -1.2878683994442128, 0.2829279273506836, 0.2829279273506836, 0.2829279273506836, 0.2829279273506836]",0.002,7,1
0,253,"[0.3469432585495218, -1.223853068245372, 0.3469432585495218, 0.3469432585495218, 0.3469432585495218, 0.3469432585495218]","[0.2831846714268389, -1.2876116553680577, 0.2831846714268389, 0.2831846714268389, 0.2831846714268389, 0.2831846714268389]",0.002,7,1
0,254,"[0.3453714416673339, -1.2254248851275609, 0.3453714416673339, 0.3453714416673339, 0.3453714416673339, 0.3453714416673339]","[0.28344096813681574, -1.2873553586580808, 0.28344096813681574, 0.28344096813681574, 0.28344096813681574, 0.28344096813681574]",0.002,7,1
0,255,"[0.3437839883135254, -1.2270123384813694, 0.3437839883135254, 0.3437839883135254, 0.3437839883135254, 0.3437839883135254]","[0.28369681707572475, -1.2870995097191718, 0.28369681707572475, 0.28369681707572475, 0.28369681707572475, 0.28369681707572475]",0.002,7,1
0,256,"[0.3421817251347523, -1.2286146016601425, 0.3421817251347523, 0.3421817251347523, 0.3421817251347523, 0.3421817251347523]","[0.2839522178393839, -1.2868441089555127, 0.2839522178393839, 0.2839522178393839, 0.2839522178393839, 0.2839522178393839]",0.002,7,1
0,257,"[0.34056549140426196, -1.230230835390632, 0.34056549140426196, 0.34056549140426196, 0.34056549140426196, 0.34056549140426196]","[0.2842071700243191, -1.2865891567705774, 0.2842071700243191, 0.2842071700243191, 0.2842071700243191, 0.2842071700243191]",0.002,7,1
0,258,"[0.33893616309396535, -1.2318601637009294, 0.33893616309396535, 0.33893616309396535, 0.33893616309396535, 0.33893616309396535]","[0.28446167322776494, -1.2863346535671316, 0.28446167322776494, 0.28446167322776494, 0.28446167322776494, 0.28446167322776494]",0.002,7,1
0,259,"[0.33729457534342977, -1.2335017514514668, 0.33729457534342977, 0.33729457534342977, 0.33729457534342977, 0.33729457534342977]","[0.28471572704766535, -1.286080599747231, 0.28471572704766535, 0.28471572704766535, 0.28471572704766535, 0.28471572704766535]",0.002,7,1
0,260,"[0.33564155960046715, -1.2351547671944303, 0.33564155960046715, 0.33564155960046715, 0.33564155960046715, 0.33564155960046715]","[0.2849693310826742, -1.2858269957122224, 0.2849693310826742, 0.2849693310826742, 0.2849693310826742, 0.2849693310826742]",0.002,7,1
0,261,"[0.33397794671643233, -1.236818380078466, 0.33397794671643233, 0.33397794671643233, 0.33397794671643233, 0.33397794671643233]","[0.2852224849321558, -1.2855738418627407, 0.2852224849321558, 0.2852224849321558, 0.2852224849321558, 0.2852224849321558]",0.002,7,1
0,262,"[0.33230456661761654, -1.2384917601772827, 0.33230456661761654, 0.33230456661761654, 0.33230456661761654, 0.33230456661761654]","[0.28547518819618567, -1.2853211385987109, 0.28547518819618567, 0.28547518819618567, 0.28547518819618567, 0.28547518819618567]",0.002,7,1
0,263,"[0.33062224797899464, -1.2401740788159046, 0.33062224797899464, 0.33062224797899464, 0.33062224797899464, 0.33062224797899464]","[0.28572744047555126, -1.2850688863193453, 0.28572744047555126, 0.28572744047555126, 0.28572744047555126, 0.28572744047555126]",0.002,7,1
0,264,"[0.32893181790041837, -1.24186450889448, 0.32893181790041837, 0.32893181790041837, 0.32893181790041837, 0.32893181790041837]","[0.28597924137175246, -1.284817085423144, 0.28597924137175246, 0.28597924137175246, 0.28597924137175246, 0.28597924137175246]",0.002,7,1
0,265,"[0.327234101585387, -1.2435622252095104, 0.327234101585387, 0.327234101585387, 0.327234101585387, 0.327234101585387]","[0.28623059048700206, -1.2845657363078944, 0.28623059048700206, 0.28623059048700206, 0.28623059048700206, 0.28623059048700206]",0.002,7,1
0,266,"[0.325529922022497, -1.2452664047724014, 0.325529922022497, 0.325529922022497, 0.325529922022497, 0.325529922022497]","[0.28648148742422674, -1.2843148393706698, 0.28648148742422674, 0.28648148742422674, 0.28648148742422674, 0.28648148742422674]",0.002,7,1
0,267,"[0.3238200996696863, -1.246976227125213, 0.3238200996696863, 0.3238200996696863, 0.3238200996696863, 0.3238200996696863]","[0.2867319317870675, -1.284064395007829, 0.2867319317870675, 0.2867319317870675, 0.2867319317870675, 0.2867319317870675]",0.002,7,1
0,268,"[0.32210545214138975, -1.2486908746535104, 0.32210545214138975, 0.32210545214138975, 0.32210545214138975, 0.32210545214138975]","[0.2869819231798802, -1.2838144036150163, 0.2869819231798802, 0.2869819231798802, 0.2869819231798802, 0.2869819231798802]",0.002,7,1
0,269,"[0.32038679389869706, -1.250409532896203, 0.32038679389869706, 0.32038679389869706, 0.32038679389869706, 0.32038679389869706]","[0.2872314612077364, -1.28356486558716, 0.2872314612077364, 0.2872314612077364, 0.2872314612077364, 0.2872314612077364]",0.002,7,1
0,270,"[0.3186649359426319, -1.2521313908522664, 0.3186649359426319, 0.3186649359426319, 0.3186649359426319, 0.3186649359426319]","[0.2874805454764238, -1.2833157813184728, 0.2874805454764238, 0.2874805454764238, 0.2874805454764238, 0.2874805454764238]",0.002,7,1
0,271,"[0.31694068551065957, -1.2538556412842397, 0.31694068551065957, 0.31694068551065957, 0.31694068551065957, 0.31694068551065957]","[0.28772917559244704, -1.2830671512024496, 0.28772917559244704, 0.28772917559244704, 0.28772917559244704, 0.28772917559244704]",0.002,7,1
0,272,"[0.31521484577650405, -1.255581481018396, 0.31521484577650405, 0.31521484577650405, 0.31521484577650405, 0.31521484577650405]","[0.287977351163028, -1.2828189756318686, 0.287977351163028, 0.287977351163028, 0.287977351163028, 0.287977351163028]",0.002,7,1
0,273,"[0.31348821555340045, -1.2573081112414997, 0.31348821555340045, 0.31348821555340045, 0.31348821555340045, 0.31348821555340045]","[0.2882250717961068, -1.2825712549987898, 0.2882250717961068, 0.2882250717961068, 0.2882250717961068, 0.2882250717961068]",0.002,7,1
0,274,"[0.3117615890008638, -1.2590347377940354, 0.3117615890008638, 0.3117615890008638, 0.3117615890008638, 0.3117615890008638]","[0.2884723371003423, -1.2823239896945542, 0.2884723371003423, 0.2884723371003423, 0.2884723371003423, 0.2884723371003423]",0.002,7,1
0,275,"[0.3100357553350763, -1.260760571459823, 0.3100357553350763, 0.3100357553350763, 0.3100357553350763, 0.3100357553350763]","[0.28871914668511256, -1.282077180109784, 0.28871914668511256, 0.28871914668511256, 0.28871914668511256, 0.28871914668511256]",0.002,7,1
0,276,"[0.3083114985429871, -1.2624848282519139, 0.3083114985429871, 0.3083114985429871, 0.3083114985429871, 0.3083114985429871]","[0.2889655001605156, -1.281830826634381, 0.2889655001605156, 0.2889655001605156, 0.2889655001605156, 0.2889655001605156]",0.002,7,1
0,277,"[0.3065895971002126, -1.2642067296946884, 0.3065895971002126, 0.3065895971002126, 0.3065895971002126, 0.3065895971002126]","[0.28921139713737, -1.2815849296575266, 0.28921139713737, 0.28921139713737, 0.28921139713737, 0.28921139713737]",0.002,7,1
0,278,"[0.304870823692835, -1.265925503102066, 0.304870823692835, 0.304870823692835, 0.304870823692835, 0.304870823692835]","[0.28945683722721555, -1.281339489567681, 0.28945683722721555, 0.28945683722721555, 0.28945683722721555, 0.28945683722721555]",0.002,7,1
0,279,"[0.30315594494318, -1.2676403818517201, 0.30315594494318, 0.30315594494318, 0.30315594494318, 0.30315594494318]","[0.28970182004231365, -1.281094506752583, 0.28970182004231365, 0.28970182004231365, 0.28970182004231365, 0.28970182004231365]",0.002,7,1
0,280,"[0.30315594494318, -1.2676403818517201, 0.30315594494318, 0.30315594494318, 0.30315594494318, 0.30315594494318]","[0.2899463451956484, -1.2808499815992482, 0.2899463451956484, 0.2899463451956484, 0.2899463451956484, 0.2899463451956484]",0.002,7,1
0,281,"[0.30144572113966106, -1.2693506056552408, 0.30144572113966106, 0.30144572113966106, 0.30144572113966106, 0.30144572113966106]","[0.29019041230092646, -1.28060591449397, 0.29019041230092646, 0.29019041230092646, 0.29019041230092646, 0.29019041230092646]",0.002,7,1
0,282,"[0.2997409059707721, -1.2710554208241298, 0.2997409059707721, 0.2997409059707721, 0.2997409059707721, 0.2997409059707721]","[0.29043402097257853, -1.280362305822318, 0.29043402097257853, 0.29043402097257853, 0.29043402097257853, 0.29043402097257853]",0.002,7,1
0,283,"[0.29804224626331965, -1.2727540805315805, 0.29804224626331965, 0.29804224626331965, 0.29804224626331965, 0.29804224626331965]","[0.2906771708257593, -1.2801191559691372, 0.2906771708257593, 0.2906771708257593, 0.2906771708257593, 0.2906771708257593]",0.002,7,1
0,284,"[0.2963504817249598, -1.2744458450699412, 0.2963504817249598, 0.2963504817249598, 0.2963504817249598, 0.2963504817249598]","[0.2909198614763483, -1.2798764653185484, 0.2909198614763483, 0.2909198614763483, 0.2909198614763483, 0.2909198614763483]",0.002,7,1
0,285,"[0.29466634469112396, -1.276129982103777, 0.29466634469112396, 0.29466634469112396, 0.29466634469112396, 0.29466634469112396]","[0.2911620925409505, -1.2796342342539462, 0.2911620925409505, 0.2911620925409505, 0.2911620925409505, 0.2911620925409505]",0.002,7,1
0,286,"[0.2929905598764133, -1.2778057669184868, 0.2929905598764133, 0.2929905598764133, 0.2929905598764133, 0.2929905598764133]","[0.291403863636897, -1.2793924631579996, 0.291403863636897, 0.291403863636897, 0.291403863636897, 0.291403863636897]",0.002,7,1
0,287,"[0.2913238441305195, -1.2794724826643815, 0.2913238441305195, 0.2913238441305195, 0.2913238441305195, 0.2913238441305195]","[0.29164517438224546, -1.279151152412651, 0.29164517438224546, 0.29164517438224546, 0.29164517438224546, 0.29164517438224546]",0.002,7,1
0,288,"[0.28966690619876356, -1.2811294205961374, 0.28966690619876356, 0.28966690619876356, 0.28966690619876356, 0.28966690619876356]","[0.2918860243957808, -1.2789103023991157, 0.2918860243957808, 0.2918860243957808, 0.2918860243957808, 0.2918860243957808]",0.002,7,1
0,289,"[0.2880204464872991, -1.282775880307602, 0.2880204464872991, 0.2880204464872991, 0.2880204464872991, 0.2880204464872991]","[0.2921264132970158, -1.2786699134978807, 0.2921264132970158, 0.2921264132970158, 0.2921264132970158, 0.2921264132970158]",0.002,7,1
0,290,"[0.28638515683305865, -1.2844111699618423, 0.28638515683305865, 0.28638515683305865, 0.28638515683305865, 0.28638515683305865]","[0.2923663407061916, -1.278429986088705, 0.2923663407061916, 0.2923663407061916, 0.2923663407061916, 0.2923663407061916]",0.002,7,1
0,291,"[0.2847617688195756, -1.2860345579753254, 0.2847617688195756, 0.2847617688195756, 0.2847617688195756, 0.2847617688195756]","[0.29260580624427857, -1.278190520550618, 0.29260580624427857, 0.29260580624427857, 0.29260580624427857, 0.29260580624427857]",0.002,7,1
0,292,"[0.28315100058038034, -1.2876453262145198, 0.28315100058038034, 0.28315100058038034, 0.28315100058038034, 0.28315100058038034]","[0.29284480953297665, -1.2779515172619198, 0.29284480953297665, 0.29284480953297665, 0.29284480953297665, 0.29284480953297665]",0.002,7,1
0,293,"[0.2815535193175327, -1.2892428074773683, 0.2815535193175327, 0.2815535193175327, 0.2815535193175327, 0.2815535193175327]","[0.29308335019471593, -1.2777129766001807, 0.29308335019471593, 0.29308335019471593, 0.29308335019471593, 0.29308335019471593]",0.002,7,1
0,294,"[0.2799699795388877, -1.2908263472560133, 0.2799699795388877, 0.2799699795388877, 0.2799699795388877, 0.2799699795388877]","[0.29332142785265747, -1.277474898942239, 0.29332142785265747, 0.29332142785265747, 0.29332142785265747, 0.29332142785265747]",0.002,7,1
0,295,"[0.2784010260733476, -1.2923953007215534, 0.2784010260733476, 0.2784010260733476, 0.2784010260733476, 0.2784010260733476]","[0.2935590421306937, -1.2772372846642028, 0.2935590421306937, 0.2935590421306937, 0.2935590421306937, 0.2935590421306937]",0.002,7,1
0,296,"[0.27684729387105467, -1.2939490329238463, 0.27684729387105467, 0.27684729387105467, 0.27684729387105467, 0.27684729387105467]","[0.2937961926534492, -1.2770001341414474, 0.2937961926534492, 0.2937961926534492, 0.2937961926534492, 0.2937961926534492]",0.002,7,1
0,297,"[0.27530940780872193, -1.2954869189861782, 0.27530940780872193, 0.27530940780872193, 0.27530940780872193, 0.27530940780872193]","[0.29403287904628095, -1.2767634477486156, 0.29403287904628095, 0.29403287904628095, 0.29403287904628095, 0.29403287904628095]",0.002,7,1
