Arnibjarnst/BoxLift/logs/ur_rtde/trajectory_dur=10.0_delay=0.2_gain=200_lh=0.05_real.csv
arm_idx,step,actual_q,actual_qd,target_q,expected_q,loop_time,robot_mode,safety_mode
0,-1,"[-0.017741982136861623, -1.5883790455260218, -0.017613518983125687, -0.017738417988159227, -0.017704312001363576, -0.017703835164205373]","[0.042153432965278625, 0.04325466230511665, 0.041517239063978195, 0.04201429709792137, 0.04189125820994377, 0.04219288006424904]","[0.0, -1.5707963267948966, 0.0, 0.0, 0.0, 0.0]","[0.0, -1.5707963267948966, 0.0, 0.0, 0.0, 0.0]",0.002,7,1
0,-1,"[-0.016956631337301076, -1.587555547753805, -0.016846222802996635, -0.016918496494628954, -0.017003838215963185, -0.016917053853170216]","[0.05550925061106682, 0.05991145223379135, 0.05876871570944786, 0.05920599400997162, 0.05878947675228119, 0.058593664318323135]","[0.0, -1.5707963267948966, 0.0, 0.0, 0.0, 0.0]","[0.0, -1.5707963267948966, 0.0, 0.0, 0.0, 0.0]",0.002,7,1
0,-1,"[-0.016052071248189748, -1.586642404595846, -0.01593814603984356, -0.015965299015380907, -0.015975300465719044, -0.015971962605611623]","[0.07310549914836884, 0.07291629165410995, 0.07112309336662292, 0.07265503704547882, 0.07459668070077896, 0.07359985262155533]","[0.0, -1.5707963267948966, 0.0, 0.0, 0.0, 0.0]","[0.0, -1.5707963267948966, 0.0, 0.0, 0.0, 0.0]",0.002,7,1
0,-1,"[-0.014738861714498341, -1.58537020305776, -0.014658179134130478, -0.014617995624877977, -0.0146411100970667, -0.014675919209615529]","[0.08826284855604172, 0.08699396997690201, 0.09011013805866241, 0.08851312845945358, 0.09148372709751129, 0.08959405869245529]","[0.0, -1.5707963267948966, 0.0, 0.0, 0.0, 0.0]","[0.0, -1.5707963267948966, 0.0, 0.0, 0.0, 0.0]",0.002,7,1
0,-1,"[-0.01406413713564092, -1.5846787891783656, -0.013917935080826283, -0.013870076542236376, -0.013898674641744435, -0.013890091572896779]","[0.09822843223810196, 0.09315696358680725, 0.0955839529633522, 0.0967007651925087, 0.09779206663370132, 0.09754481911659241]","[0.0, -1.5707963267948966, 0.0, 0.0, 0.0, 0.0]","[0.0, -1.5707963267948966, 0.0, 0.0, 0.0, 0.0]",0.002,7,1
0,-1,"[-0.012688938771383107, -1.5833970508971156, -0.012669587507843971, -0.01266057909045415, -0.012619797383443654, -0.01256114641298467]","[0.11013864725828171, 0.10722434520721436, 0.1084258183836937, 0.11169374734163284, 0.1101260781288147, 0.1076972484588623]","[0.0, -1.5707963267948966, 0.0, 0.0, 0.0, 0.0]","[0.0, -1.5707963267948966, 0.0, 0.0, 0.0, 0.0]",0.002,7,1
0,-1,"[-0.010833088551656544, -1.5815278492369593, -0.010809756815433502, -0.010859088306762743, -0.010700527821676076, -0.010645691548482716]","[0.12523698806762695, 0.12225671112537384, 0.12404607236385345, 0.12697558104991913, 0.1253303587436676, 0.1261451542377472]","[0.0, -1.5707963267948966, 0.0, 0.0, 0.0, 0.0]","[0.0, -1.5707963267948966, 0.0, 0.0, 0.0, 0.0]",0.002,7,1
0,-1,"[-0.00839263597597295, -1.5792228184142054, -0.008462589234113693, -0.008521155720092821, -0.00828725496401006, -0.008253876362935841]","[0.13471145927906036, 0.09064164757728577, 0.11212858557701111, 0.12626489996910095, 0.12930239737033844, 0.12408566474914551]","[0.0, -1.5707963267948966, 0.0, 0.0, 0.0, 0.0]","[0.0, -1.5707963267948966, 0.0, 0.0, 0.0, 0.0]",0.002,7,1
0,-1,"[-0.006948296223775685, -1.5777813396849574, -0.007090200670063496, -0.00706835210833745, -0.006893936787740529, -0.006804291401998341]","[0.11560013890266418, 0.13770614564418793, 0.12173999845981598, 0.1175929605960846, 0.11704900860786438, 0.11480830609798431]","[0.0, -1.5707963267948966, 0.0, 0.0, 0.0, 0.0]","[0.0, -1.5707963267948966, 0.0, 0.0, 0.0, 0.0]",0.002,7,1
0,-1,"[-0.005474869404928029, -1.5760637722411097, -0.005492237396538258, -0.005499438648559618, -0.005336586629049123, -0.005314175282613576]","[0.10588978976011276, 0.10783832520246506, 0.10342995822429657, 0.10467523336410522, 0.10697004199028015, 0.10196159034967422]","[0.0, -1.5707963267948966, 0.0, 0.0, 0.0, 0.0]","[0.0, -1.5707963267948966, 0.0, 0.0, 0.0, 0.0]",0.002,7,1
0,-1,"[-0.003971401845113576, -1.5746103725829066, -0.003978861030191183, -0.0039531749537964345, -0.003823105488912404, -0.003762547169820607]","[0.08988165855407715, 0.08710706979036331, 0.08920537680387497, 0.08993682265281677, 0.08686508238315582, 0.08593572676181793]","[0.0, -1.5707963267948966, 0.0, 0.0, 0.0, 0.0]","[0.0, -1.5707963267948966, 0.0, 0.0, 0.0, 0.0]",0.002,7,1
0,-1,"[-0.0027082602130334976, -1.573409219781393, -0.0026649015489965677, -0.002642826443054247, -0.0025447050677698257, -0.0025122801410120132]","[0.07198801636695862, 0.0720304623246193, 0.07183842360973358, 0.07320649176836014, 0.0703011006116867, 0.06958691775798798]","[0.0, -1.5707963267948966, 0.0, 0.0, 0.0, 0.0]","[0.0, -1.5707963267948966, 0.0, 0.0, 0.0, 0.0]",0.002,7,1
0,-1,"[-0.0017021338092249039, -1.5724464855589808, -0.0017251427052542567, -0.0017729562572021962, -0.0016024748431604507, -0.0016406218158167007]","[0.0594484768807888, 0.05705266073346138, 0.06000532954931259, 0.060156647115945816, 0.05672500655055046, 0.057434890419244766]","[0.0, -1.5707963267948966, 0.0, 0.0, 0.0, 0.0]","[0.0, -1.5707963267948966, 0.0, 0.0, 0.0, 0.0]",0.002,7,1
0,-1,"[-0.0009983221637170914, -1.5717355213561, -0.0010224507423117757, -0.001036242847778368, -0.0009139219867151382, -0.0009329954730432632]","[0.04666723683476448, 0.04299262538552284, 0.04589114338159561, 0.0451958104968071, 0.040757324546575546, 0.04323552921414375]","[0.0, -1.5707963267948966, 0.0, 0.0, 0.0, 0.0]","[0.0, -1.5707963267948966, 0.0, 0.0, 0.0, 0.0]",0.002,7,1
0,-1,"[-0.0005343596087854507, -1.5713139973082484, -0.0005719661712646484, -0.0005281728557129384, -0.0005138556109827164, -0.0004990736590784195]","[0.03426911681890488, 0.031805239617824554, 0.03491492196917534, 0.03457769751548767, 0.029974089935421944, 0.0316462516784668]","[0.0, -1.5707963267948966, 0.0, 0.0, 0.0, 0.0]","[0.0, -1.5707963267948966, 0.0, 0.0, 0.0, 0.0]",0.002,7,1
0,-1,"[-0.00032884279359990387, -1.5710622272887171, -0.00028955197194591165, -0.0002928537181396962, -0.00021201768984013825, -0.00029451051820927887]","[0.026091307401657104, 0.026127848774194717, 0.027453899383544922, 0.024646496400237083, 0.023665430024266243, 0.024085601791739464]","[0.0, -1.5707963267948966, 0.0, 0.0, 0.0, 0.0]","[0.0, -1.5707963267948966, 0.0, 0.0, 0.0, 0.0]",0.002,7,1
0,-1,"[-0.00018912950624638825, -1.570796327, -8.271022670669481e-05, -0.00016887605700688368, -0.00010949770082646637, -0.00013763109316045075]","[0.015948137268424034, 0.01536080427467823, 0.016802102327346802, 0.015552833676338196, 0.013662608340382576, 0.013773542828857899]","[0.0, -1.5707963267948966, 0.0, 0.0, 0.0, 0.0]","[0.0, -1.5707963267948966, 0.0, 0.0, 0.0, 0.0]",0.002,7,1
0,-1,"[-5.418459047490387e-05, -1.5707621973818569, 8.885060445606996e-06, -5.205095324711806e-05, -6.9920216695607e-05, -6.133714784795075e-05]","[0.0027966799680143595, 0.0011607238557189703, 0.00018353671475779265, 0.00013076182221993804, -0.0041811540722846985, 5.4287091188598424e-05]","[0.0, -1.5707963267948966, 0.0, 0.0, 0.0, 0.0]","[0.0, -1.5707963267948966, 0.0, 0.0, 0.0, 0.0]",0.002,7,1
0,-1,"[-4.4171010152638246e-05, -1.5708114109435023, -8.857989450916648e-05, -6.277978930668837e-05, -6.133714784795075e-05, -5.990663637334137e-05]","[-0.0010607597650960088, 0.008179901167750359, 0.0029250646475702524, -1.3485216186381876e-05, -0.0003425943723414093, -0.0002898084931075573]","[0.0, -1.5707963267948966, 0.0, 0.0, 0.0, 0.0]","[0.0, -1.5707963267948966, 0.0, 0.0, 0.0, 0.0]",0.002,7,1
0,-1,"[-6.181398500615387e-05, -1.570911546746725, -5.841255187988281e-05, -8.829057727055556e-05, -6.9920216695607e-05, -7.325807680302887e-05]","[-1.4996464221253211e-15, -0.003807556815445423, -0.0036208091769367456, -6.822102968260732e-14, -0.00011020222154911608, -0.00017183095042128116]","[0.0, -1.5707963267948966, 0.0, 0.0, 0.0, 0.0]","[0.0, -1.5707963267948966, 0.0, 0.0, 0.0, 0.0]",0.002,7,1
0,-1,"[-5.418459047490387e-05, -1.5709167919554652, -7.804993219906464e-05, -6.730974230961806e-05, 1.9550323486328125e-05, -5.990663637334137e-05]","[-6.518540576963619e-25, -0.004770771134644747, -0.0009846885222941637, 0.00022784838802181184, -1.5472965969820507e-05, -5.842514292453416e-05]","[0.0, -1.5707963267948966, 0.0, 0.0, 0.0, 0.0]","[0.0, -1.5707963267948966, 0.0, 0.0, 0.0, 0.0]",0.002,7,1
0,-1,"[-0.00010329881776982575, -1.5709582767882289, -0.00013674974616151303, -3.107011828618056e-05, -3.2726918355763246e-05, -5.990663637334137e-05]","[0.00027402170235291123, -0.0017979301046580076, -0.0008192156674340367, 0.00022657572117168456, -2.8121377448897533e-10, -8.352085387741681e-07]","[0.0, -1.5707963267948966, 0.0, 0.0, 0.0, 0.0]","[0.0, -1.5707963267948966, 0.0, 0.0, 0.0, 0.0]",0.002,7,1
0,-1,"[-1.985231508427887e-05, -1.5709134540953578, -6.113767449278384e-05, -1.4619236328172747e-05, -6.562868227177887e-05, -4.3217335836231996e-05]","[-0.00010387031215941533, -0.0001531405869172886, -0.00042643104097805917, 0.0004082016821485013, 0.0006810448248870671, -6.471270053024294e-14]","[0.0, -1.5707963267948966, 0.0, 0.0, 0.0, 0.0]","[0.0, -1.5707963267948966, 0.0, 0.0, 0.0, 0.0]",0.002,7,1
0,-1,"[-4.083315004521637e-05, -1.5708772144713343, -2.8223730623722076e-05, -3.8222675659227434e-05, -9.85304461877945e-05, -6.133714784795075e-05]","[-6.057387774490862e-16, 0.0016987886046990752, -0.00012198500917293131, 0.0004499197530094534, 0.0005271375412121415, 0.0003230137226637453]","[0.0, -1.5707963267948966, 0.0, 0.0, 0.0, 0.0]","[0.0, -1.5707963267948966, 0.0, 0.0, 0.0, 0.0]",0.002,7,1
0,-1,"[-1.699129213506012e-05, -1.570878644982809, -5.843349208589643e-05, -7.228260376024309e-06, -4.560152162724762e-05, -2.843538393193512e-05]","[-3.532475607562948e-27, 0.0007505447720177472, -6.111717425483221e-07, 0.000681280333083123, 0.0010109395952895284, 0.00037820611032657325]","[0.0, -1.5707963267948966, 0.0, 0.0, 0.0, 0.0]","[0.0, -1.5707963267948966, 0.0, 0.0, 0.0, 0.0]",0.002,7,1
0,-1,"[-2.462068666631012e-05, -1.570895334283346, -0.00013215014769230038, -4.0130024292039934e-05, -6.2290822164357e-05, -7.325807680302887e-05]","[-2.0600261713687915e-38, 0.0005730536067858338, -3.564158304910323e-18, 0.0008121500140987337, 0.000689894484821707, 0.0004362596373539418]","[0.0, -1.5707963267948966, 0.0, 0.0, 0.0, 0.0]","[0.0, -1.5707963267948966, 0.0, 0.0, 0.0, 0.0]",0.002,7,1
0,-1,"[2.02537739824038e-05, -1.57092346767568, -7.482701039407402e-05, -1.1758213378953997e-05, -1.3176594869435121e-05, -2.7958546773731996e-05]","[-0.0, 0.00023693731054663658, -1.1547453166404474e-25, 0.0006309059681370854, 0.0007141219102777541, 0.0007618229137733579]","[0.0, -1.5707963267948966, 0.0, 0.0, 0.0, 0.0]","[0.0, -1.5707963267948966, 0.0, 0.0, 0.0, 0.0]",0.002,7,1
0,-1,"[-7.7549611226857e-05, -1.5709358654417933, -6.575822771992534e-05, -4.0130024292039934e-05, -1.7468129293263246e-05, -3.2726918355763246e-05]","[0.0, -0.00015035108663141727, -5.019353416377105e-35, 0.0006439166027121246, 0.001013168366625905, 0.0005054940702393651]","[0.0, -1.5707963267948966, 0.0, 0.0, 0.0, 0.0]","[0.0, -1.5707963267948966, 0.0, 0.0, 0.0, 0.0]",0.002,7,1
0,-1,"[-2.1282826558888246e-05, -1.5709315739073695, -0.0001248288172064349, -1.1758213378953997e-05, -2.557436098271637e-05, -5.3707753316700746e-05]","[0.00031256492366082966, -0.0002002955588977784, -0.0, 0.000700643751770258, 0.0004993299953639507, 0.00043727978481911123]","[0.0, -1.5707963267948966, 0.0, 0.0, 0.0, 0.0]","[0.0, -1.5707963267948966, 0.0, 0.0, 0.0, 0.0]",0.002,7,1
0,-1,"[-2.8912221090138246e-05, -1.5708800754942835, -8.49795324029401e-05, -5.6461696960496965e-05, -1.3176594869435121e-05, -3.701845277959137e-05]","[0.00020390837744344026, -0.00015040264406707138, -0.0, 0.00044250491191633046, 0.0006536791916005313, 0.0005883834091946483]","[0.0, -1.5707963267948966, 0.0, 0.0, 0.0, 0.0]","[0.0, -1.5707963267948966, 0.0, 0.0, 0.0, 0.0]",0.002,7,1
0,-1,"[-7.7549611226857e-05, -1.5708981953062953, -0.00010320519504602998, -3.27390483398915e-05, -1.3176594869435121e-05, -4.655519594365387e-05]","[0.00013505613605957478, -1.7715246858427541e-13, -0.0, 0.00025462143821641803, 0.0005653636762872338, 0.00043566254316829145]","[0.0, -1.5707963267948966, 0.0, 0.0, 0.0, 0.0]","[0.0, -1.5707963267948966, 0.0, 0.0, 0.0, 0.0]",0.002,7,1
0,-1,"[-3.320375551396637e-05, -1.570902486840719, -5.838517245138064e-05, 3.640233959956163e-05, -2.557436098271637e-05, -2.080598940068512e-05]","[8.272547711385414e-05, 0.0008091052295640111, 5.987491749692708e-05, 0.00023124093422666192, 0.000416240596678108, 0.0003364906879141927]","[0.0, -1.5707963267948966, 0.0, 0.0, 0.0, 0.0]","[0.0, -1.5707963267948966, 0.0, 0.0, 0.0, 0.0]",0.002,7,1
0,-1,"[-3.6541615621388246e-05, -1.570911546746725, -0.00012480170698836446, -1.6288166381883684e-05, -2.9865895406544496e-05, -3.4634266988575746e-05]","[8.642250031698495e-05, 0.00040183684905059636, 6.912222306709737e-05, 0.00017398431373294443, 0.0002753337030299008, 0.0002874161582440138]","[0.0, -1.5707963267948966, 0.0, 0.0, 0.0, 0.0]","[0.0, -1.5707963267948966, 0.0, 0.0, 0.0, 0.0]",0.002,7,1
0,-1,"[-5.418459047490387e-05, -1.5708981953062953, -2.542018955864478e-05, 4.725038494868272e-05, -3.511110414677887e-05, 4.76837158203125e-06]","[7.55418004700914e-05, 0.00029060724773444235, 5.9918384067714214e-05, 0.0001492519222665578, 0.00015321644605137408, 0.0002161922020604834]","[0.0, -1.5707963267948966, 0.0, 0.0, 0.0, 0.0]","[0.0, -1.5707963267948966, 0.0, 0.0, 0.0, 0.0]",0.002,7,1
0,-1,"[-4.5124684469044496e-05, -1.570890565911764, -6.575822771992534e-05, 1.661359753413194e-05, -4.3217335836231996e-05, -2.557436098271637e-05]","[6.354165088851005e-05, 0.00010083684173878282, 6.659119389951229e-05, 0.00012302097456995398, 0.00016418435552623123, 0.00015092338435351849]","[0.0, -1.5707963267948966, 0.0, 0.0, 0.0, 0.0]","[0.0, -1.5707963267948966, 0.0, 0.0, 0.0, 0.0]",0.002,7,1
0,-1,"[-1.699129213506012e-05, -1.5709144077696742, -7.932944572530687e-05, 4.692668579053816e-06, 3.57923490810208e-05, -2.080598940068512e-05]","[5.935156514169648e-05, 8.774524030741304e-05, 6.200359348440543e-05, 0.00011410782462917268, 0.00024170400865841657, 0.00015967573563102633]","[0.0, -1.5707963267948966, 0.0, 0.0, 0.0, 0.0]","[0.0, -1.5707963267948966, 0.0, 0.0, 0.0, 0.0]",0.002,7,1
0,-1,"[-4.083315004521637e-05, -1.57086243251943, -6.288796430453658e-05, 4.692668579053816e-06, -1.7468129293263246e-05, -1.6514454976856996e-05]","[5.243566192802973e-05, 0.000836992752738297, 0.00014221911260392517, 9.966625657398254e-05, 0.0002446038415655494, 0.0001291328517254442]","[0.0, -1.5707963267948966, 0.0, 0.0, 0.0, 0.0]","[0.0, -1.5707963267948966, 0.0, 0.0, 0.0, 0.0]",0.002,7,1
0,-1,"[-7.7549611226857e-05, -1.5708877048888148, -3.454627585597336e-05, -5.658090625004775e-05, -3.415742983037262e-05, -8.885060445606996e-06]","[4.822151458938606e-05, 0.000813267077319324, 0.00016366643831133842, 9.102612239075825e-05, 0.00030557558056898415, 0.00013173931802157313]","[0.0, -1.5707963267948966, 0.0, 0.0, 0.0, 0.0]","[0.0, -1.5707963267948966, 0.0, 0.0, 0.0, 0.0]",0.002,7,1
0,-1,"[-4.2263661519825746e-05, -1.570883413354391, -6.7563058109954e-05, 3.819047894282335e-05, -3.415742983037262e-05, -1.3653432027638246e-05]","[4.4087842979934067e-05, 0.0008572610095143318, 0.0002646525390446186, 8.266535587608814e-05, 0.00024865209707058966, 0.0001313255779678002]","[0.0, -1.5707963267948966, 0.0, 0.0, 0.0, 0.0]","[0.0, -1.5707963267948966, 0.0, 0.0, 0.0, 0.0]",0.002,7,1
0,-1,"[-4.5124684469044496e-05, -1.5708667240538539, -9.181827772408724e-05, -4.367237426805559e-06, 1.0925292372121476e-05, -8.885060445606996e-06]","[4.1070084989769384e-05, 0.0005859930533915758, 0.00026041039382107556, 7.663255382794887e-05, 0.0001948171848198399, 0.00011838641512440518]","[0.0, -1.5707963267948966, 0.0, 0.0, 0.0, 0.0]","[0.0, -1.5707963267948966, 0.0, 0.0, 0.0, 0.0]",0.002,7,1
0,-1,"[7.053376066323835e-06, -1.570871492425436, -8.401394006796181e-05, -9.472787890629775e-05, -2.557436098271637e-05, 3.337860107421875e-06]","[1.0019027286034543e-05, 0.00031474692514166236, 0.0002249694080092013, 8.995321877591778e-06, 0.00017157236288767308, 0.00010312555968994275]","[0.0, -1.5707963267948966, 0.0, 0.0, 0.0, 0.0]","[0.0, -1.5707963267948966, 0.0, 0.0, 0.0, 0.0]",0.002,7,1
0,-1,"[-1.2222920553028871e-05, -1.570796628991598, -0.0001247926993528381, -1.1758213378953997e-05, 1.0942519111267757e-05, -8.885060445606996e-06]","[1.4697337712303907e-15, 0.00026603610604070127, 0.00017894052143674344, 6.969655430046073e-13, 0.00014747356181032956, 9.496450365986675e-05]","[0.0, -1.5707963267948966, 0.0, 0.0, 0.0, 0.0]","[0.0, -1.5707963267948966, 0.0, 0.0, 0.0, 0.0]",0.002,7,1
0,-1,"[-2.8912221090138246e-05, -1.570829530755514, -1.8074511899612844e-05, -5.8369045593309465e-05, -2.175966371709137e-05, -3.4634266988575746e-05]","[8.571013024197159e-27, 0.0003332057094667107, 0.00023113694624044, 5.400150078237274e-20, 0.0001293111126869917, 8.800043724477291e-05]","[0.0, -1.5707963267948966, 0.0, 0.0, 0.0, 0.0]","[0.0, -1.5707963267948966, 0.0, 0.0, 0.0, 0.0]",0.002,7,1
0,-1,"[-5.7522450582325746e-05, -1.5708352528014125, -3.910064697265625e-05, -3.2619839050340715e-05, 1.8410850316286087e-05, -3.892580141240387e-05]","[1.2051166793193427e-43, 0.0010923657100647688, 0.000513902516104281, 1.1646554465517734e-30, 0.00012474031245801598, 6.084323104005307e-05]","[0.0, -1.5707963267948966, 0.0, 0.0, 0.0, 0.0]","[0.0, -1.5707963267948966, 0.0, 0.0, 0.0, 0.0]",0.002,7,1
0,-1,"[-6.896654237920075e-05, -1.5707934659770508, -6.297910294961184e-05, 2.114355053706163e-05, -5.418459047490387e-05, -2.9865895406544496e-05]","[0.0, 0.0003772091295104474, 0.000775171909481287, 9.023850916572036e-38, 0.00011299471225356683, 5.516330202226527e-05]","[0.0, -1.5707963267948966, 0.0, 0.0, 0.0, 0.0]","[0.0, -1.5707963267948966, 0.0, 0.0, 0.0, 0.0]",0.002,7,1
0,-1,"[-2.462068666631012e-05, -1.5708548031248988, -7.665000157430768e-05, -2.081811938481337e-05, -3.8448964254200746e-05, 1.5249710486386903e-05]","[0.0, 2.0486452682344795e-16, 0.0005545855383388698, 0.0, 7.478581392206252e-05, 4.9682097596814856e-05]","[0.0, -1.5707963267948966, 0.0, 0.0, 0.0, 0.0]","[0.0, -1.5707963267948966, 0.0, 0.0, 0.0, 0.0]",0.002,7,1
0,-1,"[-3.0199159795074593e-07, -1.570871492425436, -5.553960727411322e-05, -4.0249233581590715e-05, 3.1440737075172365e-05, 3.337860107421875e-06]","[8.192092354875058e-05, 1.1947044186819565e-27, 0.00042865186696872115, 0.0, 7.47050071367994e-05, 3.849412108514194e-12]","[0.0, -1.5707963267948966, 0.0, 0.0, 0.0, 0.0]","[0.0, -1.5707963267948966, 0.0, 0.0, 0.0, 0.0]",0.002,7,1
0,-1,"[-2.9865895406544496e-05, -1.5708052120604457, -3.45433691109065e-05, -1.1758213378953997e-05, 2.267360468977131e-05, 1.977682222786825e-05]","[0.00011096283560618758, 9.347361406278692e-41, 0.000409467815188691, 0.0, 7.379883754765615e-05, 1.9473983581560616e-20]","[0.0, -1.5707963267948966, 0.0, 0.0, 0.0, 0.0]","[0.0, -1.5707963267948966, 0.0, 0.0, 0.0, 0.0]",0.002,7,1
0,-1,"[8.106231689453125e-06, -1.5707980595030726, -5.280852201394737e-05, -1.1758213378953997e-05, -1.0315571920216371e-05, 2.7179718017578125e-05]","[9.725867857923731e-05, 0.0, 0.00022209165035746992, 0.0, 6.652560114162043e-05, 6.432515736287225e-30]","[0.0, -1.5707963267948966, 0.0, 0.0, 0.0, 0.0]","[0.0, -1.5707963267948966, 0.0, 0.0, 0.0, 0.0]",0.002,7,1
0,-1,"[-3.320375551396637e-05, -1.5708052120604457, -1.1467927834019065e-06, -2.558649096684462e-05, 2.1305386326275766e-06, 4.76837158203125e-06]","[0.0001017299946397543, 0.0, -5.214686211729713e-07, 0.0, 7.226524030556902e-05, 4.9839679800172475e-37]","[0.0, -1.5707963267948966, 0.0, 0.0, 0.0, 0.0]","[0.0, -1.5707963267948966, 0.0, 0.0, 0.0, 0.0]",0.002,7,1
0,-1,"[-7.94569598596695e-05, -1.5708476505675257, -5.2781106205657125e-05, 2.114355053706163e-05, 0.0001010974810924381, 2.4385213691857643e-05]","[4.0159637225943567e-13, 0.0, -3.192127276028894e-33, 0.0, 1.2672299450832752e-17, 0.0]","[0.0, -1.5707963267948966, 0.0, 0.0, 0.0, 0.0]","[0.0, -1.5707963267948966, 0.0, 0.0, 0.0, 0.0]",0.002,7,1
0,-1,"[8.106231689453125e-06, -1.5708385906615199, 1.732503072560121e-06, -9.135609008836809e-06, 6.67572021484375e-06, -4.369417299443512e-05]","[1.7456264996061192e-22, 0.0, -1.3872854796815689e-42, 0.0, 1.5037796689851236e-23, 0.0]","[0.0, -1.5707963267948966, 0.0, 0.0, 0.0, 0.0]","[0.0, -1.5707963267948966, 0.0, 0.0, 0.0, 0.0]",0.002,7,1
0,-1,"[-4.2263661519825746e-05, -1.5708757839598597, -1.4763704712095205e-05, 1.3752574584913191e-05, 3.1476974982069805e-05, -5.5615101949513246e-05]","[1.0179937198464478e-33, 0.0, -0.0, 0.0, 1.1651417250548216e-30, 0.0]","[0.0, -1.5707963267948966, 0.0, 0.0, 0.0, 0.0]","[0.0, -1.5707963267948966, 0.0, 0.0, 0.0, 0.0]",0.002,7,1
0,-1,"[-3.320375551396637e-05, -1.5707862089478404, -3.1718747777631506e-05, 4.692668579053816e-06, 6.428653250623029e-06, -7.788287561538709e-07]","[5.605193857299268e-45, 0.0, -0.0, 0.0, 9.02762040944107e-38, 0.0]","[0.0, -1.5707963267948966, 0.0, 0.0, 0.0, 0.0]","[0.0, -1.5707963267948966, 0.0, 0.0, 0.0, 0.0]",0.002,7,1
0,-1,"[-1.3653432027638246e-05, -1.5708476505675257, -4.0796450775815174e-05, 1.6271557612412835e-07, -4.274049867802887e-05, -2.557436098271637e-05]","[0.0, 0.0, -0.0, 0.0, 0.0, 0.0]","[0.0, -1.5707963267948966, 0.0, 0.0, 0.0, 0.0]","[0.0, -1.5707963267948966, 0.0, 0.0, 0.0, 0.0]",0.002,7,1
0,-1,"[-1.699129213506012e-05, -1.5708385906615199, 4.178682436162262e-05, 3.377973522944444e-05, 5.6272030633408576e-05, 4.082417581230402e-05]","[0.0, 0.0, -0.0, 0.0, 0.0, 0.0]","[0.0, -1.5707963267948966, 0.0, 0.0, 0.0, 0.0]","[0.0, -1.5707963267948966, 0.0, 0.0, 0.0, 0.0]",0.002,7,1
0,-1,"[-1.699129213506012e-05, -1.5708757839598597, -1.4781951904296875e-05, 1.2083644531202253e-05, 6.4027794905996416e-06, 2.899360697483644e-05]","[0.0, 0.0, -0.0, 0.0, 0.0, 0.0]","[0.0, -1.5707963267948966, 0.0, 0.0, 0.0, 0.0]","[0.0, -1.5707963267948966, 0.0, 0.0, 0.0, 0.0]",0.002,7,1
0,1,"[-7.788287561538709e-07, -1.5707651723681302, 8.885060445606996e-06, 1.661359753413194e-05, -1.7468129293263246e-05, 1.9776820408878848e-05]","[0.0, 0.0, -0.0, 0.0, 0.0, 0.0]","[0.04418479434657463, -1.5266115324483218, 0.04418479434657463, 0.04418479434657463, 0.04418479434657463, 0.04418479434657463]","[0.04418479434657463, -1.5266115324483218, 0.04418479434657463, 0.04418479434657463, 0.04418479434657463, 0.04418479434657463]",0.002,7,1
0,2,"[-2.557436098271637e-05, -1.570789174442627, 1.0792409078419496e-05, -9.135609008836809e-06, -1.7468129293263246e-05, -1.255665914356996e-06]","[4.102000093553215e-05, 0.0004978217766620219, 0.00021318375365808606, 3.317840310046449e-05, 4.767392238136381e-05, 2.9224254831206053e-05]","[0.04461996713404648, -1.52617635966085, 0.04461996713404648, 0.04461996713404648, 0.04461996713404648, 0.04461996713404648]","[0.04461996713404648, -1.52617635966085, 0.04461996713404648, 0.04461996713404648, 0.04461996713404648, 0.04461996713404648]",0.002,7,1
0,3,"[5.170917575014755e-05, -1.5706303746449812, 7.516542543584137e-05, 8.313238110346788e-05, 0.00012864498421549797, 0.00010829033999470994]","[0.03841516375541687, 0.17024673521518707, 0.11653777211904526, 0.060746245086193085, 0.052001163363456726, 0.05661916732788086]","[0.045055069432306895, -1.5257412573625897, 0.045055069432306895, 0.045055069432306895, 0.045055069432306895, 0.045055069432306895]","[0.045055069432306895, -1.5257412573625897, 0.045055069432306895, 0.045055069432306895, 0.045055069432306895, 0.045055069432306895]",0.002,7,1
0,4,"[0.00012948729272466153, -1.5703827583968923, 0.00023299852480107575, 0.00023965417828364366, 0.0002805287658702582, 0.00031083167414180934]","[0.05075398460030556, 0.20017461478710175, 0.1421399861574173, 0.09575939923524857, 0.08461619913578033, 0.09701148420572281]","[0.045490100553995036, -1.5253062262409016, 0.045490100553995036, 0.045490100553995036, 0.045490100553995036, 0.045490100553995036]","[0.045490100553995036, -1.5253062262409016, 0.045490100553995036, 0.045490100553995036, 0.045490100553995036, 0.045490100553995036]",0.002,7,1
0,5,"[0.00031388032948598266, -1.570109855998755, 0.0005515257464807632, 0.0003875929066161632, 0.0005471491604112089, 0.0005314737791195512]","[0.06164758652448654, 0.1928863674402237, 0.13960862159729004, 0.10550133883953094, 0.0984557569026947, 0.10638687759637833]","[0.04592505981186254, -1.524871266983034, 0.04592505981186254, 0.04592505981186254, 0.04592505981186254, 0.04592505981186254]","[0.04592505981186254, -1.524871266983034, 0.04592505981186254, 0.04592505981186254, 0.04592505981186254, 0.04592505981186254]",0.002,7,1
0,6,"[0.0005223136395215988, -1.5698117718896647, 0.0008562246905725601, 0.0006036001392821788, 0.000690290704369545, 0.0007352076936513186]","[0.08680042624473572, 0.18728333711624146, 0.14646290242671967, 0.10702012479305267, 0.10806306451559067, 0.11059058457612991]","[0.0463599465187745, -1.524436380276122, 0.0463599465187745, 0.0463599465187745, 0.0463599465187745, 0.0463599465187745]","[0.0463599465187745, -1.524436380276122, 0.0463599465187745, 0.0463599465187745, 0.0463599465187745, 0.0463599465187745]",0.002,7,1
0,7,"[0.0008086314192041755, -1.5693814512672652, 0.001183811818258107, 0.0009680229374389171, 0.0009056272683665156, 0.0010082400403916836]","[0.10680919140577316, 0.19403982162475586, 0.1642603576183319, 0.12028499692678452, 0.11964583396911621, 0.11850825697183609]","[0.0467947599877107, -1.5240015668071858, 0.0467947599877107, 0.0467947599877107, 0.0467947599877107, 0.0467947599877107]","[0.0467947599877107, -1.5240015668071858, 0.0467947599877107, 0.0467947599877107, 0.0467947599877107, 0.0467947599877107]",0.002,7,1
0,8,"[0.0011173305101692677, -1.5690405819662665, 0.0016215483294885757, 0.001213832492492628, 0.0011675398563966155, 0.001243652543053031]","[0.13043074309825897, 0.20293715596199036, 0.17265304923057556, 0.13517232239246368, 0.1324184387922287, 0.13166606426239014]","[0.047229499531766576, -1.52356682726313, 0.047229499531766576, 0.047229499531766576, 0.047229499531766576, 0.047229499531766576]","[0.047229499531766576, -1.52356682726313, 0.047229499531766576, 0.047229499531766576, 0.047229499531766576, 0.047229499531766576]",0.002,7,1
0,9,"[0.0015320993261411786, -1.568832131135725, 0.0019639174090784195, 0.001637263888977003, 0.0014038655208423734, 0.0015075268456712365]","[0.15892751514911652, 0.18215668201446533, 0.16527649760246277, 0.1481662541627884, 0.14557185769081116, 0.14518548548221588]","[0.047664164464154356, -1.5231321623307421, 0.047664164464154356, 0.047664164464154356, 0.047664164464154356, 0.047664164464154356]","[0.047664164464154356, -1.5231321623307421, 0.047664164464154356, 0.047664164464154356, 0.047664164464154356, 0.047664164464154356]",0.002,7,1
0,10,"[0.0018790130270645022, -1.5685337847429146, 0.002233330403463185, 0.0020395952412108898, 0.0017875334015116096, 0.0018737356876954436]","[0.17948473989963531, 0.1377718150615692, 0.14374540746212006, 0.1664586067199707, 0.1606735736131668, 0.1615721881389618]","[0.048098754098204126, -1.5226975726966925, 0.048098754098204126, 0.048098754098204126, 0.048098754098204126, 0.048098754098204126]","[0.048098754098204126, -1.5226975726966925, 0.048098754098204126, 0.048098754098204126, 0.048098754098204126, 0.048098754098204126]",0.002,7,1
0,11,"[0.002189713530242443, -1.5682533984402944, 0.0024026075946252945, 0.0022855240055541515, 0.002160419011488557, 0.002214008243754506]","[0.190972238779068, 0.11295633018016815, 0.15908671915531158, 0.1841595470905304, 0.17172539234161377, 0.17763569951057434]","[0.048533267747364967, -1.5222630590475317, 0.048533267747364967, 0.048533267747364967, 0.048533267747364967, 0.048533267747364967]","[0.048533267747364967, -1.5222630590475317, 0.048533267747364967, 0.048533267747364967, 0.048533267747364967, 0.048533267747364967]",0.002,7,1
0,12,"[0.00244240858592093, -1.5680746648325403, 0.0027187506305139664, 0.0025492149540404796, 0.0025163539685308933, 0.0026229473296552896]","[0.20153537392616272, 0.14401116967201233, 0.18141797184944153, 0.18675877153873444, 0.18699413537979126, 0.18707367777824402]","[0.048967704725205966, -1.5218286220696906, 0.048967704725205966, 0.048967704725205966, 0.048967704725205966, 0.048967704725205966]","[0.048967704725205966, -1.5218286220696906, 0.048967704725205966, 0.048967704725205966, 0.048967704725205966, 0.048967704725205966]",0.002,7,1
0,13,"[0.0028571574948728085, -1.5677535769394417, 0.0029929319964807632, 0.0028968292423705577, 0.003058831673115492, 0.0029997588135302067]","[0.21095536649227142, 0.18388541042804718, 0.1883517950773239, 0.19100986421108246, 0.20620465278625488, 0.20020517706871033]","[0.049402064345417336, -1.5213942624494792, 0.049402064345417336, 0.049402064345417336, 0.049402064345417336, 0.049402064345417336]","[0.049402064345417336, -1.5213942624494792, 0.049402064345417336, 0.049402064345417336, 0.049402064345417336, 0.049402064345417336]",0.002,7,1
0,14,"[0.003356371773406863, -1.5673353798086573, 0.00345784822572881, 0.003279848689697218, 0.0033603215124458075, 0.0033727302215993404]","[0.22277261316776276, 0.1921318769454956, 0.19837193191051483, 0.20073744654655457, 0.22199657559394836, 0.2132544219493866]","[0.04983634592181149, -1.5209599808730851, 0.04983634592181149, 0.04983634592181149, 0.04983634592181149, 0.04983634592181149]","[0.04983634592181149, -1.5209599808730851, 0.04983634592181149, 0.04983634592181149, 0.04983634592181149, 0.04983634592181149]",0.002,7,1
0,15,"[0.003761845640838146, -1.5669262551567336, 0.00401479402651006, 0.0037532287785033702, 0.003888299921527505, 0.0038968727458268404]","[0.2362118512392044, 0.20211313664913177, 0.21483245491981506, 0.21604283154010773, 0.23134230077266693, 0.22634494304656982]","[0.05027054876832418, -1.5205257780265724, 0.05027054876832418, 0.05027054876832418, 0.05027054876832418, 0.05027054876832418]","[0.05027054876832418, -1.5205257780265724, 0.05027054876832418, 0.05027054876832418, 0.05027054876832418, 0.05027054876832418]",0.002,7,1
0,16,"[0.004376481287181377, -1.5665255168317636, 0.004497353230611623, 0.0042931276508788585, 0.004402128979563713, 0.004343307111412287]","[0.2516036331653595, 0.21300534904003143, 0.23615455627441406, 0.23868300020694733, 0.2448030263185501, 0.24029363691806793]","[0.05070467219901544, -1.5200916545958811, 0.05070467219901544, 0.05070467219901544, 0.05070467219901544, 0.05070467219901544]","[0.05070467219901544, -1.5200916545958811, 0.05070467219901544, 0.05070467219901544, 0.05070467219901544, 0.05070467219901544]",0.002,7,1
0,17,"[0.005058573558926582, -1.5660096153481682, 0.004972759877340138, 0.0049236255833129405, 0.004854058846831322, 0.004907416179776192]","[0.2695485055446625, 0.22831109166145325, 0.25354263186454773, 0.25898173451423645, 0.2528502643108368, 0.25347083806991577]","[0.051138715528070866, -1.5196576112668256, 0.051138715528070866, 0.051138715528070866, 0.051138715528070866, 0.051138715528070866]","[0.051138715528070866, -1.5196576112668256, 0.051138715528070866, 0.051138715528070866, 0.051138715528070866, 0.051138715528070866]",0.002,7,1
0,18,"[0.005682263523340225, -1.5654833515039464, 0.005539242421285451, 0.005500836963317823, 0.005408490542322397, 0.005412502679973841]","[0.2841658890247345, 0.24657751619815826, 0.2664428949356079, 0.2780892550945282, 0.264576256275177, 0.26938900351524353]","[0.051572678069802536, -1.519223648725094, 0.051572678069802536, 0.051572678069802536, 0.051572678069802536, 0.051572678069802536]","[0.051572678069802536, -1.519223648725094, 0.051572678069802536, 0.051572678069802536, 0.051572678069802536, 0.051572678069802536]",0.002,7,1
0,19,"[0.006239193491637707, -1.5650335073335846, 0.006046597157613576, 0.00605265676464839, 0.005973752122372389, 0.0059734489768743515]","[0.2965205907821655, 0.2611815631389618, 0.27608001232147217, 0.28954777121543884, 0.2785305678844452, 0.28345295786857605]","[0.05200655913865015, -1.5187897676562465, 0.05200655913865015, 0.05200655913865015, 0.05200655913865015, 0.05200655913865015]","[0.05200655913865015, -1.5187897676562465, 0.05200655913865015, 0.05200655913865015, 0.05200655913865015, 0.05200655913865015]",0.002,7,1
0,20,"[0.006700172554701567, -1.5644112832709034, 0.006645981465474904, 0.0065753894993285655, 0.006600008811801672, 0.006587853655219078]","[0.3055424094200134, 0.2732710540294647, 0.2861723303794861, 0.2908279597759247, 0.2932671010494232, 0.29269784688949585]","[0.05244035804918214, -1.5183559687457144, 0.05244035804918214, 0.05244035804918214, 0.05244035804918214, 0.05244035804918214]","[0.05244035804918214, -1.5183559687457144, 0.05244035804918214, 0.05244035804918214, 0.05244035804918214, 0.05244035804918214]",0.002,7,1
0,21,"[0.007228079717606306, -1.5638924001580854, 0.007301155720845998, 0.007128878230712843, 0.007212106138467789, 0.007166953757405281]","[0.31338420510292053, 0.2875716984272003, 0.2967286705970764, 0.29532212018966675, 0.30548331141471863, 0.30356648564338684]","[0.05287407411609672, -1.5179222526787999, 0.05287407411609672, 0.05287407411609672, 0.05287407411609672, 0.05287407411609672]","[0.05287407411609672, -1.5179222526787999, 0.05287407411609672, 0.05287407411609672, 0.05287407411609672, 0.05287407411609672]",0.002,7,1
0,22,"[0.007940413430333138, -1.5632141258432348, 0.0079425016986292, 0.007794066066406202, 0.007848700508475304, 0.007761857472360134]","[0.3201931416988373, 0.29868045449256897, 0.31058067083358765, 0.30609869956970215, 0.3194044530391693, 0.3166845738887787]","[0.05330770665422299, -1.5174886201406736, 0.05330770665422299, 0.05330770665422299, 0.05330770665422299, 0.05330770665422299]","[0.05330770665422299, -1.5174886201406736, 0.05330770665422299, 0.05330770665422299, 0.05330770665422299, 0.05330770665422299]",0.002,7,1
0,23,"[0.008657565340399742, -1.562575352644064, 0.00859100023378545, 0.008482380504272413, 0.00848678033798933, 0.008388579823076725]","[0.33293604850769043, 0.31452476978302, 0.3238692581653595, 0.3194904029369354, 0.32870593667030334, 0.3283317983150482]","[0.05374125497852198, -1.5170550718163747, 0.05374125497852198, 0.05374125497852198, 0.05374125497852198, 0.05374125497852198]","[0.05374125497852198, -1.5170550718163747, 0.05374125497852198, 0.05374125497852198, 0.05374125497852198, 0.05374125497852198]",0.002,7,1
0,24,"[0.009400591254234314, -1.5618645132384081, 0.009273831044332326, 0.009273334140441847, 0.00920641329139471, 0.009107634425163269]","[0.3462906777858734, 0.33061206340789795, 0.33620625734329224, 0.33873212337493896, 0.3391299545764923, 0.3393978476524353]","[0.05417471840408779, -1.5166216083908088, 0.05417471840408779, 0.05417471840408779, 0.05417471840408779, 0.05417471840408779]","[0.05417471840408779, -1.5166216083908088, 0.05417471840408779, 0.05417471840408779, 0.05417471840408779, 0.05417471840408779]",0.002,7,1
0,25,"[0.010111995041370392, -1.5611820689267297, 0.009992424641744435, 0.009980960483215284, 0.009813078679144382, 0.009782410226762295]","[0.3612499535083771, 0.34007957577705383, 0.34852561354637146, 0.3552432656288147, 0.34694811701774597, 0.35256028175354004]","[0.05460809624614861, -1.516188230548748, 0.05460809624614861, 0.05460809624614861, 0.05460809624614861, 0.05460809624614861]","[0.05460809624614861, -1.516188230548748, 0.05460809624614861, 0.05460809624614861, 0.05460809624614861, 0.05460809624614861]",0.002,7,1
0,26,"[0.010771074332296848, -1.5604741594618936, 0.010710541401998341, 0.010778709048889112, 0.010521831922233105, 0.010566544719040394]","[0.37113627791404724, 0.3528296649456024, 0.35888558626174927, 0.3676820993423462, 0.3599367141723633, 0.36374977231025696]","[0.05504138782006785, -1.5157549389748286, 0.05504138782006785, 0.05504138782006785, 0.05504138782006785, 0.05504138782006785]","[0.05504138782006785, -1.5157549389748286, 0.05504138782006785, 0.05504138782006785, 0.05504138782006785, 0.05504138782006785]",0.002,7,1
0,27,"[0.011417843401432037, -1.5597659165835758, 0.011441532765523732, 0.01142386972393794, 0.011344661004841328, 0.011266463436186314]","[0.37730950117111206, 0.36417463421821594, 0.36887943744659424, 0.3762493431568146, 0.3688814043998718, 0.3729914426803589]","[0.055474592441345186, -1.5153217343535514, 0.055474592441345186, 0.055474592441345186, 0.055474592441345186, 0.055474592441345186]","[0.055474592441345186, -1.5153217343535514, 0.055474592441345186, 0.055474592441345186, 0.055474592441345186, 0.055474592441345186]",0.002,7,1
0,28,"[0.012281792238354683, -1.5589557525566597, 0.012166802083150685, 0.012211723918579054, 0.012088225223124027, 0.011973142623901367]","[0.38190513849258423, 0.3746907711029053, 0.3782445788383484, 0.3806377947330475, 0.38439154624938965, 0.3841436803340912]","[0.0559077094256177, -1.5148886173692788, 0.0559077094256177, 0.0559077094256177, 0.0559077094256177, 0.0559077094256177]","[0.0559077094256177, -1.5148886173692788, 0.0559077094256177, 0.0559077094256177, 0.0559077094256177, 0.0559077094256177]",0.002,7,1
0,29,"[0.013077984564006329, -1.558164182384946, 0.013006989155904591, 0.012951417560241651, 0.01291128620505333, 0.012815460562705994]","[0.39264553785324097, 0.38695791363716125, 0.38672882318496704, 0.3859838843345642, 0.39544549584388733, 0.3942912518978119]","[0.05634073808866088, -1.5144555887062356, 0.05634073808866088, 0.05634073808866088, 0.05634073808866088, 0.05634073808866088]","[0.05634073808866088, -1.5144555887062356, 0.05634073808866088, 0.05634073808866088, 0.05634073808866088, 0.05634073808866088]",0.002,7,1
0,30,"[0.013878404162824154, -1.557372211744525, 0.013799015675679982, 0.013728662128112745, 0.013633797876536846, 0.013606609776616096]","[0.4021010398864746, 0.39806434512138367, 0.39222627878189087, 0.39011067152023315, 0.40602368116378784, 0.4038853645324707]","[0.05677367774638972, -1.514022649048507, 0.05677367774638972, 0.05677367774638972, 0.05677367774638972, 0.05677367774638972]","[0.05677367774638972, -1.514022649048507, 0.05677367774638972, 0.05677367774638972, 0.05677367774638972, 0.05677367774638972]",0.002,7,1
0,31,"[0.014738457277417183, -1.5564881584471841, 0.01460439363588506, 0.014642282123229933, 0.014479326084256172, 0.014395189471542835]","[0.4141492247581482, 0.40982356667518616, 0.4052172005176544, 0.3993835151195526, 0.41285908222198486, 0.4127718210220337]","[0.05720652771485992, -1.5135897990800367, 0.05720652771485992, 0.05720652771485992, 0.05720652771485992, 0.05720652771485992]","[0.05720652771485992, -1.5135897990800367, 0.05720652771485992, 0.05720652771485992, 0.05720652771485992, 0.05720652771485992]",0.002,7,1
0,32,"[0.015484410338103771, -1.5556296811303874, 0.0154803434955042, 0.01548866807904048, 0.015299259684979916, 0.015255989506840706]","[0.42240309715270996, 0.4205561578273773, 0.41399267315864563, 0.41148972511291504, 0.41744473576545715, 0.4183063805103302]","[0.057639287310268766, -1.5131570394846279, 0.057639287310268766, 0.057639287310268766, 0.057639287310268766, 0.057639287310268766]","[0.057639287310268766, -1.5131570394846279, 0.057639287310268766, 0.057639287310268766, 0.057639287310268766, 0.057639287310268766]",0.002,7,1
0,33,"[0.016443518921732903, -1.5547708806446572, 0.016285244618551076, 0.01634482919659419, 0.016065839678049088, 0.016116296872496605]","[0.42830654978752136, 0.42926764488220215, 0.42200735211372375, 0.4256581962108612, 0.42493337392807007, 0.42832478880882263]","[0.05807195584895635, -1.5127243709459401, 0.05807195584895635, 0.05807195584895635, 0.05807195584895635, 0.05807195584895635]","[0.05807195584895635, -1.5127243709459401, 0.05807195584895635, 0.05807195584895635, 0.05807195584895635, 0.05807195584895635]",0.002,7,1
0,34,"[0.01724204048514366, -1.5539112531444808, 0.017205540333883107, 0.017172141666076612, 0.017004260793328285, 0.016997314989566803]","[0.43436193466186523, 0.4365704357624054, 0.43325579166412354, 0.4329916834831238, 0.4338735342025757, 0.4371170103549957]","[0.05850453264740661, -1.51229179414749, 0.05850453264740661, 0.05850453264740661, 0.05850453264740661, 0.05850453264740661]","[0.05850453264740661, -1.51229179414749, 0.05850453264740661, 0.05850453264740661, 0.05850453264740661, 0.05850453264740661]",0.002,7,1
0,35,"[0.018192719668149948, -1.5529855129173775, 0.0180133024798792, 0.017975016231201124, 0.017794938758015633, 0.01787523739039898]","[0.4418140947818756, 0.4446939527988434, 0.4391636252403259, 0.43632692098617554, 0.44314315915107727, 0.44556528329849243]","[0.05893701702224843, -1.511859309772648, 0.05893701702224843, 0.05893701702224843, 0.05893701702224843, 0.05893701702224843]","[0.05893701702224843, -1.511859309772648, 0.05893701702224843, 0.05893701702224843, 0.05893701702224843, 0.05893701702224843]",0.002,7,1
0,36,"[0.01906817965209484, -1.5521032244763155, 0.018920246754781544, 0.018836064929626417, 0.018790874630212784, 0.01875132881104946]","[0.4490373134613037, 0.4536226987838745, 0.4442022442817688, 0.4416382908821106, 0.45172736048698425, 0.45065397024154663]","[0.059369408290256664, -1.5114269185046398, 0.059369408290256664, 0.059369408290256664, 0.059369408290256664, 0.059369408290256664]","[0.059369408290256664, -1.5114269185046398, 0.059369408290256664, 0.059369408290256664, 0.059369408290256664, 0.059369408290256664]",0.002,7,1
0,37,"[0.019981082528829575, -1.5511307393065472, 0.01980621019472295, 0.019725127811096144, 0.019670698791742325, 0.019712867215275764]","[0.457040399312973, 0.45819908380508423, 0.4523649215698242, 0.4482797384262085, 0.4593610167503357, 0.4583798348903656]","[0.05980170576835331, -1.5109946210265432, 0.05980170576835331, 0.05980170576835331, 0.05980170576835331, 0.05980170576835331]","[0.05980170576835331, -1.5109946210265432, 0.05980170576835331, 0.05980170576835331, 0.05980170576835331, 0.05980170576835331]",0.002,7,1
0,38,"[0.020920850336551666, -1.5501378041556855, 0.020688358937398732, 0.020614667529724073, 0.02062349021434784, 0.02059413492679596]","[0.4633670747280121, 0.46562671661376953, 0.45800429582595825, 0.4567416310310364, 0.4642263650894165, 0.46534857153892517]","[0.060233908773608465, -1.510562418021288, 0.060233908773608465, 0.060233908773608465, 0.060233908773608465, 0.060233908773608465]","[0.060233908773608465, -1.510562418021288, 0.060233908773608465, 0.060233908773608465, 0.060233908773608465, 0.060233908773608465]",0.002,7,1
0,39,"[0.02182585746049881, -1.5492189687541504, 0.021629158650533498, 0.02152983724560542, 0.021540140733122826, 0.021589411422610283]","[0.4690738022327423, 0.46888744831085205, 0.4674685001373291, 0.4661788046360016, 0.4709809422492981, 0.4710673987865448]","[0.060666016623241524, -1.510130310171655, 0.060666016623241524, 0.060666016623241524, 0.060666016623241524, 0.060666016623241524]","[0.060666016623241524, -1.510130310171655, 0.060666016623241524, 0.060666016623241524, 0.060666016623241524, 0.060666016623241524]",0.002,7,1
0,40,"[0.022792581468820572, -1.548202147041895, 0.022599045430318654, 0.02248351156201167, 0.02250063233077526, 0.022502711042761803]","[0.4714091122150421, 0.4737216532230377, 0.47402167320251465, 0.4743480980396271, 0.4758642613887787, 0.47691965103149414]","[0.061098028634622194, -1.5096982981602745, 0.061098028634622194, 0.061098028634622194, 0.061098028634622194, 0.061098028634622194]","[0.061098028634622194, -1.5096982981602745, 0.061098028634622194, 0.061098028634622194, 0.061098028634622194, 0.061098028634622194]",0.002,7,1
0,41,"[0.02369864657521248, -1.5473113146475335, 0.023567978535787404, 0.0234718757816772, 0.023497723042964935, 0.023495638743042946]","[0.47873225808143616, 0.47540444135665894, 0.4786160886287689, 0.4820062518119812, 0.48250383138656616, 0.4811900556087494]","[0.06152994412527155, -1.509266382669625, 0.06152994412527155, 0.06152994412527155, 0.06152994412527155, 0.06152994412527155]","[0.06152994412527155, -1.509266382669625, 0.06152994412527155, 0.06152994412527155, 0.06152994412527155, 0.06152994412527155]",0.002,7,1
0,42,"[0.024639707058668137, -1.5463024836829682, 0.024483505879537404, 0.02430085718121333, 0.024458501487970352, 0.02445766143500805]","[0.4829396605491638, 0.4791176915168762, 0.47850799560546875, 0.4872732162475586, 0.48828133940696716, 0.4862070083618164]","[0.06196176241286319, -1.5088345643820333, 0.06196176241286319, 0.06196176241286319, 0.06196176241286319, 0.06196176241286319]","[0.06196176241286319, -1.5088345643820333, 0.06196176241286319, 0.06196176241286319, 0.06196176241286319, 0.06196176241286319]",0.002,7,1
0,43,"[0.02572026662528515, -1.545244650249817, 0.0254595915423792, 0.02527110158886714, 0.02549687772989273, 0.02543582394719124]","[0.49042195081710815, 0.4842965006828308, 0.4833125174045563, 0.4912106692790985, 0.49263864755630493, 0.49163931608200073]","[0.062393482815224256, -1.5084028439796724, 0.062393482815224256, 0.062393482815224256, 0.062393482815224256, 0.062393482815224256]","[0.062393482815224256, -1.5084028439796724, 0.062393482815224256, 0.062393482815224256, 0.062393482815224256, 0.062393482815224256]",0.002,7,1
0,44,"[0.026653366163372993, -1.5442622315934678, 0.02647859254945928, 0.02622918664898677, 0.026374349370598793, 0.02645200490951538]","[0.49498194456100464, 0.49197688698768616, 0.48909735679626465, 0.49461281299591064, 0.49654319882392883, 0.49240031838417053]","[0.06282510465033653, -1.50797122214456, 0.06282510465033653, 0.06282510465033653, 0.06282510465033653, 0.06282510465033653]","[0.06282510465033653, -1.50797122214456, 0.06282510465033653, 0.06282510465033653, 0.06282510465033653, 0.06282510465033653]",0.002,7,1
0,45,"[0.02757849171757698, -1.5432245277664443, 0.027465168629781544, 0.027192636127136183, 0.027526723220944405, 0.027502086013555527]","[0.4978202283382416, 0.49430498480796814, 0.4988350570201874, 0.5004739761352539, 0.503383457660675, 0.4979473948478699]","[0.06325662723633747, -1.507539699558559, 0.06325662723633747, 0.06325662723633747, 0.06325662723633747, 0.06325662723633747]","[0.06325662723633747, -1.507539699558559, 0.06325662723633747, 0.06325662723633747, 0.06325662723633747, 0.06325662723633747]",0.002,7,1
0,46,"[0.028515469282865524, -1.5422344629517575, 0.028473679219381154, 0.028249188060424757, 0.0284180399030447, 0.0284793209284544]","[0.5014342665672302, 0.4974514842033386, 0.5047202706336975, 0.5061160326004028, 0.5054119229316711, 0.5035151839256287]","[0.0636880498915214, -1.5071082769033752, 0.0636880498915214, 0.0636880498915214, 0.0636880498915214, 0.0636880498915214]","[0.0636880498915214, -1.5071082769033752, 0.0636880498915214, 0.0636880498915214, 0.0636880498915214, 0.0636880498915214]",0.002,7,1
0,47,"[0.029524868354201317, -1.5412146777710696, 0.02950936952699834, 0.029259009952209425, 0.029493257403373718, 0.02945009618997574]","[0.5054645538330078, 0.5012415647506714, 0.5050989985466003, 0.5124209523200989, 0.5095346570014954, 0.5078737735748291]","[0.06411937193434043, -1.506676954860556, 0.06411937193434043, 0.06411937193434043, 0.06411937193434043, 0.06411937193434043]","[0.06411937193434043, -1.506676954860556, 0.06411937193434043, 0.06411937193434043, 0.06411937193434043, 0.06411937193434043]",0.002,7,1
0,48,"[0.03057154454290867, -1.5401336059770365, 0.030592266713277638, 0.03021339952435298, 0.030593208968639374, 0.030573569238185883]","[0.5095582008361816, 0.5033082962036133, 0.5101655125617981, 0.5161629319190979, 0.5123354196548462, 0.5095255374908447]","[0.06455059268340568, -1.506245734111491, 0.06455059268340568, 0.06455059268340568, 0.06455059268340568, 0.06455059268340568]","[0.06455059268340568, -1.506245734111491, 0.06455059268340568, 0.06455059268340568, 0.06455059268340568, 0.06455059268340568]",0.002,7,1
0,49,"[0.03165467828512192, -1.5391038183918972, 0.03154927888979131, 0.03130774080242915, 0.03156393766403198, 0.03158637508749962]","[0.510933518409729, 0.5026536583900452, 0.5117732882499695, 0.5184836983680725, 0.516507625579834, 0.5120087265968323]","[0.06498171145748827, -1.5058146153374083, 0.06498171145748827, 0.06498171145748827, 0.06498171145748827, 0.06498171145748827]","[0.06498171145748827, -1.5058146153374083, 0.06498171145748827, 0.06498171145748827, 0.06498171145748827, 0.06498171145748827]",0.002,7,1
0,50,"[0.0326027050614357, -1.5380535659245034, 0.032589260731832326, 0.03234176217999263, 0.03268227353692055, 0.032673463225364685]","[0.5183900594711304, 0.5073704719543457, 0.5143740177154541, 0.5219600796699524, 0.5175302624702454, 0.5138109922409058]","[0.06541272757552037, -1.5053835992193763, 0.06541272757552037, 0.06541272757552037, 0.06541272757552037, 0.06541272757552037]","[0.06541272757552037, -1.5053835992193763, 0.06541272757552037, 0.06541272757552037, 0.06541272757552037, 0.06541272757552037]",0.002,7,1
0,51,"[0.03364318981766701, -1.5371012848666687, 0.033661667500631154, 0.033470674152038526, 0.033681564033031464, 0.03362349793314934]","[0.5179466605186462, 0.5099298357963562, 0.5159533023834229, 0.5248489379882812, 0.5183110237121582, 0.5159741640090942]","[0.06584364035659639, -1.5049526864383003, 0.06584364035659639, 0.06584364035659639, 0.06584364035659639, 0.06584364035659639]","[0.06584364035659639, -1.5049526864383003, 0.06584364035659639, 0.06584364035659639, 0.06584364035659639, 0.06584364035659639]",0.002,7,1
0,52,"[0.034676142036914825, -1.5360492330840607, 0.03467256227602178, 0.034631534213684034, 0.03469877690076828, 0.03464554622769356]","[0.5197103023529053, 0.511482834815979, 0.5187193155288696, 0.5262719392776489, 0.519397497177124, 0.5165088176727295]","[0.06627444911997396, -1.5045218776749225, 0.06627444911997396, 0.06627444911997396, 0.06627444911997396, 0.06627444911997396]","[0.06627444911997396, -1.5045218776749225, 0.06627444911997396, 0.06627444911997396, 0.06627444911997396, 0.06627444911997396]",0.002,7,1
0,53,"[0.03566572070121765, -1.535034504984953, 0.03572446504701787, 0.03568653642620845, 0.03577854111790657, 0.03571387007832527]","[0.5195378661155701, 0.5129213929176331, 0.5169857144355774, 0.5302345156669617, 0.5185407996177673, 0.518645167350769]","[0.06670515318507503, -1.5040911736098215, 0.06670515318507503, 0.06670515318507503, 0.06670515318507503, 0.06670515318507503]","[0.06670515318507503, -1.5040911736098215, 0.06670515318507503, 0.06670515318507503, 0.06670515318507503, 0.06670515318507503]",0.002,7,1
0,54,"[0.03676797077059746, -1.5339925748160859, 0.03679353395570928, 0.03671340524639888, 0.036820974200963974, 0.03673642873764038]","[0.5221704244613647, 0.5150279998779297, 0.5216503739356995, 0.5306790471076965, 0.5207687020301819, 0.5203433632850647]","[0.06713575187148693, -1.5036605749234095, 0.06713575187148693, 0.06713575187148693, 0.06713575187148693, 0.06713575187148693]","[0.06713575187148693, -1.5036605749234095, 0.06713575187148693, 0.06713575187148693, 0.06713575187148693, 0.06713575187148693]",0.002,7,1
0,55,"[0.03783353790640831, -1.5329046261361619, 0.03784352937807256, 0.03777103006329341, 0.037934139370918274, 0.03776976093649864]","[0.5224838256835938, 0.5159100890159607, 0.5221363306045532, 0.5260726809501648, 0.5227376222610474, 0.5248399376869202]","[0.06756624449896355, -1.503230082295933, 0.06756624449896355, 0.06756624449896355, 0.06756624449896355, 0.06756624449896355]","[0.06756624449896355, -1.503230082295933, 0.06756624449896355, 0.06756624449896355, 0.06756624449896355, 0.06756624449896355]",0.002,7,1
0,56,"[0.038920361548662186, -1.531910703783371, 0.03891498247255498, 0.03887252389874263, 0.03892235830426216, 0.03879370540380478]","[0.5257691740989685, 0.5201346278190613, 0.526064395904541, 0.522379457950592, 0.5248000025749207, 0.5233369469642639]","[0.0679966303874262, -1.5027996964074704, 0.0679966303874262, 0.0679966303874262, 0.0679966303874262, 0.0679966303874262]","[0.0679966303874262, -1.5027996964074704, 0.0679966303874262, 0.0679966303874262, 0.0679966303874262, 0.0679966303874262]",0.002,7,1
0,57,"[0.03993216156959534, -1.5308950331858178, 0.0399702231036585, 0.04000954210247798, 0.03989651799201965, 0.03985638543963432]","[0.528258204460144, 0.5198482275009155, 0.5225480794906616, 0.5248419642448425, 0.5259724855422974, 0.5256765484809875]","[0.06842690885696494, -1.5023694179379317, 0.06842690885696494, 0.06842690885696494, 0.06842690885696494, 0.06842690885696494]","[0.06842690885696494, -1.5023694179379317, 0.06842690885696494, 0.06842690885696494, 0.06842690885696494, 0.06842690885696494]",0.002,7,1
0,58,"[0.0409710519015789, -1.5298524510911484, 0.04104215303529912, 0.04113738119091792, 0.0409453921020031, 0.040881287306547165]","[0.5268204212188721, 0.5206343531608582, 0.5247459411621094, 0.528922438621521, 0.5245658755302429, 0.5270394682884216]","[0.0688570792278394, -1.5019392475670572, 0.0688570792278394, 0.0688570792278394, 0.0688570792278394, 0.0688570792278394]","[0.0688570792278394, -1.5019392475670572, 0.0688570792278394, 0.0688570792278394, 0.0688570792278394, 0.0688570792278394]",0.002,7,1
0,59,"[0.042024143040180206, -1.528775831019022, 0.042061630879537404, 0.04221109926190181, 0.04194207116961479, 0.04187441244721413]","[0.5262691974639893, 0.5183952450752258, 0.5264291763305664, 0.5313613414764404, 0.5228530764579773, 0.5301646590232849]","[0.0692871408204801, -1.5015091859744165, 0.0692871408204801, 0.0692871408204801, 0.0692871408204801, 0.0692871408204801]","[0.0692871408204801, -1.5015091859744165, 0.0692871408204801, 0.0692871408204801, 0.0692871408204801, 0.0692871408204801]",0.002,7,1
0,60,"[0.043082382529973984, -1.527805120950081, 0.04306251207460576, 0.04317907869305415, 0.043035414069890976, 0.042955685406923294]","[0.5258781313896179, 0.5192767381668091, 0.5238053798675537, 0.5284918546676636, 0.5244699120521545, 0.5295875668525696]","[0.06971709295548933, -1.5010792338394072, 0.06971709295548933, 0.06971709295548933, 0.06971709295548933, 0.06971709295548933]","[0.06971709295548933, -1.5010792338394072, 0.06971709295548933, 0.06971709295548933, 0.06971709295548933, 0.06971709295548933]",0.002,7,1
0,61,"[0.044184669852256775, -1.5267789003304024, 0.044141594563619435, 0.0442388492771606, 0.044096555560827255, 0.04396887496113777]","[0.5257853269577026, 0.5180230736732483, 0.5237177610397339, 0.5253052115440369, 0.5269988179206848, 0.5311472415924072]","[0.07014693495364233, -1.5006493918412542, 0.07014693495364233, 0.07014693495364233, 0.07014693495364233, 0.07014693495364233]","[0.07014693495364233, -1.5006493918412542, 0.07014693495364233, 0.07014693495364233, 0.07014693495364233, 0.07014693495364233]",0.002,7,1
0,62,"[0.04521533101797104, -1.5257387583008786, 0.04519826570619756, 0.04532413064923091, 0.04516972228884697, 0.04504278302192688]","[0.5270042419433594, 0.5187320709228516, 0.522588849067688, 0.5194670557975769, 0.5301260352134705, 0.5303338766098022]","[0.07057666613588828, -1.5002196606590084, 0.07057666613588828, 0.07057666613588828, 0.07057666613588828, 0.07057666613588828]","[0.07057666613588828, -1.5002196606590084, 0.07057666613588828, 0.07057666613588828, 0.07057666613588828, 0.07057666613588828]",0.002,7,1
0,63,"[0.04620993137359619, -1.524670237009861, 0.04629832903017217, 0.04638318597760005, 0.046171657741069794, 0.04604548215866089]","[0.5250623822212219, 0.5182562470436096, 0.5197852253913879, 0.5171999931335449, 0.527454137802124, 0.5303248167037964]","[0.07100628582335153, -1.499790040971545, 0.07100628582335153, 0.07100628582335153, 0.07100628582335153, 0.07100628582335153]","[0.07100628582335153, -1.499790040971545, 0.07100628582335153, 0.07100628582335153, 0.07100628582335153, 0.07100628582335153]",0.002,7,1
0,64,"[0.04729754477739334, -1.5236385066858311, 0.04728109041322881, 0.047467513675353956, 0.04725461080670357, 0.04716944694519043]","[0.5273893475532532, 0.5179941058158875, 0.5187265872955322, 0.5187965035438538, 0.5263172388076782, 0.5281546711921692]","[0.07143579333733246, -1.4993605334575641, 0.07143579333733246, 0.07143579333733246, 0.07143579333733246, 0.07143579333733246]","[0.07143579333733246, -1.4993605334575641, 0.07143579333733246, 0.07143579333733246, 0.07143579333733246, 0.07143579333733246]",0.002,7,1
0,65,"[0.048331666737794876, -1.5226664182594796, 0.04832011858095342, 0.04849843561138911, 0.0482456311583519, 0.04817980155348778]","[0.5242375135421753, 0.5164896249771118, 0.5189458131790161, 0.520633339881897, 0.5230875015258789, 0.5277794003486633]","[0.07186518799930869, -1.498931138795588, 0.07186518799930869, 0.07186518799930869, 0.07186518799930869, 0.07186518799930869]","[0.07186518799930869, -1.498931138795588, 0.07186518799930869, 0.07186518799930869, 0.07186518799930869, 0.07186518799930869]",0.002,7,1
0,66,"[0.04941781610250473, -1.5216144074550648, 0.04933292070497686, 0.049548669452331495, 0.04925251007080078, 0.049257319420576096]","[0.5231664776802063, 0.513744592666626, 0.5179961323738098, 0.5182352066040039, 0.5205104351043701, 0.5268337726593018]","[0.07229446913093615, -1.4985018576639604, 0.07229446913093615, 0.07229446913093615, 0.07229446913093615, 0.07229446913093615]","[0.07229446913093615, -1.4985018576639604, 0.07229446913093615, 0.07229446913093615, 0.07229446913093615, 0.07229446913093615]",0.002,7,1
0,67,"[0.0505046546459198, -1.5206118536046525, 0.05036765733827764, 0.05044667303051753, 0.05033876746892929, 0.05030296742916107]","[0.5217264294624329, 0.5117038488388062, 0.5173396468162537, 0.5146123766899109, 0.5222901701927185, 0.5246301293373108]","[0.07272363605405009, -1.4980726907408464, 0.07272363605405009, 0.07272363605405009, 0.07272363605405009, 0.07272363605405009]","[0.07272363605405009, -1.4980726907408464, 0.07272363605405009, 0.07272363605405009, 0.07272363605405009, 0.07272363605405009]",0.002,7,1
0,68,"[0.051526475697755814, -1.5195875738612195, 0.051320854817525685, 0.051428361529968214, 0.051358215510845184, 0.051334455609321594]","[0.5201888680458069, 0.5086072087287903, 0.5118173956871033, 0.5120691061019897, 0.5208854079246521, 0.5217409133911133]","[0.07315268809066618, -1.4976436387042305, 0.07315268809066618, 0.07315268809066618, 0.07315268809066618, 0.07315268809066618]","[0.07315268809066618, -1.4976436387042305, 0.07315268809066618, 0.07315268809066618, 0.07315268809066618, 0.07315268809066618]",0.002,7,1
0,69,"[0.05256311967968941, -1.5185319830528279, 0.05236655870546514, 0.05239181100811763, 0.052398376166820526, 0.05237017571926117]","[0.5164842009544373, 0.5082184672355652, 0.511277973651886, 0.5096480250358582, 0.5202662944793701, 0.521103024482727]","[0.07358162456298162, -1.4972147022319149, 0.07358162456298162, 0.07358162456298162, 0.07358162456298162, 0.07358162456298162]","[0.07358162456298162, -1.4972147022319149, 0.07358162456298162, 0.07358162456298162, 0.07358162456298162, 0.07358162456298162]",0.002,7,1
0,70,"[0.05356648936867714, -1.5175548207810898, 0.053366963063375294, 0.05338410913433833, 0.05340342968702316, 0.05346901714801788]","[0.5175204873085022, 0.5045629143714905, 0.5103774666786194, 0.5139637589454651, 0.5172358155250549, 0.5186223387718201]","[0.07401044479337612, -1.4967858820015205, 0.07401044479337612, 0.07401044479337612, 0.07401044479337612, 0.07401044479337612]","[0.07401044479337612, -1.4967858820015205, 0.07401044479337612, 0.07401044479337612, 0.07401044479337612, 0.07401044479337612]",0.002,7,1
0,71,"[0.05461925268173218, -1.5165557128242035, 0.05435640016664678, 0.05446128427471919, 0.05446474254131317, 0.05450494587421417]","[0.5137550234794617, 0.5016288161277771, 0.507060706615448, 0.5126131176948547, 0.5144991874694824, 0.5158882141113281]","[0.07443914810441309, -1.4963571786904835, 0.07443914810441309, 0.07443914810441309, 0.07443914810441309, 0.07443914810441309]","[0.07443914810441309, -1.4963571786904835, 0.07443914810441309, 0.07443914810441309, 0.07443914810441309, 0.07443914810441309]",0.002,7,1
0,72,"[0.05558625981211662, -1.5154951711050053, 0.055374924336568654, 0.05544571458782954, 0.05540217459201813, 0.055519603192806244]","[0.5094928741455078, 0.4958077371120453, 0.5034763813018799, 0.511701226234436, 0.5106383562088013, 0.510811448097229]","[0.07486773381884058, -1.495928592976056, 0.07486773381884058, 0.07486773381884058, 0.07486773381884058, 0.07486773381884058]","[0.07486773381884058, -1.495928592976056, 0.07486773381884058, 0.07486773381884058, 0.07486773381884058, 0.07486773381884058]",0.002,7,1
0,73,"[0.05667472258210182, -1.5145521324924012, 0.056363884602681935, 0.05642847597088618, 0.05646556615829468, 0.05657987669110298]","[0.5087563991546631, 0.49181991815567017, 0.49919426441192627, 0.5093761682510376, 0.5096944570541382, 0.5072168111801147]","[0.07529620125959248, -1.495500125535304, 0.07529620125959248, 0.07529620125959248, 0.07529620125959248, 0.07529620125959248]","[0.07529620125959248, -1.495500125535304, 0.07529620125959248, 0.07529620125959248, 0.07529620125959248, 0.07529620125959248]",0.002,7,1
0,74,"[0.05770896375179291, -1.5135985401323815, 0.057337586079732716, 0.05740921079602046, 0.0575425922870636, 0.05758873000741005]","[0.5057841539382935, 0.4891863167285919, 0.49747762084007263, 0.5056706070899963, 0.5078006386756897, 0.5035487413406372]","[0.07572454974978947, -1.4950717770451072, 0.07572454974978947, 0.07572454974978947, 0.07572454974978947, 0.07572454974978947]","[0.07572454974978947, -1.4950717770451072, 0.07572454974978947, 0.07572454974978947, 0.07572454974978947, 0.07572454974978947]",0.002,7,1
0,75,"[0.0587272010743618, -1.5125919629684468, 0.05838662782777959, 0.05838017045941157, 0.05855802819132805, 0.05863727629184723]","[0.5018784999847412, 0.4878288507461548, 0.4949910640716553, 0.5022274255752563, 0.502907395362854, 0.5004412531852722]","[0.07615277861274017, -1.4946435481821565, 0.07615277861274017, 0.07615277861274017, 0.07615277861274017, 0.07615277861274017]","[0.07615277861274017, -1.4946435481821565, 0.07615277861274017, 0.07615277861274017, 0.07615277861274017, 0.07615277861274017]",0.002,7,1
0,76,"[0.059645816683769226, -1.5115683686784287, 0.05936557451357061, 0.05944757043804927, 0.05955864489078522, 0.059618592262268066]","[0.49833229184150696, 0.4864714741706848, 0.49295204877853394, 0.5011738538742065, 0.5013003945350647, 0.49698445200920105]","[0.07658088717194218, -1.4942154396229543, 0.07658088717194218, 0.07658088717194218, 0.07658088717194218, 0.07658088717194218]","[0.07658088717194218, -1.4942154396229543, 0.07658088717194218, 0.07658088717194218, 0.07658088717194218, 0.07658088717194218]",0.002,7,1
0,77,"[0.060596782714128494, -1.5106091921082516, 0.060340706502096, 0.0603979068943481, 0.06057078018784523, 0.06064752861857414]","[0.496780663728714, 0.48124581575393677, 0.4895625114440918, 0.49894121289253235, 0.49461013078689575, 0.4933513104915619]","[0.07700887475108316, -1.4937874520438135, 0.07700887475108316, 0.07700887475108316, 0.07700887475108316, 0.07700887475108316]","[0.07700887475108316, -1.4937874520438135, 0.07700887475108316, 0.07700887475108316, 0.07700887475108316, 0.07700887475108316]",0.002,7,1
0,78,"[0.061586059629917145, -1.509626780902483, 0.061330620442525685, 0.06141118585552974, 0.06158645078539848, 0.061655547469854355]","[0.4906100928783417, 0.4791707396507263, 0.4852951765060425, 0.49770841002464294, 0.4903848469257355, 0.4892779290676117]","[0.07743674067404187, -1.4933595861208546, 0.07743674067404187, 0.07743674067404187, 0.07743674067404187, 0.07743674067404187]","[0.07743674067404187, -1.4933595861208546, 0.07743674067404187, 0.07743674067404187, 0.07743674067404187, 0.07743674067404187]",0.002,7,1
0,79,"[0.06256525963544846, -1.5086750288358708, 0.06232673326601201, 0.062372012729309034, 0.06259868294000626, 0.06264744699001312]","[0.48704230785369873, 0.4768882989883423, 0.4811341166496277, 0.4933166801929474, 0.4875652492046356, 0.48474717140197754]","[0.07786448426488929, -1.4929318425300073, 0.07786448426488929, 0.07786448426488929, 0.07786448426488929, 0.07786448426488929]","[0.07786448426488929, -1.4929318425300073, 0.07786448426488929, 0.07786448426488929, 0.07786448426488929, 0.07786448426488929]",0.002,7,1
0,80,"[0.06350620090961456, -1.5077082899263878, 0.06327325502504522, 0.06332377969708247, 0.06348805874586105, 0.06357726454734802]","[0.48323678970336914, 0.476032555103302, 0.47831961512565613, 0.4869996905326843, 0.4825989007949829, 0.48059025406837463]","[0.07829210484788961, -1.492504221947007, 0.07829210484788961, 0.07829210484788961, 0.07829210484788961, 0.07829210484788961]","[0.07829210484788961, -1.492504221947007, 0.07829210484788961, 0.07829210484788961, 0.07829210484788961, 0.07829210484788961]",0.002,7,1
0,81,"[0.0644918754696846, -1.5067221906832238, 0.06430417696108037, 0.0642748314091186, 0.06444400548934937, 0.06454724818468094]","[0.47897619009017944, 0.47121328115463257, 0.47558891773223877, 0.48335835337638855, 0.4786789119243622, 0.47651252150535583]","[0.07871960174750138, -1.4920767250473952, 0.07871960174750138, 0.07871960174750138, 0.07871960174750138, 0.07871960174750138]","[0.07871960174750138, -1.4920767250473952, 0.07871960174750138, 0.07871960174750138, 0.07871960174750138, 0.07871960174750138]",0.002,7,1
0,82,"[0.06544122844934464, -1.5057786342552681, 0.06527120271791631, 0.06528310358013911, 0.06546729058027267, 0.0655030682682991]","[0.47602578997612, 0.47012507915496826, 0.4699832797050476, 0.47764986753463745, 0.47480884194374084, 0.4710618853569031]","[0.07914697428837855, -1.491649352506518, 0.07914697428837855, 0.07914697428837855, 0.07914697428837855, 0.07914697428837855]","[0.07914697428837855, -1.491649352506518, 0.07914697428837855, 0.07914697428837855, 0.07914697428837855, 0.07914697428837855]",0.002,7,1
0,83,"[0.06631845235824585, -1.5047990915230294, 0.06614858308901006, 0.0662420231052856, 0.06640822440385818, 0.06637649983167648]","[0.46959927678108215, 0.46794310212135315, 0.46805912256240845, 0.47368553280830383, 0.4687062203884125, 0.46635913848876953]","[0.07957422179537149, -1.4912221049995251, 0.07957422179537149, 0.07957422179537149, 0.07957422179537149, 0.07957422179537149]","[0.07957422179537149, -1.4912221049995251, 0.07957422179537149, 0.07957422179537149, 0.07957422179537149, 0.07957422179537149]",0.002,7,1
0,84,"[0.06723171472549438, -1.5038429734161873, 0.0670855681048792, 0.06722645341839595, 0.0673360601067543, 0.06727830320596695]","[0.46378812193870544, 0.46408167481422424, 0.46134597063064575, 0.47000017762184143, 0.46117091178894043, 0.460209459066391]","[0.08000134359352813, -1.4907949832013685, 0.08000134359352813, 0.08000134359352813, 0.08000134359352813, 0.08000134359352813]","[0.08000134359352813, -1.4907949832013685, 0.08000134359352813, 0.08000134359352813, 0.08000134359352813, 0.08000134359352813]",0.002,7,1
0,85,"[0.0682569071650505, -1.5029143405011673, 0.06804258028139287, 0.06817535936322017, 0.06824903935194016, 0.0682133287191391]","[0.45894449949264526, 0.4610390365123749, 0.45770734548568726, 0.4638034701347351, 0.45792073011398315, 0.4579801559448242]","[0.08042833900809497, -1.4903679877868017, 0.08042833900809497, 0.08042833900809497, 0.08042833900809497, 0.08042833900809497]","[0.08042833900809497, -1.4903679877868017, 0.08042833900809497, 0.08042833900809497, 0.08042833900809497, 0.08042833900809497]",0.002,7,1
0,86,"[0.06912580877542496, -1.5019555550864716, 0.0690239111529749, 0.06911663591351314, 0.06916893273591995, 0.0691235363483429]","[0.45385488867759705, 0.4576253294944763, 0.45354536175727844, 0.4554971754550934, 0.4558447599411011, 0.45234033465385437]","[0.08085520736451816, -1.4899411194303784, 0.08085520736451816, 0.08085520736451816, 0.08085520736451816, 0.08085520736451816]","[0.08085520736451816, -1.4899411194303784, 0.08085520736451816, 0.08085520736451816, 0.08085520736451816, 0.08085520736451816]",0.002,7,1
0,87,"[0.07005811482667923, -1.5009874564460297, 0.06988937059511358, 0.07000641405072017, 0.07004439830780029, 0.07004806399345398]","[0.45116183161735535, 0.45503389835357666, 0.45036840438842773, 0.4479054808616638, 0.45012366771698, 0.4488661289215088]","[0.08128194798844461, -1.489514378806452, 0.08128194798844461, 0.08128194798844461, 0.08128194798844461, 0.08128194798844461]","[0.08128194798844461, -1.489514378806452, 0.08128194798844461, 0.08128194798844461, 0.08128194798844461, 0.08128194798844461]",0.002,7,1
0,88,"[0.07098647207021713, -1.5001764234951516, 0.07077247301210576, 0.07094649850811763, 0.07091301679611206, 0.07087424397468567]","[0.4457031190395355, 0.4520721435546875, 0.4473874568939209, 0.4443284869194031, 0.4430937170982361, 0.44483062624931335]","[0.08170856020572298, -1.4890877665891735, 0.08170856020572298, 0.08170856020572298, 0.08170856020572298, 0.08170856020572298]","[0.08170856020572298, -1.4890877665891735, 0.08170856020572298, 0.08170856020572298, 0.08170856020572298, 0.08170856020572298]",0.002,7,1
0,89,"[0.07180219888687134, -1.499228910808899, 0.07166797319521123, 0.07190088808026118, 0.07183793187141418, 0.07169076055288315]","[0.4380190670490265, 0.4478354752063751, 0.44462355971336365, 0.4420168697834015, 0.4386524260044098, 0.44105392694473267]","[0.0821350433424048, -1.4886612834524917, 0.0821350433424048, 0.0821350433424048, 0.0821350433424048, 0.0821350433424048]","[0.0821350433424048, -1.4886612834524917, 0.0821350433424048, 0.0821350433424048, 0.0821350433424048, 0.0821350433424048]",0.002,7,1
0,90,"[0.07268122583627701, -1.4983170118978997, 0.07260066667665654, 0.07281438886608882, 0.07262606918811798, 0.07258328050374985]","[0.4326481819152832, 0.4437696933746338, 0.43896299600601196, 0.43778422474861145, 0.43451830744743347, 0.4369300901889801]","[0.0825613967247455, -1.488234930070151, 0.0825613967247455, 0.0825613967247455, 0.0825613967247455, 0.0825613967247455]","[0.0825613967247455, -1.488234930070151, 0.0825613967247455, 0.0825613967247455, 0.0825613967247455, 0.0825613967247455]",0.002,7,1
0,91,"[0.0734822079539299, -1.4974285897663613, 0.07340127626527959, 0.07363764821972651, 0.07350916415452957, 0.07340113073587418]","[0.4278732240200043, 0.4383313059806824, 0.43108779191970825, 0.4308133125305176, 0.4276380240917206, 0.43124428391456604]","[0.0829876196792055, -1.4878087071156911, 0.0829876196792055, 0.0829876196792055, 0.0829876196792055, 0.0829876196792055]","[0.0829876196792055, -1.4878087071156911, 0.0829876196792055, 0.0829876196792055, 0.0829876196792055, 0.0829876196792055]",0.002,7,1
0,92,"[0.074336476624012, -1.4965879556587716, 0.07431298891176397, 0.07445375501599116, 0.07432647049427032, 0.07423665374517441]","[0.4217056334018707, 0.4363177716732025, 0.4283123314380646, 0.42164546251296997, 0.4248841106891632, 0.4277230501174927]","[0.08341371153245129, -1.4873826152624452, 0.08341371153245129, 0.08341371153245129, 0.08341371153245129, 0.08341371153245129]","[0.08341371153245129, -1.4873826152624452, 0.08341371153245129, 0.08341371153245129, 0.08341371153245129, 0.08341371153245129]",0.002,7,1
0,93,"[0.07525788992643356, -1.4957198959640046, 0.07517844835390264, 0.07531504213299556, 0.07515968382358551, 0.07507283240556717]","[0.41638365387916565, 0.42771345376968384, 0.4227389991283417, 0.41601333022117615, 0.42184898257255554, 0.42235875129699707]","[0.08383967161135646, -1.48695665518354, 0.08383967161135646, 0.08383967161135646, 0.08383967161135646, 0.08383967161135646]","[0.08383967161135646, -1.48695665518354, 0.08383967161135646, 0.08383967161135646, 0.08383967161135646, 0.08383967161135646]",0.002,7,1
0,94,"[0.07606583833694458, -1.4948723849705239, 0.07600909868349248, 0.07618908464398189, 0.07602293789386749, 0.07585392147302628]","[0.41165947914123535, 0.42438098788261414, 0.4154612421989441, 0.40674450993537903, 0.41663065552711487, 0.41837263107299805]","[0.08426549924300272, -1.4865308275518938, 0.08426549924300272, 0.08426549924300272, 0.08426549924300272, 0.08426549924300272]","[0.08426549924300272, -1.4865308275518938, 0.08426549924300272, 0.08426549924300272, 0.08426549924300272, 0.08426549924300272]",0.002,7,1
0,95,"[0.076883964240551, -1.49400898188863, 0.0767892042743128, 0.07700900613751216, 0.07686565071344376, 0.07675262540578842]","[0.4071429371833801, 0.4199995994567871, 0.4118598699569702, 0.4037320613861084, 0.41172781586647034, 0.41461509466171265]","[0.0846911937546811, -1.4861051330402155, 0.0846911937546811, 0.0846911937546811, 0.0846911937546811, 0.0846911937546811]","[0.0846911937546811, -1.4861051330402155, 0.0846911937546811, 0.0846911937546811, 0.0846911937546811, 0.0846911937546811]",0.002,7,1
0,96,"[0.07766231894493103, -1.4931659412435074, 0.07759315172304326, 0.0778241592594604, 0.07759059965610504, 0.07754383236169815]","[0.4010776877403259, 0.41358381509780884, 0.40821683406829834, 0.3996254801750183, 0.4030079245567322, 0.407283753156662]","[0.08511675447389287, -1.4856795723210037, 0.08511675447389287, 0.08511675447389287, 0.08511675447389287, 0.08511675447389287]","[0.08511675447389287, -1.4856795723210037, 0.08511675447389287, 0.08511675447389287, 0.08511675447389287, 0.08511675447389287]",0.002,7,1
0,97,"[0.07847511023283005, -1.492383712237217, 0.0784218947040003, 0.07861976205792232, 0.07842139154672623, 0.07835494726896286]","[0.39527657628059387, 0.4092617332935333, 0.4005221426486969, 0.39565393328666687, 0.39908933639526367, 0.40257465839385986]","[0.0855421807283507, -1.4852541460665458, 0.0855421807283507, 0.0855421807283507, 0.0855421807283507, 0.0855421807283507]","[0.0855421807283507, -1.4852541460665458, 0.0855421807283507, 0.0855421807283507, 0.0855421807283507, 0.0855421807283507]",0.002,7,1
0,98,"[0.0792495533823967, -1.4915916931680222, 0.07925492921938115, 0.0793505150028686, 0.07916350662708282, 0.0791301280260086]","[0.3913944661617279, 0.4024983048439026, 0.3950360119342804, 0.3880351483821869, 0.394322007894516, 0.3972337245941162]","[0.08596747184597962, -1.484828854948917, 0.08596747184597962, 0.08596747184597962, 0.08596747184597962, 0.08596747184597962]","[0.08596747184597962, -1.484828854948917, 0.08596747184597962, 0.08596747184597962, 0.08596747184597962, 0.08596747184597962]",0.002,7,1
0,99,"[0.07997070252895355, -1.4907883790186425, 0.0799492041217249, 0.08011941492047114, 0.07997013628482819, 0.07998762279748917]","[0.3850477337837219, 0.39717188477516174, 0.38723164796829224, 0.3798062801361084, 0.38932543992996216, 0.3912476897239685]","[0.0863926271549182, -1.4844036996399783, 0.0863926271549182, 0.0863926271549182, 0.0863926271549182, 0.0863926271549182]","[0.0863926271549182, -1.4844036996399783, 0.0863926271549182, 0.0863926271549182, 0.0863926271549182, 0.0863926271549182]",0.002,7,1
0,100,"[0.08078638464212418, -1.4900261548212548, 0.08074313799013311, 0.08082322656597896, 0.08074430376291275, 0.08073494583368301]","[0.3790893852710724, 0.388656347990036, 0.38249319791793823, 0.37422800064086914, 0.38302749395370483, 0.38480082154273987]","[0.08681764598351958, -1.483978680811377, 0.08681764598351958, 0.08681764598351958, 0.08681764598351958, 0.08681764598351958]","[0.08681764598351958, -1.483978680811377, 0.08681764598351958, 0.08681764598351958, 0.08681764598351958, 0.08681764598351958]",0.002,7,1
0,101,"[0.08157006651163101, -1.4892462354949494, 0.08145505586733037, 0.08153574048962398, 0.08145424723625183, 0.0815020203590393]","[0.375674307346344, 0.38420796394348145, 0.37546440958976746, 0.37081974744796753, 0.37858113646507263, 0.37939363718032837]","[0.08724252766035244, -1.4835537991345442, 0.08724252766035244, 0.08724252766035244, 0.08724252766035244, 0.08724252766035244]","[0.08724252766035244, -1.4835537991345442, 0.08724252766035244, 0.08724252766035244, 0.08724252766035244, 0.08724252766035244]",0.002,7,1
0,102,"[0.08232918381690979, -1.488522858624794, 0.08221656480898076, 0.08230189859356685, 0.08220098167657852, 0.08220601826906204]","[0.36911123991012573, 0.3746226727962494, 0.37200409173965454, 0.3671536147594452, 0.3726850748062134, 0.37455958127975464]","[0.08766727151420217, -1.4831290552806944, 0.08766727151420217, 0.08766727151420217, 0.08766727151420217, 0.08766727151420217]","[0.08766727151420217, -1.4831290552806944, 0.08766727151420217, 0.08766727151420217, 0.08766727151420217, 0.08766727151420217]",0.002,7,1
0,103,"[0.08306015282869339, -1.487778165643551, 0.08297187486757451, 0.0830266910740356, 0.08296328037977219, 0.08294454962015152]","[0.3647024631500244, 0.3688388168811798, 0.36514976620674133, 0.36295178532600403, 0.3653007447719574, 0.36719217896461487]","[0.08809187687407186, -1.4827044499208246, 0.08809187687407186, 0.08809187687407186, 0.08809187687407186, 0.08809187687407186]","[0.08809187687407186, -1.4827044499208246, 0.08809187687407186, 0.08809187687407186, 0.08809187687407186, 0.08809187687407186]",0.002,7,1
0,104,"[0.0837455466389656, -1.4870852690986176, 0.08362991014589483, 0.08369605123486323, 0.08360416442155838, 0.08366775512695312]","[0.3589092791080475, 0.3631604313850403, 0.35945457220077515, 0.3578590154647827, 0.3604079782962799, 0.3620324432849884]","[0.0885163430691834, -1.4822799837257132, 0.0885163430691834, 0.0885163430691834, 0.0885163430691834, 0.0885163430691834]","[0.0885163430691834, -1.4822799837257132, 0.0885163430691834, 0.0885163430691834, 0.0885163430691834, 0.0885163430691834]",0.002,7,1
0,105,"[0.08446478098630905, -1.4863408890417595, 0.0843737761126917, 0.08438674985852046, 0.08444152772426605, 0.08438233286142349]","[0.35261398553848267, 0.3567451238632202, 0.35529935359954834, 0.3550863265991211, 0.3551211953163147, 0.35495561361312866]","[0.08894066942897857, -1.481855657365918, 0.08894066942897857, 0.08894066942897857, 0.08894066942897857, 0.08894066942897857]","[0.08894066942897857, -1.481855657365918, 0.08894066942897857, 0.08894066942897857, 0.08894066942897857, 0.08894066942897857]",0.002,7,1
0,106,"[0.08516306430101395, -1.4857129094055672, 0.08506137529482061, 0.0850187975117187, 0.08502919226884842, 0.08512783795595169]","[0.3490705192089081, 0.34969663619995117, 0.34774863719940186, 0.3485840857028961, 0.34987419843673706, 0.34840288758277893]","[0.08936485528312, -1.4814314715117765, 0.08936485528312, 0.08936485528312, 0.08936485528312, 0.08936485528312]","[0.08936485528312, -1.4814314715117765, 0.08936485528312, 0.08936485528312, 0.08936485528312, 0.08936485528312]",0.002,7,1
0,107,"[0.08585100620985031, -1.48496379823003, 0.08575421968568975, 0.08575312673535151, 0.08573102951049805, 0.08582594990730286]","[0.34397226572036743, 0.34072014689445496, 0.34237274527549744, 0.3431386351585388, 0.34545716643333435, 0.3432009220123291]","[0.08978889996149231, -1.4810074268334041, 0.08978889996149231, 0.08978889996149231, 0.08978889996149231, 0.08978889996149231]","[0.08978889996149231, -1.4810074268334041, 0.08978889996149231, 0.08978889996149231, 0.08978889996149231, 0.08978889996149231]",0.002,7,1
0,108,"[0.08656937628984451, -1.4843500715545197, 0.08637696901430303, 0.08639721452679439, 0.08647588640451431, 0.08653012663125992]","[0.33615362644195557, 0.33572542667388916, 0.3328794240951538, 0.33725228905677795, 0.3406471014022827, 0.3369397819042206]","[0.09021280279420313, -1.4805835240006935, 0.09021280279420313, 0.09021280279420313, 0.09021280279420313, 0.09021280279420313]","[0.09021280279420313, -1.4805835240006935, 0.09021280279420313, 0.09021280279420313, 0.09021280279420313, 0.09021280279420313]",0.002,7,1
0,109,"[0.08724343776702881, -1.4836771053126832, 0.08703214326967412, 0.08704177915539546, 0.08710930496454239, 0.08720692992210388]","[0.3319949805736542, 0.3277314007282257, 0.328183650970459, 0.33440572023391724, 0.3306443989276886, 0.33209338784217834]","[0.09063656311158419, -1.4801597636833124, 0.09063656311158419, 0.09063656311158419, 0.09063656311158419, 0.09063656311158419]","[0.09063656311158419, -1.4801597636833124, 0.09063656311158419, 0.09063656311158419, 0.09063656311158419, 0.09063656311158419]",0.002,7,1
0,110,"[0.0879746600985527, -1.483021841650345, 0.0876992384540003, 0.08767394601788325, 0.08775908499956131, 0.0878448635339737]","[0.32740187644958496, 0.3211824893951416, 0.3234458267688751, 0.32926037907600403, 0.3260674774646759, 0.3250226080417633]","[0.09106018024419235, -1.4797361465507042, 0.09106018024419235, 0.09106018024419235, 0.09106018024419235, 0.09106018024419235]","[0.09106018024419235, -1.4797361465507042, 0.09106018024419235, 0.09106018024419235, 0.09106018024419235, 0.09106018024419235]",0.002,7,1
0,111,"[0.08852672576904297, -1.4824451443604012, 0.08836490312685186, 0.08831982194866939, 0.08842508494853973, 0.08851616084575653]","[0.3222523033618927, 0.31577935814857483, 0.3171270787715912, 0.32528725266456604, 0.31925827264785767, 0.31733012199401855]","[0.0914836535228107, -1.4793126732720858, 0.0914836535228107, 0.0914836535228107, 0.0914836535228107, 0.0914836535228107]","[0.0914836535228107, -1.4793126732720858, 0.0914836535228107, 0.0914836535228107, 0.0914836535228107, 0.0914836535228107]",0.002,7,1
0,112,"[0.08919031172990799, -1.4817978304675599, 0.08893376985658819, 0.08890597402539058, 0.0889986902475357, 0.08918986469507217]","[0.3169527053833008, 0.3099847435951233, 0.3148937523365021, 0.32002487778663635, 0.31687432527542114, 0.31367799639701843]","[0.09190698227844955, -1.478889344516447, 0.09190698227844955, 0.09190698227844955, 0.09190698227844955, 0.09190698227844955]","[0.09190698227844955, -1.478889344516447, 0.09190698227844955, 0.09190698227844955, 0.09190698227844955, 0.09190698227844955]",0.002,7,1
0,113,"[0.08974061906337738, -1.4811372023871918, 0.08959895769228154, 0.08955673753704829, 0.08967376500368118, 0.08978312462568283]","[0.30876466631889343, 0.30373314023017883, 0.30818459391593933, 0.31486982107162476, 0.30874043703079224, 0.3075237572193146]","[0.09233016584234753, -1.4784661609525491, 0.09233016584234753, 0.09233016584234753, 0.09233016584234753, 0.09233016584234753]","[0.09233016584234753, -1.4784661609525491, 0.09233016584234753, 0.09233016584234753, 0.09233016584234753, 0.09233016584234753]",0.002,7,1
0,114,"[0.09038500487804413, -1.4805082839778443, 0.0901716391192835, 0.09014384328808589, 0.09032128751277924, 0.0904531180858612]","[0.30418968200683594, 0.2983592450618744, 0.30398187041282654, 0.30830246210098267, 0.3045996129512787, 0.30246469378471375]","[0.09275320354597265, -1.478043123248924, 0.09275320354597265, 0.09275320354597265, 0.09275320354597265, 0.09275320354597265]","[0.09275320354597265, -1.478043123248924, 0.09275320354597265, 0.09275320354597265, 0.09275320354597265, 0.09275320354597265]",0.002,7,1
0,115,"[0.09094008058309555, -1.4799214091948052, 0.09077293077577764, 0.09077219545330806, 0.09090273827314377, 0.0909758061170578]","[0.2970992922782898, 0.29322099685668945, 0.2976848781108856, 0.30308884382247925, 0.29822030663490295, 0.296748548746109]","[0.09317609472102331, -1.4776202320738732, 0.09317609472102331, 0.09317609472102331, 0.09317609472102331, 0.09317609472102331]","[0.09317609472102331, -1.4776202320738732, 0.09317609472102331, 0.09317609472102331, 0.09317609472102331, 0.09317609472102331]",0.002,7,1
0,116,"[0.0915737971663475, -1.4793998089483757, 0.09134465852846319, 0.0913577514835815, 0.09154583513736725, 0.09159422665834427]","[0.2937641441822052, 0.28848522901535034, 0.2913544476032257, 0.2970471978187561, 0.2937425374984741, 0.2922649383544922]","[0.09359883869942948, -1.477197488095467, 0.09359883869942948, 0.09359883869942948, 0.09359883869942948, 0.09359883869942948]","[0.09359883869942948, -1.477197488095467, 0.09359883869942948, 0.09359883869942948, 0.09359883869942948, 0.09359883869942948]",0.002,7,1
0,117,"[0.09212815016508102, -1.478800156419613, 0.09197837511171514, 0.0918993192860107, 0.0921015739440918, 0.09217711538076401]","[0.2885165512561798, 0.28283262252807617, 0.28699496388435364, 0.2916627526283264, 0.2881561517715454, 0.2838200032711029]","[0.09402143481335355, -1.476774891981543, 0.09402143481335355, 0.09402143481335355, 0.09402143481335355, 0.09402143481335355]","[0.09402143481335355, -1.476774891981543, 0.09402143481335355, 0.09402143481335355, 0.09402143481335355, 0.09402143481335355]",0.002,7,1
0,118,"[0.09267845749855042, -1.4782405880144616, 0.09249526659120733, 0.09246758996929927, 0.09267930686473846, 0.09270479530096054]","[0.283740758895874, 0.27779340744018555, 0.28287431597709656, 0.28744062781333923, 0.27932947874069214, 0.27990245819091797]","[0.0944438823951916, -1.476352444399705, 0.0944438823951916, 0.0944438823951916, 0.0944438823951916, 0.0944438823951916]","[0.0944438823951916, -1.476352444399705, 0.0944438823951916, 0.0944438823951916, 0.0944438823951916, 0.0944438823951916]",0.002,7,1
0,119,"[0.0932338610291481, -1.4776316297105332, 0.09307986894716436, 0.09305076181378169, 0.09320588409900665, 0.09328299760818481]","[0.27637550234794617, 0.27281829714775085, 0.2755739390850067, 0.2818478047847748, 0.2767806053161621, 0.2757894992828369]","[0.09486618077757428, -1.4759301460173222, 0.09486618077757428, 0.09486618077757428, 0.09486618077757428, 0.09486618077757428]","[0.09486618077757428, -1.4759301460173222, 0.09486618077757428, 0.09486618077757428, 0.09486618077757428, 0.09486618077757428]",0.002,7,1
0,120,"[0.0937325730919838, -1.4770923641375084, 0.09361344972719365, 0.09360413133587642, 0.09378867596387863, 0.09381832927465439]","[0.27116796374320984, 0.26715415716171265, 0.27265551686286926, 0.2775324583053589, 0.26978567242622375, 0.27017053961753845]","[0.09528832929336797, -1.4755079975015286, 0.09528832929336797, 0.09528832929336797, 0.09528832929336797, 0.09528832929336797]","[0.09528832929336797, -1.4755079975015286, 0.09528832929336797, 0.09528832929336797, 0.09528832929336797, 0.09528832929336797]",0.002,7,1
0,121,"[0.09428880363702774, -1.4766110268286248, 0.09413081804384404, 0.09419946252789302, 0.09431518614292145, 0.09433432668447495]","[0.2658228278160095, 0.2647864520549774, 0.26741456985473633, 0.27374711632728577, 0.2641870081424713, 0.26335176825523376]","[0.09571032727567588, -1.4750859995192207, 0.09571032727567588, 0.09571032727567588, 0.09571032727567588, 0.09571032727567588]","[0.09571032727567588, -1.4750859995192207, 0.09571032727567588, 0.09571032727567588, 0.09571032727567588, 0.09571032727567588]",0.002,7,1
0,122,"[0.09474176168441772, -1.47601933897052, 0.09470206895937139, 0.0946621137806396, 0.09478546679019928, 0.09487418830394745]","[0.26097726821899414, 0.26147928833961487, 0.2642979323863983, 0.26743537187576294, 0.26193854212760925, 0.2581116855144501]","[0.09613217405783886, -1.4746641527370576, 0.09613217405783886, 0.09613217405783886, 0.09613217405783886, 0.09613217405783886]","[0.09613217405783886, -1.4746641527370576, 0.09613217405783886, 0.09613217405783886, 0.09613217405783886, 0.09613217405783886]",0.002,7,1
0,123,"[0.09526955336332321, -1.4755423453501244, 0.09526712099184209, 0.09523109971966548, 0.09537656605243683, 0.09533984214067459]","[0.25663653016090393, 0.2547770142555237, 0.2569364011287689, 0.2618580162525177, 0.2552008032798767, 0.2541625201702118]","[0.09655386897343679, -1.4742424578214597, 0.09655386897343679, 0.09655386897343679, 0.09655386897343679, 0.09655386897343679]","[0.09655386897343679, -1.4742424578214597, 0.09655386897343679, 0.09655386897343679, 0.09655386897343679, 0.09655386897343679]",0.002,7,1
0,124,"[0.09571743756532669, -1.4750294771841546, 0.09579974809755498, 0.09572391092266841, 0.09584249556064606, 0.09584333747625351]","[0.25179213285446167, 0.2493198812007904, 0.252229243516922, 0.2541499137878418, 0.24902783334255219, 0.24739611148834229]","[0.09697541135628937, -1.4738209154386073, 0.09697541135628937, 0.09697541135628937, 0.09697541135628937, 0.09697541135628937]","[0.09697541135628937, -1.4738209154386073, 0.09697541135628937, 0.09697541135628937, 0.09697541135628937, 0.09697541135628937]",0.002,7,1
0,125,"[0.09627876430749893, -1.4744853761843224, 0.09621936479677373, 0.09620670854534907, 0.09636679291725159, 0.09636357426643372]","[0.2445543110370636, 0.24650590121746063, 0.24744980037212372, 0.24894192814826965, 0.24492058157920837, 0.24273549020290375]","[0.0973968005404573, -1.4733995262544393, 0.0973968005404573, 0.0973968005404573, 0.0973968005404573, 0.0973968005404573]","[0.0973968005404573, -1.4733995262544393, 0.0973968005404573, 0.0973968005404573, 0.0973968005404573, 0.0973968005404573]",0.002,7,1
0,126,"[0.09677018970251083, -1.4739771795323868, 0.09671098390688115, 0.09671656667675776, 0.0968373566865921, 0.09685704857110977]","[0.23987692594528198, 0.24216310679912567, 0.2444104105234146, 0.2447579950094223, 0.23895280063152313, 0.23798248171806335]","[0.09781803586024324, -1.4729782909346534, 0.09781803586024324, 0.09781803586024324, 0.09781803586024324, 0.09781803586024324]","[0.09781803586024324, -1.4729782909346534, 0.09781803586024324, 0.09781803586024324, 0.09781803586024324, 0.09781803586024324]",0.002,7,1
0,127,"[0.09721549600362778, -1.4735063847950478, 0.09717876115907842, 0.0972093778797607, 0.09732398390769958, 0.09724043309688568]","[0.23628808557987213, 0.24030224978923798, 0.23790022730827332, 0.2391236126422882, 0.2331112176179886, 0.2329399436712265]","[0.09823911665019303, -1.4725572101447035, 0.09823911665019303, 0.09823911665019303, 0.09823911665019303, 0.09823911665019303]","[0.09823911665019303, -1.4725572101447035, 0.09823911665019303, 0.09823911665019303, 0.09823911665019303, 0.09823911665019303]",0.002,7,1
0,128,"[0.09771574288606644, -1.4730549615672608, 0.09761363664735967, 0.09765629350628657, 0.09773861616849899, 0.09772618114948273]","[0.23043973743915558, 0.23496226966381073, 0.2334030121564865, 0.23384793102741241, 0.23109173774719238, 0.22773316502571106]","[0.09866004224509654, -1.4721362845498, 0.09866004224509654, 0.09866004224509654, 0.09866004224509654, 0.09866004224509654]","[0.09866004224509654, -1.4721362845498, 0.09866004224509654, 0.09866004224509654, 0.09866004224509654, 0.09866004224509654]",0.002,7,1
0,129,"[0.0981341153383255, -1.4725666356137772, 0.09812957445253545, 0.0981113153645019, 0.09818916767835617, 0.09820303320884705]","[0.22712133824825287, 0.2288675606250763, 0.22960905730724335, 0.22830462455749512, 0.22640781104564667, 0.22454433143138885]","[0.09908081197998884, -1.4717155148149077, 0.09908081197998884, 0.09908081197998884, 0.09908081197998884, 0.09908081197998884]","[0.09908081197998884, -1.4717155148149077, 0.09908081197998884, 0.09908081197998884, 0.09908081197998884, 0.09908081197998884]",0.002,7,1
0,130,"[0.098634272813797, -1.4721099969795723, 0.09859878221620733, 0.09860651075329585, 0.09864839911460876, 0.09856381267309189]","[0.22305575013160706, 0.2248172014951706, 0.2240391969680786, 0.22418658435344696, 0.2204461395740509, 0.22028426826000214]","[0.09950142519015123, -1.4712949016047454, 0.09950142519015123, 0.09950142519015123, 0.09950142519015123, 0.09950142519015123]","[0.09950142519015123, -1.4712949016047454, 0.09950142519015123, 0.09950142519015123, 0.09950142519015123, 0.09950142519015123]",0.002,7,1
0,131,"[0.09902863204479218, -1.471688189809658, 0.09903318086733037, 0.09905032693829341, 0.09907839447259903, 0.09904537349939346]","[0.21677646040916443, 0.221111461520195, 0.22132280468940735, 0.21880295872688293, 0.21390603482723236, 0.21681509912014008]","[0.09992188121111227, -1.4708744455837843, 0.09992188121111227, 0.09992188121111227, 0.09992188121111227, 0.09992188121111227]","[0.09992188121111227, -1.4708744455837843, 0.09992188121111227, 0.09992188121111227, 0.09992188121111227, 0.09992188121111227]",0.002,7,1
0,132,"[0.09943488985300064, -1.4712266412428399, 0.09945756593813115, 0.09951870023693843, 0.09951423853635788, 0.09943662583827972]","[0.21574588119983673, 0.21665242314338684, 0.2169172465801239, 0.21382521092891693, 0.21214556694030762, 0.21258914470672607]","[0.10034217937864888, -1.4704541474162476, 0.10034217937864888, 0.10034217937864888, 0.10034217937864888, 0.10034217937864888]","[0.10034217937864888, -1.4704541474162476, 0.10034217937864888, 0.10034217937864888, 0.10034217937864888, 0.10034217937864888]",0.002,7,1
0,133,"[0.09990355372428894, -1.4708112862757226, 0.09985906282533819, 0.09993259489025874, 0.09988118708133698, 0.09983087331056595]","[0.20944936573505402, 0.21266286075115204, 0.21238918602466583, 0.20916049182415009, 0.20828019082546234, 0.20858819782733917]","[0.10076231902878728, -1.4700340077661094, 0.10076231902878728, 0.10076231902878728, 0.10076231902878728, 0.10076231902878728]","[0.10076231902878728, -1.4700340077661094, 0.10076231902878728, 0.10076231902878728, 0.10076231902878728, 0.10076231902878728]",0.002,7,1
0,134,"[0.10032279789447784, -1.4703957971981545, 0.10032159486879522, 0.10031799852337642, 0.10025975853204727, 0.10026876628398895]","[0.204042449593544, 0.20758946239948273, 0.20938104391098022, 0.20451228320598602, 0.20370791852474213, 0.2034139186143875]","[0.10118229949780419, -1.4696140272970923, 0.10118229949780419, 0.10118229949780419, 0.10118229949780419, 0.10118229949780419]","[0.10118229949780419, -1.4696140272970923, 0.10118229949780419, 0.10118229949780419, 0.10118229949780419, 0.10118229949780419]",0.002,7,1
0,135,"[0.10070650279521942, -1.4699764785221596, 0.100715462361471, 0.10077182828869624, 0.10064636170864105, 0.1006384938955307]","[0.20086297392845154, 0.20579054951667786, 0.20524485409259796, 0.20051760971546173, 0.19949975609779358, 0.20023775100708008]","[0.10160212012222773, -1.4691942066726689, 0.10160212012222773, 0.10160212012222773, 0.10160212012222773, 0.10160212012222773]","[0.10160212012222773, -1.4691942066726689, 0.10160212012222773, 0.10160212012222773, 0.10160212012222773, 0.10160212012222773]",0.002,7,1
0,136,"[0.10111396014690399, -1.4695832815817376, 0.10114461580385381, 0.10117046415295405, 0.10107844322919846, 0.10099674016237259]","[0.1961926370859146, 0.20034436881542206, 0.19970761239528656, 0.1968805342912674, 0.19521868228912354, 0.19775614142417908]","[0.10202178023883857, -1.468774546556058, 0.10202178023883857, 0.10202178023883857, 0.10202178023883857, 0.10202178023883857]","[0.10202178023883857, -1.468774546556058, 0.10202178023883857, 0.10202178023883857, 0.10202178023883857, 0.10202178023883857]",0.002,7,1
0,137,"[0.1015467420220375, -1.469159224336483, 0.10154754320253545, 0.10157565652813716, 0.10146614909172058, 0.1014346107840538]","[0.19282610714435577, 0.19487491250038147, 0.19668343663215637, 0.19218997657299042, 0.192413330078125, 0.19380336999893188]","[0.10244127918467097, -1.4683550476102256, 0.10244127918467097, 0.10244127918467097, 0.10244127918467097, 0.10244127918467097]","[0.10244127918467097, -1.4683550476102256, 0.10244127918467097, 0.10244127918467097, 0.10244127918467097, 0.10244127918467097]",0.002,7,1
0,138,"[0.10188858956098557, -1.468796232049801, 0.10188085237611944, 0.1019560533710937, 0.10186123847961426, 0.10174518823623657]","[0.18922390043735504, 0.19098196923732758, 0.19110926985740662, 0.18718959391117096, 0.18964619934558868, 0.1900213211774826]","[0.10286061629701376, -1.4679357104978827, 0.10286061629701376, 0.10286061629701376, 0.10286061629701376, 0.10286061629701376]","[0.10286061629701376, -1.4679357104978827, 0.10286061629701376, 0.10286061629701376, 0.10286061629701376, 0.10286061629701376]",0.002,7,1
0,139,"[0.10231709480285645, -1.4684439462474366, 0.1023181120501917, 0.10227386533703609, 0.10222341865301132, 0.10215695947408676]","[0.1860501915216446, 0.18838149309158325, 0.18754267692565918, 0.18308709561824799, 0.18568302690982819, 0.18785057961940765]","[0.10327979091341144, -1.4675165358814852, 0.10327979091341144, 0.10327979091341144, 0.10327979091341144, 0.10327979091341144]","[0.10327979091341144, -1.4675165358814852, 0.10327979091341144, 0.10327979091341144, 0.10327979091341144, 0.10327979091341144]",0.002,7,1
0,140,"[0.10268086194992065, -1.4681229156306763, 0.10266763368715459, 0.1027042108723144, 0.10256204009056091, 0.10251224786043167]","[0.1836491823196411, 0.18657778203487396, 0.18408600986003876, 0.1795496791601181, 0.1814180463552475, 0.1835455745458603]","[0.10369880237166522, -1.4670975244232314, 0.10369880237166522, 0.10369880237166522, 0.10369880237166522, 0.10369880237166522]","[0.10369880237166522, -1.4670975244232314, 0.10369880237166522, 0.10369880237166522, 0.10369880237166522, 0.10369880237166522]",0.002,7,1
0,141,"[0.10299145430326462, -1.467803069656231, 0.10304862657655889, 0.10304836809124751, 0.10292147845029831, 0.10284353047609329]","[0.17812755703926086, 0.18402217328548431, 0.1808646023273468, 0.1776614487171173, 0.17864494025707245, 0.18042901158332825]","[0.10411765000983408, -1.4666786767850626, 0.10411765000983408, 0.10411765000983408, 0.10411765000983408, 0.10411765000983408]","[0.10411765000983408, -1.4666786767850626, 0.10411765000983408, 0.10411765000983408, 0.10411765000983408, 0.10411765000983408]",0.002,7,1
0,142,"[0.10332993417978287, -1.4674761828831215, 0.10335904756654912, 0.10343031465496821, 0.10323609411716461, 0.1032424047589302]","[0.17430630326271057, 0.1773912012577057, 0.17690639197826385, 0.17281575500965118, 0.173722043633461, 0.17715533077716827]","[0.10453633316623578, -1.4662599936286607, 0.10453633316623578, 0.10453633316623578, 0.10453633316623578, 0.10453633316623578]","[0.10453633316623578, -1.4662599936286607, 0.10453633316623578, 0.10453633316623578, 0.10453633316623578, 0.10453633316623578]",0.002,7,1
0,143,"[0.10367769747972488, -1.4670958307436486, 0.10377389589418584, 0.10378329336132808, 0.10356362909078598, 0.10354794561862946]","[0.17280316352844238, 0.1735270917415619, 0.1753055900335312, 0.16853179037570953, 0.17085762321949005, 0.17300456762313843]","[0.10495485117944792, -1.4658414756154485, 0.10495485117944792, 0.10495485117944792, 0.10495485117944792, 0.10495485117944792]","[0.10495485117944792, -1.4658414756154485, 0.10495485117944792, 0.10495485117944792, 0.10495485117944792, 0.10495485117944792]",0.002,7,1
0,144,"[0.10400423407554626, -1.4667750310948868, 0.10406047502626592, 0.1041077810474853, 0.10389774292707443, 0.10389574617147446]","[0.16740241646766663, 0.16975319385528564, 0.16964372992515564, 0.16584868729114532, 0.16866034269332886, 0.1692965030670166]","[0.10537320338830898, -1.4654231234065875, 0.10537320338830898, 0.10537320338830898, 0.10537320338830898, 0.10537320338830898]","[0.10537320338830898, -1.4654231234065875, 0.10537320338830898, 0.10537320338830898, 0.10537320338830898, 0.10537320338830898]",0.002,7,1
0,145,"[0.10439353436231613, -1.4664557737163086, 0.1043623129474085, 0.10440902292218013, 0.10421223193407059, 0.10415363311767578]","[0.16379591822624207, 0.16432541608810425, 0.16603821516036987, 0.16351988911628723, 0.16540388762950897, 0.16791017353534698]","[0.10579138913191942, -1.4650049376629772, 0.10579138913191942, 0.10579138913191942, 0.10579138913191942, 0.10579138913191942]","[0.10579138913191942, -1.4650049376629772, 0.10579138913191942, 0.10579138913191942, 0.10579138913191942, 0.10579138913191942]",0.002,7,1
0,146,"[0.10472147166728973, -1.4660990622690697, 0.10468656221498662, 0.1047624784656982, 0.10465586185455322, 0.10451961308717728]","[0.16246260702610016, 0.16336852312088013, 0.16333220899105072, 0.16009674966335297, 0.16317658126354218, 0.16524194180965424]","[0.10620940774964259, -1.464586919045254, 0.10620940774964259, 0.10620940774964259, 0.10620940774964259, 0.10620940774964259]","[0.10620940774964259, -1.464586919045254, 0.10620940774964259, 0.10620940774964259, 0.10620940774964259, 0.10620940774964259]",0.002,7,1
0,147,"[0.10497495532035828, -1.465853014295437, 0.10505181947817022, 0.10508255540814204, 0.10488828271627426, 0.10484150052070618]","[0.15911726653575897, 0.15948490798473358, 0.16035650670528412, 0.15505893528461456, 0.15978805720806122, 0.16276420652866364]","[0.10662725858110593, -1.4641690682137907, 0.10662725858110593, 0.10662725858110593, 0.10662725858110593, 0.10662725858110593]","[0.10662725858110593, -1.4641690682137907, 0.10662725858110593, 0.10662725858110593, 0.10662725858110593, 0.10662725858110593]",0.002,7,1
0,148,"[0.1053253784775734, -1.4655456405929108, 0.1053383986102503, 0.10539023458447261, 0.1051582619547844, 0.10519573092460632]","[0.15676264464855194, 0.15875506401062012, 0.15746329724788666, 0.15356366336345673, 0.1572125107049942, 0.1597461849451065]","[0.10704494096620197, -1.4637513858286946, 0.10704494096620197, 0.10704494096620197, 0.10704494096620197, 0.10704494096620197]","[0.10704494096620197, -1.4637513858286946, 0.10704494096620197, 0.10704494096620197, 0.10704494096620197, 0.10704494096620197]",0.002,7,1
