Arnibjarnst/BoxLift/logs/ur_rtde/trajectory_dur=5.0_delay=0.2_gain=200_lh=0.05_real.csv
arm_idx,step,actual_q,actual_qd,target_q,expected_q,loop_time,robot_mode,safety_mode
0,-1,"[0.04434489458799362, -1.5264873516610642, 0.04436380067934209, 0.044423266048095655, 0.04446618631482124, 0.04435504972934723]","[-0.04254951700568199, -0.04590661823749542, -0.045262742787599564, -0.04013466089963913, -0.04166439175605774, -0.0415160171687603]","[0.0, -1.5707963267948966, 0.0, 0.0, 0.0, 0.0]","[0.0, -1.5707963267948966, 0.0, 0.0, 0.0, 0.0]",0.002,7,1
0,-1,"[0.043495867401361465, -1.5273642104915162, 0.043517414723531544, 0.04357676088299556, 0.04372142627835274, 0.0436236709356308]","[-0.057845339179039, -0.060923982411623, -0.05953128635883331, -0.056606557220220566, -0.0575065091252327, -0.05698562413454056]","[0.0, -1.5707963267948966, 0.0, 0.0, 0.0, 0.0]","[0.0, -1.5707963267948966, 0.0, 0.0, 0.0, 0.0]",0.002,7,1
0,-1,"[0.04305453598499298, -1.5278512214175244, 0.04308492342104131, 0.04308728754010005, 0.04314097389578819, 0.04310757294297218]","[-0.06571794301271439, -0.06683947890996933, -0.06762485951185226, -0.06584903597831726, -0.06871845573186874, -0.06714566051959991]","[0.0, -1.5707963267948966, 0.0, 0.0, 0.0, 0.0]","[0.0, -1.5707963267948966, 0.0, 0.0, 0.0, 0.0]",0.002,7,1
0,-1,"[0.042147308588027954, -1.5287916746786614, 0.042188469563619435, 0.04219810544934077, 0.04231136664748192, 0.04231305792927742]","[-0.07861366122961044, -0.07822820544242859, -0.07797335088253021, -0.07950511574745178, -0.07999377697706223, -0.08035191148519516]","[0.0, -1.5707963267948966, 0.0, 0.0, 0.0, 0.0]","[0.0, -1.5707963267948966, 0.0, 0.0, 0.0, 0.0]",0.002,7,1
0,-1,"[0.04108743369579315, -1.529744317089655, 0.041130844746724904, 0.04115430891003413, 0.041309911757707596, 0.041223250329494476]","[-0.09038642793893814, -0.08915501832962036, -0.08952649682760239, -0.09022879600524902, -0.09216531366109848, -0.09297576546669006]","[0.0, -1.5707963267948966, 0.0, 0.0, 0.0, 0.0]","[0.0, -1.5707963267948966, 0.0, 0.0, 0.0, 0.0]",0.002,7,1
0,-1,"[0.0376085601747036, -1.5331342679313202, 0.03769380251039678, 0.03762058793988032, 0.037720710039138794, 0.03778225556015968]","[-0.12341485917568207, -0.12267854064702988, -0.1225002184510231, -0.12014815211296082, -0.12475839257240295, -0.1267121583223343]","[0.0, -1.5707963267948966, 0.0, 0.0, 0.0, 0.0]","[0.0, -1.5707963267948966, 0.0, 0.0, 0.0, 0.0]",0.002,7,1
0,-1,"[0.03464626893401146, -1.5360370849123974, 0.034704033528463185, 0.03465239583935542, 0.03478548675775528, 0.034790221601724625]","[-0.14265656471252441, -0.14358896017074585, -0.14301662147045135, -0.14053331315517426, -0.14612479507923126, -0.14543740451335907]","[0.0, -1.5707963267948966, 0.0, 0.0, 0.0, 0.0]","[0.0, -1.5707963267948966, 0.0, 0.0, 0.0, 0.0]",0.002,7,1
0,-1,"[0.032809559255838394, -1.5378457506052037, 0.032904926930562794, 0.032787485713623, 0.03293037787079811, 0.03297470510005951]","[-0.15634295344352722, -0.15715999901294708, -0.1562800109386444, -0.15413762629032135, -0.15854735672473907, -0.1566036194562912]","[0.0, -1.5707963267948966, 0.0, 0.0, 0.0, 0.0]","[0.0, -1.5707963267948966, 0.0, 0.0, 0.0, 0.0]",0.002,7,1
0,-1,"[0.030876003205776215, -1.5398312427899619, 0.030906025563375294, 0.03089575349774165, 0.030908821150660515, 0.030953865498304367]","[-0.16619738936424255, -0.1686176061630249, -0.16677968204021454, -0.16483519971370697, -0.1701170653104782, -0.1684170663356781]","[0.0, -1.5707963267948966, 0.0, 0.0, 0.0, 0.0]","[0.0, -1.5707963267948966, 0.0, 0.0, 0.0, 0.0]",0.002,7,1
0,-1,"[0.028844594955444336, -1.5418998350254078, 0.02884227434267217, 0.028808518046997023, 0.028869478031992912, 0.028866713866591454]","[-0.17726245522499084, -0.17743965983390808, -0.17753522098064423, -0.1756516396999359, -0.18047566711902618, -0.18017220497131348]","[0.0, -1.5707963267948966, 0.0, 0.0, 0.0, 0.0]","[0.0, -1.5707963267948966, 0.0, 0.0, 0.0, 0.0]",0.002,7,1
0,-1,"[0.026682648807764053, -1.544215978389122, 0.02660066286195928, 0.026582880611083937, 0.026501525193452835, 0.02656259387731552]","[-0.19325792789459229, -0.19190581142902374, -0.19042213261127472, -0.19055677950382233, -0.19056770205497742, -0.1929706186056137]","[0.0, -1.5707963267948966, 0.0, 0.0, 0.0, 0.0]","[0.0, -1.5707963267948966, 0.0, 0.0, 0.0, 0.0]",0.002,7,1
0,-1,"[0.024315858259797096, -1.5466353383711358, 0.024235073720113576, 0.024252458209655714, 0.024138202890753746, 0.024160420522093773]","[-0.2048293799161911, -0.20108576118946075, -0.20216180384159088, -0.20405176281929016, -0.20269371569156647, -0.20387153327465057]","[0.0, -1.5707963267948966, 0.0, 0.0, 0.0, 0.0]","[0.0, -1.5707963267948966, 0.0, 0.0, 0.0, 0.0]",0.002,7,1
0,-1,"[0.02173864282667637, -1.5490812075189133, 0.0217059294330042, 0.02177850782360835, 0.02163173258304596, 0.021611806005239487]","[-0.2140878289937973, -0.187820702791214, -0.2012132853269577, -0.2131996899843216, -0.20878730714321136, -0.20897413790225983]","[0.0, -1.5707963267948966, 0.0, 0.0, 0.0, 0.0]","[0.0, -1.5707963267948966, 0.0, 0.0, 0.0, 0.0]",0.002,7,1
0,-1,"[0.017831625416874886, -1.5530031074634572, 0.017895046864644826, 0.017965956325195265, 0.01774805597960949, 0.017748301848769188]","[-0.18904118239879608, -0.19340358674526215, -0.18918615579605103, -0.19577738642692566, -0.1875082105398178, -0.18781819939613342]","[0.0, -1.5707963267948966, 0.0, 0.0, 0.0, 0.0]","[0.0, -1.5707963267948966, 0.0, 0.0, 0.0, 0.0]",0.002,7,1
0,-1,"[0.014227117411792278, -1.5565205135247488, 0.014369789754049123, 0.014360113734863234, 0.014255688525736332, 0.01419743336737156]","[-0.1693868786096573, -0.16962742805480957, -0.1708351969718933, -0.17426082491874695, -0.1713416576385498, -0.16933506727218628]","[0.0, -1.5707963267948966, 0.0, 0.0, 0.0, 0.0]","[0.0, -1.5707963267948966, 0.0, 0.0, 0.0, 0.0]",0.002,7,1
0,-1,"[0.011613705195486546, -1.5589888107827683, 0.011772934590474904, 0.011716528529785109, 0.01168957818299532, 0.011662706732749939]","[-0.15285024046897888, -0.15230925381183624, -0.15638859570026398, -0.15362924337387085, -0.15306814014911652, -0.15326684713363647]","[0.0, -1.5707963267948966, 0.0, 0.0, 0.0, 0.0]","[0.0, -1.5707963267948966, 0.0, 0.0, 0.0, 0.0]",0.002,7,1
0,-1,"[0.009360895492136478, -1.5612867868370195, 0.009423081074849904, 0.009330673808715773, 0.00937526486814022, 0.009393641725182533]","[-0.13793624937534332, -0.13811063766479492, -0.13571761548519135, -0.13690011203289032, -0.13709580898284912, -0.13835586607456207]","[0.0, -1.5707963267948966, 0.0, 0.0, 0.0, 0.0]","[0.0, -1.5707963267948966, 0.0, 0.0, 0.0, 0.0]",0.002,7,1
0,-1,"[0.007971713319420815, -1.5625406562215467, 0.008111302052633107, 0.007994337672851515, 0.00807132013142109, 0.008107226341962814]","[-0.12672875821590424, -0.12830467522144318, -0.1273273080587387, -0.12488523870706558, -0.12907177209854126, -0.12965506315231323]","[0.0, -1.5707963267948966, 0.0, 0.0, 0.0, 0.0]","[0.0, -1.5707963267948966, 0.0, 0.0, 0.0, 0.0]",0.002,7,1
0,-1,"[0.00659209256991744, -1.5640329474448045, 0.006643120442525685, 0.006437345142028761, 0.0066468981094658375, 0.0066156163811683655]","[-0.11595069617033005, -0.11700775474309921, -0.11751049011945724, -0.11401335150003433, -0.11716115474700928, -0.11657916009426117]","[0.0, -1.5707963267948966, 0.0, 0.0, 0.0, 0.0]","[0.0, -1.5707963267948966, 0.0, 0.0, 0.0, 0.0]",0.002,7,1
0,-1,"[0.004634443204849958, -1.5660171222737809, 0.004735771809713185, 0.004630728358886671, 0.004695117007941008, 0.004762287251651287]","[-0.09903784841299057, -0.10063641518354416, -0.10025747865438461, -0.09475161880254745, -0.09920071065425873, -0.09849070757627487]","[0.0, -1.5707963267948966, 0.0, 0.0, 0.0, 0.0]","[0.0, -1.5707963267948966, 0.0, 0.0, 0.0, 0.0]",0.002,7,1
0,-1,"[0.0029080347158014774, -1.5678051363541563, 0.002842728291646779, 0.002904220218322706, 0.0030269473791122437, 0.002982643200084567]","[-0.07602278888225555, -0.0816243439912796, -0.07975750416517258, -0.07604587078094482, -0.07657475024461746, -0.07797025144100189]","[0.0, -1.5707963267948966, 0.0, 0.0, 0.0, 0.0]","[0.0, -1.5707963267948966, 0.0, 0.0, 0.0, 0.0]",0.002,7,1
0,-1,"[0.002057650126516819, -1.5686506217210372, 0.0020735899554651382, 0.0020441251942138194, 0.002123811049386859, 0.002111569046974182]","[-0.06486336141824722, -0.06978284567594528, -0.06558229774236679, -0.06250655651092529, -0.06533124297857285, -0.06723321974277496]","[0.0, -1.5707963267948966, 0.0, 0.0, 0.0, 0.0]","[0.0, -1.5707963267948966, 0.0, 0.0, 0.0, 0.0]",0.002,7,1
0,-1,"[0.001308982609771192, -1.5694307925044377, 0.0013116041766565445, 0.001374049777648878, 0.0014892728067934513, 0.00140361615922302]","[-0.05309034511446953, -0.05822908133268356, -0.052719030529260635, -0.05325838550925255, -0.05462568625807762, -0.053446561098098755]","[0.0, -1.5707963267948966, 0.0, 0.0, 0.0, 0.0]","[0.0, -1.5707963267948966, 0.0, 0.0, 0.0, 0.0]",0.002,7,1
0,-1,"[0.0009489705553278327, -1.5698055815049266, 0.000939671193258107, 0.0009538370319823741, 0.001055123982951045, 0.0010201046243309975]","[-0.044872235506772995, -0.0482451356947422, -0.04516294226050377, -0.04450813680887222, -0.046838656067848206, -0.047058966010808945]","[0.0, -1.5707963267948966, 0.0, 0.0, 0.0, 0.0]","[0.0, -1.5707963267948966, 0.0, 0.0, 0.0, 0.0]",0.002,7,1
0,-1,"[0.0005648330552503467, -1.5702539867237029, 0.0005691687213342789, 0.0006238657185058116, 0.0006227731937542558, 0.0006464399048127234]","[-0.03559783473610878, -0.0367099829018116, -0.03598162159323692, -0.036174748092889786, -0.03555390238761902, -0.03517066314816475]","[0.0, -1.5707963267948966, 0.0, 0.0, 0.0, 0.0]","[0.0, -1.5707963267948966, 0.0, 0.0, 0.0, 0.0]",0.002,7,1
0,-1,"[0.00017477391520515084, -1.5706350249132193, 0.0002458731280725601, 0.00024668752636713975, 0.000311005103867501, 0.0003030121442861855]","[-0.02169135957956314, -0.026763472706079483, -0.024204300716519356, -0.022413507103919983, -0.023571211844682693, -0.02268853597342968]","[0.0, -1.5707963267948966, 0.0, 0.0, 0.0, 0.0]","[0.0, -1.5707963267948966, 0.0, 0.0, 0.0, 0.0]",0.002,7,1
0,-1,"[3.395342719159089e-05, -1.5708981953062953, -3.910064697265625e-05, 2.4481410644483503e-05, 5.8858393458649516e-05, 4.2462350393179804e-05]","[-0.003998048137873411, -0.006483146455138922, -0.004664004314690828, -0.00309198466129601, -0.003463427536189556, -0.0040880851447582245]","[0.0, -1.5707963267948966, 0.0, 0.0, 0.0, 0.0]","[0.0, -1.5707963267948966, 0.0, 0.0, 0.0, 0.0]",0.002,7,1
0,-1,"[5.7857272622641176e-05, -1.5709525547423304, -3.7286434235284105e-05, 6.346284832758897e-05, 0.00012029123172396794, 0.00014524557627737522]","[0.0076321824453771114, 0.006846482865512371, 0.006089675705879927, 0.007207332644611597, 0.007370757404714823, 0.004999835509806871]","[0.0, -1.5707963267948966, 0.0, 0.0, 0.0, 0.0]","[0.0, -1.5707963267948966, 0.0, 0.0, 0.0, 0.0]",0.002,7,1
0,-1,"[0.00011679375165840611, -1.5709053478636683, -1.804395105864387e-05, 5.583345379633897e-05, 9.959697490558028e-05, 5.8782101405085996e-05]","[0.0005275451694615185, 0.013905135914683342, 0.0025884145870804787, 7.259424311678586e-11, 6.107178651681977e-10, 0.00021634403674397618]","[0.0, -1.5707963267948966, 0.0, 0.0, 0.0, 0.0]","[0.0, -1.5707963267948966, 0.0, 0.0, 0.0, 0.0]",0.002,7,1
0,-1,"[7.922124495962635e-05, -1.57080139736318, 1.6514454976856996e-05, 5.7144755981397566e-05, 8.26120376586914e-05, 7.063268276397139e-05]","[2.662864482841136e-22, 0.0015745431883260608, 0.0006509950035251677, 0.0004325894406065345, -0.0006766612641513348, 3.3452661620620924e-14]","[0.0, -1.5707963267948966, 0.0, 0.0, 0.0, 0.0]","[0.0, -1.5707963267948966, 0.0, 0.0, 0.0, 0.0]",0.002,7,1
0,-1,"[9.56482908804901e-05, -1.5707906412784105, 7.087389101201325e-05, 1.565992321772569e-05, 1.8358230590820312e-05, 6.757974915672094e-05]","[3.750075076213609e-39, -0.0002792419109027833, 0.00021559004380833358, 4.059185509963127e-14, -0.0007197571685537696, -0.0006103094783611596]","[0.0, -1.5707963267948966, 0.0, 0.0, 0.0, 0.0]","[0.0, -1.5707963267948966, 0.0, 0.0, 0.0, 0.0]",0.002,7,1
0,-1,"[4.426097802934237e-05, -1.5708190403380335, 4.178682436162262e-05, 7.335721936030382e-05, 1.3947486877441406e-05, 6.449954526033252e-05]","[0.0, -0.0004712868540082127, 0.000158597671543248, -0.0005338160553947091, -0.000664943945594132, -0.0010012707207351923]","[0.0, -1.5707963267948966, 0.0, 0.0, 0.0, 0.0]","[0.0, -1.5707963267948966, 0.0, 0.0, 0.0, 0.0]",0.002,7,1
0,-1,"[6.246566772460938e-05, -1.5708171329894007, -1.6478246834594756e-05, 6.167470898432725e-05, 3.4689903259277344e-05, 4.68404105049558e-05]","[0.0, -0.0003496593562886119, 0.00012996770965401083, -0.0005876669310964644, -0.000922280945815146, -0.0010537734488025308]","[0.0, -1.5707963267948966, 0.0, 0.0, 0.0, 0.0]","[0.0, -1.5707963267948966, 0.0, 0.0, 0.0, 0.0]",0.002,7,1
0,-1,"[8.654594421386719e-05, -1.570772442734171, 0.0, -1.7599468566942278e-05, 5.435943603515625e-05, 3.933906555175781e-05]","[0.0, -0.00014310702681541443, 0.00010682724678190425, -0.0005868544685654342, -0.0007498236955143511, -0.0008599023567512631]","[0.0, -1.5707963267948966, 0.0, 0.0, 0.0, 0.0]","[0.0, -1.5707963267948966, 0.0, 0.0, 0.0, 0.0]",0.002,7,1
0,-1,"[6.697177741443738e-05, -1.5707575660965922, 5.418459047490387e-05, 3.640233959956163e-05, 1.3947486877441406e-05, 3.156661841785535e-05]","[0.0, 0.0001569865708006546, 3.0391191103262827e-05, -0.0005100473645143211, -0.0006984116043895483, -0.00105376192368567]","[0.0, -1.5707963267948966, 0.0, 0.0, 0.0, 0.0]","[0.0, -1.5707963267948966, 0.0, 0.0, 0.0, 0.0]",0.002,7,1
0,-1,"[5.652852632920258e-05, -1.570771246428496, 5.0846730367481996e-05, 4.0813083312940535e-05, 5.1021575927734375e-05, 1.2362647794361692e-05]","[0.0, 0.00015517778228968382, 2.3503867851104587e-05, -0.0005974661326035857, -0.0007427030359394848, -0.0007165573770180345]","[0.0, -1.5707963267948966, 0.0, 0.0, 0.0, 0.0]","[0.0, -1.5707963267948966, 0.0, 0.0, 0.0, 0.0]",0.002,7,1
0,-1,"[7.462501525878906e-05, -1.570778537329108, 4.116688863575746e-06, 6.596624340815538e-05, 6.4373016357421875e-06, 4.490322316996753e-05]","[-3.450242002145387e-05, 0.0001134603371610865, 1.8019056732820893e-11, -0.00047980868839658797, -0.0004479414492379874, -0.00043088578968308866]","[0.0, -1.5707963267948966, 0.0, 0.0, 0.0, 0.0]","[0.0, -1.5707963267948966, 0.0, 0.0, 0.0, 0.0]",0.002,7,1
0,-1,"[0.00010764336911961436, -1.5708281002440394, 1.6514454976856996e-05, 1.649438824458116e-05, 9.536744073557202e-06, 4.3852487578988075e-05]","[-2.9426082619465888e-05, 4.772328907921841e-13, 2.5375971095223583e-28, -0.0003566366503946483, -0.0002994257374666631, -0.0003047664067707956]","[0.0, -1.5707963267948966, 0.0, 0.0, 0.0, 0.0]","[0.0, -1.5707963267948966, 0.0, 0.0, 0.0, 0.0]",0.002,7,1
0,-1,"[0.00010763998579932377, -1.5708385906615199, 7.802644838506012e-05, -4.248028137254778e-06, 4.661083221435547e-05, 7.812499461579137e-06]","[-5.0582286348799244e-05, 9.016815733836962e-32, 0.0, -0.0002394552284386009, -0.00023194313689600676, -0.0001767699868651107]","[0.0, -1.5707963267948966, 0.0, 0.0, 0.0, 0.0]","[0.0, -1.5707963267948966, 0.0, 0.0, 0.0, 0.0]",0.002,7,1
0,-1,"[5.7869434385793284e-05, -1.5707860869227552, -1.1963366887357552e-05, -2.9520397522020403e-05, 1.5435218301718123e-05, -5.070363179981996e-06]","[-0.00020088015298824757, -1.790512589540036e-13, -0.0, -0.00016983778914436698, -0.00011445239215390757, -0.0001446649112040177]","[0.0, -1.5707963267948966, 0.0, 0.0, 0.0, 0.0]","[0.0, -1.5707963267948966, 0.0, 0.0, 0.0, 0.0]",0.002,7,1
0,-1,"[7.609219755977392e-05, -1.5707876882682577, 4.5124684469044496e-05, 1.2083644531202253e-05, -3.511110414677887e-05, 1.2344792594376486e-05]","[-0.0004430820408742875, 0.0005236483411863446, -0.0, -0.00015830800111871213, -9.510038216831163e-05, -0.00012221274664625525]","[0.0, -1.5707963267948966, 0.0, 0.0, 0.0, 0.0]","[0.0, -1.5707963267948966, 0.0, 0.0, 0.0, 0.0]",0.002,7,1
0,-1,"[5.960202179267071e-05, -1.5707621048571418, 5.895296205693512e-05, 3.771364178462022e-05, -1.0792409078419496e-05, 1.5240982065733988e-05]","[-0.0004032606375403702, 0.0003098623128607869, -0.0, -0.00013756639964412898, -8.43985253595747e-05, -0.00012509190128184855]","[0.0, -1.5707963267948966, 0.0, 0.0, 0.0, 0.0]","[0.0, -1.5707963267948966, 0.0, 0.0, 0.0, 0.0]",0.002,7,1
0,-1,"[9.278464131057262e-05, -1.5707994900145472, 1.1746083394825746e-05, -4.248028137254778e-06, 8.8562723249197e-05, -4.178682436162262e-05]","[-0.00032098026713356376, -0.00016578029317315668, -0.0, -0.00013139555812813342, -7.220964471343905e-05, -0.00010818998998729512]","[0.0, -1.5707963267948966, 0.0, 0.0, 0.0, 0.0]","[0.0, -1.5707963267948966, 0.0, 0.0, 0.0, 0.0]",0.002,7,1
0,-1,"[7.152295438572764e-05, -1.5708233318724574, 8.885060445606996e-06, -1.1758213378953997e-05, -1.732503072560121e-06, 7.82465940574184e-06]","[-0.00027280967333354056, -0.00020881928503513336, -0.0, -0.00012245697143953294, -8.11936697573401e-05, -0.00010205619037151337]","[0.0, -1.5707963267948966, 0.0, 0.0, 0.0, 0.0]","[0.0, -1.5707963267948966, 0.0, 0.0, 0.0, 0.0]",0.002,7,1
0,-1,"[6.246566772460938e-05, -1.5708261928954066, 3.2726918355763246e-05, 4.224359478754991e-05, -3.2726918355763246e-05, -8.885060445606996e-06]","[-0.0002845371491275728, -0.00016035143926274031, -0.0, -8.757594332564622e-05, -8.436368079856038e-05, -9.166195377474651e-05]","[0.0, -1.5707963267948966, 0.0, 0.0, 0.0, 0.0]","[0.0, -1.5707963267948966, 0.0, 0.0, 0.0, 0.0]",0.002,7,1
0,-1,"[4.7561883548041806e-05, -1.570775794389494, 6.977711812794496e-06, 3.640233959956163e-05, 3.470182491582818e-05, -2.080598940068512e-05]","[-0.0006751719047315419, -7.897293835412711e-05, -0.0, -5.306923256398477e-08, -7.747330528218299e-05, -8.416200580541044e-05]","[0.0, -1.5707963267948966, 0.0, 0.0, 0.0, 0.0]","[0.0, -1.5707963267948966, 0.0, 0.0, 0.0, 0.0]",0.002,7,1
0,-1,"[4.301348599256016e-05, -1.5707484814013988, 4.9893056051075746e-05, -7.34746966557509e-06, 1.5486481061088853e-05, 7.82465940574184e-06]","[-0.0007311611552722752, -1.2374483219796534e-13, -0.0, -1.1445498578573466e-18, -7.971808372531086e-05, -1.2675630545189165e-09]","[0.0, -1.5707963267948966, 0.0, 0.0, 0.0, 0.0]","[0.0, -1.5707963267948966, 0.0, 0.0, 0.0, 0.0]",0.002,7,1
0,-1,"[7.1585632213100325e-06, -1.5708524189391078, 4.178682436162262e-05, -7.34746966557509e-06, 4.371519753476605e-05, -2.9865895406544496e-05]","[-0.00031793530797585845, -5.64607533869748e-38, -0.0, -4.486311842466685e-34, -6.584131915587932e-05, -4.968489541886419e-25]","[0.0, -1.5707963267948966, 0.0, 0.0, 0.0, 0.0]","[0.0, -1.5707963267948966, 0.0, 0.0, 0.0, 0.0]",0.002,7,1
0,-1,"[1.4543533325195312e-05, -1.570755733850394, 3.2726918355763246e-05, 2.0785922668409285e-05, -8.32716571252945e-05, -3.8448964254200746e-05]","[2.091183226582416e-09, 0.0, -0.0, -1.485376372184306e-43, -5.894213609280996e-05, -1.6411581727058825e-34]","[0.0, -1.5707963267948966, 0.0, 0.0, 0.0, 0.0]","[0.0, -1.5707963267948966, 0.0, 0.0, 0.0, 0.0]",0.002,7,1
0,-1,"[4.299536158214323e-05, -1.5708214245238246, 3.2726918355763246e-05, -2.0460491516161028e-05, 9.52794016484404e-06, -2.9865895406544496e-05]","[6.775184934515634e-17, 0.0, -0.0, -0.0, -5.600773874903098e-05, -2.982726839746268e-39]","[0.0, -1.5707963267948966, 0.0, 0.0, 0.0, 0.0]","[0.0, -1.5707963267948966, 0.0, 0.0, 0.0, 0.0]",0.002,7,1
0,-1,"[9.992359991883859e-06, -1.5707740016044518, 6.977711812794496e-06, -2.057970080571181e-05, 6.4373016357421875e-06, -2.652803529912262e-05]","[2.9449823106444855e-26, 0.00013664070866070688, -0.0, -0.0, -5.272653652355075e-05, -4.203895392974451e-45]","[0.0, -1.5707963267948966, 0.0, 0.0, 0.0, 0.0]","[0.0, -1.5707963267948966, 0.0, 0.0, 0.0, 0.0]",0.002,7,1
0,-1,"[2.366126500419341e-05, -1.5707575626441503, -2.105958446918521e-05, -2.5109653808641497e-05, 1.1036872820113786e-05, 2.8568352718139067e-05]","[9.541396728483311e-34, 0.00017645260959398001, -0.0, -0.0, -6.0427963035181165e-05, -0.0]","[0.0, -1.5707963267948966, 0.0, 0.0, 0.0, 0.0]","[0.0, -1.5707963267948966, 0.0, 0.0, 0.0, 0.0]",0.002,7,1
0,-1,"[-1.4130269185841371e-05, -1.5707994900145472, 4.178682436162262e-05, 4.573459289503035e-06, 6.4189534896286204e-06, -4.8939381734669496e-05]","[4.1478434544014585e-43, 0.00012891055666841567, -0.0, -0.0, -2.1429313878940093e-09, -0.0]","[0.0, -1.5707963267948966, 0.0, 0.0, 0.0, 0.0]","[0.0, -1.5707963267948966, 0.0, 0.0, 0.0, 0.0]",0.002,7,1
0,-1,"[2.6226043701171875e-06, -1.5707975826659144, 5.418459047490387e-05, -5.7534580566454e-05, -6.024037496388246e-06, -1.3176594869435121e-05]","[0.0, 9.65721410466358e-05, -0.0, -0.0, -1.66036192414176e-16, -0.0]","[0.0, -1.5707963267948966, 0.0, 0.0, 0.0, 0.0]","[0.0, -1.5707963267948966, 0.0, 0.0, 0.0, 0.0]",0.002,7,1
0,-1,"[-2.3190175191700746e-05, -1.5707860869227552, 3.2726918355763246e-05, 3.7832851074171e-05, 6.4373016357421875e-06, 7.79481342760846e-06]","[0.0, 6.318196632548734e-09, -0.0, -0.0, -3.580920834570053e-27, -0.0]","[0.0, -1.5707963267948966, 0.0, 0.0, 0.0, 0.0]","[0.0, -1.5707963267948966, 0.0, 0.0, 0.0, 0.0]",0.002,7,1
0,-1,"[2.6574678486213088e-05, -1.5708190403380335, 1.6514454976856996e-05, 3.34221073607921e-05, 6.4373016357421875e-06, 1.966355375770945e-05]","[0.0, 4.943325044670659e-22, -0.0, -0.0, -1.8115696691006486e-35, -0.0]","[0.0, -1.5707963267948966, 0.0, 0.0, 0.0, 0.0]","[0.0, -1.5707963267948966, 0.0, 0.0, 0.0, 0.0]",0.002,7,1
0,-1,"[1.904964301502332e-05, -1.5708190403380335, 7.087389101201325e-05, 2.5315875671338972e-05, -1.732503072560121e-06, 7.812499461579137e-06]","[0.0, 5.188927050187744e-37, -0.0, -0.0, -5.605193857299268e-45, -0.0]","[0.0, -1.5707963267948966, 0.0, 0.0, 0.0, 0.0]","[0.0, -1.5707963267948966, 0.0, 0.0, 0.0, 0.0]",0.002,7,1
0,-1,"[2.083025719912257e-05, -1.5708114109435023, 6.181398500615387e-05, -8.777981140184465e-06, -1.732503072560121e-06, 0.0]","[0.0, 0.0, -0.0, -0.0, -0.0, -0.0]","[0.0, -1.5707963267948966, 0.0, 0.0, 0.0, 0.0]","[0.0, -1.5707963267948966, 0.0, 0.0, 0.0, 0.0]",0.002,7,1
0,-1,"[1.904964301502332e-05, -1.5708161793150843, 2.9865895406544496e-05, -6.063402209477431e-05, 1.5459536371054128e-05, 3.3467908906459343e-06]","[0.0, 0.0, -0.0, -0.0, -0.0, -0.0]","[0.0, -1.5707963267948966, 0.0, 0.0, 0.0, 0.0]","[0.0, -1.5707963267948966, 0.0, 0.0, 0.0, 0.0]",0.002,7,1
0,-1,"[6.414410745492205e-05, -1.5707951802076714, -2.5604669644962996e-05, 5.273401226801866e-05, 6.449031934607774e-05, 2.8568352718139067e-05]","[0.0, 0.0, -0.0, -0.0, -0.0, -0.0]","[0.0, -1.5707963267948966, 0.0, 0.0, 0.0, 0.0]","[0.0, -1.5707963267948966, 0.0, 0.0, 0.0, 0.0]",0.002,7,1
0,-1,"[2.613549895613687e-06, -1.5707769244966876, -1.1987447578576393e-05, 2.9607410095167097e-05, 1.5459536371054128e-05, -2.5097523824513246e-05]","[0.0, 0.0, -0.0, -0.0, -0.0, -0.0]","[0.0, -1.5707963267948966, 0.0, 0.0, 0.0, 0.0]","[0.0, -1.5707963267948966, 0.0, 0.0, 0.0, 0.0]",0.002,7,1
0,-1,"[4.7579960664734244e-05, -1.5707649203580623, -1.650547892495524e-05, 2.0905131957960066e-05, -2.652803529912262e-05, 3.594476584112272e-05]","[0.0, 0.0, -0.0, -0.0, -0.0, -0.0]","[0.0, -1.5707963267948966, 0.0, 0.0, 0.0, 0.0]","[0.0, -1.5707963267948966, 0.0, 0.0, 0.0, 0.0]",0.002,7,1
0,1,"[-2.3190175191700746e-05, -1.5708114109435023, 2.7958546773731996e-05, -3.238142047123915e-05, 1.5459536371054128e-05, 0.0]","[0.0, 4.6042729081818834e-05, -0.0, -0.0, -0.0, -0.0]","[0.08765894793109064, -1.4831373788638058, 0.08765894793109064, 0.08765894793109064, 0.08765894793109064, 0.08765894793109064]","[0.08765894793109064, -1.4831373788638058, 0.08765894793109064, 0.08765894793109064, 0.08765894793109064, 0.08765894793109064]",0.002,7,1
0,2,"[4.60267074231524e-05, -1.5705095952765369, 0.0002282301532190445, 0.00015561162915034288, 0.00019630123279057443, 0.0002480761904735118]","[0.06300728023052216, 0.2811712324619293, 0.19889062643051147, 0.11014203727245331, 0.08719742298126221, 0.09493319690227509]","[0.08850819476859928, -1.4822881320262973, 0.08850819476859928, 0.08850819476859928, 0.08850819476859928, 0.08850819476859928]","[0.08850819476859928, -1.4822881320262973, 0.08850819476859928, 0.08850819476859928, 0.08850819476859928, 0.08850819476859928]",0.002,7,1
0,3,"[4.60267074231524e-05, -1.5705095952765369, 0.0002282301532190445, 0.00015561162915034288, 0.00019630123279057443, 0.0002480761904735118]","[0.06300728023052216, 0.2811712324619293, 0.19889062643051147, 0.11014203727245331, 0.08719742298126221, 0.09493319690227509]","[0.08935688209272531, -1.4814394447021713, 0.08935688209272531, 0.08935688209272531, 0.08935688209272531, 0.08935688209272531]","[0.08935688209272531, -1.4814394447021713, 0.08935688209272531, 0.08935688209272531, 0.08935688209272531, 0.08935688209272531]",0.002,7,1
0,4,"[0.0001316523557761684, -1.5699985176655282, 0.0005005041705530289, 0.00039224206890864366, 0.0005136073450557888, 0.0005045714206062257]","[0.08632459491491318, 0.375909686088562, 0.24372272193431854, 0.17276687920093536, 0.1456734836101532, 0.15635760128498077]","[0.09020500453840717, -1.4805913222564895, 0.09020500453840717, 0.09020500453840717, 0.09020500453840717, 0.09020500453840717]","[0.09020500453840717, -1.4805913222564895, 0.09020500453840717, 0.09020500453840717, 0.09020500453840717, 0.09020500453840717]",0.002,7,1
0,5,"[0.0004200069815851748, -1.5693174000228574, 0.0010102430926721695, 0.0005990701862792491, 0.0008362424559891224, 0.0008119125268422067]","[0.11182961612939835, 0.4236026406288147, 0.25061658024787903, 0.19309468567371368, 0.17319706082344055, 0.18441693484783173]","[0.09105255674415423, -1.4797437700507423, 0.09105255674415423, 0.09105255674415423, 0.09105255674415423, 0.09105255674415423]","[0.09105255674415423, -1.4797437700507423, 0.09105255674415423, 0.09105255674415423, 0.09105255674415423, 0.09105255674415423]",0.002,7,1
0,6,"[0.0007501549553126097, -1.5683765572360535, 0.0015237967120569351, 0.0008840995975951671, 0.0012433869997039437, 0.0012543336488306522]","[0.14689765870571136, 0.44469013810157776, 0.2613884508609772, 0.19600805640220642, 0.19804196059703827, 0.20112138986587524]","[0.09189953335208066, -1.4788967934428159, 0.09189953335208066, 0.09189953335208066, 0.09189953335208066, 0.09189953335208066]","[0.09189953335208066, -1.4788967934428159, 0.09189953335208066, 0.09189953335208066, 0.09189953335208066, 0.09189953335208066]",0.002,7,1
0,7,"[0.0014676060527563095, -1.5676587575911363, 0.0021784941302698257, 0.0014092165180663585, 0.0015949048101902008, 0.0017035319469869137]","[0.19127783179283142, 0.44612663984298706, 0.2964274287223816, 0.21556252241134644, 0.226223886013031, 0.22515933215618134]","[0.0927459290079393, -1.4780503977869572, 0.0927459290079393, 0.0927459290079393, 0.0927459290079393, 0.0927459290079393]","[0.0927459290079393, -1.4780503977869572, 0.0927459290079393, 0.0927459290079393, 0.0927459290079393, 0.0927459290079393]",0.002,7,1
0,8,"[0.0021455453243106604, -1.5670860198191185, 0.0030329863177698257, 0.0023900705524901866, 0.0019350337097421288, 0.002162812277674675]","[0.2427045851945877, 0.4267323315143585, 0.3326230049133301, 0.2534193992614746, 0.25322863459587097, 0.2532918453216553]","[0.09359173836115567, -1.4772045884337408, 0.09359173836115567, 0.09359173836115567, 0.09359173836115567, 0.09359173836115567]","[0.09359173836115567, -1.4772045884337408, 0.09359173836115567, 0.09359173836115567, 0.09359173836115567, 0.09359173836115567]",0.002,7,1
0,9,"[0.002666095271706581, -1.5664605109817167, 0.003735844288961232, 0.003248258227966261, 0.0025102426297962666, 0.0026917457580566406]","[0.29908326268196106, 0.367449015378952, 0.3419070243835449, 0.30460187792778015, 0.2758849561214447, 0.2831771671772003]","[0.09443695606486147, -1.476359370730035, 0.09443695606486147, 0.09443695606486147, 0.09443695606486147, 0.09443695606486147]","[0.09443695606486147, -1.476359370730035, 0.09443695606486147, 0.09443695606486147, 0.09443695606486147, 0.09443695606486147]",0.002,7,1
0,10,"[0.0033252588473260403, -1.5658407260528584, 0.0040200392352502945, 0.0037215191074828624, 0.0029886565171182156, 0.0033406284637749195]","[0.3483353853225708, 0.3163641095161438, 0.3119141757488251, 0.34776753187179565, 0.3047085702419281, 0.31381991505622864]","[0.09528157677592872, -1.4755147500189678, 0.09528157677592872, 0.09528157677592872, 0.09528157677592872, 0.09528157677592872]","[0.09528157677592872, -1.4755147500189678, 0.09528157677592872, 0.09528157677592872, 0.09528157677592872, 0.09528157677592872]",0.002,7,1
0,11,"[0.0039759473875164986, -1.565397555274405, 0.004597012196676076, 0.004393740291259718, 0.0038491063751280308, 0.004090719390660524]","[0.3645144999027252, 0.29778987169265747, 0.2872389554977417, 0.3595603108406067, 0.3293621242046356, 0.3403257727622986]","[0.09612559515500335, -1.4746707316398933, 0.09612559515500335, 0.09612559515500335, 0.09612559515500335, 0.09612559515500335]","[0.09612559515500335, -1.4746707316398933, 0.09612559515500335, 0.09612559515500335, 0.09612559515500335, 0.09612559515500335]",0.002,7,1
0,12,"[0.0047613815404474735, -1.5648755112527688, 0.005097691212789357, 0.004715843791625929, 0.00480945548042655, 0.004827158059924841]","[0.3834283649921417, 0.2835962772369385, 0.337733656167984, 0.36293894052505493, 0.37174826860427856, 0.3691101372241974]","[0.09696900586653895, -1.4738273209283577, 0.09696900586653895, 0.09696900586653895, 0.09696900586653895, 0.09696900586653895]","[0.09696900586653895, -1.4738273209283577, 0.09696900586653895, 0.09696900586653895, 0.09696900586653895, 0.09696900586653895]",0.002,7,1
0,13,"[0.005557574797421694, -1.564257030175515, 0.005775276814595998, 0.005233927364013624, 0.005619368981570005, 0.005629056598991156]","[0.4071483016014099, 0.28027716279029846, 0.36804836988449097, 0.36524322628974915, 0.41464653611183167, 0.3967265486717224]","[0.09781180357883058, -1.4729845232160659, 0.09781180357883058, 0.09781180357883058, 0.09781180357883058, 0.09781180357883058]","[0.09781180357883058, -1.4729845232160659, 0.09781180357883058, 0.09781180357883058, 0.09781180357883058, 0.09781180357883058]",0.002,7,1
0,14,"[0.006321509834378958, -1.5636933513781806, 0.006627384816304982, 0.006184025401733351, 0.006478264462202787, 0.006482101045548916]","[0.43320131301879883, 0.3445342481136322, 0.38803625106811523, 0.37970519065856934, 0.4449004828929901, 0.421913743019104]","[0.09865398296404841, -1.472142343830848, 0.09865398296404841, 0.09865398296404841, 0.09865398296404841, 0.09865398296404841]","[0.09865398296404841, -1.472142343830848, 0.09865398296404841, 0.09865398296404841, 0.09865398296404841, 0.09865398296404841]",0.002,7,1
0,15,"[0.007262572646141052, -1.562960941610374, 0.007573429738179982, 0.007146401996276808, 0.007401844020932913, 0.007315278518944979]","[0.4568847119808197, 0.3915691077709198, 0.42486125230789185, 0.4250198304653168, 0.46871012449264526, 0.45258402824401855]","[0.0994955386982715, -1.4713007880966251, 0.0994955386982715, 0.0994955386982715, 0.0994955386982715, 0.0994955386982715]","[0.0994955386982715, -1.4713007880966251, 0.0994955386982715, 0.0994955386982715, 0.0994955386982715, 0.0994955386982715]",0.002,7,1
0,16,"[0.008311309851706028, -1.5620546501925965, 0.008535210286275685, 0.008345409030578566, 0.0081609096378088, 0.008276076056063175]","[0.4859931170940399, 0.41187727451324463, 0.46089407801628113, 0.47669246792793274, 0.48395833373069763, 0.48068559169769287]","[0.10033646546152125, -1.4704598613333753, 0.10033646546152125, 0.10033646546152125, 0.10033646546152125, 0.10033646546152125]","[0.10033646546152125, -1.4704598613333753, 0.10033646546152125, 0.10033646546152125, 0.10033646546152125, 0.10033646546152125]",0.002,7,1
0,17,"[0.009485979564487934, -1.5611457985690613, 0.009591404591695607, 0.009629889125488234, 0.009318054653704166, 0.009254725649952888]","[0.5173425078392029, 0.43845945596694946, 0.4872317314147949, 0.5233910083770752, 0.501389741897583, 0.506404459476471]","[0.10117675793779526, -1.4696195688571012, 0.10117675793779526, 0.10117675793779526, 0.10117675793779526, 0.10117675793779526]","[0.10117675793779526, -1.4696195688571012, 0.10117675793779526, 0.10117675793779526, 0.10117675793779526, 0.10117675793779526]",0.002,7,1
0,18,"[0.010638091713190079, -1.5602340784719964, 0.010603253041402638, 0.01055697977032466, 0.010310143232345581, 0.010356605984270573]","[0.5479360818862915, 0.4665154814720154, 0.5131637454032898, 0.5557448863983154, 0.5272516012191772, 0.5369712710380554]","[0.10201641081510086, -1.4687799159797956, 0.10201641081510086, 0.10201641081510086, 0.10201641081510086, 0.10201641081510086]","[0.10201641081510086, -1.4687799159797956, 0.10201641081510086, 0.10201641081510086, 0.10201641081510086, 0.10201641081510086]",0.002,7,1
0,19,"[0.011653492227196693, -1.5592329178801556, 0.011674229298726857, 0.011624141330383253, 0.011554211378097534, 0.011431456543505192]","[0.5780861973762512, 0.49311360716819763, 0.5395513772964478, 0.564803421497345, 0.5574802160263062, 0.5590953826904297]","[0.10285541878548858, -1.467940908009408, 0.10285541878548858, 0.10285541878548858, 0.10285541878548858, 0.10285541878548858]","[0.10285541878548858, -1.467940908009408, 0.10285541878548858, 0.10285541878548858, 0.10285541878548858, 0.10285541878548858]",0.002,7,1
0,20,"[0.012655334547162056, -1.5582530557042737, 0.012726608906881154, 0.012662215823791456, 0.012700587511062622, 0.012625218369066715]","[0.5947787761688232, 0.5232371687889099, 0.560525119304657, 0.5713974237442017, 0.5893691182136536, 0.583314836025238]","[0.10369377654508585, -1.4671025502498107, 0.10369377654508585, 0.10369377654508585, 0.10369377654508585, 0.10369377654508585]","[0.10369377654508585, -1.4671025502498107, 0.10369377654508585, 0.10369377654508585, 0.10369377654508585, 0.10369377654508585]",0.002,7,1
0,21,"[0.013879301957786083, -1.5571134409732004, 0.013866726552144826, 0.013868017787597609, 0.013891025446355343, 0.013817865401506424]","[0.6063036918640137, 0.5495234727859497, 0.5812153220176697, 0.586682140827179, 0.6142995357513428, 0.6069682240486145]","[0.10453147879413045, -1.466264848000766, 0.10453147879413045, 0.10453147879413045, 0.10453147879413045, 0.10453147879413045]","[0.10453147879413045, -1.466264848000766, 0.10453147879413045, 0.10453147879413045, 0.10453147879413045, 0.10453147879413045]",0.002,7,1
0,22,"[0.015169773250818253, -1.5558784578791638, 0.015002075825826466, 0.015283151263854933, 0.015077359974384308, 0.015106492675840855]","[0.6236885190010071, 0.5779107213020325, 0.6032679080963135, 0.612807035446167, 0.632919192314148, 0.6297284960746765]","[0.10536852023700408, -1.4654278065578925, 0.10536852023700408, 0.10536852023700408, 0.10536852023700408, 0.10536852023700408]","[0.10536852023700408, -1.4654278065578925, 0.10536852023700408, 0.10536852023700408, 0.10536852023700408, 0.10536852023700408]",0.002,7,1
0,23,"[0.016591912135481834, -1.554671774884202, 0.016342941914693654, 0.016587777728698683, 0.016429618000984192, 0.01634952984750271]","[0.6511656045913696, 0.601925790309906, 0.6247305870056152, 0.6442760229110718, 0.6499902009963989, 0.6528249382972717]","[0.1062048955822657, -1.464591431212631, 0.1062048955822657, 0.1062048955822657, 0.1062048955822657, 0.1062048955822657]","[0.1062048955822657, -1.464591431212631, 0.1062048955822657, 0.1062048955822657, 0.1062048955822657, 0.1062048955822657]",0.002,7,1
0,24,"[0.01801607757806778, -1.5533008512905617, 0.017674748097554982, 0.01782469331707759, 0.0176837220788002, 0.017731020227074623]","[0.6818362474441528, 0.6270339488983154, 0.6517612934112549, 0.6728471517562866, 0.6720508337020874, 0.6765108704566956]","[0.10704059954268516, -1.4637557272522115, 0.10704059954268516, 0.10704059954268516, 0.10704059954268516, 0.10704059954268516]","[0.10704059954268516, -1.4637557272522115, 0.10704059954268516, 0.10704059954268516, 0.10704059954268516, 0.10704059954268516]",0.002,7,1
0,25,"[0.01936929300427437, -1.5519358583590765, 0.01908570924867803, 0.019244356746337843, 0.019079923629760742, 0.019091524183750153]","[0.704811692237854, 0.6569323539733887, 0.6790997982025146, 0.6921230554580688, 0.6936944723129272, 0.6960345506668091]","[0.10787562683527654, -1.46292069995962, 0.10787562683527654, 0.10787562683527654, 0.10787562683527654, 0.10787562683527654]","[0.10787562683527654, -1.46292069995962, 0.10787562683527654, 0.10787562683527654, 0.10787562683527654, 0.10787562683527654]",0.002,7,1
0,26,"[0.02073863334953785, -1.5505859789303322, 0.02054769197572881, 0.02068297445263667, 0.020481884479522705, 0.02056354098021984]","[0.7207836508750916, 0.6845523118972778, 0.7062835693359375, 0.715597927570343, 0.712193489074707, 0.7176822423934937]","[0.1087099721813315, -1.462086354613565, 0.1087099721813315, 0.1087099721813315, 0.1087099721813315, 0.1087099721813315]","[0.1087099721813315, -1.462086354613565, 0.1087099721813315, 0.1087099721813315, 0.1087099721813315, 0.1087099721813315]",0.002,7,1
0,27,"[0.022162359207868576, -1.549073539008834, 0.021962467824117482, 0.022043033237121534, 0.02197951078414917, 0.022084563970565796]","[0.7358226180076599, 0.7023776173591614, 0.726479172706604, 0.7376177310943604, 0.7333738207817078, 0.7384611964225769]","[0.10954363030645263, -1.461252696488444, 0.10954363030645263, 0.10954363030645263, 0.10954363030645263, 0.10954363030645263]","[0.10954363030645263, -1.461252696488444, 0.10954363030645263, 0.10954363030645263, 0.10954363030645263, 0.10954363030645263]",0.002,7,1
0,28,"[0.02370600774884224, -1.54754074596379, 0.023436848317281544, 0.023526354427001905, 0.023529529571533203, 0.023533035069704056]","[0.7524851560592651, 0.7208022475242615, 0.7442284822463989, 0.7550899982452393, 0.7546144723892212, 0.7566044330596924]","[0.11037659594058698, -1.4604197308543097, 0.11037659594058698, 0.11037659594058698, 0.11037659594058698, 0.11037659594058698]","[0.11037659594058698, -1.4604197308543097, 0.11037659594058698, 0.11037659594058698, 0.11037659594058698, 0.11037659594058698]",0.002,7,1
0,29,"[0.025239337235689163, -1.5459310461631794, 0.024849716817037404, 0.024858756656310987, 0.02508285641670227, 0.025096742436289787]","[0.7739371657371521, 0.7433890700340271, 0.754574716091156, 0.7672359943389893, 0.7783329486846924, 0.7763312458992004]","[0.11120886381805924, -1.4595874629768373, 0.11120886381805924, 0.11120886381805924, 0.11120886381805924, 0.11120886381805924]","[0.11120886381805924, -1.4595874629768373, 0.11120886381805924, 0.11120886381805924, 0.11120886381805924, 0.11120886381805924]",0.002,7,1
0,30,"[0.026809902861714363, -1.5443501149168988, 0.02652007738222295, 0.026312156314514112, 0.026721596717834473, 0.026717932894825935]","[0.793146014213562, 0.7672929167747498, 0.7737457752227783, 0.7794836759567261, 0.7966998815536499, 0.7870798110961914]","[0.11204042867760493, -1.4587558981172917, 0.11204042867760493, 0.11204042867760493, 0.11204042867760493, 0.11204042867760493]","[0.11204042867760493, -1.4587558981172917, 0.11204042867760493, 0.11204042867760493, 0.11204042867760493, 0.11204042867760493]",0.002,7,1
0,31,"[0.028350407257676125, -1.5426703871092577, 0.028126064931051076, 0.02802710115399165, 0.028317034244537354, 0.028313742950558662]","[0.8118200302124023, 0.7856893539428711, 0.7992579936981201, 0.7998580932617188, 0.8125230669975281, 0.8040446043014526]","[0.11287128526240384, -1.4579250415324927, 0.11287128526240384, 0.11287128526240384, 0.11287128526240384, 0.11287128526240384]","[0.11287128526240384, -1.4579250415324927, 0.11287128526240384, 0.11287128526240384, 0.11287128526240384, 0.11287128526240384]",0.002,7,1
0,32,"[0.029950357973575592, -1.5410015259734173, 0.02982980409731084, 0.029814882869384718, 0.02995629422366619, 0.029998404905200005]","[0.8256367444992065, 0.8035444021224976, 0.8186303973197937, 0.8298175930976868, 0.826913595199585, 0.8233192563056946]","[0.11370142832011325, -1.4570948984747834, 0.11370142832011325, 0.11370142832011325, 0.11370142832011325, 0.11370142832011325]","[0.11370142832011325, -1.4570948984747834, 0.11370142832011325, 0.11370142832011325, 0.11370142832011325, 0.11370142832011325]",0.002,7,1
0,33,"[0.031567271798849106, -1.5392615136555214, 0.0315168539630335, 0.031462474460266066, 0.03179163113236427, 0.03167034685611725]","[0.8429149985313416, 0.8204486966133118, 0.8341877460479736, 0.8540846705436707, 0.8410881161689758, 0.8400413393974304]","[0.11453085260290095, -1.4562654741919956, 0.11453085260290095, 0.11453085260290095, 0.11453085260290095, 0.11453085260290095]","[0.11453085260290095, -1.4562654741919956, 0.11453085260290095, 0.11453085260290095, 0.11453085260290095, 0.11453085260290095]",0.002,7,1
0,34,"[0.03324787691235542, -1.5375660744360466, 0.033232990895406544, 0.03327910482373042, 0.0334574319422245, 0.03343462571501732]","[0.8566103577613831, 0.8417388796806335, 0.8501114845275879, 0.8735250234603882, 0.8532454967498779, 0.8556989431381226]","[0.11535955286747862, -1.4554367739274179, 0.11535955286747862, 0.11535955286747862, 0.11535955286747862, 0.11535955286747862]","[0.11535955286747862, -1.4554367739274179, 0.11535955286747862, 0.11535955286747862, 0.11535955286747862, 0.11535955286747862]",0.002,7,1
0,35,"[0.03497205674648285, -1.535856095408537, 0.03499013582338506, 0.03505484640087886, 0.035167843103408813, 0.03510570898652077]","[0.8687591552734375, 0.8585810661315918, 0.8624072074890137, 0.8804147839546204, 0.8678359389305115, 0.8655174970626831]","[0.11618752387513484, -1.4546088029197617, 0.11618752387513484, 0.11618752387513484, 0.11618752387513484, 0.11618752387513484]","[0.11618752387513484, -1.4546088029197617, 0.11618752387513484, 0.11618752387513484, 0.11618752387513484, 0.11618752387513484]",0.002,7,1
0,36,"[0.03682310879230499, -1.534023070042469, 0.03671437898744756, 0.036781592960021925, 0.03695926070213318, 0.036902084946632385]","[0.886314868927002, 0.8734108209609985, 0.8725793957710266, 0.8866882920265198, 0.8820331692695618, 0.8783958554267883]","[0.11701476039176834, -1.4537815664031282, 0.11701476039176834, 0.11701476039176834, 0.11701476039176834, 0.11701476039176834]","[0.11701476039176834, -1.4537815664031282, 0.11701476039176834, 0.11701476039176834, 0.11701476039176834, 0.11701476039176834]",0.002,7,1
0,37,"[0.03857909515500069, -1.532229409818985, 0.03854877153505498, 0.038643165225646925, 0.03872561454772949, 0.0386863648891449]","[0.8983769416809082, 0.8906546831130981, 0.8865426182746887, 0.8971675634384155, 0.8963144421577454, 0.8917610049247742]","[0.11784125718792089, -1.4529550696069757, 0.11784125718792089, 0.11784125718792089, 0.11784125718792089, 0.11784125718792089]","[0.11784125718792089, -1.4529550696069757, 0.11784125718792089, 0.11784125718792089, 0.11784125718792089, 0.11784125718792089]",0.002,7,1
0,38,"[0.04043032228946686, -1.530371730481722, 0.040389362965719044, 0.040584250087402296, 0.04050585627555847, 0.04045002534985542]","[0.9097169637680054, 0.9073866009712219, 0.8974406123161316, 0.9058309197425842, 0.9093956351280212, 0.9050463438034058]","[0.11866700903881057, -1.452129317756086, 0.11866700903881057, 0.11866700903881057, 0.11866700903881057, 0.11866700903881057]","[0.11866700903881057, -1.452129317756086, 0.11866700903881057, 0.11866700903881057, 0.11866700903881057, 0.11866700903881057]",0.002,7,1
0,39,"[0.04222852364182472, -1.5285473403385659, 0.04224521318544561, 0.04251055299725337, 0.0423065721988678, 0.04218699783086777]","[0.9240259528160095, 0.9177740216255188, 0.9142919778823853, 0.9202919602394104, 0.9200374484062195, 0.9195039868354797]","[0.11949201072436472, -1.451304316070532, 0.11949201072436472, 0.11949201072436472, 0.11949201072436472, 0.11949201072436472]","[0.11949201072436472, -1.451304316070532, 0.11949201072436472, 0.11949201072436472, 0.11949201072436472, 0.11949201072436472]",0.002,7,1
0,40,"[0.04398634657263756, -1.526654214864113, 0.044112507496969044, 0.04448227464642329, 0.04418089985847473, 0.04402969777584076]","[0.9323978424072266, 0.9326981902122498, 0.9279295802116394, 0.9378186464309692, 0.9300616979598999, 0.9333898425102234]","[0.12031625702925285, -1.4504800697656437, 0.12031625702925285, 0.12031625702925285, 0.12031625702925285, 0.12031625702925285]","[0.12031625702925285, -1.4504800697656437, 0.12031625702925285, 0.12031625702925285, 0.12031625702925285, 0.12031625702925285]",0.002,7,1
0,41,"[0.045947667211294174, -1.5247634437731286, 0.04598075548280889, 0.04638437807049556, 0.045955050736665726, 0.04595724865794182]","[0.9389702081680298, 0.9453761577606201, 0.9401058554649353, 0.9466474652290344, 0.9409871101379395, 0.9447078108787537]","[0.1211397427429197, -1.4496565840519768, 0.1211397427429197, 0.1211397427429197, 0.1211397427429197, 0.1211397427429197]","[0.1211397427429197, -1.4496565840519768, 0.1211397427429197, 0.1211397427429197, 0.1211397427429197, 0.1211397427429197]",0.002,7,1
0,42,"[0.047825828194618225, -1.522828598772623, 0.047797981892721, 0.04821316778149409, 0.048009637743234634, 0.04781337082386017]","[0.9509427547454834, 0.9589273929595947, 0.9502071738243103, 0.951860785484314, 0.951495349407196, 0.9567399621009827]","[0.12196246265961823, -1.4488338641352783, 0.12196246265961823, 0.12196246265961823, 0.12196246265961823, 0.12196246265961823]","[0.12196246265961823, -1.4488338641352783, 0.12196246265961823, 0.12196246265961823, 0.12196246265961823, 0.12196246265961823]",0.002,7,1
0,43,"[0.049775220453739166, -1.5208456230214615, 0.04969531694521123, 0.05009262144055171, 0.04979855939745903, 0.04973350092768669]","[0.9621135592460632, 0.9691758155822754, 0.9571885466575623, 0.953956127166748, 0.9624161124229431, 0.9666542410850525]","[0.12278441157844236, -1.4480119152164541, 0.12278441157844236, 0.12278441157844236, 0.12278441157844236, 0.12278441157844236]","[0.12278441157844236, -1.4480119152164541, 0.12278441157844236, 0.12278441157844236, 0.12278441157844236, 0.12278441157844236]",0.002,7,1
0,44,"[0.051668982952833176, -1.5188293953290959, 0.05165702501405889, 0.051854177112243605, 0.05180022120475769, 0.051725685596466064]","[0.9713316559791565, 0.9754571318626404, 0.9633067846298218, 0.9579984545707703, 0.9706647396087646, 0.973477303981781]","[0.12360558430336005, -1.4471907424915365, 0.12360558430336005, 0.12360558430336005, 0.12360558430336005, 0.12360558430336005]","[0.12360558430336005, -1.4471907424915365, 0.12360558430336005, 0.12360558430336005, 0.12360558430336005, 0.12360558430336005]",0.002,7,1
0,45,"[0.05361991375684738, -1.516877969061472, 0.05356771150697881, 0.05372874319042964, 0.05370919778943062, 0.05376217141747475]","[0.9770705103874207, 0.9837738871574402, 0.973278284072876, 0.9701902866363525, 0.984541118144989, 0.984140157699585]","[0.12442597564324599, -1.4463703511516506, 0.12442597564324599, 0.12442597564324599, 0.12442597564324599, 0.12442597564324599]","[0.12442597564324599, -1.4463703511516506, 0.12442597564324599, 0.12442597564324599, 0.12442597564324599, 0.12442597564324599]",0.002,7,1
0,46,"[0.0554981604218483, -1.5148205769113083, 0.05555898347963506, 0.055694862002990675, 0.05569449067115784, 0.05571558326482773]","[0.9828099012374878, 0.988394021987915, 0.9815681576728821, 0.9822009205818176, 0.9894040822982788, 0.9912061095237732]","[0.12524558041191447, -1.445550746382982, 0.12524558041191447, 0.12524558041191447, 0.12524558041191447, 0.12524558041191447]","[0.12524558041191447, -1.445550746382982, 0.12524558041191447, 0.12524558041191447, 0.12524558041191447, 0.12524558041191447]",0.002,7,1
0,47,"[0.05760520324110985, -1.5128337827375908, 0.057578388844625294, 0.05758575975384517, 0.057742200791835785, 0.05778593569993973]","[0.9911442995071411, 0.9874604940414429, 0.9884620904922485, 0.9932245016098022, 0.9981853365898132, 0.9950248599052429]","[0.1260643934281522, -1.4447319333667443, 0.1260643934281522, 0.1260643934281522, 0.1260643934281522, 0.1260643934281522]","[0.1260643934281522, -1.4447319333667443, 0.1260643934281522, 0.1260643934281522, 0.1260643934281522, 0.1260643934281522]",0.002,7,1
0,48,"[0.05950593203306198, -1.510846109395363, 0.05959159532655889, 0.059561653728149366, 0.05980640649795532, 0.059787627309560776]","[1.000078558921814, 0.9943646788597107, 0.995861828327179, 1.000673532485962, 1.004092812538147, 1.0000770092010498]","[0.12688240951575097, -1.4439139172791455, 0.12688240951575097, 0.12688240951575097, 0.12688240951575097, 0.12688240951575097]","[0.12688240951575097, -1.4439139172791455, 0.12688240951575097, 0.12688240951575097, 0.12688240951575097, 0.12688240951575097]",0.002,7,1
0,49,"[0.061477307230234146, -1.5088365276208897, 0.061510864888326466, 0.06160740434613032, 0.06187255308032036, 0.061860743910074234]","[1.0073500871658325, 0.9974172115325928, 1.0035673379898071, 1.0087437629699707, 1.0091584920883179, 1.005010962486267]","[0.12769962350354055, -1.443096703291356, 0.12769962350354055, 0.12769962350354055, 0.12769962350354055, 0.12769962350354055]","[0.12769962350354055, -1.443096703291356, 0.12769962350354055, 0.12769962350354055, 0.12769962350354055, 0.12769962350354055]",0.002,7,1
0,50,"[0.0655147135257721, -1.5047572937658806, 0.06565982500185186, 0.06572012483563228, 0.06593386083841324, 0.06598581373691559]","[1.015360713005066, 0.9986802935600281, 1.0080410242080688, 1.0202741622924805, 1.0186606645584106, 1.0150398015975952]","[0.12851603022542116, -1.4422802965694754, 0.12851603022542116, 0.12851603022542116, 0.12851603022542116, 0.12851603022542116]","[0.12851603022542116, -1.4422802965694754, 0.12851603022542116, 0.12851603022542116, 0.12851603022542116, 0.12851603022542116]",0.002,7,1
0,51,"[0.0655147135257721, -1.5047572937658806, 0.06565982500185186, 0.06572012483563228, 0.06593386083841324, 0.06598581373691559]","[1.015360713005066, 0.9986802935600281, 1.0080410242080688, 1.0202741622924805, 1.0186606645584106, 1.0150398015975952]","[0.12933162452039626, -1.4414647022745002, 0.12933162452039626, 0.12933162452039626, 0.12933162452039626, 0.12933162452039626]","[0.12933162452039626, -1.4414647022745002, 0.12933162452039626, 0.12933162452039626, 0.12933162452039626, 0.12933162452039626]",0.002,7,1
0,52,"[0.06760406494140625, -1.5027353030494233, 0.06772834459413701, 0.06790785371746821, 0.06799820810556412, 0.06793038547039032]","[1.0187362432479858, 1.002450942993164, 1.0112721920013428, 1.0238336324691772, 1.0177298784255981, 1.0154528617858887]","[0.13014640123260515, -1.4406499255622913, 0.13014640123260515, 0.13014640123260515, 0.13014640123260515, 0.13014640123260515]","[0.13014640123260515, -1.4406499255622913, 0.13014640123260515, 0.13014640123260515, 0.13014640123260515, 0.13014640123260515]",0.002,7,1
0,53,"[0.0696931853890419, -1.5007196006229897, 0.06983596483339483, 0.06992022573437495, 0.07002139091491699, 0.06996392458677292]","[1.0195666551589966, 1.005249261856079, 1.0142971277236938, 1.0281764268875122, 1.0212624073028564, 1.0210192203521729]","[0.13096035521135554, -1.439835971583541, 0.13096035521135554, 0.13096035521135554, 0.13096035521135554, 0.13096035521135554]","[0.13096035521135554, -1.439835971583541, 0.13096035521135554, 0.13096035521135554, 0.13096035521135554, 0.13096035521135554]",0.002,7,1
0,54,"[0.07179684191942215, -1.4987004709294816, 0.07179290453066045, 0.0720180708118896, 0.07211287319660187, 0.071963831782341]","[1.0254809856414795, 1.0120491981506348, 1.0209120512008667, 1.027492880821228, 1.0244580507278442, 1.022957444190979]","[0.13177348131115624, -1.4390228454837404, 0.13177348131115624, 0.13177348131115624, 0.13177348131115624, 0.13177348131115624]","[0.13177348131115624, -1.4390228454837404, 0.13177348131115624, 0.13177348131115624, 0.13177348131115624, 0.13177348131115624]",0.002,7,1
0,55,"[0.07383201271295547, -1.496619702582695, 0.07389957109560186, 0.07415060579266353, 0.0740543082356453, 0.07396096736192703]","[1.0310139656066895, 1.015512466430664, 1.021827220916748, 1.027891755104065, 1.0263599157333374, 1.0276824235916138]","[0.1325857743917494, -1.4382105524031472, 0.1325857743917494, 0.1325857743917494, 0.1325857743917494, 0.1325857743917494]","[0.1325857743917494, -1.4382105524031472, 0.1325857743917494, 0.1325857743917494, 0.1325857743917494, 0.1325857743917494]",0.002,7,1
0,56,"[0.07587411254644394, -1.4945972648314019, 0.0759499708758753, 0.07632391035046382, 0.07605092972517014, 0.07599389553070068]","[1.0329396724700928, 1.01616370677948, 1.0257105827331543, 1.0279525518417358, 1.029481291770935, 1.0314193964004517]","[0.13339722931814335, -1.4373990974767532, 0.13339722931814335, 0.13339722931814335, 0.13339722931814335, 0.13339722931814335]","[0.13339722931814335, -1.4373990974767532, 0.13339722931814335, 0.13339722931814335, 0.13339722931814335, 0.13339722931814335]",0.002,7,1
0,57,"[0.08000819385051727, -1.490541623239853, 0.08001453081239873, 0.08043651163067622, 0.08015619963407516, 0.0801386907696724]","[1.031402587890625, 1.0198109149932861, 1.0265862941741943, 1.0310537815093994, 1.0295084714889526, 1.0364762544631958]","[0.13420784096064478, -1.4365884858342517, 0.13420784096064478, 0.13420784096064478, 0.13420784096064478, 0.13420784096064478]","[0.13420784096064478, -1.4365884858342517, 0.13420784096064478, 0.13420784096064478, 0.13420784096064478, 0.13420784096064478]",0.002,7,1
0,58,"[0.08000819385051727, -1.490541623239853, 0.08001453081239873, 0.08043651163067622, 0.08015619963407516, 0.0801386907696724]","[1.031402587890625, 1.0198109149932861, 1.0265862941741943, 1.0310537815093994, 1.0295084714889526, 1.0364762544631958]","[0.13501760419489134, -1.4357787226000052, 0.13501760419489134, 0.13501760419489134, 0.13501760419489134, 0.13501760419489134]","[0.13501760419489134, -1.4357787226000052, 0.13501760419489134, 0.13501760419489134, 0.13501760419489134, 0.13501760419489134]",0.002,7,1
0,59,"[0.08209962397813797, -1.4884492617896576, 0.08203012148012334, 0.08248381196942134, 0.08234693109989166, 0.08223620057106018]","[1.0303274393081665, 1.0199241638183594, 1.026218295097351, 1.0289924144744873, 1.0323457717895508, 1.036359429359436]","[0.13582651390188397, -1.4349698128930126, 0.13582651390188397, 0.13582651390188397, 0.13582651390188397, 0.13582651390188397]","[0.13582651390188397, -1.4349698128930126, 0.13582651390188397, 0.13582651390188397, 0.13582651390188397, 0.13582651390188397]",0.002,7,1
0,60,"[0.08414794504642487, -1.4864138823798676, 0.08412152925600225, 0.08434574186291499, 0.08434824645519257, 0.08433198928833008]","[1.034090518951416, 1.0207116603851318, 1.0255653858184814, 1.0232634544372559, 1.032638669013977, 1.035745620727539]","[0.13663456496801923, -1.4341617618268774, 0.13663456496801923, 0.13663456496801923, 0.13663456496801923, 0.13663456496801923]","[0.13663456496801923, -1.4341617618268774, 0.13663456496801923, 0.13663456496801923, 0.13663456496801923, 0.13663456496801923]",0.002,7,1
0,61,"[0.08620578795671463, -1.4842796710184594, 0.08615667024721319, 0.08629719793286128, 0.08640596270561218, 0.0864795669913292]","[1.0337128639221191, 1.0178687572479248, 1.0284206867218018, 1.0205425024032593, 1.0367987155914307, 1.03386390209198]","[0.13744175228512176, -1.4333545745097749, 0.13744175228512176, 0.13744175228512176, 0.13744175228512176, 0.13744175228512176]","[0.13744175228512176, -1.4333545745097749, 0.13744175228512176, 0.13744175228512176, 0.13744175228512176, 0.13744175228512176]",0.002,7,1
0,62,"[0.08837482333183289, -1.4822831463864823, 0.08820993105043584, 0.08832411348309321, 0.08847436308860779, 0.08852028846740723]","[1.0325545072555542, 1.0125576257705688, 1.0182312726974487, 1.0220228433609009, 1.0337141752243042, 1.0318034887313843]","[0.13824807075047635, -1.4325482560444203, 0.13824807075047635, 0.13824807075047635, 0.13824807075047635, 0.13824807075047635]","[0.13824807075047635, -1.4325482560444203, 0.13824807075047635, 0.13824807075047635, 0.13824807075047635, 0.13824807075047635]",0.002,7,1
0,63,"[0.0903172492980957, -1.4801968795112153, 0.09027082124818975, 0.09040741502728267, 0.09064623713493347, 0.0906183198094368]","[1.0303292274475098, 1.0094130039215088, 1.0184099674224854, 1.024867057800293, 1.031045913696289, 1.0266932249069214]","[0.1390535152668604, -1.4317428115280362, 0.1390535152668604, 0.1390535152668604, 0.1390535152668604, 0.1390535152668604]","[0.1390535152668604, -1.4317428115280362, 0.1390535152668604, 0.1390535152668604, 0.1390535152668604, 0.1390535152668604]",0.002,7,1
0,64,"[0.09236972779035568, -1.4781631988338013, 0.0923088232623499, 0.09248439847912593, 0.09270957857370377, 0.09269244223833084]","[1.0293298959732056, 1.003935694694519, 1.0211589336395264, 1.0304609537124634, 1.026233196258545, 1.0248172283172607]","[0.1398580807425761, -1.4309382460523206, 0.1398580807425761, 0.1398580807425761, 0.1398580807425761, 0.1398580807425761]","[0.1398580807425761, -1.4309382460523206, 0.1398580807425761, 0.1398580807425761, 0.1398580807425761, 0.1398580807425761]",0.002,7,1
0,65,"[0.09442169219255447, -1.4761614140919228, 0.09434920946230108, 0.09445981561627192, 0.09477002173662186, 0.09477876126766205]","[1.02838933467865, 1.0000720024108887, 1.0179457664489746, 1.0297499895095825, 1.0234413146972656, 1.0215373039245605]","[0.14066176209148248, -1.430134564703414, 0.14066176209148248, 0.14066176209148248, 0.14066176209148248, 0.14066176209148248]","[0.14066176209148248, -1.430134564703414, 0.14066176209148248, 0.14066176209148248, 0.14066176209148248, 0.14066176209148248]",0.002,7,1
0,66,"[0.09641849994659424, -1.4741825249842186, 0.09640580812563115, 0.09654883920635982, 0.09677764028310776, 0.09681914746761322]","[1.022617220878601, 0.9963304996490479, 1.0121182203292847, 1.0283933877944946, 1.019287109375, 1.0174652338027954]","[0.14146455423302773, -1.4293317725618688, 0.14146455423302773, 0.14146455423302773, 0.14146455423302773, 0.14146455423302773]","[0.14146455423302773, -1.4293317725618688, 0.14146455423302773, 0.14146455423302773, 0.14146455423302773, 0.14146455423302773]",0.002,7,1
0,67,"[0.09855280816555023, -1.4720903646996994, 0.09836799303163701, 0.09869591772045894, 0.09887173026800156, 0.09878310561180115]","[1.0199153423309326, 0.990221381187439, 1.007443904876709, 1.0220080614089966, 1.0179823637008667, 1.0137126445770264]","[0.14226645209228123, -1.4285298747026154, 0.14226645209228123, 0.14226645209228123, 0.14226645209228123, 0.14226645209228123]","[0.14226645209228123, -1.4285298747026154, 0.14226645209228123, 0.14226645209228123, 0.14226645209228123, 0.14226645209228123]",0.002,7,1
0,68,"[0.10055145621299744, -1.4701186654022713, 0.1004570166217249, 0.10075442373242183, 0.10085591673851013, 0.10078788548707962]","[1.0114473104476929, 0.9906729459762573, 1.0014519691467285, 1.014072299003601, 1.012292742729187, 1.0089335441589355]","[0.14306745059996573, -1.427728876194931, 0.14306745059996573, 0.14306745059996573, 0.14306745059996573, 0.14306745059996573]","[0.14306745059996573, -1.427728876194931, 0.14306745059996573, 0.14306745059996573, 0.14306745059996573, 0.14306745059996573]",0.002,7,1
0,69,"[0.10261797904968262, -1.4682117712548752, 0.10239869752992803, 0.10292033731426997, 0.10280603170394897, 0.10273899137973785]","[1.0113096237182617, 0.9928165674209595, 0.9963946342468262, 1.0071407556533813, 1.0063669681549072, 1.002925992012024]","[0.14386754469248916, -1.4269287821024075, 0.14386754469248916, 0.14386754469248916, 0.14386754469248916, 0.14386754469248916]","[0.14386754469248916, -1.4269287821024075, 0.14386754469248916, 0.14386754469248916, 0.14386754469248916, 0.14386754469248916]",0.002,7,1
0,70,"[0.10465335100889206, -1.4662674081376572, 0.10447436967958623, 0.10493998109783931, 0.10486739873886108, 0.1047474592924118]","[1.010441780090332, 0.9854089021682739, 0.99589604139328, 1.0027281045913696, 1.0020558834075928, 1.0007009506225586]","[0.14466672931197697, -1.4261295974829196, 0.14466672931197697, 0.14466672931197697, 0.14466672931197697, 0.14466672931197697]","[0.14466672931197697, -1.4261295974829196, 0.14466672931197697, 0.14466672931197697, 0.14466672931197697, 0.14466672931197697]",0.002,7,1
0,71,"[0.1065749078989029, -1.4643098202398797, 0.10648233095277959, 0.1069689232059936, 0.10678622126579285, 0.10666626691818237]","[1.0024163722991943, 0.9841248393058777, 0.990626335144043, 0.9989333748817444, 0.9937537312507629, 0.998984158039093]","[0.14546499940630384, -1.4253313273885928, 0.14546499940630384, 0.14546499940630384, 0.14546499940630384, 0.14546499940630384]","[0.14546499940630384, -1.4253313273885928, 0.14546499940630384, 0.14546499940630384, 0.14546499940630384, 0.14546499940630384]",0.002,7,1
0,72,"[0.10859927535057068, -1.4623484325459977, 0.10841304460634404, 0.10902778684582515, 0.10871314257383347, 0.10858950763940811]","[0.9936443567276001, 0.9765429496765137, 0.9876985549926758, 0.9937648177146912, 0.9895324110984802, 0.9951030015945435]","[0.14626234992912576, -1.4245339768657708, 0.14626234992912576, 0.14626234992912576, 0.14626234992912576, 0.14626234992912576]","[0.14626234992912576, -1.4245339768657708, 0.14626234992912576, 0.14626234992912576, 0.14626234992912576, 0.14626234992912576]",0.002,7,1
0,73,"[0.11257363855838776, -1.4585468483022233, 0.11228591600526983, 0.11288659154858394, 0.11261513829231262, 0.11257065832614899]","[0.9820287823677063, 0.9674950242042542, 0.9724939465522766, 0.9745351672172546, 0.9801031947135925, 0.984120786190033]","[0.14705877583991184, -1.4237375509549848, 0.14705877583991184, 0.14705877583991184, 0.14705877583991184, 0.14705877583991184]","[0.14705877583991184, -1.4237375509549848, 0.14705877583991184, 0.14705877583991184, 0.14705877583991184, 0.14705877583991184]",0.002,7,1
0,74,"[0.11257363855838776, -1.4585468483022233, 0.11228591600526983, 0.11288659154858394, 0.11261513829231262, 0.11257065832614899]","[0.9820287823677063, 0.9674950242042542, 0.9724939465522766, 0.9745351672172546, 0.9801031947135925, 0.984120786190033]","[0.1478542721039762, -1.4229420546909204, 0.1478542721039762, 0.1478542721039762, 0.1478542721039762, 0.1478542721039762]","[0.1478542721039762, -1.4229420546909204, 0.1478542721039762, 0.1478542721039762, 0.1478542721039762, 0.1478542721039762]",0.002,7,1
0,75,"[0.1144941970705986, -1.4566178929856797, 0.11422950426210576, 0.11470918237652583, 0.11463268101215363, 0.11456995457410812]","[0.9681233167648315, 0.9549565315246582, 0.9587711095809937, 0.9567353129386902, 0.9684712886810303, 0.9698536992073059]","[0.14864883369250992, -1.4221474931023868, 0.14864883369250992, 0.14864883369250992, 0.14864883369250992, 0.14864883369250992]","[0.14864883369250992, -1.4221474931023868, 0.14864883369250992, 0.14864883369250992, 0.14864883369250992, 0.14864883369250992]",0.002,7,1
0,76,"[0.11641799658536911, -1.4546816510013123, 0.1161125341998499, 0.11652354776348872, 0.11654806137084961, 0.11655519902706146]","[0.9681233167648315, 0.9549565315246582, 0.9587711095809937, 0.9567353129386902, 0.9684712886810303, 0.9698536992073059]","[0.1494424555826126, -1.421353871212284, 0.1494424555826126, 0.1494424555826126, 0.1494424555826126, 0.1494424555826126]","[0.1494424555826126, -1.421353871212284, 0.1494424555826126, 0.1494424555826126, 0.1494424555826126, 0.1494424555826126]",0.002,7,1
0,77,"[0.11832816153764725, -1.452812672858574, 0.1180504004107874, 0.11839048444714351, 0.11847925186157227, 0.11847997456789017]","[0.9583150148391724, 0.9495581388473511, 0.9529294371604919, 0.9523873925209045, 0.962880551815033, 0.9620311260223389]","[0.1502351327573243, -1.4205611940375722, 0.1502351327573243, 0.1502351327573243, 0.1502351327573243, 0.1502351327573243]","[0.1502351327573243, -1.4205611940375722, 0.1502351327573243, 0.1502351327573243, 0.1502351327573243, 0.1502351327573243]",0.002,7,1
0,78,"[0.12025508284568787, -1.4509179604104538, 0.11990243593324834, 0.12018923341717525, 0.12042753398418427, 0.12043701112270355]","[0.9548101425170898, 0.9361794590950012, 0.9441595673561096, 0.9508519768714905, 0.9565733075141907, 0.9536460638046265]","[0.15102686020565723, -1.4197694665892393, 0.15102686020565723, 0.15102686020565723, 0.15102686020565723, 0.15102686020565723]","[0.15102686020565723, -1.4197694665892393, 0.15102686020565723, 0.15102686020565723, 0.15102686020565723, 0.15102686020565723]",0.002,7,1
0,79,"[0.12215568125247955, -1.448937089448311, 0.12180930772890264, 0.12206940233197017, 0.12242316454648972, 0.12229012697935104]","[0.9455146193504333, 0.9314400553703308, 0.9386104941368103, 0.9473724365234375, 0.948373556137085, 0.9442663788795471]","[0.1518176329226273, -1.4189786938722693, 0.1518176329226273, 0.1518176329226273, 0.1518176329226273, 0.1518176329226273]","[0.1518176329226273, -1.4189786938722693, 0.1518176329226273, 0.1518176329226273, 0.1518176329226273, 0.1518176329226273]",0.002,7,1
0,80,"[0.12397576123476028, -1.4470312160304566, 0.12367231050600225, 0.12392990171398921, 0.12429006397724152, 0.12421029061079025]","[0.9387904405593872, 0.9226197600364685, 0.9327446818351746, 0.9426015019416809, 0.9393010139465332, 0.9358153939247131]","[0.15260744590928588, -1.4181888808856107, 0.15260744590928588, 0.15260744590928588, 0.15260744590928588, 0.15260744590928588]","[0.15260744590928588, -1.4181888808856107, 0.15260744590928588, 0.15260744590928588, 0.15260744590928588, 0.15260744590928588]",0.002,7,1
0,81,"[0.1258186399936676, -1.445254848604538, 0.1255267302142542, 0.12585477411236567, 0.126138836145401, 0.12617497146129608]","[0.934008002281189, 0.9148672819137573, 0.9251748323440552, 0.9331310987472534, 0.9288524985313416, 0.9274637699127197]","[0.1533962941727514, -1.4174000326221452, 0.1533962941727514, 0.1533962941727514, 0.1533962941727514, 0.1533962941727514]","[0.1533962941727514, -1.4174000326221452, 0.1533962941727514, 0.1533962941727514, 0.1533962941727514, 0.1533962941727514]",0.002,7,1
0,82,"[0.12764935195446014, -1.4433721911958237, 0.12733441988100225, 0.12772373735394282, 0.12800171971321106, 0.12798240780830383]","[0.9204205870628357, 0.9050725102424622, 0.9143630862236023, 0.9266290068626404, 0.9175804257392883, 0.9180533289909363]","[0.1541841727262409, -1.4166121540686556, 0.1541841727262409, 0.1541841727262409, 0.1541841727262409, 0.1541841727262409]","[0.1541841727262409, -1.4166121540686556, 0.1541841727262409, 0.1541841727262409, 0.1541841727262409, 0.1541841727262409]",0.002,7,1
0,83,"[0.12951619923114777, -1.4415491980365296, 0.1292031447040003, 0.1295829254337768, 0.12974520027637482, 0.1297762244939804]","[0.9113311767578125, 0.8964439034461975, 0.9045939445495605, 0.915723443031311, 0.908508837223053, 0.9073051810264587]","[0.1549710765891015, -1.415825250205795, 0.1549710765891015, 0.1549710765891015, 0.1549710765891015, 0.1549710765891015]","[0.1549710765891015, -1.415825250205795, 0.1549710765891015, 0.1549710765891015, 0.1549710765891015, 0.1549710765891015]",0.002,7,1
0,84,"[0.13129591941833496, -1.4397488695434113, 0.13101464906801397, 0.13142792760815425, 0.13157919049263, 0.13156504929065704]","[0.8999690413475037, 0.8889570236206055, 0.8957546949386597, 0.9060734510421753, 0.9011637568473816, 0.8992123007774353]","[0.1557570007868419, -1.4150393260080547, 0.1557570007868419, 0.1557570007868419, 0.1557570007868419, 0.1557570007868419]","[0.1557570007868419, -1.4150393260080547, 0.1557570007868419, 0.1557570007868419, 0.1557570007868419, 0.1557570007868419]",0.002,7,1
0,85,"[0.13316427171230316, -1.4379719656756897, 0.13285857835878545, 0.13319139062847896, 0.13338413834571838, 0.13329197466373444]","[0.8926175832748413, 0.8843774199485779, 0.8875083327293396, 0.89376300573349, 0.8891949653625488, 0.8889627456665039]","[0.1565419403511639, -1.4142543864437327, 0.1565419403511639, 0.1565419403511639, 0.1565419403511639, 0.1565419403511639]","[0.1565419403511639, -1.4142543864437327, 0.1565419403511639, 0.1565419403511639, 0.1565419403511639, 0.1565419403511639]",0.002,7,1
0,86,"[0.13494205474853516, -1.436177597647049, 0.13464004198183233, 0.13504962503399653, 0.13506323099136353, 0.13503925502300262]","[0.8833600878715515, 0.8765778541564941, 0.8836408853530884, 0.8811130523681641, 0.881119430065155, 0.8801657557487488]","[0.15732589031999372, -1.413470436474903, 0.15732589031999372, 0.15732589031999372, 0.15732589031999372, 0.15732589031999372]","[0.15732589031999372, -1.413470436474903, 0.15732589031999372, 0.15732589031999372, 0.15732589031999372, 0.15732589031999372]",0.002,7,1
0,87,"[0.13657982647418976, -1.434473530655243, 0.1364362875567835, 0.13692907869305415, 0.1367383897304535, 0.1367327719926834]","[0.8731187582015991, 0.8690357208251953, 0.8724250197410583, 0.8728547096252441, 0.8706494569778442, 0.8721138834953308]","[0.15810884573751346, -1.412687481057383, 0.15810884573751346, 0.15810884573751346, 0.15810884573751346, 0.15810884573751346]","[0.15810884573751346, -1.412687481057383, 0.15810884573751346, 0.15810884573751346, 0.15810884573751346, 0.15810884573751346]",0.002,7,1
0,88,"[0.13839375972747803, -1.4327895951322098, 0.13808137575258428, 0.1387278276630859, 0.13840973377227783, 0.13841569423675537]","[0.8626113533973694, 0.8612328171730042, 0.8654624819755554, 0.8654929399490356, 0.8605453372001648, 0.8639625906944275]","[0.1588908016541923, -1.4119055251407042, 0.1588908016541923, 0.1588908016541923, 0.1588908016541923, 0.1588908016541923]","[0.1588908016541923, -1.4119055251407042, 0.1588908016541923, 0.1588908016541923, 0.1588908016541923, 0.1588908016541923]",0.002,7,1
0,89,"[0.14009733498096466, -1.4310888361981888, 0.13979894319643194, 0.14042918264355464, 0.14012734591960907, 0.14012372493743896]","[0.8512086868286133, 0.8520095944404602, 0.8547103404998779, 0.8537262082099915, 0.850949227809906, 0.8550806045532227]","[0.159671753126818, -1.4111245736680786, 0.159671753126818, 0.159671753126818, 0.159671753126818, 0.159671753126818]","[0.159671753126818, -1.4111245736680786, 0.159671753126818, 0.159671753126818, 0.159671753126818, 0.159671753126818]",0.002,7,1
0,90,"[0.1417342573404312, -1.4293270719102402, 0.14151508012880498, 0.14204148828472896, 0.14178186655044556, 0.14175933599472046]","[0.8409674763679504, 0.8454396724700928, 0.844670832157135, 0.8411448001861572, 0.8416047096252441, 0.8467949628829956]","[0.16045169521852784, -1.4103446315763688, 0.16045169521852784, 0.16045169521852784, 0.16045169521852784, 0.16045169521852784]","[0.16045169521852784, -1.4103446315763688, 0.16045169521852784, 0.16045169521852784, 0.16045169521852784, 0.16045169521852784]",0.002,7,1
0,91,"[0.14339086413383484, -1.4275686156800766, 0.14311725298036748, 0.14365319787945552, 0.14351370930671692, 0.143417626619339]","[0.8272770047187805, 0.8374495506286621, 0.8349706530570984, 0.8233179450035095, 0.8342406153678894, 0.8346354961395264]","[0.16123062299884008, -1.4095657037960565, 0.16123062299884008, 0.16123062299884008, 0.16123062299884008, 0.16123062299884008]","[0.16123062299884008, -1.4095657037960565, 0.16123062299884008, 0.16123062299884008, 0.16123062299884008, 0.16123062299884008]",0.002,7,1
0,92,"[0.1450222283601761, -1.4259313207915802, 0.1448124090777796, 0.14518909036602778, 0.14507167041301727, 0.14513544738292694]","[0.821355402469635, 0.8296393156051636, 0.8255594372749329, 0.8099029064178467, 0.8241653442382812, 0.8246380090713501]","[0.16200853154368505, -1.4087877952512116, 0.16200853154368505, 0.16200853154368505, 0.16200853154368505, 0.16200853154368505]","[0.16200853154368505, -1.4087877952512116, 0.16200853154368505, 0.16200853154368505, 0.16200853154368505, 0.16200853154368505]",0.002,7,1
0,93,"[0.14663344621658325, -1.4242442411235352, 0.1464322249041956, 0.146801157588623, 0.14667902886867523, 0.14681380987167358]","[0.8069923520088196, 0.8199915885925293, 0.8144237399101257, 0.7993605136871338, 0.8149521946907043, 0.8149207234382629]","[0.16278541593543633, -1.4080109108594603, 0.16278541593543633, 0.16278541593543633, 0.16278541593543633, 0.16278541593543633]","[0.16278541593543633, -1.4080109108594603, 0.16278541593543633, 0.16278541593543633, 0.16278541593543633, 0.16278541593543633]",0.002,7,1
0,94,"[0.14827153086662292, -1.4226479542306443, 0.14803630510439092, 0.14826898157086177, 0.1483047604560852, 0.14841805398464203]","[0.7989956736564636, 0.8102402687072754, 0.8069609999656677, 0.7953938245773315, 0.8029106855392456, 0.8042505383491516]","[0.1635612712629417, -1.4072350555319548, 0.1635612712629417, 0.1635612712629417, 0.1635612712629417, 0.1635612712629417]","[0.1635612712629417, -1.4072350555319548, 0.1635612712629417, 0.1635612712629417, 0.1635612712629417, 0.1635612712629417]",0.002,7,1
0,95,"[0.15131798386573792, -1.4193517428687592, 0.1511924902545374, 0.15131287157025142, 0.1515548825263977, 0.15159426629543304]","[0.7750855088233948, 0.7899923920631409, 0.7802069783210754, 0.780265212059021, 0.7821429371833801, 0.7782389521598816]","[0.16433609262155432, -1.4064602341733423, 0.16433609262155432, 0.16433609262155432, 0.16433609262155432, 0.16433609262155432]","[0.16433609262155432, -1.4064602341733423, 0.16433609262155432, 0.16433609262155432, 0.16433609262155432, 0.16433609262155432]",0.002,7,1
0,96,"[0.15131798386573792, -1.4193517428687592, 0.1511924902545374, 0.15131287157025142, 0.1515548825263977, 0.15159426629543304]","[0.7750855088233948, 0.7899923920631409, 0.7802069783210754, 0.780265212059021, 0.7821429371833801, 0.7782389521598816]","[0.1651098751131637, -1.405686451681733, 0.1651098751131637, 0.1651098751131637, 0.1651098751131637, 0.1651098751131637]","[0.1651098751131637, -1.405686451681733, 0.1651098751131637, 0.1651098751131637, 0.1651098751131637, 0.1651098751131637]",0.002,7,1
0,97,"[0.1543540358543396, -1.4161556226066132, 0.15432531038393194, 0.15430860101666255, 0.15464316308498383, 0.1546953320503235]","[0.7535585165023804, 0.7679594159126282, 0.7641209363937378, 0.7594053149223328, 0.7605756521224976, 0.7559660077095032]","[0.1658826138462266, -1.40491371294867, 0.1658826138462266, 0.1658826138462266, 0.1658826138462266, 0.1658826138462266]","[0.1658826138462266, -1.40491371294867, 0.1658826138462266, 0.1658826138462266, 0.1658826138462266, 0.1658826138462266]",0.002,7,1
0,98,"[0.1543540358543396, -1.4161556226066132, 0.15432531038393194, 0.15430860101666255, 0.15464316308498383, 0.1546953320503235]","[0.7535585165023804, 0.7679594159126282, 0.7641209363937378, 0.7594053149223328, 0.7605756521224976, 0.7559660077095032]","[0.166654303935798, -1.4041420228590986, 0.166654303935798, 0.166654303935798, 0.166654303935798, 0.166654303935798]","[0.166654303935798, -1.4041420228590986, 0.166654303935798, 0.166654303935798, 0.166654303935798, 0.166654303935798]",0.002,7,1
0,99,"[0.15723863244056702, -1.4132349503091355, 0.15736753145326787, 0.15736763059582515, 0.15766893327236176, 0.157723531126976]","[0.729493260383606, 0.7395555377006531, 0.7420976758003235, 0.7442530989646912, 0.7328917384147644, 0.7312158346176147]","[0.16742494050356208, -1.4033713862913344, 0.16742494050356208, 0.16742494050356208, 0.16742494050356208, 0.16742494050356208]","[0.16742494050356208, -1.4033713862913344, 0.16742494050356208, 0.16742494050356208, 0.16742494050356208, 0.16742494050356208]",0.002,7,1
0,100,"[0.15866731107234955, -1.411699817781784, 0.15877896944154912, 0.15882889806713862, 0.15913352370262146, 0.1591217964887619]","[0.7210209965705872, 0.7279437780380249, 0.7280726432800293, 0.7319691777229309, 0.7204849720001221, 0.7200818061828613]","[0.1681945186778629, -1.4026018081170337, 0.1681945186778629, 0.1681945186778629, 0.1681945186778629, 0.1681945186778629]","[0.1681945186778629, -1.4026018081170337, 0.1681945186778629, 0.1681945186778629, 0.1681945186778629, 0.1681945186778629]",0.002,7,1
0,101,"[0.16005811095237732, -1.4103097033551713, 0.1602409521685999, 0.16026846944775386, 0.16050413250923157, 0.16056008636951447]","[0.7088900804519653, 0.7162001729011536, 0.7157167196273804, 0.7182218432426453, 0.7106586694717407, 0.7077661156654358]","[0.16896303359373518, -1.4018332932011615, 0.16896303359373518, 0.16896303359373518, 0.16896303359373518, 0.16896303359373518]","[0.16896303359373518, -1.4018332932011615, 0.16896303359373518, 0.16896303359373518, 0.16896303359373518, 0.16896303359373518]",0.002,7,1
0,102,"[0.16156168282032013, -1.4088887137225647, 0.161722485219137, 0.16171412050213618, 0.16191864013671875, 0.16189540922641754]","[0.6955986618995667, 0.7050862312316895, 0.7068554759025574, 0.7045185565948486, 0.69795161485672, 0.6960561275482178]","[0.16973048039293528, -1.4010658464019612, 0.16973048039293528, 0.16973048039293528, 0.16973048039293528, 0.16973048039293528]","[0.16973048039293528, -1.4010658464019612, 0.16973048039293528, 0.16973048039293528, 0.16973048039293528, 0.16973048039293528]",0.002,7,1
0,103,"[0.1629238724708557, -1.4074679476073761, 0.16307193437685186, 0.1631958919712524, 0.16329628229141235, 0.1632109135389328]","[0.6861554384231567, 0.6917935609817505, 0.6949366927146912, 0.6909658312797546, 0.6834385395050049, 0.6818981170654297]","[0.17049685422397173, -1.4002994725709248, 0.17049685422397173, 0.17049685422397173, 0.17049685422397173, 0.17049685422397173]","[0.17049685422397173, -1.4002994725709248, 0.17049685422397173, 0.17049685422397173, 0.17049685422397173, 0.17049685422397173]",0.002,7,1
0,104,"[0.16435948014259338, -1.406222866182663, 0.16444665590395147, 0.16458897172894282, 0.1646021455526352, 0.16454780101776123]","[0.6771002411842346, 0.6829593777656555, 0.6830641031265259, 0.6790285706520081, 0.6724799275398254, 0.67115718126297]","[0.17126215024213584, -1.3995341765527607, 0.17126215024213584, 0.17126215024213584, 0.17126215024213584, 0.17126215024213584]","[0.17126215024213584, -1.3995341765527607, 0.17126215024213584, 0.17126215024213584, 0.17126215024213584, 0.17126215024213584]",0.002,7,1
0,105,"[0.1656579077243805, -1.4048386079123993, 0.1658251921283167, 0.16598026334729, 0.16591691970825195, 0.16586320102214813]","[0.6631444692611694, 0.6723736524581909, 0.6706638932228088, 0.6679665446281433, 0.6589342355728149, 0.6614105701446533]","[0.1720263636095325, -1.398769963185364, 0.1720263636095325, 0.1720263636095325, 0.1720263636095325, 0.1720263636095325]","[0.1720263636095325, -1.398769963185364, 0.1720263636095325, 0.1720263636095325, 0.1720263636095325, 0.1720263636095325]",0.002,7,1
0,106,"[0.1669369786977768, -1.4035170537284394, 0.1671069304095667, 0.16735856115307612, 0.1671980619430542, 0.16712720692157745]","[0.6525636911392212, 0.6590034365653992, 0.6606425046920776, 0.6550149917602539, 0.6478311419487, 0.6523541808128357]","[0.1727894894951107, -1.3980068372997858, 0.1727894894951107, 0.1727894894951107, 0.1727894894951107, 0.1727894894951107]","[0.1727894894951107, -1.3980068372997858, 0.1727894894951107, 0.1727894894951107, 0.1727894894951107, 0.1727894894951107]",0.002,7,1
0,107,"[0.16819578409194946, -1.402247892027237, 0.1684511343585413, 0.16865233957257075, 0.1684601604938507, 0.16835428774356842]","[0.6398261785507202, 0.6518921852111816, 0.6487551331520081, 0.6449423432350159, 0.6380413770675659, 0.6422570943832397]","[0.17355152307469404, -1.3972448037202025, 0.17355152307469404, 0.17355152307469404, 0.17355152307469404, 0.17355152307469404]","[0.17355152307469404, -1.3972448037202025, 0.17355152307469404, 0.17355152307469404, 0.17355152307469404, 0.17355152307469404]",0.002,7,1
0,108,"[0.16945777833461761, -1.4009202879718323, 0.1697314421283167, 0.16989283143963618, 0.1697051227092743, 0.16961289942264557]","[0.6276422739028931, 0.6395453810691833, 0.6353725790977478, 0.6284357309341431, 0.6286765336990356, 0.631300151348114]","[0.17431245953101113, -1.3964838672638855, 0.17431245953101113, 0.17431245953101113, 0.17431245953101113, 0.17431245953101113]","[0.17431245953101113, -1.3964838672638855, 0.17431245953101113, 0.17431245953101113, 0.17431245953101113, 0.17431245953101113]",0.002,7,1
0,109,"[0.17068517208099365, -1.3996866357377549, 0.17096501985658819, 0.17107073842968745, 0.17092853784561157, 0.17083044350147247]","[0.6147783994674683, 0.6271467208862305, 0.6190400719642639, 0.6107116341590881, 0.6183475255966187, 0.6219938397407532]","[0.17507229405372643, -1.3957240327411702, 0.17507229405372643, 0.17507229405372643, 0.17507229405372643, 0.17507229405372643]","[0.17507229405372643, -1.3957240327411702, 0.17507229405372643, 0.17507229405372643, 0.17507229405372643, 0.17507229405372643]",0.002,7,1
0,110,"[0.17189627885818481, -1.39847485840831, 0.17215425172914678, 0.1723509269901733, 0.17205089330673218, 0.17196859419345856]","[0.6080120801925659, 0.6166653633117676, 0.6088838577270508, 0.5986800789833069, 0.609086811542511, 0.6110873222351074]","[0.17583102183946997, -1.3949653049554267, 0.17583102183946997, 0.17583102183946997, 0.17583102183946997, 0.17583102183946997]","[0.17583102183946997, -1.3949653049554267, 0.17583102183946997, 0.17583102183946997, 0.17583102183946997, 0.17583102183946997]",0.002,7,1
0,111,"[0.17311128973960876, -1.3972691309503098, 0.17334109941591436, 0.1734960514255981, 0.17326390743255615, 0.17322325706481934]","[0.5962584018707275, 0.6093267202377319, 0.5988182425498962, 0.5867282152175903, 0.596203625202179, 0.6012644171714783]","[0.17658863809186856, -1.394207688703028, 0.17658863809186856, 0.17658863809186856, 0.17658863809186856, 0.17658863809186856]","[0.17658863809186856, -1.394207688703028, 0.17658863809186856, 0.17658863809186856, 0.17658863809186856, 0.17658863809186856]",0.002,7,1
0,112,"[0.17427977919578552, -1.396109328871109, 0.17445356050600225, 0.17466120302166743, 0.17439040541648865, 0.17440591752529144]","[0.5850950479507446, 0.5961123704910278, 0.5861579775810242, 0.5757197141647339, 0.5842018127441406, 0.5874672532081604]","[0.17734513802157542, -1.3934511887733212, 0.17734513802157542, 0.17734513802157542, 0.17734513802157542, 0.17734513802157542]","[0.17734513802157542, -1.3934511887733212, 0.17734513802157542, 0.17734513802157542, 0.17734513802157542, 0.17734513802157542]",0.002,7,1
0,113,"[0.1754595935344696, -1.3949509871057053, 0.17560989061464483, 0.17575494825329585, 0.1755596101284027, 0.17558303475379944]","[0.5740880370140076, 0.5809932947158813, 0.5739280581474304, 0.5671548247337341, 0.5722395181655884, 0.5757068395614624]","[0.17810051684630074, -1.3926958099485958, 0.17810051684630074, 0.17810051684630074, 0.17810051684630074, 0.17810051684630074]","[0.17810051684630074, -1.3926958099485958, 0.17810051684630074, 0.17810051684630074, 0.17810051684630074, 0.17810051684630074]",0.002,7,1
0,114,"[0.17664207518100739, -1.3937902611545105, 0.17671233812441045, 0.17681626855816646, 0.17661020159721375, 0.17663486301898956]","[0.5637547969818115, 0.5674789547920227, 0.5626183748245239, 0.5564526915550232, 0.5629945397377014, 0.5666194558143616]","[0.17885476979084194, -1.3919415570040545, 0.17885476979084194, 0.17885476979084194, 0.17885476979084194, 0.17885476979084194]","[0.17885476979084194, -1.3919415570040545, 0.17885476979084194, 0.17885476979084194, 0.17885476979084194, 0.17885476979084194]",0.002,7,1
0,115,"[0.17664207518100739, -1.3937902611545105, 0.17671233812441045, 0.17681626855816646, 0.17661020159721375, 0.17663486301898956]","[0.5516641139984131, 0.5591235160827637, 0.554277241230011, 0.5489393472671509, 0.5518571734428406, 0.5544515252113342]","[0.17960789208711384, -1.3911884347077828, 0.17960789208711384, 0.17960789208711384, 0.17960789208711384, 0.17960789208711384]","[0.17960789208711384, -1.3911884347077828, 0.17960789208711384, 0.17960789208711384, 0.17960789208711384, 0.17960789208711384]",0.002,7,1
0,116,"[0.1787554919719696, -1.3916381758502503, 0.1788705031024378, 0.17885534345593257, 0.1788865327835083, 0.17892839014530182]","[0.5396853685379028, 0.5460785031318665, 0.5421968698501587, 0.5352859497070312, 0.5437853932380676, 0.5431302785873413]","[0.18035987897417868, -1.3904364478207178, 0.18035987897417868, 0.18035987897417868, 0.18035987897417868, 0.18035987897417868]","[0.18035987897417868, -1.3904364478207178, 0.18035987897417868, 0.18035987897417868, 0.18035987897417868, 0.18035987897417868]",0.002,7,1
0,117,"[0.17980916798114777, -1.3905803573182602, 0.1799228827105921, 0.1798826891132812, 0.17992669343948364, 0.1799919307231903]","[0.5313738584518433, 0.5319400429725647, 0.5305651426315308, 0.523226261138916, 0.5317175388336182, 0.5310128927230835]","[0.18111072569827633, -1.3896856010966203, 0.18111072569827633, 0.18111072569827633, 0.18111072569827633, 0.18111072569827633]","[0.18111072569827633, -1.3896856010966203, 0.18111072569827633, 0.18111072569827633, 0.18111072569827633, 0.18111072569827633]",0.002,7,1
0,118,"[0.1809253990650177, -1.3895828884891053, 0.18095761934389287, 0.18093471109356685, 0.18100306391716003, 0.1810297816991806]","[0.5203771591186523, 0.5172637104988098, 0.5163810849189758, 0.5175144672393799, 0.5215173363685608, 0.5195218324661255]","[0.1818604275128543, -1.3889358992820422, 0.1818604275128543, 0.1818604275128543, 0.1818604275128543, 0.1818604275128543]","[0.1818604275128543, -1.3889358992820422, 0.1818604275128543, 0.1818604275128543, 0.1818604275128543, 0.1818604275128543]",0.002,7,1
0,119,"[0.18201372027397156, -1.3885715168765564, 0.18194944063295537, 0.18194572507824702, 0.18204094469547272, 0.1821153610944748]","[0.5110962986946106, 0.5051597952842712, 0.5072453022003174, 0.5117917060852051, 0.5101234316825867, 0.5091224312782288]","[0.18260897967859785, -1.3881873471162987, 0.18260897967859785, 0.18260897967859785, 0.18260897967859785, 0.18260897967859785]","[0.18260897967859785, -1.3881873471162987, 0.18260897967859785, 0.18260897967859785, 0.18260897967859785, 0.18260897967859785]",0.002,7,1
0,120,"[0.18295976519584656, -1.3875399988940735, 0.1829155127154749, 0.18289343893017573, 0.18301965296268463, 0.18313591182231903]","[0.4995855689048767, 0.49374160170555115, 0.49711307883262634, 0.5038480758666992, 0.49722445011138916, 0.49885809421539307]","[0.1833563774634597, -1.3874399493314369, 0.1833563774634597, 0.1833563774634597, 0.1833563774634597, 0.1833563774634597]","[0.1833563774634597, -1.3874399493314369, 0.1833563774634597, 0.1833563774634597, 0.1833563774634597, 0.1833563774634597]",0.002,7,1
0,121,"[0.1839911788702011, -1.3866005551866074, 0.1838772932635706, 0.1838884788700561, 0.18406006693840027, 0.1840742826461792]","[0.49219584465026855, 0.4832245707511902, 0.4876710772514343, 0.49306318163871765, 0.4890361726284027, 0.4855889081954956]","[0.1841026161426903, -1.3866937106522061, 0.1841026161426903, 0.1841026161426903, 0.1841026161426903, 0.1841026161426903]","[0.1841026161426903, -1.3866937106522061, 0.1841026161426903, 0.1841026161426903, 0.1841026161426903, 0.1841026161426903]",0.002,7,1
0,122,"[0.18489736318588257, -1.3856684577516098, 0.1848214308368128, 0.18483118593182368, 0.1850353479385376, 0.18504194915294647]","[0.48300260305404663, 0.4703769385814667, 0.4755259156227112, 0.48291337490081787, 0.47707873582839966, 0.47518712282180786]","[0.18484769099886728, -1.3859486357960293, 0.18484769099886728, 0.18484769099886728, 0.18484769099886728, 0.18484769099886728]","[0.18484769099886728, -1.3859486357960293, 0.18484769099886728, 0.18484769099886728, 0.18484769099886728, 0.18484769099886728]",0.002,7,1
0,123,"[0.18584267795085907, -1.3847299677184601, 0.18574935594667608, 0.1857653099247436, 0.18596062064170837, 0.18603214621543884]","[0.4709510803222656, 0.45778924226760864, 0.4655953645706177, 0.4734628200531006, 0.4660504162311554, 0.46479377150535583]","[0.18559159732192573, -1.3852047294729708, 0.18559159732192573, 0.18559159732192573, 0.18559159732192573, 0.18559159732192573]","[0.18559159732192573, -1.3852047294729708, 0.18559159732192573, 0.18559159732192573, 0.18559159732192573, 0.18559159732192573]",0.002,7,1
0,124,"[0.18675950169563293, -1.3838909429362793, 0.18663150468935186, 0.1866416174122314, 0.18690775334835052, 0.18692666292190552]","[0.4604850709438324, 0.4468006193637848, 0.4529489278793335, 0.4632463753223419, 0.455451637506485, 0.4536231458187103]","[0.1863343304091875, -1.384461996385709, 0.1863343304091875, 0.1863343304091875, 0.1863343304091875, 0.1863343304091875]","[0.1863343304091875, -1.384461996385709, 0.1863343304091875, 0.1863343304091875, 0.1863343304091875, 0.1863343304091875]",0.002,7,1
0,125,"[0.1876388043165207, -1.3829970520785828, 0.18759519258608037, 0.1875493961521606, 0.18780191242694855, 0.18780261278152466]","[0.4489946663379669, 0.4359046220779419, 0.44463813304901123, 0.45210424065589905, 0.4447503685951233, 0.4435509145259857]","[0.18707588556539143, -1.3837204412295052, 0.18707588556539143, 0.18707588556539143, 0.18707588556539143, 0.18707588556539143]","[0.18707588556539143, -1.3837204412295052, 0.18707588556539143, 0.18707588556539143, 0.18707588556539143, 0.18707588556539143]",0.002,7,1
0,126,"[0.18857507407665253, -1.3821365398219605, 0.18848687807192022, 0.18843833982434077, 0.18871955573558807, 0.18870848417282104]","[0.4403664171695709, 0.42599108815193176, 0.43549567461013794, 0.44104060530662537, 0.4357934296131134, 0.43360331654548645]","[0.18781625810272246, -1.382980068692174, 0.18781625810272246, 0.18781625810272246, 0.18781625810272246, 0.18781625810272246]","[0.18781625810272246, -1.382980068692174, 0.18781625810272246, 0.18781625810272246, 0.18781625810272246, 0.18781625810272246]",0.002,7,1
0,127,"[0.18945609033107758, -1.3812844318202515, 0.18931562105287725, 0.1893259721943359, 0.1895887553691864, 0.18958839774131775]","[0.4293975532054901, 0.41679635643959045, 0.4254457354545593, 0.4298911988735199, 0.4243538975715637, 0.42389005422592163]","[0.18855544334084182, -1.3822408834540547, 0.18855544334084182, 0.18855544334084182, 0.18855544334084182, 0.18855544334084182]","[0.18855544334084182, -1.3822408834540547, 0.18855544334084182, 0.18855544334084182, 0.18855544334084182, 0.18855544334084182]",0.002,7,1
0,128,"[0.18945609033107758, -1.3812844318202515, 0.18931562105287725, 0.1893259721943359, 0.1895887553691864, 0.18958839774131775]","[0.4293975532054901, 0.41679635643959045, 0.4254457354545593, 0.4298911988735199, 0.4243538975715637, 0.42389005422592163]","[0.1892934366069163, -1.3815028901879802, 0.1892934366069163, 0.1892934366069163, 0.1892934366069163, 0.1892934366069163]","[0.1892934366069163, -1.3815028901879802, 0.1892934366069163, 0.1892934366069163, 0.1892934366069163, 0.1892934366069163]",0.002,7,1
0,129,"[0.19106142222881317, -1.3796764028123398, 0.1910021940814417, 0.19102172433819575, 0.19124901294708252, 0.1912134736776352]","[0.4099158048629761, 0.40003731846809387, 0.40652772784233093, 0.4136882424354553, 0.4039860963821411, 0.40304404497146606]","[0.19003023323564783, -1.3807660935592487, 0.19003023323564783, 0.19003023323564783, 0.19003023323564783, 0.19003023323564783]","[0.19003023323564783, -1.3807660935592487, 0.19003023323564783, 0.19003023323564783, 0.19003023323564783, 0.19003023323564783]",0.002,7,1
0,130,"[0.19184140861034393, -1.378883422618248, 0.1917484442340296, 0.19187919675793452, 0.19200477004051208, 0.19197803735733032]","[0.3966132700443268, 0.3913465142250061, 0.3969000577926636, 0.40424829721450806, 0.39257878065109253, 0.3941223621368408]","[0.19076582856930302, -1.3800304982255935, 0.19076582856930302, 0.19076582856930302, 0.19076582856930302, 0.19076582856930302]","[0.19076582856930302, -1.3800304982255935, 0.19076582856930302, 0.19076582856930302, 0.19076582856930302, 0.19076582856930302]",0.002,7,1
0,131,"[0.19264867901802063, -1.378038839702942, 0.19256669679750615, 0.19268230974163814, 0.19277091324329376, 0.19271573424339294]","[0.3875029981136322, 0.3829119801521301, 0.388821542263031, 0.39368048310279846, 0.38559937477111816, 0.3863602578639984]","[0.19150021795774258, -1.379296108837154, 0.19150021795774258, 0.19150021795774258, 0.19150021795774258, 0.19150021795774258]","[0.19150021795774258, -1.379296108837154, 0.19150021795774258, 0.19150021795774258, 0.19150021795774258, 0.19150021795774258]",0.002,7,1
0,132,"[0.19346106052398682, -1.3773374569467087, 0.19335967699159795, 0.19344787179913325, 0.19352726638317108, 0.19344060122966766]","[0.3789476454257965, 0.3768312335014343, 0.3792581856250763, 0.3796372711658478, 0.3785679042339325, 0.3761632442474365]","[0.19223339675845078, -1.3785629300364457, 0.19223339675845078, 0.19223339675845078, 0.19223339675845078, 0.19223339675845078]","[0.19223339675845078, -1.3785629300364457, 0.19223339675845078, 0.19223339675845078, 0.19223339675845078, 0.19223339675845078]",0.002,7,1
0,133,"[0.19416695833206177, -1.3765927267125626, 0.19409543672670537, 0.19417481004681392, 0.1942400485277176, 0.19417236745357513]","[0.3709489405155182, 0.36793196201324463, 0.3723050355911255, 0.3683742582798004, 0.36804425716400146, 0.3684757351875305]","[0.19296536033656458, -1.377830966458332, 0.19296536033656458, 0.19296536033656458, 0.19296536033656458, 0.19296536033656458]","[0.19296536033656458, -1.377830966458332, 0.19296536033656458, 0.19296536033656458, 0.19296536033656458, 0.19296536033656458]",0.002,7,1
0,134,"[0.1948872208595276, -1.3758215320161362, 0.19480687776674444, 0.19495265066113276, 0.1949567049741745, 0.1948816031217575]","[0.36187946796417236, 0.36446505784988403, 0.3655419647693634, 0.36183321475982666, 0.35779809951782227, 0.3606390953063965]","[0.19369610406490334, -1.377100222729993, 0.19369610406490334, 0.19369610406490334, 0.19369610406490334, 0.19369610406490334]","[0.19369610406490334, -1.377100222729993, 0.19369610406490334, 0.19369610406490334, 0.19369610406490334, 0.19369610406490334]",0.002,7,1
0,135,"[0.19560451805591583, -1.3751261991313477, 0.19557315507997686, 0.1957276302525024, 0.1956000030040741, 0.1956297755241394]","[0.3542548418045044, 0.3536786437034607, 0.35647740960121155, 0.35450464487075806, 0.35016492009162903, 0.35094010829925537]","[0.19442562332399757, -1.376370703470899, 0.19442562332399757, 0.19442562332399757, 0.19442562332399757, 0.19442562332399757]","[0.19442562332399757, -1.376370703470899, 0.19442562332399757, 0.19442562332399757, 0.19442562332399757, 0.19442562332399757]",0.002,7,1
0,136,"[0.19632478058338165, -1.3744536352208634, 0.19625693956484014, 0.1964760261723022, 0.19625449180603027, 0.19631142914295197]","[0.3435726761817932, 0.3480473458766937, 0.3499657213687897, 0.34850412607192993, 0.34226080775260925, 0.34497612714767456]","[0.1951539135021186, -1.375642413292778, 0.1951539135021186, 0.1951539135021186, 0.1951539135021186, 0.1951539135021186]","[0.1951539135021186, -1.375642413292778, 0.1951539135021186, 0.1951539135021186, 0.1951539135021186, 0.1951539135021186]",0.002,7,1
0,137,"[0.19700157642364502, -1.3737903100303193, 0.1969998518573206, 0.19711916028942866, 0.19694998860359192, 0.19693633913993835]","[0.33585041761398315, 0.3420281410217285, 0.34135621786117554, 0.33739355206489563, 0.33476483821868896, 0.3366587162017822]","[0.19588096999530732, -1.3749153567995893, 0.19588096999530732, 0.19588096999530732, 0.19588096999530732, 0.19588096999530732]","[0.19588096999530732, -1.3749153567995893, 0.19588096999530732, 0.19588096999530732, 0.19588096999530732, 0.19588096999530732]",0.002,7,1
0,138,"[0.19764584302902222, -1.3730888080647965, 0.1975939909564417, 0.19776861249890132, 0.19765904545783997, 0.19757454097270966]","[0.3301065266132355, 0.3336304724216461, 0.3336714208126068, 0.32664090394973755, 0.3288472592830658, 0.3282228112220764]","[0.19660678820740363, -1.374189538587493, 0.19660678820740363, 0.19660678820740363, 0.19660678820740363, 0.19660678820740363]","[0.19660678820740363, -1.374189538587493, 0.19660678820740363, 0.19660678820740363, 0.19660678820740363, 0.19660678820740363]",0.002,7,1
0,139,"[0.19764584302902222, -1.3730888080647965, 0.1975939909564417, 0.19776861249890132, 0.19765904545783997, 0.19757454097270966]","[0.3301065266132355, 0.3336304724216461, 0.3336714208126068, 0.32664090394973755, 0.3288472592830658, 0.3282228112220764]","[0.19733136355007524, -1.3734649632448213, 0.19733136355007524, 0.19733136355007524, 0.19733136355007524, 0.19733136355007524]","[0.19733136355007524, -1.3734649632448213, 0.19733136355007524, 0.19733136355007524, 0.19733136355007524, 0.19733136355007524]",0.002,7,1
0,140,"[0.19888734817504883, -1.3717863720706482, 0.1989205519305628, 0.1990545231052856, 0.19891777634620667, 0.19876453280448914]","[0.3118627071380615, 0.3234252631664276, 0.31955182552337646, 0.3105360269546509, 0.3159424066543579, 0.31626081466674805]","[0.19805469144284696, -1.3727416353520496, 0.19805469144284696, 0.19805469144284696, 0.19805469144284696, 0.19805469144284696]","[0.19805469144284696, -1.3727416353520496, 0.19805469144284696, 0.19805469144284696, 0.19805469144284696, 0.19805469144284696]",0.002,7,1
0,141,"[0.19950905442237854, -1.3711985510638733, 0.19956571260561162, 0.19964925825085444, 0.1994796097278595, 0.19943128526210785]","[0.3060608506202698, 0.3119751513004303, 0.3103528916835785, 0.3046782910823822, 0.307355135679245, 0.30995088815689087]","[0.19877676731312927, -1.3720195594817672, 0.19877676731312927, 0.19877676731312927, 0.19877676731312927, 0.19877676731312927]","[0.19877676731312927, -1.3720195594817672, 0.19877676731312927, 0.19877676731312927, 0.19877676731312927, 0.19877676731312927]",0.002,7,1
0,142,"[0.2001117467880249, -1.3705574733069916, 0.20013028780092412, 0.2003003793903808, 0.2000984102487564, 0.19997598230838776]","[0.29837507009506226, 0.30623316764831543, 0.30256912112236023, 0.29427239298820496, 0.30070772767066956, 0.3045293092727661]","[0.19949758659624753, -1.371298740198649, 0.19949758659624753, 0.19949758659624753, 0.19949758659624753, 0.19949758659624753]","[0.19949758659624753, -1.371298740198649, 0.19949758659624753, 0.19949758659624753, 0.19949758659624753, 0.19949758659624753]",0.002,7,1
0,143,"[0.20068639516830444, -1.3699939560941239, 0.20071584383119756, 0.2009221750446777, 0.20064587891101837, 0.20061102509498596]","[0.2923012375831604, 0.30122923851013184, 0.2946139872074127, 0.28805965185165405, 0.29315733909606934, 0.29818087816238403]","[0.20021714473547073, -1.3705791820594257, 0.20021714473547073, 0.20021714473547073, 0.20021714473547073, 0.20021714473547073]","[0.20021714473547073, -1.3705791820594257, 0.20021714473547073, 0.20021714473547073, 0.20021714473547073, 0.20021714473547073]",0.002,7,1
0,144,"[0.20123857259750366, -1.3694646221450348, 0.20127374330629522, 0.2014186817356567, 0.20122358202934265, 0.20117583870887756]","[0.28635549545288086, 0.2927663028240204, 0.29103219509124756, 0.28164416551589966, 0.2876878082752228, 0.2914867103099823]","[0.20093543718204032, -1.3698608896128563, 0.20093543718204032, 0.20093543718204032, 0.20093543718204032, 0.20093543718204032]","[0.20093543718204032, -1.3698608896128563, 0.20093543718204032, 0.20093543718204032, 0.20093543718204032, 0.20093543718204032]",0.002,7,1
0,145,"[0.20185579359531403, -1.3688980054906388, 0.20189124742616826, 0.20203451692547603, 0.2018221616744995, 0.20173746347427368]","[0.2803463935852051, 0.28652143478393555, 0.28395748138427734, 0.2741612195968628, 0.2795272171497345, 0.28289657831192017]","[0.20165245939519896, -1.3691438673996976, 0.20165245939519896, 0.20165245939519896, 0.20165245939519896, 0.20165245939519896]","[0.20165245939519896, -1.3691438673996976, 0.20165245939519896, 0.20165245939519896, 0.20165245939519896, 0.20165245939519896]",0.002,7,1
0,146,"[0.20240744948387146, -1.3683213752559205, 0.2024319807635706, 0.20253674566235347, 0.2023332715034485, 0.20225964486598969]","[0.2721610367298126, 0.2805006504058838, 0.2772996127605438, 0.26867884397506714, 0.2741832137107849, 0.2787981927394867]","[0.2023682068422192, -1.3684281199526773, 0.2023682068422192, 0.2023682068422192, 0.2023682068422192, 0.2023682068422192]","[0.2023682068422192, -1.3684281199526773, 0.2023682068422192, 0.2023682068422192, 0.2023682068422192, 0.2023682068422192]",0.002,7,1
0,147,"[0.20297618210315704, -1.3678164196065445, 0.20294410387148076, 0.2030889230915527, 0.2028549164533615, 0.20280537009239197]","[0.2678033113479614, 0.2770026922225952, 0.2705197334289551, 0.2608100473880768, 0.27049365639686584, 0.2735927104949951]","[0.2030826749984321, -1.3677136517964645, 0.2030826749984321, 0.2030826749984321, 0.2030826749984321, 0.2030826749984321]","[0.2030826749984321, -1.3677136517964645, 0.2030826749984321, 0.2030826749984321, 0.2030826749984321, 0.2030826749984321]",0.002,7,1
