Arnibjarnst/BoxLift/logs/ur_rtde/trajectory_dur=10.0_delay=0.0_ampl=20.0_real.csv
arm_idx,step,actual_q,expected_q,loop_time,robot_mode,safety_mode
0,-1,"[-0.00641042390932256, -1.5771104298033656, -0.006336598191410303, -0.0063716930202026845, -0.006357494984762013, -0.006328884755269826]","[0.0, -1.5707963267948966, 0.0, 0.0, 0.0, 0.0]",0.002,7,1
0,-1,"[-0.004570786152974904, -1.5752459965147914, -0.004490773659199476, -0.004499987964965868, -0.004479233418599904, -0.004485909138814748]","[0.0, -1.5707963267948966, 0.0, 0.0, 0.0, 0.0]",0.002,7,1
0,-1,"[-0.0037997404681604507, -1.574413915673727, -0.0037284470163285732, -0.0037220281413574696, -0.003670994435445607, -0.003628555928365529]","[0.0, -1.5707963267948966, 0.0, 0.0, 0.0, 0.0]",0.002,7,1
0,-1,"[-0.002835575734273732, -1.5736199818053187, -0.002812442369759083, -0.0026824039271851063, -0.0026348272906702164, -0.0026286284076135757]","[0.0, -1.5707963267948966, 0.0, 0.0, 0.0, 0.0]",0.002,7,1
0,-1,"[-0.0020130316363733414, -1.572709699670309, -0.0019156145863234997, -0.0018887084773560048, -0.0018103758441370132, -0.0017936865435999039]","[0.0, -1.5707963267948966, 0.0, 0.0, 0.0, 0.0]",0.002,7,1
0,-1,"[-0.001233402882711232, -1.5719315014281214, -0.0011601566802710295, -0.0010872644237061024, -0.0010784308062952164, -0.0010760466205042007]","[0.0, -1.5707963267948966, 0.0, 0.0, 0.0, 0.0]",0.002,7,1
0,-1,"[-0.0008161703692834976, -1.5714904270567835, -0.0006437991396524012, -0.0006249707988281727, -0.0005686918841760757, -0.0005515257464807632]","[0.0, -1.5707963267948966, 0.0, 0.0, 0.0, 0.0]",0.002,7,1
0,-1,"[-0.00038987794984990387, -1.5711714229979457, -0.000313906668452546, -0.0003112119487305165, -0.0002206007586877945, -0.0002282301532190445]","[0.0, -1.5707963267948966, 0.0, 0.0, 0.0, 0.0]",0.002,7,1
0,-1,"[-0.00019246736635381012, -1.5708891354002894, -0.00012024439638480544, -7.183969531254775e-05, -4.941621889287262e-05, -6.086031068974762e-05]","[0.0, -1.5707963267948966, 0.0, 0.0, 0.0, 0.0]",0.002,7,1
0,-1,"[-0.00012427965273076325, -1.570874353448385, -3.910064697265625e-05, -6.814420733647353e-05, 7.152557373046875e-06, 3.3201079077116447e-06]","[0.0, -1.5707963267948966, 0.0, 0.0, 0.0, 0.0]",0.002,7,1
0,-1,"[-0.000157658253804982, -1.5710321865477503, -0.00015774322673678398, -1.497686419682509e-05, -8.231798280888825e-05, -6.515184511357575e-05]","[0.0, -1.5707963267948966, 0.0, 0.0, 0.0, 0.0]",0.002,7,1
0,-1,"[-0.00013238588442021637, -1.5709988079466761, -0.00010202181147178635, -3.118932757573134e-05, -4.941621889287262e-05, -5.799928774052887e-05]","[0.0, -1.5707963267948966, 0.0, 0.0, 0.0, 0.0]",0.002,7,1
0,-1,"[-0.000104252492086232, -1.5709520779051722, -0.00010654889774741605, -7.183969531254775e-05, -5.3707753316700746e-05, -4.464784731084137e-05]","[0.0, -1.5707963267948966, 0.0, 0.0, 0.0, 0.0]",0.002,7,1
0,-1,"[-0.00014859834779912262, -1.5709763966002406, -8.834674372337759e-05, -8.507192645268447e-05, -0.000100437794820607, -3.129640688115387e-05]","[0.0, -1.5707963267948966, 0.0, 0.0, 0.0, 0.0]",0.002,7,1
0,-1,"[-0.00013810793031865387, -1.570933004418844, -0.00010779911099234596, -3.560007128911025e-05, -4.560152162724762e-05, -1.2222920553028871e-05]","[0.0, -1.5707963267948966, 0.0, 0.0, 0.0, 0.0]",0.002,7,1
0,-1,"[-0.00012237230409795075, -1.5709206066527308, -0.00013494491577148438, -7.243574176030165e-05, -3.415742983037262e-05, -3.2726918355763246e-05]","[0.0, -1.5707963267948966, 0.0, 0.0, 0.0, 0.0]",0.002,7,1
0,-1,"[-0.00011998811830693512, -1.5709463558592738, -9.743125701788813e-05, -3.130853686528212e-05, 2.86102294921875e-06, -4.6078358785450746e-05]","[0.0, -1.5707963267948966, 0.0, 0.0, 0.0, 0.0]",0.002,7,1
0,-1,"[-0.00013333955873662262, -1.5708919964232386, -9.745860006660223e-05, -6.063402209477431e-05, -1.732503072560121e-06, -8.885060445606996e-06]","[0.0, -1.5707963267948966, 0.0, 0.0, 0.0, 0.0]",0.002,7,1
0,-1,"[-8.70863543909195e-05, -1.5709511242308558, -0.00013940570352133363, -3.0559352417469654e-06, 2.86102294921875e-06, -2.080598940068512e-05]","[0.0, -1.5707963267948966, 0.0, 0.0, 0.0, 0.0]",0.002,7,1
0,-1,"[-0.00012666383852177887, -1.5709930859007777, -0.0001230330381076783, 8.86499371333116e-06, 7.152557373046875e-06, -2.080598940068512e-05]","[0.0, -1.5707963267948966, 0.0, 0.0, 0.0, 0.0]",0.002,7,1
0,-1,"[-0.00011140504945927887, -1.5709883175291957, -0.00010202181147178635, -6.051481280522353e-05, -1.7468129293263246e-05, -1.6514454976856996e-05]","[0.0, -1.5707963267948966, 0.0, 0.0, 0.0, 0.0]",0.002,7,1
0,-1,"[-7.802644838506012e-05, -1.5708891354002894, -8.273396815638989e-05, -1.1758213378953997e-05, -1.7468129293263246e-05, -3.0199159795074593e-07]","[0.0, -1.5707963267948966, 0.0, 0.0, 0.0, 0.0]",0.002,7,1
0,-1,"[4.291534423828125e-06, -1.5709225140013636, -0.00012302398681640625, -3.560007128911025e-05, 2.286175003973767e-05, -2.5097523824513246e-05]","[0.0, -1.5707963267948966, 0.0, 0.0, 0.0, 0.0]",0.002,7,1
0,-1,"[-9.361897603810121e-06, -1.5709482632079066, -0.00011110305786132812, -4.430234942631728e-05, 2.758717891993001e-05, -2.9865895406544496e-05]","[0.0, -1.5707963267948966, 0.0, 0.0, 0.0, 0.0]",0.002,7,1
0,-1,"[-1.6514454976856996e-05, -1.5708939037718714, -5.199579754844308e-05, 8.86499371333116e-06, -1.5083943502247621e-05, 7.797099897288717e-06]","[0.0, -1.5707963267948966, 0.0, 0.0, 0.0, 0.0]",0.002,7,1
0,-1,"[-3.034273256474762e-05, -1.5708772144713343, -9.294343180954456e-05, -2.4990444519090715e-05, -8.088747133427887e-05, 1.9630591850727797e-05]","[0.0, -1.5707963267948966, 0.0, 0.0, 0.0, 0.0]",0.002,7,1
0,-1,"[3.265511622885242e-05, -1.5709177456297816, -0.0001292380620725453, -1.1758213378953997e-05, 2.7526377380127087e-05, -6.658235658818512e-05]","[0.0, -1.5707963267948966, 0.0, 0.0, 0.0, 0.0]",0.002,7,1
0,-1,"[-1.8421803609669496e-05, -1.5709239445128382, -0.00012483801401685923, 3.771364178462022e-05, -1.7468129293263246e-05, -8.885060445606996e-06]","[0.0, -1.5707963267948966, 0.0, 0.0, 0.0, 0.0]",0.002,7,1
0,-1,"[-2.8912221090138246e-05, -1.570855279962057, -0.00011110305786132812, 1.6271557612412835e-07, 6.410211426555179e-06, 3.724861016962677e-05]","[0.0, -1.5707963267948966, 0.0, 0.0, 0.0, 0.0]",0.002,7,1
0,-1,"[-3.0199159795074593e-07, -1.570843359033102, -5.3861134801991284e-05, 1.637517895503038e-05, -2.175966371709137e-05, -1.794496645146637e-05]","[0.0, -1.5707963267948966, 0.0, 0.0, 0.0, 0.0]",0.002,7,1
0,-1,"[-2.557436098271637e-05, -1.5707815055114516, -3.7331941712182015e-05, -4.561365161137587e-05, -2.9865895406544496e-05, -2.9865895406544496e-05]","[0.0, -1.5707963267948966, 0.0, 0.0, 0.0, 0.0]",0.002,7,1
0,-1,"[-5.8476124898731996e-05, -1.5707633880450267, -6.755991489626467e-05, -2.4990444519090715e-05, -1.0792409078419496e-05, 7.788181392243132e-06]","[0.0, -1.5707963267948966, 0.0, 0.0, 0.0, 0.0]",0.002,7,1
0,-1,"[4.0255472413264215e-05, -1.5708400211729945, -9.631847933633253e-05, -8.658771850633684e-06, 1.8358230590820312e-05, -2.2236500875294496e-05]","[0.0, -1.5707963267948966, 0.0, 0.0, 0.0, 0.0]",0.002,7,1
0,-1,"[-3.9402638570606996e-05, -1.5708261928954066, -2.714329821174033e-05, -3.667295489506728e-05, -2.652803529912262e-05, -3.0819569722950746e-05]","[0.0, -1.5707963267948966, 0.0, 0.0, 0.0, 0.0]",0.002,7,1
0,-1,"[2.6226043701171875e-06, -1.5708443127074183, -6.010281867929734e-05, -1.1758213378953997e-05, -8.408223287403871e-06, 2.4056982510956004e-05]","[0.0, -1.5707963267948966, 0.0, 0.0, 0.0, 0.0]",0.002,7,1
0,-1,"[-1.4130269185841371e-05, -1.5707886976054688, -1.936328953888733e-05, 1.2083644531202253e-05, 1.1151109902129974e-05, 3.3289657039858866e-06]","[0.0, -1.5707963267948966, 0.0, 0.0, 0.0, 0.0]",0.002,7,1
0,-1,"[-3.797212709599762e-05, -1.5708776913084925, -1.4781951904296875e-05, 2.901136364741319e-05, 2.0081699403817765e-05, -2.652803529912262e-05]","[0.0, -1.5707963267948966, 0.0, 0.0, 0.0, 0.0]",0.002,7,1
0,-1,"[1.161955970019335e-05, -1.5708309612669886, -3.623700104071759e-05, 1.637517895503038e-05, 3.661742448457517e-05, 3.3643680126260733e-06]","[0.0, -1.5707963267948966, 0.0, 0.0, 0.0, 0.0]",0.002,7,1
0,-1,"[-5.070363179981996e-06, -1.5708476505675257, -1.4745462976861745e-05, -3.238142047123915e-05, 4.3932166590821e-05, -1.7468129293263246e-05]","[0.0, -1.5707963267948966, 0.0, 0.0, 0.0, 0.0]",0.002,7,1
0,-1,"[1.1637896022875793e-05, -1.5708066425719203, -2.260446490254253e-05, 7.553691528272566e-06, -6.024037496388246e-06, 2.1183514036238194e-06]","[0.0, -1.5707963267948966, 0.0, 0.0, 0.0, 0.0]",0.002,7,1
0,-1,"[2.07341890927637e-05, -1.5708352528014125, -3.169774936395697e-05, -2.4990444519090715e-05, 2.7526377380127087e-05, -8.885060445606996e-06]","[0.0, -1.5707963267948966, 0.0, 0.0, 0.0, 0.0]",0.002,7,1
0,-1,"[2.6226043701171875e-06, -1.5708524189391078, -1.0339448635932058e-05, 7.553691528272566e-06, -1.7468129293263246e-05, 5.693513958249241e-05]","[0.0, -1.5707963267948966, 0.0, 0.0, 0.0, 0.0]",0.002,7,1
0,-1,"[-5.070363179981996e-06, -1.5708142719664515, -3.169774936395697e-05, 1.649438824458116e-05, 2.0099640096304938e-05, 2.8459850000217557e-05]","[0.0, -1.5707963267948966, 0.0, 0.0, 0.0, 0.0]",0.002,7,1
0,-1,"[-3.4634266988575746e-05, -1.5707861079639152, -1.0263920557918027e-05, 7.02577778319835e-05, 6.48235363769345e-05, 1.9609928131103516e-05]","[0.0, -1.5707963267948966, 0.0, 0.0, 0.0, 0.0]",0.002,7,1
0,-1,"[-2.557436098271637e-05, -1.5708524189391078, -2.262854468426667e-05, -1.306951556401259e-05, -1.732503072560121e-06, 2.849497104762122e-05]","[0.0, -1.5707963267948966, 0.0, 0.0, 0.0, 0.0]",0.002,7,1
0,-1,"[4.0110917325364426e-05, -1.5707934659770508, -1.3562447747972328e-05, -4.248028137254778e-06, -3.5587941304981996e-05, 1.52675092977006e-05]","[0.0, -1.5707963267948966, 0.0, 0.0, 0.0, 0.0]",0.002,7,1
0,-1,"[1.904964301502332e-05, -1.5708095035948695, 1.3653432027638246e-05, 4.573459289503035e-06, 1.5630164853064343e-05, 7.776021448080428e-06]","[0.0, -1.5707963267948966, 0.0, 0.0, 0.0, 0.0]",0.002,7,1
0,-1,"[2.595424348328379e-06, -1.5708142719664515, -7.451578767359024e-06, 2.4481410644483503e-05, -1.0792409078419496e-05, -1.794496645146637e-05]","[0.0, -1.5707963267948966, 0.0, 0.0, 0.0, 0.0]",0.002,7,1
0,1,"[1.4534502952301409e-05, -1.5708023510374964, -1.024292032525409e-05, -3.238142047123915e-05, -1.0792409078419496e-05, -1.794496645146637e-05]","[0.0004387367163421333, -1.5703575900785545, 0.0004387367163421333, 0.0004387367163421333, 0.0004387367163421333, 0.0004387367163421333]",0.002,7,1
0,2,"[1.904964301502332e-05, -1.5708428821959437, -2.387521271884907e-05, -1.1758213378953997e-05, -1.732503072560121e-06, -7.788287561538709e-07]","[0.0008774727395818924, -1.5699188540553146, 0.0008774727395818924, 0.0008774727395818924, 0.0008774727395818924, 0.0008774727395818924]",0.002,7,1
0,3,"[1.9037723177461885e-05, -1.5707886976054688, -1.4745627595402766e-05, -1.604974780278212e-05, -1.5083943502247621e-05, -1.3176594869435121e-05]","[0.0013162073766179979, -1.5694801194182786, 0.0013162073766179979, 0.0013162073766179979, 0.0013162073766179979, 0.0013162073766179979]",0.002,7,1
0,4,"[-9.361897603810121e-06, -1.5708352528014125, -5.726027302443981e-05, -3.238142047123915e-05, 1.927835910464637e-06, -2.5097523824513246e-05]","[0.0017549399343513602, -1.5690413868605453, 0.0017549399343513602, 0.0017549399343513602, 0.0017549399343513602, 0.0017549399343513602]",0.002,7,1
0,5,"[4.469823761610314e-05, -1.5707980595030726, -4.3675900087691844e-05, -1.1758213378953997e-05, 1.9431108739809133e-06, 4.034649100503884e-05]","[0.002193669719686175, -1.5686026570752103, 0.002193669719686175, 0.002193669719686175, 0.002193669719686175, 0.002193669719686175]",0.002,7,1
0,6,"[4.469823761610314e-05, -1.5707980595030726, -4.3675900087691844e-05, -1.1758213378953997e-05, 1.9431108739809133e-06, 4.034649100503884e-05]","[0.0026323960395310173, -1.5681639307553656, 0.0026323960395310173, 0.0026323960395310173, 0.0026323960395310173, 0.0026323960395310173]",0.002,7,1
0,7,"[-1.732503072560121e-06, -1.5707634780813642, -5.5588021496078e-05, -3.238142047123915e-05, 1.837625495682005e-05, -7.788287561538709e-07]","[0.003071118200799937, -1.5677252085940967, 0.003071118200799937, 0.003071118200799937, 0.003071118200799937, 0.003071118200799937]",0.002,7,1
0,8,"[2.8106927857152186e-05, -1.5707815146555113, -5.649331797030754e-06, -4.128818847703997e-06, 2.7550697268452495e-05, -1.3176594869435121e-05]","[0.0035098355104135528, -1.567286491284483, 0.0035098355104135528, 0.0035098355104135528, 0.0035098355104135528, 0.0035098355104135528]",0.002,7,1
0,9,"[1.9070619600825012e-05, -1.5708066425719203, 8.885060445606996e-06, -1.7480259277391497e-05, 5.895566937397234e-05, -2.2236500875294496e-05]","[0.00394854727530015, -1.5668477795195963, 0.00394854727530015, 0.00394854727530015, 0.00394854727530015, 0.00394854727530015]",0.002,7,1
0,10,"[7.185817594290711e-06, -1.5707906140990708, 4.9893056051075746e-05, 3.34221073607921e-05, 3.478527287370525e-05, 2.2741556676919572e-05]","[0.00438725280239677, -1.5664090739924998, 0.00438725280239677, 0.00438725280239677, 0.00438725280239677, 0.00438725280239677]",0.002,7,1
0,11,"[3.391404607100412e-05, -1.5708023510374964, 3.2726918355763246e-05, 2.7700061462354597e-05, 7.078647468006238e-05, 6.319832755252719e-05]","[0.004825951398650312, -1.5659703753962462, 0.004825951398650312, 0.004825951398650312, 0.004825951398650312, 0.004825951398650312]",0.002,7,1
0,12,"[6.870722427265719e-05, -1.5707425636104126, 3.129640688115387e-05, 4.391252484126085e-05, 0.00010702609870349988, 0.000132954737637192]","[0.005264642371018622, -1.565531684423878, 0.005264642371018622, 0.005264642371018622, 0.005264642371018622, 0.005264642371018622]",0.002,7,1
0,13,"[6.870722427265719e-05, -1.5707425636104126, 3.129640688115387e-05, 4.391252484126085e-05, 0.00010702609870349988, 0.000132954737637192]","[0.005703325026471591, -1.565093001768425, 0.005703325026471591, 0.005703325026471591, 0.005703325026471591, 0.005703325026471591]",0.002,7,1
0,14,"[9.566645894665271e-05, -1.5706404777777898, 0.00012618700136357575, 0.00011233865704340928, 8.891153265722096e-05, 0.00014273557462729514]","[0.006141998671992247, -1.5646543281229044, 0.006141998671992247, 0.006141998671992247, 0.006141998671992247, 0.006141998671992247]",0.002,7,1
0,15,"[0.00010154497431358323, -1.5706569167417292, 0.00014573732484990387, 0.00012032567944331163, 0.00019860267639160156, 0.00018749995797406882]","[0.006580662614577854, -1.5642156641803187, 0.006580662614577854, 0.006580662614577854, 0.006580662614577854, 0.006580662614577854]",0.002,7,1
0,16,"[0.00011637961870292202, -1.570634651773009, 0.0002358595477502945, 0.00024179994549555772, 0.0002014212659560144, 0.00021476422261912376]","[0.0070193161612410035, -1.5637770106336555, 0.0070193161612410035, 0.0070193161612410035, 0.0070193161612410035, 0.0070193161612410035]",0.002,7,1
0,17,"[0.00011637961870292202, -1.570634651773009, 0.0002358595477502945, 0.00024179994549555772, 0.0002014212659560144, 0.00021476422261912376]","[0.0074579586190107105, -1.563338368175886, 0.0074579586190107105, 0.0074579586190107105, 0.0074579586190107105, 0.0074579586190107105]",0.002,7,1
0,18,"[0.00022475219157058746, -1.5705113076004018, 0.00027925172914677887, 0.0002730327793578624, 0.0002936444361694157, 0.00029211651417426765]","[0.007896589294933507, -1.5628997374999631, 0.007896589294933507, 0.007896589294933507, 0.007896589294933507, 0.007896589294933507]",0.002,7,1
0,19,"[0.0002093933435389772, -1.5705007628460699, 0.0002701918231409195, 0.0002674299427489757, 0.0003281965327914804, 0.00033276795875281096]","[0.008335207496074538, -1.562461119298822, 0.008335207496074538, 0.008335207496074538, 0.008335207496074538, 0.008335207496074538]",0.002,7,1
0,20,"[0.0002831553283613175, -1.570514516239502, 0.0003469626056116226, 0.0003450351902465343, 0.0003309160238131881, 0.0003433649835642427]","[0.008773812529518655, -1.5620225142653779, 0.008773812529518655, 0.008773812529518655, 0.008773812529518655, 0.008773812529518655]",0.002,7,1
0,21,"[0.0002906322479248047, -1.5704546731761475, 0.0003832022296350601, 0.0003525453754882335, 0.00037602853262797, 0.00040005019400268793]","[0.009212403702371514, -1.561583923092525, 0.009212403702371514, 0.009212403702371514, 0.009212403702371514, 0.009212403702371514]",0.002,7,1
0,22,"[0.0003551125410012901, -1.5704307121089478, 0.000512425099508107, 0.00037507593121333116, 0.0004543146933428943, 0.00041987342410720885]","[0.009650980321760663, -1.561145346473136, 0.009650980321760663, 0.009650980321760663, 0.009650980321760663, 0.009650980321760663]",0.002,7,1
0,23,"[0.00041512001189403236, -1.5703284888625895, 0.0005243460284631851, 0.0004408794590453624, 0.0004888668190687895, 0.0004720699798781425]","[0.010089541694836647, -1.56070678510006, 0.010089541694836647, 0.010089541694836647, 0.010089541694836647, 0.010089541694836647]",0.002,7,1
0,24,"[0.0004556392377708107, -1.5702760077295643, 0.0005767981158655289, 0.0004809337803344249, 0.000503844756167382, 0.0004664994194172323]","[0.010528087128774092, -1.5602682396661225, 0.010528087128774092, 0.010528087128774092, 0.010528087128774092, 0.010528087128774092]",0.002,7,1
0,25,"[0.0005278060561977327, -1.5702371697737654, 0.0005644003497522476, 0.0005454260059813976, 0.0005439636297523975, 0.0005635544075630605]","[0.010966615930772807, -1.5598297108641237, 0.010966615930772807, 0.010966615930772807, 0.010966615930772807, 0.010966615930772807]",0.002,7,1
0,26,"[0.0005984538584016263, -1.5702100980309588, 0.0007208029376428726, 0.0005981165119628429, 0.0006013464881107211, 0.0005710811237804592]","[0.01140512740805887, -1.5593911993868377, 0.01140512740805887, 0.01140512740805887, 0.01140512740805887, 0.01140512740805887]",0.002,7,1
0,27,"[0.0005830407026223838, -1.5701095924344664, 0.000714604054586232, 0.0006162363239745616, 0.000616354460362345, 0.0005866765859536827]","[0.011843620867885736, -1.5589527059270107, 0.011843620867885736, 0.011843620867885736, 0.011843620867885736, 0.011843620867885736]",0.002,7,1
0,28,"[0.0006762096891179681, -1.570070663732924, 0.000748936329976857, 0.0007223325916747569, 0.0006976075237616897, 0.0007118842331692576]","[0.01228209561753532, -1.5585142311773612, 0.01228209561753532, 0.01228209561753532, 0.01228209561753532, 0.01228209561753532]",0.002,7,1
0,29,"[0.0007196878432296216, -1.5699941705427882, 0.0009010473834436539, 0.0007328230091552257, 0.0006990671390667558, 0.0007228762842714787]","[0.012720550964319092, -1.5580757758305774, 0.012720550964319092, 0.012720550964319092, 0.012720550964319092, 0.012720550964319092]",0.002,7,1
0,30,"[0.000812856771517545, -1.5698753260406484, 0.0009401480304163101, 0.0007766920277099132, 0.0007895126473158598, 0.0008374053868465126]","[0.01315898621557918, -1.5576373405793174, 0.01315898621557918, 0.01315898621557918, 0.01315898621557918, 0.01315898621557918]",0.002,7,1
0,31,"[0.0008848682628013194, -1.5698124048397695, 0.0010102430926721695, 0.000853105182311964, 0.0009020223515108228, 0.0008845694828778505]","[0.013597400678689451, -1.5571989261162071, 0.013597400678689451, 0.013597400678689451, 0.013597400678689451, 0.013597400678689451]",0.002,7,1
0,32,"[0.0009236549376510084, -1.5697599703310807, 0.0011790434466760757, 0.0009245115467528819, 0.0009260125225409865, 0.0009280149242840707]","[0.014035793661056617, -1.5567605331338399, 0.014035793661056617, 0.014035793661056617, 0.014035793661056617, 0.014035793661056617]",0.002,7,1
0,33,"[0.0010076974285766482, -1.569706169921421, 0.0011881033526819351, 0.0009965139576415538, 0.0010234878864139318, 0.0010044412920251489]","[0.014474164470121325, -1.5563221623247752, 0.014474164470121325, 0.014474164470121325, 0.014474164470121325, 0.014474164470121325]",0.002,7,1
0,34,"[0.0010255362140014768, -1.5696010617869725, 0.0012691656695764664, 0.001084728831909132, 0.001063021132722497, 0.0010684827575460076]","[0.014912512413359249, -1.5558838143815372, 0.014912512413359249, 0.014912512413359249, 0.014912512413359249, 0.014912512413359249]",0.002,7,1
0,35,"[0.001187703455798328, -1.5695124742672597, 0.0013602415667932632, 0.0011737781712035655, 0.0011331557761877775, 0.0011393788736313581]","[0.015350836798282188, -1.5554454899966144, 0.015350836798282188, 0.015350836798282188, 0.015350836798282188, 0.015350836798282188]",0.002,7,1
0,36,"[0.0012990800896659493, -1.5694044706509267, 0.0014284292804163101, 0.0012412506290893077, 0.0012550964020192623, 0.001236654818058014]","[0.01578913693243915, -1.5550071898624573, 0.01578913693243915, 0.01578913693243915, 0.01578913693243915, 0.01578913693243915]",0.002,7,1
0,37,"[0.0013180638197809458, -1.5693158649704237, 0.0015619436847131851, 0.0012714105793456554, 0.0013106269761919975, 0.0013562279054895043]","[0.016227412123417467, -1.5545689146714792, 0.016227412123417467, 0.016227412123417467, 0.016227412123417467, 0.016227412123417467]",0.002,7,1
0,38,"[0.0014606661861762404, -1.569164502351061, 0.0016778151141565445, 0.0014003950306396007, 0.0014401755761355162, 0.001444528461433947]","[0.01666566167884386, -1.5541306651160527, 0.01666566167884386, 0.01666566167884386, 0.01666566167884386, 0.01666566167884386]",0.002,7,1
0,39,"[0.001568834064528346, -1.5690475005288427, 0.0017402807818811539, 0.0015243726917724132, 0.0016190687892958522, 0.0015481897862628102]","[0.017103884906385567, -1.553692441888511, 0.017103884906385567, 0.017103884906385567, 0.017103884906385567, 0.017103884906385567]",0.002,7,1
0,40,"[0.0016650100005790591, -1.5690085766003286, 0.0018981138812463882, 0.0015788513370971202, 0.0015991582768037915, 0.0016189813613891602]","[0.017542081113751395, -1.5532542456811451, 0.017542081113751395, 0.017542081113751395, 0.017542081113751395, 0.017542081113751395]",0.002,7,1
0,41,"[0.001817814540117979, -1.568838996845745, 0.00195485750307256, 0.0017574268528441905, 0.001744998968206346, 0.0017236628336831927]","[0.017980249608692853, -1.5528160771862036, 0.017980249608692853, 0.017980249608692853, 0.017980249608692853, 0.017980249608692853]",0.002,7,1
0,42,"[0.001963552087545395, -1.5687417846969147, 0.0021432081805627945, 0.0018734174915771007, 0.0018232956063002348, 0.0018570022657513618]","[0.018418389699005232, -1.5523779370958912, 0.018418389699005232, 0.018418389699005232, 0.018418389699005232, 0.018418389699005232]",0.002,7,1
0,43,"[0.0020698681473731995, -1.5685989188826461, 0.0022376219378870132, 0.0019572216221313, 0.0019766411278396845, 0.001979921944439411]","[0.01885650069252868, -1.5519398261023678, 0.01885650069252868, 0.01885650069252868, 0.01885650069252868, 0.01885650069252868]",0.002,7,1
0,44,"[0.0021657864563167095, -1.5684687230135133, 0.0023787657367151382, 0.002071185702941847, 0.0020963854622095823, 0.0021120496094226837]","[0.01929458189714932, -1.5515017448977473, 0.01929458189714932, 0.01929458189714932, 0.01929458189714932, 0.01929458189714932]",0.002,7,1
0,45,"[0.0022843433544039726, -1.5683576877093692, 0.0025275389300745132, 0.0022082763859252452, 0.0022455535363405943, 0.002240891335532069]","[0.01973263262080034, -1.5510636941740963, 0.01973263262080034, 0.01973263262080034, 0.01973263262080034, 0.01973263262080034]",0.002,7,1
0,46,"[0.0024072143714874983, -1.568212151327618, 0.0026267210589807632, 0.002414508456848097, 0.0023656263947486877, 0.002405487233772874]","[0.020170652171463074, -1.5506256746234335, 0.020170652171463074, 0.020170652171463074, 0.020170652171463074, 0.020170652171463074]",0.002,7,1
0,47,"[0.002606999361887574, -1.568014001041167, 0.0027917067157190445, 0.002532764072082472, 0.002577683888375759, 0.0025241924449801445]","[0.0206086398571681, -1.5501876869377285, 0.0206086398571681, 0.0206086398571681, 0.0206086398571681, 0.0206086398571681]",0.002,7,1
0,48,"[0.002795966574922204, -1.5678881914685299, 0.002934281026021779, 0.002656860942504835, 0.002666362328454852, 0.0026890740264207125]","[0.02104659498599634, -1.5497497318089002, 0.02104659498599634, 0.02104659498599634, 0.02104659498599634, 0.02104659498599634]",0.002,7,1
0,49,"[0.002935584634542465, -1.5677306466135015, 0.0030501524554651382, 0.0028453308292846202, 0.002784783486276865, 0.0027869022451341152]","[0.021484516866080144, -1.5493118099288163, 0.021484516866080144, 0.021484516866080144, 0.021484516866080144, 0.021484516866080144]",0.002,7,1
0,50,"[0.0030614747665822506, -1.567574565331899, 0.0032694975482385757, 0.002980633372924757, 0.003016397124156356, 0.002988811582326889]","[0.0219224048056044, -1.5488739219892922, 0.0219224048056044, 0.0219224048056044, 0.0219224048056044, 0.0219224048056044]",0.002,7,1
0,51,"[0.0030614747665822506, -1.567574565331899, 0.0032694975482385757, 0.002980633372924757, 0.003016397124156356, 0.002988811582326889]","[0.02236025811280759, -1.548436068682089, 0.02236025811280759, 0.02236025811280759, 0.02236025811280759, 0.02236025811280759]",0.002,7,1
0,52,"[0.0032459869980812073, -1.5674321286245068, 0.0034259001361292007, 0.003128333682678175, 0.003126096213236451, 0.0031523569487035275]","[0.022798076095982937, -1.5479982506989136, 0.022798076095982937, 0.022798076095982937, 0.022798076095982937, 0.022798076095982937]",0.002,7,1
0,53,"[0.00362717779353261, -1.567051315014698, 0.0037649313556116226, 0.0034838157841186046, 0.0034790346398949623, 0.003470836440101266]","[0.023235858063479446, -1.547560468731417, 0.023235858063479446, 0.023235858063479446, 0.023235858063479446, 0.023235858063479446]",0.002,7,1
0,54,"[0.0038100380916148424, -1.5668667008033772, 0.00396138826479131, 0.0037131744572143077, 0.003704735543578863, 0.003700897330418229]","[0.023673603323703017, -1.5471227234711935, 0.023673603323703017, 0.023673603323703017, 0.023673603323703017, 0.023673603323703017]",0.002,7,1
0,55,"[0.0040774596855044365, -1.5667407026379188, 0.0041535536395471695, 0.00387219964947505, 0.00392549904063344, 0.003867770778015256]","[0.02411131118511755, -1.5466850156097791, 0.02411131118511755, 0.02411131118511755, 0.02411131118511755, 0.02411131118511755]",0.002,7,1
0,56,"[0.004230104852467775, -1.566502269157656, 0.004312817250387013, 0.004084034557006788, 0.004081901628524065, 0.004080397076904774]","[0.02454898095624604, -1.5462473458386505, 0.02454898095624604, 0.02454898095624604, 0.02454898095624604, 0.02454898095624604]",0.002,7,1
0,57,"[0.004446066915988922, -1.5662650789930304, 0.004526440297262013, 0.004337115878723097, 0.004231972619891167, 0.00428865198045969]","[0.024986611945671616, -1.545809714849225, 0.024986611945671616, 0.024986611945671616, 0.024986611945671616, 0.024986611945671616]",0.002,7,1
0,58,"[0.004680353682488203, -1.5660687589882691, 0.004737679158345998, 0.004516764278076124, 0.004568885546177626, 0.004476006142795086]","[0.025424203462038705, -1.545372123332858, 0.025424203462038705, 0.025424203462038705, 0.025424203462038705, 0.025424203462038705]",0.002,7,1
0,59,"[0.004969811532646418, -1.5659368743984778, 0.004946533833638966, 0.004707141513488722, 0.004776333458721638, 0.004724583122879267]","[0.025861754814054082, -1.5449345719808425, 0.025861754814054082, 0.025861754814054082, 0.025861754814054082, 0.025861754814054082]",0.002,7,1
0,60,"[0.005106009542942047, -1.565711804000177, 0.005184475575582326, 0.004951520557067823, 0.005001853685826063, 0.004911416210234165]","[0.026299265310487988, -1.5444970614844085, 0.026299265310487988, 0.026299265310487988, 0.026299265310487988, 0.026299265310487988]",0.002,7,1
0,61,"[0.005364211741834879, -1.565465731346496, 0.005462471638814748, 0.005224509830139112, 0.005246697459369898, 0.0051880707032978535]","[0.02673673426017517, -1.5440595925347214, 0.02673673426017517, 0.02673673426017517, 0.02673673426017517, 0.02673673426017517]",0.002,7,1
0,62,"[0.005575820803642273, -1.5652467657676716, 0.0056946913348596695, 0.005479975337646437, 0.005445019342005253, 0.005427966825664043]","[0.027174160972016047, -1.5436221658228806, 0.027174160972016047, 0.027174160972016047, 0.027174160972016047, 0.027174160972016047]",0.002,7,1
0,63,"[0.0058278292417526245, -1.5649738659015675, 0.005900208150045216, 0.0057198244282226085, 0.005753400735557079, 0.005664550233632326]","[0.027611544754977735, -1.5431847820399187, 0.027611544754977735, 0.027611544754977735, 0.027611544754977735, 0.027611544754977735]",0.002,7,1
0,64,"[0.006113044451922178, -1.5647365812077005, 0.006215874348775685, 0.005922241801879835, 0.006022496614605188, 0.005912207532674074]","[0.028048884918095193, -1.5427474418768015, 0.028048884918095193, 0.028048884918095193, 0.028048884918095193, 0.028048884918095193]",0.002,7,1
0,65,"[0.00636940635740757, -1.5645720151117821, 0.006385628377095998, 0.0062195497700194835, 0.006240160670131445, 0.006163137964904308]","[0.028486180770472276, -1.5423101460244242, 0.028486180770472276, 0.028486180770472276, 0.028486180770472276, 0.028486180770472276]",0.002,7,1
0,66,"[0.006678582634776831, -1.564223601748683, 0.006625954304830373, 0.0064838367649535655, 0.00645923987030983, 0.006464121397584677]","[0.02892343162128283, -1.5418728951736138, 0.02892343162128283, 0.02892343162128283, 0.02892343162128283, 0.02892343162128283]",0.002,7,1
0,67,"[0.006871864199638367, -1.5639929406209667, 0.006927792225972951, 0.006759448642394972, 0.00676462659612298, 0.00669871037825942]","[0.029360636779771816, -1.5414356900151247, 0.029360636779771816, 0.029360636779771816, 0.029360636779771816, 0.029360636779771816]",0.002,7,1
0,68,"[0.00720039289444685, -1.5636822835407038, 0.007194821034566701, 0.007018013591430616, 0.007036332972347736, 0.00699930964037776]","[0.029797795555256364, -1.5409985312396401, 0.029797795555256364, 0.029797795555256364, 0.029797795555256364, 0.029797795555256364]",0.002,7,1
0,69,"[0.007500487845391035, -1.5634741571596642, 0.007482830678121388, 0.0073279577442626476, 0.007312934845685959, 0.007303507998585701]","[0.030234907257126884, -1.5405614195377697, 0.030234907257126884, 0.030234907257126884, 0.030234907257126884, 0.030234907257126884]",0.002,7,1
0,70,"[0.007814181968569756, -1.5631679699620982, 0.007817093526021779, 0.0076261001774291515, 0.007605851627886295, 0.007570822723209858]","[0.030671971194848137, -1.5401243556000483, 0.030671971194848137, 0.030671971194848137, 0.030671971194848137, 0.030671971194848137]",0.002,7,1
0,71,"[0.008094669319689274, -1.5628109949505706, 0.008076492940084279, 0.007987304324768019, 0.00788257084786892, 0.007850296795368195]","[0.031108986677960353, -1.5396873401169362, 0.031108986677960353, 0.031108986677960353, 0.031108986677960353, 0.031108986677960353]",0.002,7,1
0,72,"[0.008349636569619179, -1.562586304066219, 0.008424107228414357, 0.00825302183117671, 0.008202383294701576, 0.008247743360698223]","[0.03154595301608032, -1.5392503737788163, 0.03154595301608032, 0.03154595301608032, 0.03154595301608032, 0.03154595301608032]",0.002,7,1
0,73,"[0.008682728745043278, -1.5622936713374038, 0.00873881975282842, 0.008603139514587355, 0.0085194893181324, 0.008519063703715801]","[0.031982869518902446, -1.5388134572759942, 0.031982869518902446, 0.031982869518902446, 0.031982869518902446, 0.031982869518902446]",0.002,7,1
0,74,"[0.009018825367093086, -1.5619304033792396, 0.008978668843404591, 0.008900566692016554, 0.008829092606902122, 0.008823463693261147]","[0.03241973549619986, -1.5383765912986966, 0.03241973549619986, 0.03241973549619986, 0.03241973549619986, 0.03241973549619986]",0.002,7,1
0,75,"[0.00933079607784748, -1.5616274897805233, 0.009342495595113576, 0.009238525027893019, 0.009220042265951633, 0.00916240643709898]","[0.03285655025782554, -1.537939776537071, 0.03285655025782554, 0.03285655025782554, 0.03285655025782554, 0.03285655025782554]",0.002,7,1
0,76,"[0.00933079607784748, -1.5616274897805233, 0.009342495595113576, 0.009238525027893019, 0.009220042265951633, 0.00916240643709898]","[0.03329331311371334, -1.5375030136811831, 0.03329331311371334, 0.03329331311371334, 0.03329331311371334, 0.03329331311371334]",0.002,7,1
0,77,"[0.010019336827099323, -1.5609964731014152, 0.010030094777242482, 0.00997428476300044, 0.009871220216155052, 0.009835288859903812]","[0.03373002337387915, -1.5370663034210175, 0.03373002337387915, 0.03373002337387915, 0.03373002337387915, 0.03373002337387915]",0.002,7,1
0,78,"[0.010019336827099323, -1.5609964731014152, 0.010030094777242482, 0.00997428476300044, 0.009871220216155052, 0.009835288859903812]","[0.03416668034842189, -1.5366296464464746, 0.03416668034842189, 0.03416668034842189, 0.03416668034842189, 0.03416668034842189]",0.002,7,1
0,79,"[0.010696002282202244, -1.5603004845655342, 0.010722939168111623, 0.010618372554443312, 0.010576462373137474, 0.010527233593165874]","[0.03460328334752473, -1.5361930434473718, 0.03460328334752473, 0.03460328334752473, 0.03460328334752473, 0.03460328334752473]",0.002,7,1
0,80,"[0.011051630601286888, -1.5599613658017297, 0.011036221181051076, 0.011073752040527296, 0.01089928112924099, 0.0108662573620677]","[0.035039831681456066, -1.5357564951134406, 0.035039831681456066, 0.035039831681456066, 0.035039831681456066, 0.035039831681456066]",0.002,7,1
0,81,"[0.011420544236898422, -1.5596070823124428, 0.011448208485738576, 0.011388941402099562, 0.011287994682788849, 0.011197634972631931]","[0.03547632466057065, -1.5353200021343258, 0.03547632466057065, 0.03547632466057065, 0.03547632466057065, 0.03547632466057065]",0.002,7,1
0,82,"[0.011804726906120777, -1.5592021581581612, 0.011807743703023732, 0.011734529132507276, 0.011697890236973763, 0.011594845913350582]","[0.035912761595310705, -1.5348835651995858, 0.035912761595310705, 0.035912761595310705, 0.035912761595310705, 0.035912761595310705]",0.002,7,1
0,83,"[0.012176569551229477, -1.5589264615303655, 0.012138191853658498, 0.012112541789672804, 0.012017225846648216, 0.011953508481383324]","[0.03634914179620697, -1.5344471849986896, 0.03634914179620697, 0.03634914179620697, 0.03634914179620697, 0.03634914179620697]",0.002,7,1
0,84,"[0.012556024827063084, -1.558434284558036, 0.012527290974752248, 0.012538834209106398, 0.012449570000171661, 0.012369834817945957]","[0.03678546457387983, -1.5340108622210167, 0.03678546457387983, 0.03678546457387983, 0.03678546457387983, 0.03678546457387983]",0.002,7,1
0,85,"[0.012951992452144623, -1.5580967099270602, 0.012956921254293263, 0.012937946910522413, 0.012853121384978294, 0.012783282436430454]","[0.037221729239040366, -1.5335745975558561, 0.037221729239040366, 0.037221729239040366, 0.037221729239040366, 0.037221729239040366]",0.002,7,1
0,86,"[0.013361587189137936, -1.5576586921564122, 0.013267342244283498, 0.01338140546765132, 0.013248124159872532, 0.013179057277739048]","[0.03765793510249147, -1.533138391692405, 0.03765793510249147, 0.03765793510249147, 0.03765793510249147, 0.03765793510249147]",0.002,7,1
0,87,"[0.013756059110164642, -1.557209712719061, 0.013709370289937794, 0.013766928310058546, 0.013592934235930443, 0.013573967851698399]","[0.03809408147512893, -1.5327022453197676, 0.03809408147512893, 0.03809408147512893, 0.03809408147512893, 0.03809408147512893]",0.002,7,1
0,88,"[0.014180716127157211, -1.556823306982853, 0.014075104390279591, 0.014153881663940382, 0.014001106843352318, 0.013977675698697567]","[0.03853016766794253, -1.532266159126954, 0.03853016766794253, 0.03853016766794253, 0.03853016766794253, 0.03853016766794253]",0.002,7,1
0,89,"[0.014612730592489243, -1.5563641221127291, 0.014560524617330373, 0.014582796687744093, 0.014451233670115471, 0.014430437237024307]","[0.03896619299201709, -1.5318301338028795, 0.03896619299201709, 0.03896619299201709, 0.03896619299201709, 0.03896619299201709]",0.002,7,1
0,90,"[0.01502362359315157, -1.5559953528321167, 0.01496297517885381, 0.015021963710449171, 0.014845870435237885, 0.01484556682407856]","[0.03940215675853362, -1.531394170036363, 0.03940215675853362, 0.03940215675853362, 0.03940215675853362, 0.03940215675853362]",0.002,7,1
0,91,"[0.015481323003768921, -1.555506164473929, 0.015416924153463185, 0.01545671998944087, 0.015335817821323872, 0.015297976322472095]","[0.03983805827877034, -1.5309582685161263, 0.03983805827877034, 0.03983805827877034, 0.03983805827877034, 0.03983805827877034]",0.002,7,1
0,92,"[0.015955505892634392, -1.5550818436643858, 0.015823189412252248, 0.01582901060070796, 0.015734903514385223, 0.015738483518362045]","[0.04027389686410387, -1.5305224299307927, 0.04027389686410387, 0.04027389686410387, 0.04027389686410387, 0.04027389686410387]",0.002,7,1
0,93,"[0.016419077292084694, -1.5546275910786171, 0.016240898762838185, 0.016333027476928663, 0.016223520040512085, 0.016145559027791023]","[0.04070967182601018, -1.5300866549688863, 0.04070967182601018, 0.04070967182601018, 0.04070967182601018, 0.04070967182601018]",0.002,7,1
0,94,"[0.016894450411200523, -1.5541612815907975, 0.016718689595357716, 0.016738100642822218, 0.01670122891664505, 0.016673950478434563]","[0.041145382476065785, -1.5296509443188309, 0.041145382476065785, 0.041145382476065785, 0.041145382476065785, 0.041145382476065785]",0.002,7,1
0,95,"[0.017347631976008415, -1.5537427396378298, 0.017168347035543263, 0.01719622194256587, 0.017074381932616234, 0.017096836119890213]","[0.0415810281259488, -1.5292152986689478, 0.0415810281259488, 0.0415810281259488, 0.0415810281259488, 0.0415810281259488]",0.002,7,1
0,96,"[0.017794646322727203, -1.5531963289580126, 0.017634216939107716, 0.017642064685485792, 0.017564307898283005, 0.017578179016709328]","[0.04201660808744002, -1.5287797187074565, 0.04201660808744002, 0.04201660808744002, 0.04201660808744002, 0.04201660808744002]",0.002,7,1
0,97,"[0.018238700926303864, -1.552778124143817, 0.018098179494039357, 0.018098517055175734, 0.018053222447633743, 0.018053516745567322]","[0.042452121672424015, -1.5283442051224725, 0.042452121672424015, 0.042452121672424015, 0.042452121672424015, 0.042452121672424015]",0.002,7,1
0,98,"[0.018702033907175064, -1.5523311377367754, 0.018552128468648732, 0.018593116397521925, 0.018559100106358528, 0.018561644479632378]","[0.042887568192890205, -1.5279087586020064, 0.042887568192890205, 0.042887568192890205, 0.042887568192890205, 0.042887568192890205]",0.002,7,1
0,99,"[0.0192304365336895, -1.5518273313394566, 0.019060913716451466, 0.019064231509826612, 0.018982652574777603, 0.019070101901888847]","[0.043322946960933965, -1.5274733798339626, 0.043322946960933965, 0.043322946960933965, 0.043322946960933965, 0.043322946960933965]",0.002,7,1
0,100,"[0.0192304365336895, -1.5518273313394566, 0.019060913716451466, 0.019064231509826612, 0.018982652574777603, 0.019070101901888847]","[0.04375825728875771, -1.5270380695061387, 0.04375825728875771, 0.04375825728875771, 0.04375825728875771, 0.04375825728875771]",0.002,7,1
0,101,"[0.0192304365336895, -1.5518273313394566, 0.019060913716451466, 0.019064231509826612, 0.018982652574777603, 0.019070101901888847]","[0.04419349848867195, -1.5266028283062245, 0.04419349848867195, 0.04419349848867195, 0.04419349848867195, 0.04419349848867195]",0.002,7,1
0,102,"[0.0192304365336895, -1.5518273313394566, 0.019060913716451466, 0.019064231509826612, 0.018982652574777603, 0.019070101901888847]","[0.04462866987309642, -1.5261676569218001, 0.04462866987309642, 0.04462866987309642, 0.04462866987309642, 0.04462866987309642]",0.002,7,1
0,103,"[0.0192304365336895, -1.5518273313394566, 0.019060913716451466, 0.019064231509826612, 0.018982652574777603, 0.019070101901888847]","[0.04506377075456115, -1.5257325560403354, 0.04506377075456115, 0.04506377075456115, 0.04506377075456115, 0.04506377075456115]",0.002,7,1
0,104,"[0.021688271313905716, -1.5492040377906342, 0.02159005800356084, 0.021522923106811476, 0.021613460034132004, 0.021642161533236504]","[0.04549880044570755, -1.525297526349189, 0.04549880044570755, 0.04549880044570755, 0.04549880044570755, 0.04549880044570755]",0.002,7,1
0,105,"[0.02226453833281994, -1.5487468124232073, 0.022085491810933888, 0.02207307397808833, 0.022124649956822395, 0.022165430709719658]","[0.04593375825928948, -1.524862568535607, 0.04593375825928948, 0.04593375825928948, 0.04593375825928948, 0.04593375825928948]",0.002,7,1
0,106,"[0.022744903340935707, -1.5481887155077239, 0.022604290639058888, 0.02255825578656001, 0.02260635979473591, 0.022651638835668564]","[0.04636864350817435, -1.5244276832867223, 0.04636864350817435, 0.04636864350817435, 0.04636864350817435, 0.04636864350817435]",0.002,7,1
0,107,"[0.023358913138508797, -1.547604066585638, 0.023227516804830373, 0.023071809405944776, 0.023193277418613434, 0.023244990035891533]","[0.04680345550534421, -1.5239928712895523, 0.04680345550534421, 0.04680345550534421, 0.04680345550534421, 0.04680345550534421]",0.002,7,1
0,108,"[0.02394438162446022, -1.5470637784204264, 0.023713413869039357, 0.023589177722595167, 0.023797808215022087, 0.023747654631733894]","[0.04723819356389685, -1.5235581332309998, 0.04723819356389685, 0.04723819356389685, 0.04723819356389685, 0.04723819356389685]",0.002,7,1
0,109,"[0.02443668432533741, -1.5465400901487847, 0.024261299763814748, 0.024200840587280226, 0.024342341348528862, 0.024345260113477707]","[0.04767285699704684, -1.5231234697978497, 0.04767285699704684, 0.04767285699704684, 0.04767285699704684, 0.04767285699704684]",0.002,7,1
0,110,"[0.02493314817547798, -1.5459570803544302, 0.02478343645204717, 0.024689479465148878, 0.024809516966342926, 0.02485562674701214]","[0.04810744511812663, -1.5226888816767699, 0.04810744511812663, 0.04810744511812663, 0.04810744511812663, 0.04810744511812663]",0.002,7,1
0,111,"[0.025492070242762566, -1.5453596015325566, 0.025345627461568654, 0.02520720540966792, 0.025402555242180824, 0.025426549836993217]","[0.048541957240587706, -1.522254369554309, 0.048541957240587706, 0.048541957240587706, 0.048541957240587706, 0.048541957240587706]",0.002,7,1
0,112,"[0.02607104554772377, -1.5448241748711844, 0.02584392229189092, 0.02580229818310542, 0.026016181334853172, 0.02597814053297043]","[0.048976392678001544, -1.521819934116895, 0.048976392678001544, 0.048976392678001544, 0.048976392678001544, 0.048976392678001544]",0.002,7,1
0,113,"[0.026646720245480537, -1.544179543187358, 0.026470009480611623, 0.026355429286621046, 0.02662324719130993, 0.026555275544524193]","[0.049410750744060795, -1.5213855760508357, 0.049410750744060795, 0.049410750744060795, 0.049410750744060795, 0.049410750744060795]",0.002,7,1
0,114,"[0.027160899713635445, -1.5436155267855902, 0.02707368532289678, 0.026932283038757276, 0.027119407430291176, 0.027162587270140648]","[0.04984503075258035, -1.5209512960423162, 0.04984503075258035, 0.04984503075258035, 0.04984503075258035, 0.04984503075258035]",0.002,7,1
0,115,"[0.02767910808324814, -1.542995573287346, 0.02767974535097295, 0.02752797185864253, 0.027685265988111496, 0.027751147747039795]","[0.050279232017498385, -1.5205170947773983, 0.050279232017498385, 0.050279232017498385, 0.050279232017498385, 0.050279232017498385]",0.002,7,1
0,116,"[0.02822907269001007, -1.5424229235253115, 0.028189961110250294, 0.0281415420719604, 0.02830532379448414, 0.028371695429086685]","[0.0507133538528775, -1.520082972942019, 0.0507133538528775, 0.0507133538528775, 0.0507133538528775, 0.0507133538528775]",0.002,7,1
0,117,"[0.029408838599920273, -1.5412865311703463, 0.029473129902974904, 0.029271646136901808, 0.029463300481438637, 0.02951393835246563]","[0.05114739557290577, -1.5196489312219907, 0.05114739557290577, 0.05114739557290577, 0.05114739557290577, 0.05114739557290577]",0.002,7,1
0,118,"[0.02999580092728138, -1.540636983965971, 0.030047241841451466, 0.029950662250183058, 0.030122242867946625, 0.030105706304311752]","[0.05158135649189781, -1.5192149703029987, 0.05158135649189781, 0.05158135649189781, 0.05158135649189781, 0.05158135649189781]",0.002,7,1
0,119,"[0.02999580092728138, -1.540636983965971, 0.030047241841451466, 0.029950662250183058, 0.030122242867946625, 0.030105706304311752]","[0.05201523592429592, -1.5187810908706005, 0.05201523592429592, 0.05201523592429592, 0.05201523592429592, 0.05201523592429592]",0.002,7,1
0,120,"[0.031274713575839996, -1.539347832357027, 0.03126365343202764, 0.031149311656616163, 0.03140110895037651, 0.031326230615377426]","[0.05244903318467109, -1.5183472936102254, 0.05244903318467109, 0.05244903318467109, 0.05244903318467109, 0.05244903318467109]",0.002,7,1
0,121,"[0.031274713575839996, -1.539347832357027, 0.03126365343202764, 0.031149311656616163, 0.03140110895037651, 0.031326230615377426]","[0.05288274758772415, -1.5179135792071725, 0.05288274758772415, 0.05288274758772415, 0.05288274758772415, 0.05288274758772415]",0.002,7,1
0,122,"[0.032472170889377594, -1.538128064279892, 0.03258115450014287, 0.03247336923565669, 0.03258040174841881, 0.03259740397334099]","[0.05331637844828681, -1.5174799483466097, 0.05331637844828681, 0.05331637844828681, 0.05331637844828681, 0.05331637844828681]",0.002,7,1
0,123,"[0.032472170889377594, -1.538128064279892, 0.03258115450014287, 0.03247336923565669, 0.03258040174841881, 0.03259740397334099]","[0.053749925081322765, -1.5170464017135739, 0.053749925081322765, 0.053749925081322765, 0.053749925081322765, 0.053749925081322765]",0.002,7,1
0,124,"[0.03374835476279259, -1.536909294580557, 0.03376657167543584, 0.03373806058850093, 0.03388596326112747, 0.033825404942035675]","[0.05418338680192879, -1.5166129399929678, 0.05418338680192879, 0.05418338680192879, 0.05418338680192879, 0.05418338680192879]",0.002,7,1
0,125,"[0.03433797508478165, -1.5363023740104218, 0.034430805836812794, 0.034362955684326124, 0.03447237238287926, 0.03443614020943642]","[0.05461676292533576, -1.5161795638695608, 0.05461676292533576, 0.05461676292533576, 0.05461676292533576, 0.05461676292533576]",0.002,7,1
0,126,"[0.03497566282749176, -1.5356427182308217, 0.03503448167909795, 0.03500132142987056, 0.03517943248152733, 0.035035640001297]","[0.0550500527669098, -1.5157462740279868, 0.0550500527669098, 0.0550500527669098, 0.0550500527669098, 0.0550500527669098]",0.002,7,1
0,127,"[0.035556722432374954, -1.535043978398182, 0.03564149538149053, 0.035666390056274366, 0.03582369163632393, 0.03565604239702225]","[0.05548325564215335, -1.5153130711527432, 0.05548325564215335, 0.05548325564215335, 0.05548325564215335, 0.05548325564215335]",0.002,7,1
0,128,"[0.035556722432374954, -1.535043978398182, 0.03564149538149053, 0.035666390056274366, 0.03582369163632393, 0.03565604239702225]","[0.05591637086670621, -1.5148799559281902, 0.05591637086670621, 0.05591637086670621, 0.05591637086670621, 0.05591637086670621]",0.002,7,1
0,129,"[0.03628842160105705, -1.534390078192093, 0.03629905382265264, 0.036304040546081495, 0.036403022706508636, 0.03634438291192055]","[0.05634939775634666, -1.5144469290385498, 0.05634939775634666, 0.05634939775634666, 0.05634939775634666, 0.05634939775634666]",0.002,7,1
0,130,"[0.03691587969660759, -1.5337797080031415, 0.03699237505067998, 0.03699307023968501, 0.03707537800073624, 0.036930445581674576]","[0.05678233562699254, -1.514013991167904, 0.05678233562699254, 0.05678233562699254, 0.05678233562699254, 0.05678233562699254]",0.002,7,1
0,131,"[0.03817329928278923, -1.5325176057270546, 0.038271729146138966, 0.038364096278808546, 0.0383521132171154, 0.03821078687906265]","[0.057215183794702286, -1.5135811430001942, 0.057215183794702286, 0.057215183794702286, 0.057215183794702286, 0.057215183794702286]",0.002,7,1
0,132,"[0.03887740522623062, -1.5318445985070248, 0.0389025847064417, 0.038984938258789015, 0.0389675609767437, 0.03883785381913185]","[0.05764794157567609, -1.5131483852192205, 0.05764794157567609, 0.05764794157567609, 0.05764794157567609, 0.05764794157567609]",0.002,7,1
0,133,"[0.03955984488129616, -1.5312054690769692, 0.039602104817525685, 0.03968565046276851, 0.03958768770098686, 0.03954343497753143]","[0.058080608286256906, -1.5127157185086397, 0.058080608286256906, 0.058080608286256906, 0.058080608286256906, 0.058080608286256906]",0.002,7,1
0,134,"[0.04020689055323601, -1.530589935635664, 0.04024631181825811, 0.040359659785888624, 0.040252070873975754, 0.04012974724173546]","[0.058513183242931546, -1.512283143551965, 0.058513183242931546, 0.058513183242931546, 0.058513183242931546, 0.058513183242931546]",0.002,7,1
0,135,"[0.04083450511097908, -1.5299333532205601, 0.04085761705507451, 0.04105286180462642, 0.0409415066242218, 0.04079701751470566]","[0.05894566576233181, -1.5118506610325648, 0.05894566576233181, 0.05894566576233181, 0.05894566576233181, 0.05894566576233181]",0.002,7,1
0,136,"[0.04153069853782654, -1.529257458900549, 0.041558090840474904, 0.04169718801464839, 0.041601043194532394, 0.04150686413049698]","[0.0593780551612355, -1.511418271633661, 0.0593780551612355, 0.0593780551612355, 0.0593780551612355, 0.0593780551612355]",0.002,7,1
0,137,"[0.04221333563327789, -1.528588892226555, 0.04221851030458623, 0.042375250453613234, 0.042216263711452484, 0.042108532041311264]","[0.05981035075656752, -1.510985976038329, 0.05981035075656752, 0.05981035075656752, 0.05981035075656752, 0.05981035075656752]",0.002,7,1
0,138,"[0.04221333563327789, -1.528588892226555, 0.04221851030458623, 0.042375250453613234, 0.042216263711452484, 0.042108532041311264]","[0.060242551865401006, -1.5105537749294955, 0.060242551865401006, 0.060242551865401006, 0.060242551865401006, 0.060242551865401006]",0.002,7,1
0,139,"[0.043480951339006424, -1.5273148578456421, 0.04347449937929326, 0.04371242105450435, 0.04357290267944336, 0.04344908148050308]","[0.06067465780495828, -1.5101216689899384, 0.06067465780495828, 0.06067465780495828, 0.06067465780495828, 0.06067465780495828]",0.002,7,1
0,140,"[0.04425116628408432, -1.526662753229477, 0.044181172047750294, 0.04437856256451411, 0.0442311055958271, 0.0440952330827713]","[0.0611066678926121, -1.5096896589022846, 0.0611066678926121, 0.0611066678926121, 0.0611066678926121, 0.0611066678926121]",0.002,7,1
0,141,"[0.04489532858133316, -1.5259911988726635, 0.04484111467470342, 0.0450553137012939, 0.044881995767354965, 0.04480370506644249]","[0.0615385814458866, -1.50925774534901, 0.0615385814458866, 0.0615385814458866, 0.0615385814458866, 0.0615385814458866]",0.002,7,1
0,142,"[0.045585453510284424, -1.5253830303302784, 0.045505825673238576, 0.04573361455883784, 0.04558384791016579, 0.045472659170627594]","[0.0619703977824584, -1.5088259290124382, 0.0619703977824584, 0.0619703977824584, 0.0619703977824584, 0.0619703977824584]",0.002,7,1
0,143,"[0.045585453510284424, -1.5253830303302784, 0.045505825673238576, 0.04573361455883784, 0.04558384791016579, 0.045472659170627594]","[0.062402116220157754, -1.5083942105747388, 0.062402116220157754, 0.062402116220157754, 0.062402116220157754, 0.062402116220157754]",0.002,7,1
0,144,"[0.046968262642621994, -1.5240671311369915, 0.046820942555562794, 0.04708246767010493, 0.04691264033317566, 0.0468931570649147]","[0.06283373607696953, -1.507962590717927, 0.06283373607696953, 0.06283373607696953, 0.06283373607696953, 0.06283373607696953]",0.002,7,1
0,145,"[0.04764667525887489, -1.5233339232257386, 0.04752570787538701, 0.047711415881774855, 0.0476105622947216, 0.04752202704548836]","[0.06326525667103433, -1.5075310701238622, 0.06326525667103433, 0.06326525667103433, 0.06326525667103433, 0.06326525667103433]",0.002,7,1
0,146,"[0.04836277291178703, -1.5227243949523945, 0.04823905626405889, 0.048413200969360304, 0.04827595129609108, 0.048213258385658264]","[0.0636966773206496, -1.507099649474247, 0.0636966773206496, 0.0636966773206496, 0.0636966773206496, 0.0636966773206496]",0.002,7,1
0,147,"[0.048956334590911865, -1.5220107448152085, 0.04891091981996709, 0.049107833499572706, 0.04892437160015106, 0.0488852821290493]","[0.06412799734427065, -1.506668329450626, 0.06412799734427065, 0.06412799734427065, 0.06412799734427065, 0.06412799734427065]",0.002,7,1
0,148,"[0.04973508417606354, -1.5212941964021702, 0.04962331453432256, 0.0497397619434814, 0.049653928726911545, 0.04962547495961189]","[0.06455921606051175, -1.5062371107343848, 0.06455921606051175, 0.06455921606051175, 0.06455921606051175, 0.06455921606051175]",0.002,7,1
0,149,"[0.050417687743902206, -1.5206815984896203, 0.05023700395692998, 0.05049078046765132, 0.050331659615039825, 0.05028848722577095]","[0.06499033278814724, -1.5058059940067494, 0.06499033278814724, 0.06499033278814724, 0.06499033278814724, 0.06499033278814724]",0.002,7,1
0,150,"[0.05108651518821716, -1.519968034034111, 0.05091315904726201, 0.051109595889709425, 0.05099398270249367, 0.05106708034873009]","[0.06542134684611255, -1.505374979948784, 0.06542134684611255, 0.06542134684611255, 0.06542134684611255, 0.06542134684611255]",0.002,7,1
0,151,"[0.051811229437589645, -1.5192761209658165, 0.051609341298238576, 0.05178360521282954, 0.05167672410607338, 0.05168391019105911]","[0.06585225755350534, -1.5049440692413911, 0.06585225755350534, 0.06585225755350534, 0.06585225755350534, 0.06585225755350534]",0.002,7,1
0,152,"[0.05248355120420456, -1.518601418738701, 0.052309815083638966, 0.05242876588787837, 0.05237780138850212, 0.052416615188121796]","[0.06628306422958649, -1.5045132625653101, 0.06628306422958649, 0.06628306422958649, 0.06628306422958649, 0.06628306422958649]",0.002,7,1
0,153,"[0.05248355120420456, -1.518601418738701, 0.052309815083638966, 0.05242876588787837, 0.05237780138850212, 0.052416615188121796]","[0.06671376619378126, -1.5040825606011152, 0.06671376619378126, 0.06671376619378126, 0.06671376619378126, 0.06671376619378126]",0.002,7,1
0,154,"[0.053935758769512177, -1.5171660532108326, 0.05371553102602178, 0.05381576597180171, 0.05380053445696831, 0.0538141094148159]","[0.06714436276568034, -1.5036519640292163, 0.06714436276568034, 0.06714436276568034, 0.06714436276568034, 0.06714436276568034]",0.002,7,1
0,155,"[0.054667454212903976, -1.5164866235903283, 0.05441886583437139, 0.05447654306378169, 0.05451421067118645, 0.05451736971735954]","[0.06757485326504087, -1.5032214735298557, 0.06757485326504087, 0.06757485326504087, 0.06757485326504087, 0.06757485326504087]",0.002,7,1
0,156,"[0.05530508980154991, -1.5158049289933224, 0.05513650575746709, 0.05513279020275874, 0.055276140570640564, 0.05529482290148735]","[0.06800523701178761, -1.502791089783109, 0.06800523701178761, 0.06800523701178761, 0.06800523701178761, 0.06800523701178761]",0.002,7,1
0,157,"[0.05603663995862007, -1.5150298190167923, 0.05584460893739873, 0.055884166354797316, 0.055921390652656555, 0.055997803807258606]","[0.06843551332601394, -1.5023608134688826, 0.06843551332601394, 0.06843551332601394, 0.06843551332601394, 0.06843551332601394]",0.002,7,1
0,158,"[0.05677611753344536, -1.5143361215344449, 0.056519333516256154, 0.05653492986645503, 0.056588903069496155, 0.05670947581529617]","[0.06886568152798295, -1.5019306452669137, 0.06886568152798295, 0.06886568152798295, 0.06886568152798295, 0.06886568152798295]",0.002,7,1
0,159,"[0.05677611753344536, -1.5143361215344449, 0.056519333516256154, 0.05653492986645503, 0.056588903069496155, 0.05670947581529617]","[0.06929574093812853, -1.501500585856768, 0.06929574093812853, 0.06929574093812853, 0.06929574093812853, 0.06929574093812853]",0.002,7,1
0,160,"[0.058061856776475906, -1.5129289043000718, 0.05785733858217412, 0.05798296510662837, 0.05806844308972359, 0.05817798525094986]","[0.06972569087705646, -1.50107063591784, 0.06972569087705646, 0.06972569087705646, 0.06972569087705646, 0.06972569087705646]",0.002,7,1
0,161,"[0.05878916755318642, -1.5122374643436451, 0.05857450166811162, 0.058650656337402296, 0.05875443294644356, 0.05887690931558609]","[0.07015553066554543, -1.500640796129351, 0.07015553066554543, 0.07015553066554543, 0.07015553066554543, 0.07015553066554543]",0.002,7,1
0,162,"[0.059405919164419174, -1.5115464714220543, 0.059287373219625294, 0.059327884311340284, 0.05948106572031975, 0.05957574397325516]","[0.07058525962454815, -1.5002110671703484, 0.07058525962454815, 0.07058525962454815, 0.07058525962454815, 0.07058525962454815]",0.002,7,1
0,163,"[0.060170870274305344, -1.5107988987914105, 0.0600202719317835, 0.060017510051391554, 0.060232359915971756, 0.060254938900470734]","[0.07101487707519241, -1.4997814497197042, 0.07101487707519241, 0.07101487707519241, 0.07101487707519241, 0.07101487707519241]",0.002,7,1
0,164,"[0.06086258962750435, -1.5100551296821614, 0.0607073942767542, 0.060735030765197706, 0.0609455443918705, 0.060977619141340256]","[0.07144438233878216, -1.4993519444561143, 0.07144438233878216, 0.07144438233878216, 0.07144438233878216, 0.07144438233878216]",0.002,7,1
0,165,"[0.061590101569890976, -1.5093384732357045, 0.06144458452333623, 0.06145696222271724, 0.061670344322919846, 0.061694033443927765]","[0.0718737747367986, -1.498922552058098, 0.0718737747367986, 0.0718737747367986, 0.0718737747367986, 0.0718737747367986]",0.002,7,1
0,166,"[0.062329575419425964, -1.5087276485613366, 0.06216413179506475, 0.062172098750732374, 0.062329553067684174, 0.062393851578235626]","[0.0723030535909012, -1.4984932732039953, 0.0723030535909012, 0.0723030535909012, 0.0723030535909012, 0.0723030535909012]",0.002,7,1
0,167,"[0.06296096742153168, -1.5079831194928666, 0.06292850175966436, 0.06290666639294429, 0.06304215639829636, 0.06315819174051285]","[0.07273221822292882, -1.4980641085719677, 0.07273221822292882, 0.07273221822292882, 0.07273221822292882, 0.07273221822292882]",0.002,7,1
0,168,"[0.0636344775557518, -1.5072612550905724, 0.06361705461610967, 0.06357817232098384, 0.06375303864479065, 0.06378848850727081]","[0.07316126795490077, -1.4976350588399958, 0.07316126795490077, 0.07316126795490077, 0.07316126795490077, 0.07316126795490077]",0.002,7,1
0,169,"[0.06434275954961777, -1.506506362264492, 0.06432611147035772, 0.06430773317303462, 0.06445152312517166, 0.06453750282526016]","[0.07359020210901784, -1.4972061246858788, 0.07359020210901784, 0.07359020210901784, 0.07359020210901784, 0.07359020210901784]",0.002,7,1
0,170,"[0.0650678426027298, -1.505857953136303, 0.06495362917055303, 0.06500129281964107, 0.06519793719053268, 0.0652407631278038]","[0.07401902000766347, -1.4967773067872332, 0.07401902000766347, 0.07401902000766347, 0.07401902000766347, 0.07401902000766347]",0.002,7,1
0,171,"[0.06571973860263824, -1.5051167246750374, 0.06563169160951787, 0.06573931753124995, 0.0659017413854599, 0.06593186408281326]","[0.07444772097340469, -1.4963486058214919, 0.07444772097340469, 0.07444772097340469, 0.07444772097340469, 0.07444772097340469]",0.002,7,1
0,172,"[0.0664638951420784, -1.5044095900705834, 0.06643563905824834, 0.06644753992047114, 0.06656097620725632, 0.06658284366130829]","[0.07487630432899331, -1.4959200224659033, 0.07487630432899331, 0.07487630432899331, 0.07487630432899331, 0.07487630432899331]",0.002,7,1
0,173,"[0.06718503683805466, -1.503701114361622, 0.06709796587099248, 0.06713096677746577, 0.06726209819316864, 0.06724658608436584]","[0.0753047693973669, -1.4954915573975296, 0.0753047693973669, 0.0753047693973669, 0.0753047693973669, 0.0753047693973669]",0.002,7,1
0,174,"[0.06791272014379501, -1.5030280885151406, 0.06779081026186162, 0.06786899148907466, 0.06792931258678436, 0.06792609393596649]","[0.0757331155016499, -1.4950632112932467, 0.0757331155016499, 0.0757331155016499, 0.0757331155016499, 0.0757331155016499]",0.002,7,1
0,175,"[0.06791272014379501, -1.5030280885151406, 0.06779081026186162, 0.06786899148907466, 0.06792931258678436, 0.06792609393596649]","[0.07616134196515473, -1.4946349848297418, 0.07616134196515473, 0.07616134196515473, 0.07616134196515473, 0.07616134196515473]",0.002,7,1
0,176,"[0.06931832432746887, -1.5015999537757416, 0.06923228899110967, 0.06930546342816157, 0.06933872401714325, 0.06927036494016647]","[0.07658944811138274, -1.4942068786835139, 0.07658944811138274, 0.07658944811138274, 0.07658944811138274, 0.07658944811138274]",0.002,7,1
0,177,"[0.06993944197893143, -1.5008905094913025, 0.06992465654482061, 0.07000331460919185, 0.06999418139457703, 0.06998234242200851]","[0.07701743326402542, -1.4937788935308711, 0.07701743326402542, 0.07701743326402542, 0.07701743326402542, 0.07701743326402542]",0.002,7,1
0,178,"[0.0705990269780159, -1.5002159413746377, 0.07057029405702764, 0.07068793355908198, 0.07065052539110184, 0.0706583634018898]","[0.07744529674696538, -1.4933510300479311, 0.07744529674696538, 0.07744529674696538, 0.07744529674696538, 0.07744529674696538]",0.002,7,1
0,179,"[0.07134485989809036, -1.4994878855398674, 0.07125407854189092, 0.07135276376690669, 0.0713467076420784, 0.0713048130273819]","[0.07787303788427741, -1.4929232889106192, 0.07787303788427741, 0.07787303788427741, 0.07787303788427741, 0.07787303788427741]",0.002,7,1
0,180,"[0.07195976376533508, -1.498896100824215, 0.07199174562563115, 0.07208697378124995, 0.07205107808113098, 0.07200156897306442]","[0.07830065600022962, -1.4924956707946668, 0.07830065600022962, 0.07830065600022962, 0.07830065600022962, 0.07830065600022962]",0.002,7,1
0,181,"[0.07270824164152145, -1.4982009318521996, 0.07264310518373662, 0.07274286329235835, 0.07272140681743622, 0.07261691987514496]","[0.07872815041928444, -1.492068176375612, 0.07872815041928444, 0.07872815041928444, 0.07872815041928444, 0.07872815041928444]",0.002,7,1
0,182,"[0.07338394224643707, -1.497487762277462, 0.07330638567079717, 0.07348017274822993, 0.07337255030870438, 0.07330479472875595]","[0.07915552046609974, -1.491640806328797, 0.07915552046609974, 0.07915552046609974, 0.07915552046609974, 0.07915552046609974]",0.002,7,1
0,183,"[0.07406021654605865, -1.4968114134720345, 0.0740287939654749, 0.07416491090740962, 0.07402652502059937, 0.07393154501914978]","[0.07958276546552982, -1.4912135613293667, 0.07958276546552982, 0.07958276546552982, 0.07958276546552982, 0.07958276546552982]",0.002,7,1
0,184,"[0.07470529526472092, -1.4962243002704163, 0.07463437715639287, 0.07486204683270259, 0.07470490038394928, 0.0746237263083458]","[0.08000988474262659, -1.49078644205227, 0.08000988474262659, 0.08000988474262659, 0.08000988474262659, 0.08000988474262659]",0.002,7,1
0,185,"[0.07540213316679001, -1.495475636129715, 0.07532912889589483, 0.07552294313397212, 0.07537620514631271, 0.07529646158218384]","[0.08043687762264051, -1.490359449172256, 0.08043687762264051, 0.08043687762264051, 0.08043687762264051, 0.08043687762264051]",0.002,7,1
0,186,"[0.0760975033044815, -1.4948657763055344, 0.07603770891298467, 0.07615534841503901, 0.0760054662823677, 0.07593920826911926]","[0.08086374343102178, -1.4899325833638748, 0.08086374343102178, 0.08086374343102178, 0.08086374343102178, 0.08086374343102178]",0.002,7,1
0,187,"[0.07673362642526627, -1.4941989940455933, 0.07664567628969365, 0.07684938489880366, 0.07664988189935684, 0.07662709057331085]","[0.08129048149342126, -1.4895058453014753, 0.08129048149342126, 0.08129048149342126, 0.08129048149342126, 0.08129048149342126]",0.002,7,1
0,188,"[0.0774116963148117, -1.4935769972256203, 0.0772784391986292, 0.07750992357220454, 0.07735487818717957, 0.07730423659086227]","[0.08171709113569173, -1.4890792356592049, 0.08171709113569173, 0.08171709113569173, 0.08171709113569173, 0.08171709113569173]",0.002,7,1
0,189,"[0.07804180681705475, -1.492895060484745, 0.07801753679384404, 0.07813231527294917, 0.07802124321460724, 0.07792209088802338]","[0.08214357168388872, -1.4886527551110078, 0.08214357168388872, 0.08214357168388872, 0.08214357168388872, 0.08214357168388872]",0.002,7,1
0,190,"[0.07871967554092407, -1.4921905186823388, 0.07861787477602178, 0.07882587491955562, 0.07863946259021759, 0.0785566195845604]","[0.0825699224642718, -1.4882264043306248, 0.0825699224642718, 0.0825699224642718, 0.0825699224642718, 0.0825699224642718]",0.002,7,1
0,191,"[0.07933782786130905, -1.4915972513011475, 0.07925874391664678, 0.07948867856945796, 0.0792815238237381, 0.07926229387521744]","[0.08299614280330551, -1.487800183991591, 0.08299614280330551, 0.08299614280330551, 0.08299614280330551, 0.08299614280330551]",0.002,7,1
0,192,"[0.07999657839536667, -1.490952619617321, 0.07996160188783819, 0.08006565153088374, 0.07995802909135818, 0.07988954335451126]","[0.08342223202766044, -1.487374094767236, 0.08342223202766044, 0.08342223202766044, 0.08342223202766044, 0.08342223202766044]",0.002,7,1
0,193,"[0.08064769208431244, -1.4904183086803933, 0.0805123488055628, 0.08071105062451167, 0.08053749799728394, 0.0805821418762207]","[0.08384818946421432, -1.4869481373306823, 0.08384818946421432, 0.08384818946421432, 0.08384818946421432, 0.08384818946421432]",0.002,7,1
0,194,"[0.0813005268573761, -1.4897071880153199, 0.0811989943133753, 0.08129076539959712, 0.08121410012245178, 0.0812368169426918]","[0.0842740144400531, -1.4865223123548434, 0.0842740144400531, 0.0842740144400531, 0.0842740144400531, 0.0842740144400531]",0.002,7,1
0,195,"[0.0813005268573761, -1.4897071880153199, 0.0811989943133753, 0.08129076539959712, 0.08121410012245178, 0.0812368169426918]","[0.08469970628247192, -1.4860966205124246, 0.08469970628247192, 0.08469970628247192, 0.08469970628247192, 0.08469970628247192]",0.002,7,1
0,196,"[0.0826491117477417, -1.4884482857635994, 0.08247310320009404, 0.08259336530651851, 0.08254338055849075, 0.08258549124002457]","[0.08512526431897632, -1.4856710624759202, 0.08512526431897632, 0.08512526431897632, 0.08512526431897632, 0.08512526431897632]",0.002,7,1
0,197,"[0.08323929458856583, -1.4877715718797226, 0.08303529420961553, 0.08322279035534663, 0.08316094428300858, 0.08319047838449478]","[0.08555068787728319, -1.4852456389176134, 0.08555068787728319, 0.08555068787728319, 0.08555068787728319, 0.08555068787728319]",0.002,7,1
0,198,"[0.0838322713971138, -1.487173618083336, 0.08370620409120733, 0.08385757982220454, 0.08379054069519043, 0.08383924514055252]","[0.08597597628532183, -1.4848203505095747, 0.08597597628532183, 0.08597597628532183, 0.08597597628532183, 0.08597597628532183]",0.002,7,1
0,199,"[0.08455168455839157, -1.4865378600410004, 0.08435184160341436, 0.08444587766613765, 0.08441592752933502, 0.08449427038431168]","[0.0864011288712351, -1.4843951979236614, 0.0864011288712351, 0.0864011288712351, 0.0864011288712351, 0.0864011288712351]",0.002,7,1
0,200,"[0.08516141027212143, -1.4859283727458497, 0.08493072191347295, 0.08506326257672114, 0.08505301922559738, 0.0850810781121254]","[0.08682614496338042, -1.483970181831516, 0.08682614496338042, 0.08682614496338042, 0.08682614496338042, 0.08682614496338042]",0.002,7,1
0,201,"[0.08581803739070892, -1.4853004154613991, 0.08555347124208623, 0.08562354623760982, 0.0857091099023819, 0.08578623086214066]","[0.08725102389033079, -1.4835453029045658, 0.08725102389033079, 0.08725102389033079, 0.08725102389033079, 0.08725102389033079]",0.002,7,1
0,202,"[0.08645723015069962, -1.4847080197981377, 0.08624488512148076, 0.0862317520328979, 0.08637634664773941, 0.0863889828324318]","[0.08767576498087595, -1.4831205618140206, 0.08767576498087595, 0.08767576498087595, 0.08767576498087595, 0.08767576498087595]",0.002,7,1
0,203,"[0.08706693351268768, -1.4840691995671769, 0.08678561845888311, 0.08686928331341548, 0.08697845041751862, 0.0870697870850563]","[0.08810036756402338, -1.4826959592308733, 0.08810036756402338, 0.08810036756402338, 0.08810036756402338, 0.08810036756402338]",0.002,7,1
0,204,"[0.08764684945344925, -1.4834246721914788, 0.08744889894594365, 0.08743242799725337, 0.08759202808141708, 0.08768832683563232]","[0.08852483096899934, -1.4822714958258971, 0.08852483096899934, 0.08852483096899934, 0.08852483096899934, 0.08852483096899934]",0.002,7,1
0,205,"[0.08829496055841446, -1.482829713528492, 0.0880349318133753, 0.08808033048596187, 0.08811938017606735, 0.08825938403606415]","[0.08894915452524998, -1.4818471722696467, 0.08894915452524998, 0.08894915452524998, 0.08894915452524998, 0.08894915452524998]",0.002,7,1
0,206,"[0.0888582244515419, -1.482178272014, 0.08865005174745733, 0.08866767465557857, 0.08881352096796036, 0.08889515697956085]","[0.08937333756244242, -1.4814229892324542, 0.08937333756244242, 0.08937333756244242, 0.08937333756244242, 0.08937333756244242]",0.002,7,1
0,207,"[0.08950194716453552, -1.481549659078457, 0.08929855028261358, 0.08932618677105708, 0.0894520953297615, 0.0894785225391388]","[0.0897973794104657, -1.480998947384431, 0.0897973794104657, 0.0897973794104657, 0.0897973794104657, 0.0897973794104657]",0.002,7,1
0,208,"[0.0900481790304184, -1.4809517425349732, 0.08985597292055303, 0.08986012517895503, 0.09001476317644119, 0.09007339179515839]","[0.09022127939943192, -1.4805750473954646, 0.09022127939943192, 0.09022127939943192, 0.09022127939943192, 0.09022127939943192]",0.002,7,1
0,209,"[0.09063540399074554, -1.4802981701544304, 0.09041148820985967, 0.09045283376660151, 0.0905982106924057, 0.0907178670167923]","[0.09064503685967733, -1.4801512899352192, 0.09064503685967733, 0.09064503685967733, 0.09064503685967733, 0.09064503685967733]",0.002,7,1
0,210,"[0.0912690982222557, -1.4796986368349572, 0.09101993242372686, 0.09105794012036128, 0.09125329554080963, 0.09126899391412735]","[0.09106865112176328, -1.4797276756731332, 0.09106865112176328, 0.09106865112176328, 0.09106865112176328, 0.09106865112176328]",0.002,7,1
0,211,"[0.0918021872639656, -1.4791339573315163, 0.09165698686708623, 0.09165625154461665, 0.0918571725487709, 0.09187699854373932]","[0.09149212151647738, -1.479304205278419, 0.09149212151647738, 0.09149212151647738, 0.09149212151647738, 0.09149212151647738]",0.002,7,1
0,212,"[0.09238295257091522, -1.4784683001092453, 0.09219867387880498, 0.09224204599346919, 0.09243199974298477, 0.09241999685764313]","[0.0919154473748345, -1.478880879420062, 0.0919154473748345, 0.0919154473748345, 0.0919154473748345, 0.0919154473748345]",0.002,7,1
0,213,"[0.09295852482318878, -1.477931835954525, 0.0928271452533167, 0.09280983983959956, 0.09298622608184814, 0.09301193803548813]","[0.09233862802807785, -1.4784576987668188, 0.09233862802807785, 0.09233862802807785, 0.09233862802807785, 0.09233862802807785]",0.002,7,1
0,214,"[0.09350863099098206, -1.4772722956589242, 0.09343272844423467, 0.09341125070538325, 0.09359080344438553, 0.09364864975214005]","[0.09276166280768007, -1.4780346639872164, 0.09276166280768007, 0.09276166280768007, 0.09276166280768007, 0.09276166280768007]",0.002,7,1
0,215,"[0.09413393586874008, -1.4767384317568322, 0.09397870699037725, 0.09395389139141841, 0.09418217092752457, 0.09416686743497849]","[0.09318455104534418, -1.4776117757495524, 0.09318455104534418, 0.09318455104534418, 0.09318455104534418, 0.09318455104534418]",0.002,7,1
0,216,"[0.09413393586874008, -1.4767384317568322, 0.09397870699037725, 0.09395389139141841, 0.09418217092752457, 0.09416686743497849]","[0.09360729207300474, -1.477189034721892, 0.09360729207300474, 0.09360729207300474, 0.09360729207300474, 0.09360729207300474]",0.002,7,1
0,217,"[0.09518656879663467, -1.475557529633381, 0.09518796602358037, 0.09519295274700923, 0.09531471878290176, 0.09530575573444366]","[0.09402988522282882, -1.4767664415720678, 0.09402988522282882, 0.09402988522282882, 0.09402988522282882, 0.09402988522282882]",0.002,7,1
0,218,"[0.09566742181777954, -1.4750271526030083, 0.09570867220033819, 0.09573416292156978, 0.09580696374177933, 0.09589935094118118]","[0.09445232982721719, -1.4763439969676795, 0.09445232982721719, 0.09445232982721719, 0.09445232982721719, 0.09445232982721719]",0.002,7,1
0,219,"[0.09624850004911423, -1.4744110789946099, 0.09628898302187139, 0.0962938505360107, 0.09641192108392715, 0.09636781364679337]","[0.09487462521880521, -1.4759217015760913, 0.09487462521880521, 0.09487462521880521, 0.09487462521880521, 0.09487462521880521]",0.002,7,1
0,220,"[0.09683588892221451, -1.473851041202881, 0.09680778184999639, 0.09684209405865474, 0.09695033729076385, 0.09694141149520874]","[0.09529677073046398, -1.4754995560644326, 0.09529677073046398, 0.09529677073046398, 0.09529677073046398, 0.09529677073046398]",0.002,7,1
0,221,"[0.09737535566091537, -1.4732637044838448, 0.09740096727480108, 0.09739474832501216, 0.09753019362688065, 0.0974559560418129]","[0.09571876569530144, -1.4750775610995952, 0.09571876569530144, 0.09571876569530144, 0.09571876569530144, 0.09571876569530144]",0.002,7,1
0,222,"[0.09796884655952454, -1.4727278512767334, 0.09800082841982061, 0.09792713701214595, 0.09805537015199661, 0.09800883382558823]","[0.09614060944666326, -1.4746557173482333, 0.09614060944666326, 0.09614060944666326, 0.09614060944666326, 0.09614060944666326]",0.002,7,1
0,223,"[0.09845653921365738, -1.4721589249423523, 0.0984423796283167, 0.0985376077839355, 0.098553366959095, 0.09849926829338074]","[0.09656230131813405, -1.4742340254767625, 0.09656230131813405, 0.09656230131813405, 0.09656230131813405, 0.09656230131813405]",0.002,7,1
0,224,"[0.09903839230537415, -1.4716728043607255, 0.09902364412416631, 0.09907333433117671, 0.09903118014335632, 0.09902779757976532]","[0.09698384064353832, -1.4738124861513582, 0.09698384064353832, 0.09698384064353832, 0.09698384064353832, 0.09698384064353832]",0.002,7,1
0,225,"[0.09954749047756195, -1.471103088264801, 0.09958821931947881, 0.09960035860028071, 0.09954123944044113, 0.09959164261817932]","[0.09740522675694163, -1.473391100037955, 0.09740522675694163, 0.09740522675694163, 0.09740522675694163, 0.09740522675694163]",0.002,7,1
0,226,"[0.09954749047756195, -1.471103088264801, 0.09958821931947881, 0.09960035860028071, 0.09954123944044113, 0.09959164261817932]","[0.09782645899265151, -1.4729698678022451, 0.09782645899265151, 0.09782645899265151, 0.09782645899265151, 0.09782645899265151]",0.002,7,1
0,227,"[0.10057079792022705, -1.4700569745949288, 0.10060197511781865, 0.1006747919270019, 0.10060451179742813, 0.10054981708526611]","[0.09824753668521863, -1.4725487901096779, 0.09824753668521863, 0.09824753668521863, 0.09824753668521863, 0.09824753668521863]",0.002,7,1
0,228,"[0.10107429325580597, -1.4695571598461648, 0.10111648241151983, 0.10116641103710933, 0.1011565774679184, 0.10104922950267792]","[0.09866845916943774, -1.4721278676254588, 0.09866845916943774, 0.09866845916943774, 0.09866845916943774, 0.09866845916943774]",0.002,7,1
0,229,"[0.10164352506399155, -1.468983882372715, 0.10164529481996709, 0.10169212400402827, 0.10160131752490997, 0.10159438848495483]","[0.09908922578034886, -1.4717071010145477, 0.09908922578034886, 0.09908922578034886, 0.09908922578034886, 0.09908922578034886]",0.002,7,1
0,230,"[0.10219203680753708, -1.4685458478382607, 0.10218173662294561, 0.10223321496929927, 0.10208938270807266, 0.10208475589752197]","[0.09950983585323823, -1.4712864909416583, 0.09950983585323823, 0.09950983585323823, 0.09950983585323823, 0.09950983585323823]",0.002,7,1
0,231,"[0.10219203680753708, -1.4685458478382607, 0.10218173662294561, 0.10223321496929927, 0.10208938270807266, 0.10208475589752197]","[0.09993028872363934, -1.4708660380712573, 0.09993028872363934, 0.09993028872363934, 0.09993028872363934, 0.09993028872363934]",0.002,7,1
0,232,"[0.10313550382852554, -1.4675221529654046, 0.10313111940492803, 0.1032751041599731, 0.10304082185029984, 0.10308017581701279]","[0.10035058372733409, -1.4704457430675624, 0.10035058372733409, 0.10035058372733409, 0.10035058372733409, 0.10035058372733409]",0.002,7,1
0,233,"[0.10361666977405548, -1.467066043322422, 0.10364371934999639, 0.10373298704113765, 0.10364291071891785, 0.10349862277507782]","[0.10077072020035373, -1.4700256065945427, 0.10077072020035373, 0.10077072020035373, 0.10077072020035373, 0.10077072020035373]",0.002,7,1
0,234,"[0.10361666977405548, -1.467066043322422, 0.10364371934999639, 0.10373298704113765, 0.10364291071891785, 0.10349862277507782]","[0.10119069747897995, -1.4696056293159165, 0.10119069747897995, 0.10119069747897995, 0.10119069747897995, 0.10119069747897995]",0.002,7,1
0,235,"[0.10408547520637512, -1.4666286197355767, 0.10415584245790654, 0.10421864568676753, 0.10409070551395416, 0.10399450361728668]","[0.10161051489974593, -1.4691858118951506, 0.10161051489974593, 0.10161051489974593, 0.10161051489974593, 0.10161051489974593]",0.002,7,1
0,236,"[0.10457390546798706, -1.4661425289562722, 0.10462743440736944, 0.10473959028210444, 0.10458898544311523, 0.10445801913738251]","[0.10203017179943742, -1.4687661549954592, 0.10203017179943742, 0.10203017179943742, 0.10203017179943742, 0.10203017179943742]",0.002,7,1
0,237,"[0.10548307001590729, -1.4652235594442864, 0.10561734834779912, 0.10567562162365718, 0.1055154949426651, 0.1054261177778244]","[0.10244966751509374, -1.468346659279803, 0.10244966751509374, 0.10244966751509374, 0.10244966751509374, 0.10244966751509374]",0.002,7,1
0,238,"[0.10596396774053574, -1.4647766661695023, 0.10601741472353154, 0.10620240747418208, 0.10594476014375687, 0.10585667192935944]","[0.10286900138400883, -1.4679273254108878, 0.10286900138400883, 0.10286900138400883, 0.10286900138400883, 0.10286900138400883]",0.002,7,1
0,239,"[0.10596396774053574, -1.4647766661695023, 0.10601741472353154, 0.10620240747418208, 0.10594476014375687, 0.10585667192935944]","[0.10328817274373231, -1.4675081540511643, 0.10328817274373231, 0.10328817274373231, 0.10328817274373231, 0.10328817274373231]",0.002,7,1
0,240,"[0.10695556551218033, -1.463946447973587, 0.10696345964540654, 0.10706941663708491, 0.10691644251346588, 0.10683349519968033]","[0.10370718093207057, -1.467089145862826, 0.10370718093207057, 0.10370718093207057, 0.10370718093207057, 0.10370718093207057]",0.002,7,1
0,241,"[0.10735280811786652, -1.4634861883572121, 0.10740596452821904, 0.10750083505596919, 0.10736703872680664, 0.10726848244667053]","[0.10412602528708773, -1.4666703015078089, 0.10412602528708773, 0.10412602528708773, 0.10412602528708773, 0.10412602528708773]",0.002,7,1
0,242,"[0.10778682678937912, -1.4630120036057015, 0.107887093220846, 0.10792510091748042, 0.10777509957551956, 0.10775704681873322]","[0.1045447051471067, -1.4662516216477899, 0.1045447051471067, 0.1045447051471067, 0.1045447051471067, 0.1045447051471067]",0.002,7,1
0,243,"[0.10828277468681335, -1.4626223531416436, 0.1082695166217249, 0.1084107595631103, 0.10824327170848846, 0.10819151252508163]","[0.10496321985071033, -1.4658331069441863, 0.10496321985071033, 0.10496321985071033, 0.10496321985071033, 0.10496321985071033]",0.002,7,1
0,244,"[0.10828277468681335, -1.4626223531416436, 0.1082695166217249, 0.1084107595631103, 0.10824327170848846, 0.10819151252508163]","[0.10538156873674233, -1.4654147580581542, 0.10538156873674233, 0.10538156873674233, 0.10538156873674233, 0.10538156873674233]",0.002,7,1
0,245,"[0.1091955229640007, -1.4618084517172356, 0.10909539857973272, 0.10927645742382808, 0.10907729715108871, 0.10910464823246002]","[0.10579975114430835, -1.4649965756505883, 0.10579975114430835, 0.10579975114430835, 0.10579975114430835, 0.10579975114430835]",0.002,7,1
0,246,"[0.10961338132619858, -1.461263896231987, 0.10957891145815069, 0.10970561086621089, 0.10945726186037064, 0.10949330776929855]","[0.1062177664127771, -1.4645785603821195, 0.1062177664127771, 0.1062177664127771, 0.1062177664127771, 0.1062177664127771]",0.002,7,1
0,247,"[0.11011099815368652, -1.4609266755035897, 0.10998946825136358, 0.11011330663647456, 0.10995592921972275, 0.10996199399232864]","[0.1066356138817813, -1.4641607129131153, 0.1066356138817813, 0.1066356138817813, 0.1066356138817813, 0.1066356138817813]",0.002,7,1
0,248,"[0.11011099815368652, -1.4609266755035897, 0.10998946825136358, 0.11011330663647456, 0.10995592921972275, 0.10996199399232864]","[0.10705329289121872, -1.4637430339036779, 0.10705329289121872, 0.10705329289121872, 0.10705329289121872, 0.10705329289121872]",0.002,7,1
0,249,"[0.11092877388000488, -1.4601082143238564, 0.11082870164980108, 0.11093048631634517, 0.11082093417644501, 0.11074526607990265]","[0.10747080278125327, -1.4633255240136434, 0.10747080278125327, 0.10747080278125327, 0.10747080278125327, 0.10747080278125327]",0.002,7,1
0,250,"[0.11132726818323135, -1.4596958097866555, 0.1112445036517542, 0.11135105668988032, 0.11128244549036026, 0.1112176701426506]","[0.1078881428923161, -1.4629081839025804, 0.1078881428923161, 0.1078881428923161, 0.1078881428923161, 0.1078881428923161]",0.002,7,1
0,251,"[0.11169995367527008, -1.4593166646412392, 0.11160737672914678, 0.1117756801792602, 0.11162937432527542, 0.11166145652532578]","[0.10830531256510646, -1.46249101422979, 0.10830531256510646, 0.10830531256510646, 0.10830531256510646, 0.10830531256510646]",0.002,7,1
0,252,"[0.11217065155506134, -1.458911807542183, 0.11204320589174444, 0.11218063413586421, 0.11204078793525696, 0.11207558959722519]","[0.10872231114059291, -1.4620740156543037, 0.10872231114059291, 0.10872231114059291, 0.10872231114059291, 0.10872231114059291]",0.002,7,1
0,253,"[0.11261327564716339, -1.4584995967200776, 0.11245280901064092, 0.1125688987919311, 0.11241033673286438, 0.11250649392604828]","[0.10913913796001436, -1.4616571888348822, 0.10913913796001436, 0.10913913796001436, 0.10913913796001436, 0.10913913796001436]",0.002,7,1
0,254,"[0.11295260488986969, -1.4581008714488526, 0.1128471533404749, 0.11291615545239253, 0.11288512498140335, 0.11285243183374405]","[0.10955579236488094, -1.4612405344300157, 0.10955579236488094, 0.10955579236488094, 0.10955579236488094, 0.10955579236488094]",0.002,7,1
0,255,"[0.11341916024684906, -1.457704910343029, 0.11319047609438115, 0.11329738676037593, 0.11325777322053909, 0.11328288912773132]","[0.10997227369697524, -1.4608240530979213, 0.10997227369697524, 0.10997227369697524, 0.10997227369697524, 0.10997227369697524]",0.002,7,1
0,256,"[0.11374831944704056, -1.457268976872303, 0.11357671419252569, 0.1137268978306274, 0.11369021981954575, 0.11373007297515869]","[0.11038858129835322, -1.4604077454965434, 0.11038858129835322, 0.11038858129835322, 0.11038858129835322, 0.11038858129835322]",0.002,7,1
0,257,"[0.11416757851839066, -1.4569019240191956, 0.11403161684145147, 0.11409465848889155, 0.11403017491102219, 0.11407260596752167]","[0.11080471451134531, -1.4599916122835512, 0.11080471451134531, 0.11080471451134531, 0.11080471451134531, 0.11080471451134531]",0.002,7,1
0,258,"[0.1145181730389595, -1.4564732325128098, 0.11447698274721319, 0.11441819250073237, 0.11442075669765472, 0.11444703489542007]","[0.11122067267855747, -1.4595756541163392, 0.11122067267855747, 0.11122067267855747, 0.11122067267855747, 0.11122067267855747]",0.002,7,1
0,259,"[0.11494231969118118, -1.4561192107251664, 0.11478215852846319, 0.11479084073986812, 0.11481121182441711, 0.11482544243335724]","[0.11163645514287213, -1.4591598716520244, 0.11163645514287213, 0.11163645514287213, 0.11163645514287213, 0.11163645514287213]",0.002,7,1
0,260,"[0.11526878923177719, -1.4556900423816224, 0.11519796053041631, 0.11517922460522456, 0.11517345160245895, 0.11524514108896255]","[0.11205206124744929, -1.4587442655474472, 0.11205206124744929, 0.11205206124744929, 0.11205206124744929, 0.11205206124744929]",0.002,7,1
0,261,"[0.11562841385602951, -1.4552887243083497, 0.11551267305483037, 0.11553220331158442, 0.11557496339082718, 0.1156117171049118]","[0.11246749033572762, -1.4583288364591689, 0.11246749033572762, 0.11246749033572762, 0.11246749033572762, 0.11246749033572762]",0.002,7,1
0,262,"[0.11604941636323929, -1.4549229231527825, 0.11590844789613897, 0.11589257299389644, 0.11602247506380081, 0.11597425490617752]","[0.1128827417514254, -1.4579135850434712, 0.1128827417514254, 0.1128827417514254, 0.1128827417514254, 0.1128827417514254]",0.002,7,1
0,263,"[0.11642085760831833, -1.4545676943710824, 0.11623508134950811, 0.11629049360241694, 0.11630632728338242, 0.11641447246074677]","[0.11329781483854158, -1.457498511956355, 0.11329781483854158, 0.11329781483854158, 0.11329781483854158, 0.11329781483854158]",0.002,7,1
0,264,"[0.11642085760831833, -1.4545676943710824, 0.11623508134950811, 0.11629049360241694, 0.11630632728338242, 0.11641447246074677]","[0.11371270894135684, -1.4570836178535398, 0.11371270894135684, 0.11371270894135684, 0.11371270894135684, 0.11371270894135684]",0.002,7,1
0,265,"[0.11715646088123322, -1.453816444878914, 0.117011849080221, 0.11697880804028316, 0.11700118333101273, 0.11705125123262405]","[0.1141274234044346, -1.456668903390462, 0.1141274234044346, 0.1141274234044346, 0.1141274234044346, 0.1141274234044346]",0.002,7,1
0,266,"[0.11746376007795334, -1.4533999946764489, 0.11735564867128545, 0.1173059183308105, 0.11741712689399719, 0.11744140833616257]","[0.1145419575726221, -1.4562543692222745, 0.1145419575726221, 0.1145419575726221, 0.1145419575726221, 0.1145419575726221]",0.002,7,1
0,267,"[0.11787547916173935, -1.4530350428870697, 0.11775285402406865, 0.11762933313336177, 0.11772674322128296, 0.11779610812664032]","[0.11495631079105136, -1.4558400160038452, 0.11495631079105136, 0.11495631079105136, 0.11495631079105136, 0.11495631079105136]",0.002,7,1
0,268,"[0.11815731972455978, -1.4526512560299416, 0.11806756654848272, 0.11800746499981685, 0.1180742084980011, 0.1181601881980896]","[0.11537048240514029, -1.4554258443897563, 0.11537048240514029, 0.11537048240514029, 0.11537048240514029, 0.11537048240514029]",0.002,7,1
0,269,"[0.11849289387464523, -1.452338234787323, 0.11838704744447881, 0.11834721147503657, 0.11846497654914856, 0.11854805797338486]","[0.11578447176059373, -1.4550118550343027, 0.11578447176059373, 0.11578447176059373, 0.11578447176059373, 0.11578447176059373]",0.002,7,1
0,270,"[0.11886858195066452, -1.4519241538694878, 0.11877996126283819, 0.11870472013439937, 0.11875233799219131, 0.11882030218839645]","[0.11619827820340435, -1.4545980485914922, 0.11619827820340435, 0.11619827820340435, 0.11619827820340435, 0.11619827820340435]",0.002,7,1
0,271,"[0.11919072270393372, -1.451585405772068, 0.11911565462221319, 0.11898426591839595, 0.1191067099571228, 0.1191803589463234]","[0.11661190107985388, -1.4541844257150427, 0.11661190107985388, 0.11661190107985388, 0.11661190107985388, 0.11661190107985388]",0.002,7,1
0,272,"[0.11953265219926834, -1.4512678545764466, 0.11941367784609014, 0.11934475480999751, 0.11947859823703766, 0.11950331181287766]","[0.11702533973651394, -1.4537709870583826, 0.11702533973651394, 0.11702533973651394, 0.11702533973651394, 0.11702533973651394]",0.002,7,1
0,273,"[0.11982578784227371, -1.4508733090809365, 0.11975700059999639, 0.11972288667645259, 0.11978855729103088, 0.11981766670942307]","[0.11743859352024726, -1.4533577332746492, 0.11743859352024726, 0.11743859352024726, 0.11743859352024726, 0.11743859352024726]",0.002,7,1
0,274,"[0.12017067521810532, -1.4505824607661744, 0.1201546827899378, 0.12001280366864009, 0.12016119062900543, 0.12019332498311996]","[0.11785166177820858, -1.452944665016688, 0.11785166177820858, 0.11785166177820858, 0.11785166177820858, 0.11785166177820858]",0.002,7,1
0,275,"[0.12043244391679764, -1.4502347719720383, 0.12041217485536748, 0.12034623205151362, 0.1204979196190834, 0.12051615118980408]","[0.11826454385784577, -1.4525317829370508, 0.11826454385784577, 0.11826454385784577, 0.11826454385784577, 0.11826454385784577]",0.002,7,1
0,276,"[0.12076805531978607, -1.449817844932415, 0.12080699602235967, 0.12068740903820796, 0.1208331361413002, 0.1208435520529747]","[0.11867723910690078, -1.4521190876879957, 0.11867723910690078, 0.11867723910690078, 0.11867723910690078, 0.11867723910690078]",0.002,7,1
0,277,"[0.12107980996370316, -1.4495602262071152, 0.12106782594789678, 0.12094728528942866, 0.12111438065767288, 0.12115457653999329]","[0.1190897468734107, -1.4517065799214859, 0.1190897468734107, 0.1190897468734107, 0.1190897468734107, 0.1190897468734107]",0.002,7,1
0,278,"[0.12138369679450989, -1.4492031645825882, 0.1214669386493128, 0.12126283227886958, 0.12148266285657883, 0.1214689388871193]","[0.11950206650570885, -1.4512942602891876, 0.11950206650570885, 0.11950206650570885, 0.11950206650570885, 0.11950206650570885]",0.002,7,1
0,279,"[0.12169577181339264, -1.4488631200841446, 0.12176496187318975, 0.12161223470654292, 0.1217624843120575, 0.12180950492620468]","[0.11991419735242574, -1.4508821294424707, 0.11991419735242574, 0.11991419735242574, 0.11991419735242574, 0.11991419735242574]",0.002,7,1
0,280,"[0.12199070304632187, -1.4486069095185776, 0.1220787207232874, 0.12191586076702876, 0.12198876589536667, 0.12211193889379501]","[0.12032613876249007, -1.4504701880324065, 0.12032613876249007, 0.12032613876249007, 0.12032613876249007, 0.12032613876249007]",0.002,7,1
0,281,"[0.12233243137598038, -1.4482226905277749, 0.12235528627504522, 0.12223331510510249, 0.12233135849237442, 0.12234143167734146]","[0.12073789008512985, -1.4500584367097666, 0.12073789008512985, 0.12073789008512985, 0.12073789008512985, 0.12073789008512985]",0.002,7,1
0,282,"[0.12265582382678986, -1.4479244884899636, 0.12270051637758428, 0.12248866140332026, 0.12266354262828827, 0.12270155549049377]","[0.1211494506698734, -1.4496468761250232, 0.1211494506698734, 0.1211494506698734, 0.1211494506698734, 0.1211494506698734]",0.002,7,1
0,283,"[0.1229107677936554, -1.4475961488536377, 0.12297183672060186, 0.12277166425671382, 0.12290921062231064, 0.12299742549657822]","[0.12156081986655029, -1.4492355069283462, 0.12156081986655029, 0.12156081986655029, 0.12156081986655029, 0.12156081986655029]",0.002,7,1
0,284,"[0.12321921437978745, -1.44735790163789, 0.12328082719911748, 0.12314633905377192, 0.12322551012039185, 0.12327133864164352]","[0.12197199702529253, -1.448824329769604, 0.12197199702529253, 0.12197199702529253, 0.12197199702529253, 0.12197199702529253]",0.002,7,1
0,285,"[0.12343186140060425, -1.4470462289503594, 0.12359697023500615, 0.12342588483776851, 0.12353260815143585, 0.12363714724779129]","[0.12238298149653545, -1.4484133452983612, 0.12238298149653545, 0.12238298149653545, 0.12238298149653545, 0.12238298149653545]",0.002,7,1
0,286,"[0.12378576397895813, -1.446711429660656, 0.12384587923158819, 0.12366096555676265, 0.12385297566652298, 0.12388702481985092]","[0.12279377263101882, -1.4480025541638777, 0.12279377263101882, 0.12279377263101882, 0.12279377263101882, 0.12279377263101882]",0.002,7,1
0,287,"[0.12397394329309464, -1.4464750972441216, 0.12418491045107061, 0.1239366966434936, 0.12412093579769135, 0.12414485216140747]","[0.12320436977978777, -1.4475919570151088, 0.12320436977978777, 0.12320436977978777, 0.12320436977978777, 0.12320436977978777]",0.002,7,1
0,288,"[0.1243908628821373, -1.4461916995099564, 0.12442619005312139, 0.12423722326245112, 0.12440236657857895, 0.1243990957736969]","[0.12361477229419393, -1.4471815545007027, 0.12361477229419393, 0.12361477229419393, 0.12361477229419393, 0.12361477229419393]",0.002,7,1
0,289,"[0.12465289235115051, -1.4458782908371468, 0.12478429475893194, 0.12456004201855464, 0.12471509724855423, 0.12470728904008865]","[0.1240249795258964, -1.4467713472690003, 0.1240249795258964, 0.1240249795258964, 0.1240249795258964, 0.1240249795258964]",0.002,7,1
0,290,"[0.12491034716367722, -1.4456143987229844, 0.1250394026385706, 0.12483517705883784, 0.12499047070741653, 0.12496160715818405]","[0.12443499082686284, -1.4463613359680336, 0.12443499082686284, 0.12443499082686284, 0.12443499082686284, 0.12443499082686284]",0.002,7,1
0,291,"[0.12522388994693756, -1.4453732681325455, 0.125315014516012, 0.12510280191387935, 0.12523581087589264, 0.12526920437812805]","[0.12484480554937029, -1.4459515212455263, 0.12484480554937029, 0.12484480554937029, 0.12484480554937029, 0.12484480554937029]",0.002,7,1
0,292,"[0.1254662126302719, -1.4450792235187073, 0.125526253377096, 0.12542013704266353, 0.1255953311920166, 0.1255371868610382]","[0.12525442304600648, -1.4455419037488901, 0.12525442304600648, 0.12525442304600648, 0.12525442304600648, 0.12525442304600648]",0.002,7,1
0,293,"[0.12568482756614685, -1.4447131615928193, 0.12591201463808233, 0.12568800031628413, 0.12579557299613953, 0.12579482793807983]","[0.12566384266967062, -1.445132484125226, 0.12566384266967062, 0.12566384266967062, 0.12566384266967062, 0.12566384266967062]",0.002,7,1
0,294,"[0.1259860396385193, -1.4444945019534607, 0.12610084215273076, 0.1259515720554809, 0.12609679996967316, 0.12611597776412964]","[0.12607306377357458, -1.444723263021322, 0.12607306377357458, 0.12607306377357458, 0.12607306377357458, 0.12607306377357458]",0.002,7,1
0,295,"[0.1262902468442917, -1.4442304831794281, 0.12645465532411748, 0.12620799123730464, 0.126400426030159, 0.12634630501270294]","[0.12648208571124384, -1.4443142410836527, 0.12648208571124384, 0.12648208571124384, 0.12648208571124384, 0.12648208571124384]",0.002,7,1
0,296,"[0.126525416970253, -1.4439712923816224, 0.12672359148134404, 0.1265665727802734, 0.12666839361190796, 0.12668266892433167]","[0.1268909078365184, -1.4439054189583782, 0.1268909078365184, 0.1268909078365184, 0.1268909078365184, 0.1268909078365184]",0.002,7,1
0,297,"[0.1268112063407898, -1.4437660437873383, 0.12699872652162725, 0.12677697717633052, 0.1268566995859146, 0.12688027322292328]","[0.12729952950355414, -1.4434967972913424, 0.12729952950355414, 0.12729952950355414, 0.12729952950355414, 0.12729952950355414]",0.002,7,1
0,298,"[0.12710249423980713, -1.443476603632309, 0.12725383440126592, 0.12700717031445308, 0.1271292120218277, 0.1271468549966812]","[0.1277079500668234, -1.443088376728073, 0.1277079500668234, 0.1277079500668234, 0.1277079500668234, 0.1277079500668234]",0.002,7,1
0,299,"[0.1273689568042755, -1.4431797874024888, 0.1275103727923792, 0.12736742078747554, 0.12736710906028748, 0.12743546068668365]","[0.1281161688811163, -1.4426801579137802, 0.1281161688811163, 0.1281161688811163, 0.1281161688811163, 0.1281161688811163]",0.002,7,1
0,300,"[0.127582848072052, -1.442939893608429, 0.1277244726764124, 0.12762312471356196, 0.12767285108566284, 0.12768203020095825]","[0.12852418530154172, -1.4422721414933548, 0.12852418530154172, 0.12852418530154172, 0.12852418530154172, 0.12852418530154172]",0.002,7,1
0,301,"[0.12788407504558563, -1.4427513045123597, 0.1280124823199671, 0.12787024557080073, 0.1279480904340744, 0.1279570758342743]","[0.12893199868352823, -1.4418643281113683, 0.12893199868352823, 0.12893199868352823, 0.12893199868352823, 0.12893199868352823]",0.002,7,1
0,302,"[0.1281522959470749, -1.4424975675395508, 0.1283181349383753, 0.12816016256298823, 0.1281832754611969, 0.1282247006893158]","[0.12933960838282513, -1.4414567184120715, 0.12933960838282513, 0.12933960838282513, 0.12933960838282513, 0.12933960838282513]",0.002,7,1
0,303,"[0.12835285067558289, -1.4422144305757065, 0.12855369249452764, 0.12840811788525386, 0.1284061223268509, 0.12845218181610107]","[0.12974701375550357, -1.441049313039393, 0.12974701375550357, 0.12974701375550357, 0.12974701375550357, 0.12974701375550357]",0.002,7,1
0,304,"[0.12869904935359955, -1.4419111770442505, 0.12879974046816045, 0.128634973163269, 0.12863636016845703, 0.1287153959274292]","[0.1301542141579574, -1.440642112636939, 0.1301542141579574, 0.1301542141579574, 0.1301542141579574, 0.1301542141579574]",0.002,7,1
0,305,"[0.12893161177635193, -1.4417466235211869, 0.12907725969423467, 0.12893979131665034, 0.12899956107139587, 0.12896233797073364]","[0.13056120894690432, -1.4402351178479922, 0.13056120894690432, 0.13056120894690432, 0.13056120894690432, 0.13056120894690432]",0.002,7,1
0,306,"[0.12919525802135468, -1.4414781642011185, 0.12935430208315069, 0.1292014557072143, 0.12917682528495789, 0.12923438847064972]","[0.13096799747938687, -1.4398283293155096, 0.13096799747938687, 0.13096799747938687, 0.13096799747938687, 0.13096799747938687]",0.002,7,1
0,307,"[0.12944534420967102, -1.4412311029485245, 0.12958842912782842, 0.12945394098248286, 0.12945541739463806, 0.12946927547454834]","[0.1313745791127734, -1.4394217476821232, 0.1313745791127734, 0.1313745791127734, 0.1313745791127734, 0.1313745791127734]",0.002,7,1
0,308,"[0.12944534420967102, -1.4412311029485245, 0.12958842912782842, 0.12945394098248286, 0.12945541739463806, 0.12946927547454834]","[0.1317809532047591, -1.4390153735901374, 0.1317809532047591, 0.1317809532047591, 0.1317809532047591, 0.1317809532047591]",0.002,7,1
0,309,"[0.1299608051776886, -1.440796510582306, 0.1300442854510706, 0.1299493747898559, 0.12998370826244354, 0.1298898160457611]","[0.13218711911336703, -1.4386092076815296, 0.13218711911336703, 0.13218711911336703, 0.13218711911336703, 0.13218711911336703]",0.002,7,1
0,310,"[0.13024094700813293, -1.440556452875473, 0.130319897328512, 0.13011924802746577, 0.1302279382944107, 0.13016614317893982]","[0.13259307619694918, -1.4382032505979474, 0.13259307619694918, 0.13259307619694918, 0.13259307619694918, 0.13259307619694918]",0.002,7,1
0,311,"[0.1304641216993332, -1.4402744334987183, 0.13052684465517217, 0.13040868818249507, 0.1304088681936264, 0.13044209778308868]","[0.13299882381418743, -1.437797502980709, 0.13299882381418743, 0.13299882381418743, 0.13299882381418743, 0.13299882381418743]",0.002,7,1
0,312,"[0.13071590662002563, -1.440039114361145, 0.13070470491518194, 0.13067798196759028, 0.13068144023418427, 0.13068453967571259]","[0.13340436132409447, -1.437391965470802, 0.13340436132409447, 0.13340436132409447, 0.13340436132409447, 0.13340436132409447]",0.002,7,1
0,313,"[0.13094650208950043, -1.4398278307965775, 0.13098079362978154, 0.1309092479893188, 0.13093732297420502, 0.1309366673231125]","[0.13380968808601504, -1.4369866387088814, 0.13380968808601504, 0.13380968808601504, 0.13380968808601504, 0.13380968808601504]",0.002,7,1
0,314,"[0.1312074512243271, -1.4395803821137925, 0.131357494984762, 0.13122419893231196, 0.1311768889427185, 0.13118812441825867]","[0.13421480345962672, -1.43658152333527, 0.13421480345962672, 0.13421480345962672, 0.13421480345962672, 0.13421480345962672]",0.002,7,1
0,315,"[0.13140904903411865, -1.4393527221730729, 0.13152724901308233, 0.1314278083988647, 0.13139981031417847, 0.13136553764343262]","[0.13461970680494106, -1.4361766199899555, 0.13461970680494106, 0.13461970680494106, 0.13461970680494106, 0.13461970680494106]",0.002,7,1
0,316,"[0.13171491026878357, -1.4391202491572876, 0.13175517717470342, 0.13171307622875972, 0.13166041672229767, 0.13166651129722595]","[0.1350243974823046, -1.435771929312592, 0.1350243974823046, 0.1350243974823046, 0.1350243974823046, 0.1350243974823046]",0.002,7,1
0,317,"[0.13196967542171478, -1.4388471108726044, 0.13205320039858037, 0.1319407659718017, 0.13182467222213745, 0.13188084959983826]","[0.13542887485239982, -1.4353674519424968, 0.13542887485239982, 0.13542887485239982, 0.13542887485239982, 0.13542887485239982]",0.002,7,1
0,318,"[0.13196967542171478, -1.4388471108726044, 0.13205320039858037, 0.1319407659718017, 0.13182467222213745, 0.13188084959983826]","[0.13583313827624616, -1.4349631885186505, 0.13583313827624616, 0.13583313827624616, 0.13583313827624616, 0.13583313827624616]",0.002,7,1
0,319,"[0.13248810172080994, -1.4384170335582276, 0.1324399153338831, 0.13248292982067866, 0.1323367953300476, 0.13239175081253052]","[0.13623718711520108, -1.4345591396796955, 0.13623718711520108, 0.13623718711520108, 0.13623718711520108, 0.13623718711520108]",0.002,7,1
0,320,"[0.13264375925064087, -1.438172773723938, 0.1327427069293421, 0.13269667207684321, 0.13260167837142944, 0.1325826644897461]","[0.13664102073096102, -1.4341553060639356, 0.13664102073096102, 0.13664102073096102, 0.13664102073096102, 0.13664102073096102]",0.002,7,1
0,321,"[0.13295398652553558, -1.4378695499948044, 0.13293773332704717, 0.13294093191113276, 0.1327964961528778, 0.13280974328517914]","[0.13704463848556236, -1.4337516883093342, 0.13704463848556236, 0.13704463848556236, 0.13704463848556236, 0.13704463848556236]",0.002,7,1
0,322,"[0.13316069543361664, -1.4377005410245438, 0.13320619264711553, 0.1331518131443481, 0.1330854594707489, 0.1330329328775406]","[0.13744803974138264, -1.433348287053514, 0.13744803974138264, 0.13744803974138264, 0.13744803974138264, 0.13744803974138264]",0.002,7,1
0,323,"[0.13348782062530518, -1.4374604386142273, 0.13342076936830694, 0.13343743860211177, 0.13336537778377533, 0.13329191505908966]","[0.13785122386114126, -1.4329451029337552, 0.13785122386114126, 0.13785122386114126, 0.13785122386114126, 0.13785122386114126]",0.002,7,1
0,324,"[0.13366858661174774, -1.437270150785782, 0.133735481892721, 0.13366369783367915, 0.13354314863681793, 0.13357225060462952]","[0.13825419020790075, -1.4325421365869957, 0.13825419020790075, 0.13825419020790075, 0.13825419020790075, 0.13825419020790075]",0.002,7,1
0,325,"[0.1339009553194046, -1.4369626355222245, 0.1339018980609339, 0.13395671426739497, 0.13381823897361755, 0.13385744392871857]","[0.1386569381450676, -1.432139388649829, 0.1386569381450676, 0.1386569381450676, 0.1386569381450676, 0.1386569381450676]",0.002,7,1
