Arnibjarnst/BoxLift/logs/ur_rtde/trajectory_dur=7.5_delay=0.2_gain=100_lh=0.1_real.csv
arm_idx,step,actual_q,actual_qd,target_q,expected_q,loop_time,robot_mode,safety_mode
0,-1,"[0.022002961486577988, -1.5489008215120812, 0.022003952656881154, 0.022011323566101026, 0.022054636850953102, 0.021974710747599602]","[-0.036601994186639786, -0.03811674565076828, -0.036341361701488495, -0.033751241862773895, -0.03189131245017052, -0.03370252251625061]","[0.0, -1.5707963267948966, 0.0, 0.0, 0.0, 0.0]","[0.0, -1.5707963267948966, 0.0, 0.0, 0.0, 0.0]",0.002,7,1
0,-1,"[0.02133101224899292, -1.5496055123260994, 0.021360222493306935, 0.02141503869976802, 0.021496295928955078, 0.02135687880218029]","[-0.05059368908405304, -0.05538000911474228, -0.05076935142278671, -0.04981778562068939, -0.050050731748342514, -0.04985266923904419]","[0.0, -1.5707963267948966, 0.0, 0.0, 0.0, 0.0]","[0.0, -1.5707963267948966, 0.0, 0.0, 0.0, 0.0]",0.002,7,1
0,-1,"[0.020661883056163788, -1.5503584251603861, 0.020613018666402638, 0.02076522886242671, 0.020835857838392258, 0.020682482048869133]","[-0.0638498067855835, -0.06483013182878494, -0.06223554536700249, -0.06562202423810959, -0.06187386065721512, -0.05982991307973862]","[0.0, -1.5707963267948966, 0.0, 0.0, 0.0, 0.0]","[0.0, -1.5707963267948966, 0.0, 0.0, 0.0, 0.0]",0.002,7,1
0,-1,"[0.019829977303743362, -1.551264588986971, 0.01977712312807256, 0.019916220302246046, 0.019942831248044968, 0.019907383248209953]","[-0.0731266438961029, -0.07210520654916763, -0.07268690317869186, -0.07611127197742462, -0.0761735811829567, -0.07360845804214478]","[0.0, -1.5707963267948966, 0.0, 0.0, 0.0, 0.0]","[0.0, -1.5707963267948966, 0.0, 0.0, 0.0, 0.0]",0.002,7,1
0,-1,"[0.01888827420771122, -1.5521581091782828, 0.01881105104555303, 0.018907113666198683, 0.018984274938702583, 0.018910227343440056]","[-0.08567832410335541, -0.08394079655408859, -0.08567937463521957, -0.08864057809114456, -0.08895068615674973, -0.08617239445447922]","[0.0, -1.5707963267948966, 0.0, 0.0, 0.0, 0.0]","[0.0, -1.5707963267948966, 0.0, 0.0, 0.0, 0.0]",0.002,7,1
0,-1,"[0.015482193790376186, -1.5553802086836477, 0.015522782002584279, 0.015611811275146437, 0.015595465898513794, 0.01551420334726572]","[-0.11773443967103958, -0.11302714794874191, -0.1182137280702591, -0.1186852976679802, -0.12105225026607513, -0.11884291470050812]","[0.0, -1.5707963267948966, 0.0, 0.0, 0.0, 0.0]","[0.0, -1.5707963267948966, 0.0, 0.0, 0.0, 0.0]",0.002,7,1
0,-1,"[0.01317619625478983, -1.5576633552885433, 0.013219181691304982, 0.013257666225097609, 0.013224021531641483, 0.013205431401729584]","[-0.1356223076581955, -0.13170354068279266, -0.13778740167617798, -0.1369439959526062, -0.13678927719593048, -0.13521665334701538]","[0.0, -1.5707963267948966, 0.0, 0.0, 0.0, 0.0]","[0.0, -1.5707963267948966, 0.0, 0.0, 0.0, 0.0]",0.002,7,1
0,-1,"[0.010843425057828426, -1.559956575078406, 0.010959927235738576, 0.010939283961914015, 0.010961269028484821, 0.010935704223811626]","[-0.14788249135017395, -0.14258408546447754, -0.1476346105337143, -0.15005911886692047, -0.15323632955551147, -0.15189839899539948]","[0.0, -1.5707963267948966, 0.0, 0.0, 0.0, 0.0]","[0.0, -1.5707963267948966, 0.0, 0.0, 0.0, 0.0]",0.002,7,1
0,-1,"[0.007685988210141659, -1.5629723279601713, 0.007721249257222951, 0.0076004701801757335, 0.007760160602629185, 0.007734064944088459]","[-0.12265234440565109, -0.12696082890033722, -0.12521806359291077, -0.12630188465118408, -0.12757869064807892, -0.12640565633773804]","[0.0, -1.5707963267948966, 0.0, 0.0, 0.0, 0.0]","[0.0, -1.5707963267948966, 0.0, 0.0, 0.0, 0.0]",0.002,7,1
0,-1,"[0.005586016457527876, -1.5649956593154748, 0.005636040364400685, 0.005575342769287062, 0.005692488048225641, 0.005657549016177654]","[-0.10597164183855057, -0.10752661526203156, -0.10914721339941025, -0.10311561077833176, -0.10596130788326263, -0.10865547508001328]","[0.0, -1.5707963267948966, 0.0, 0.0, 0.0, 0.0]","[0.0, -1.5707963267948966, 0.0, 0.0, 0.0, 0.0]",0.002,7,1
0,-1,"[0.0036342351231724024, -1.5669183915345748, 0.0037520567523401382, 0.003642125720642042, 0.0037239226512610912, 0.0037448073271661997]","[-0.08585554361343384, -0.08822211623191833, -0.08742862194776535, -0.0820358395576477, -0.08708865195512772, -0.08840122818946838]","[0.0, -1.5707963267948966, 0.0, 0.0, 0.0, 0.0]","[0.0, -1.5707963267948966, 0.0, 0.0, 0.0, 0.0]",0.002,7,1
0,-1,"[0.0028647035360336304, -1.5677836621510615, 0.0029371420489709976, 0.0027531820484618663, 0.0028612911701202393, 0.002908196533098817]","[-0.07571174949407578, -0.07963896542787552, -0.07909214496612549, -0.07552865892648697, -0.07572440803050995, -0.07742542028427124]","[0.0, -1.5707963267948966, 0.0, 0.0, 0.0, 0.0]","[0.0, -1.5707963267948966, 0.0, 0.0, 0.0, 0.0]",0.002,7,1
0,-1,"[0.001388654112815857, -1.5692940415213634, 0.001397434865133107, 0.001469417209289503, 0.001498461700975895, 0.0015294551849365234]","[-0.05400247499346733, -0.0592581145465374, -0.05432313680648804, -0.05302514135837555, -0.05553845316171646, -0.05427587777376175]","[0.0, -1.5707963267948966, 0.0, 0.0, 0.0, 0.0]","[0.0, -1.5707963267948966, 0.0, 0.0, 0.0, 0.0]",0.002,7,1
0,-1,"[0.0007314194808714092, -1.5700378623190154, 0.0007594267474573257, 0.0007973152348021983, 0.0007727100746706128, 0.0008123493171297014]","[-0.03997460752725601, -0.041996389627456665, -0.04167576879262924, -0.039961427450180054, -0.041549280285835266, -0.0426960289478302]","[0.0, -1.5707963267948966, 0.0, 0.0, 0.0, 0.0]","[0.0, -1.5707963267948966, 0.0, 0.0, 0.0, 0.0]",0.002,7,1
0,-1,"[0.0003894624824170023, -1.570480175262066, 0.00034028688539677887, 0.00041572629895014757, 0.00041360603063367307, 0.0004425048828125]","[-0.027656331658363342, -0.03242078050971031, -0.029743459075689316, -0.02886396087706089, -0.02902086265385151, -0.03015822544693947]","[0.0, -1.5707963267948966, 0.0, 0.0, 0.0, 0.0]","[0.0, -1.5707963267948966, 0.0, 0.0, 0.0, 0.0]",0.002,7,1
0,-1,"[0.00012105083442293108, -1.5707757643070472, 4.5124684469044496e-05, 0.00011126577343745225, 0.00016109395073726773, 0.0001544952392578125]","[-0.01633780263364315, -0.02014584094285965, -0.0179044920951128, -0.016947215422987938, -0.016513818874955177, -0.017628535628318787]","[0.0, -1.5707963267948966, 0.0, 0.0, 0.0, 0.0]","[0.0, -1.5707963267948966, 0.0, 0.0, 0.0, 0.0]",0.002,7,1
0,-1,"[5.5581340347998776e-06, -1.5708891354002894, -7.939338684082031e-05, 1.9951457641553816e-05, 1.8304517652723007e-05, 9.326433792011812e-05]","[-0.0031830444931983948, -0.004373137839138508, -0.0034252305049449205, -0.0030984890181571245, -0.0034267082810401917, -0.0032718500588089228]","[0.0, -1.5707963267948966, 0.0, 0.0, 0.0, 0.0]","[0.0, -1.5707963267948966, 0.0, 0.0, 0.0, 0.0]",0.002,7,1
0,-1,"[9.101629257202148e-05, -1.5708981953062953, -3.910064697265625e-05, 3.938257183833116e-05, 9.522342588752508e-05, 9.638762276154011e-05]","[0.0021149555686861277, -0.0026191342622041702, 0.0016564064426347613, -0.000285457557765767, 0.0003115382860414684, 0.0009309382294304669]","[0.0, -1.5707963267948966, 0.0, 0.0, 0.0, 0.0]","[0.0, -1.5707963267948966, 0.0, 0.0, 0.0, 0.0]",0.002,7,1
0,-1,"[7.462501525878906e-05, -1.570792236615791, 4.9893056051075746e-05, 0.00010220586743159288, 6.32725132163614e-05, 6.769895844627172e-05]","[0.0001669550983933732, 0.004582154098898172, 0.0008159223943948746, -0.0007410229882225394, 4.088431069249054e-06, 0.00011618700227700174]","[0.0, -1.5707963267948966, 0.0, 0.0, 0.0, 0.0]","[0.0, -1.5707963267948966, 0.0, 0.0, 0.0, 0.0]",0.002,7,1
0,-1,"[4.8920512199401855e-05, -1.5707425636104126, 3.2726918355763246e-05, 0.0001020866581420421, 9.161144407698885e-05, 5.405450065154582e-05]","[0.00010569787991698831, 0.0019734089728444815, 0.0009859954006969929, -0.00020824235980398953, 3.167752789679651e-13, 6.327754817903042e-05]","[0.0, -1.5707963267948966, 0.0, 0.0, 0.0, 0.0]","[0.0, -1.5707963267948966, 0.0, 0.0, 0.0, 0.0]",0.002,7,1
0,-1,"[5.505979061126709e-05, -1.5707455225059057, 1.603761781865387e-05, 7.669507946772569e-05, 8.706732478458434e-05, 6.318092346191406e-05]","[9.74197537289001e-05, 0.00039803373510949314, 0.0005359458737075329, -0.00022588358842767775, -0.0005235698190517724, 7.387166789385446e-08]","[0.0, -1.5707963267948966, 0.0, 0.0, 0.0, 0.0]","[0.0, -1.5707963267948966, 0.0, 0.0, 0.0, 0.0]",0.002,7,1
0,-1,"[4.4405460357666016e-05, -1.570753044612804, -1.6478246834594756e-05, 3.938257183833116e-05, 0.00011309584078844637, 3.4809112548828125e-05]","[0.00011446823918959126, -0.00029620761051774025, 0.0003417382249608636, -0.00019401688768994063, -0.0005573913804255426, 8.766103890955196e-14]","[0.0, -1.5707963267948966, 0.0, 0.0, 0.0, 0.0]","[0.0, -1.5707963267948966, 0.0, 0.0, 0.0, 0.0]",0.002,7,1
0,-1,"[5.3435564041137695e-05, -1.5708023510374964, 2.9865895406544496e-05, 8.122503247065538e-05, 4.833800630876794e-07, 1.3535261132346932e-05]","[-3.518634184729308e-05, -0.0006222514784894884, 0.00025782035663723946, -0.0006199321942403913, -0.0007569434819743037, -0.0005181278102099895]","[0.0, -1.5707963267948966, 0.0, 0.0, 0.0, 0.0]","[0.0, -1.5707963267948966, 0.0, 0.0, 0.0, 0.0]",0.002,7,1
0,-1,"[5.790591239929199e-05, -1.5707769604981259, 1.6514454976856996e-05, 6.918489422602647e-05, 2.011567175941309e-06, 5.125999450683594e-05]","[-5.359991337172687e-05, -0.0002166794438380748, 0.000194229040062055, -0.0005206035566516221, -0.0007940948125906289, -0.0005377765628509223]","[0.0, -1.5707963267948966, 0.0, 0.0, 0.0, 0.0]","[0.0, -1.5707963267948966, 0.0, 0.0, 0.0, 0.0]",0.002,7,1
0,-1,"[7.751584053039551e-05, -1.5707740016044518, 1.1746083394825746e-05, 1.9951457641553816e-05, 3.7661568057956174e-05, 3.481183739495464e-05]","[-4.547871139948256e-05, 0.00015609331603627652, 0.00018728655413724482, -0.0006818915717303753, -0.0008072027121670544, -0.0009328786982223392]","[0.0, -1.5707963267948966, 0.0, 0.0, 0.0, 0.0]","[0.0, -1.5707963267948966, 0.0, 0.0, 0.0, 0.0]",0.002,7,1
0,-1,"[3.993511199951172e-05, -1.5707994900145472, 5.895296205693512e-05, 1.554071392817491e-05, 4.663467552745715e-05, 2.7179718017578125e-05]","[-6.0567599575733766e-05, 0.0004722618032246828, 0.00016576108464505523, -0.0007413651328533888, -0.0006057352293282747, -0.0006678790668956935]","[0.0, -1.5707963267948966, 0.0, 0.0, 0.0, 0.0]","[0.0, -1.5707963267948966, 0.0, 0.0, 0.0, 0.0]",0.002,7,1
0,-1,"[3.7044286727905273e-05, -1.570766643886902, 3.7495289937794496e-05, 7.434482238721785e-06, 2.5829631340457126e-05, 3.621578071033582e-05]","[-5.3382562327897176e-05, 0.0003392119542695582, 0.00014564312004949898, -0.0006149551481939852, -0.00040195381734520197, -0.0007073216838762164]","[0.0, -1.5707963267948966, 0.0, 0.0, 0.0, 0.0]","[0.0, -1.5707963267948966, 0.0, 0.0, 0.0, 0.0]",0.002,7,1
0,-1,"[2.0489096641540527e-05, -1.5707694835731054, 4.369417299443512e-05, 2.4481410644483503e-05, -2.209340230763246e-06, -7.788287561538709e-07]","[-6.0424135881476104e-05, 0.00012125037028454244, 0.00012321205576881766, -0.0003448812058195472, -0.00032087514409795403, -0.0004821598995476961]","[0.0, -1.5707963267948966, 0.0, 0.0, 0.0, 0.0]","[0.0, -1.5707963267948966, 0.0, 0.0, 0.0, 0.0]",0.002,7,1
0,-1,"[7.751584053039551e-05, -1.5707860869227552, 4.655519594365387e-05, 2.114355053706163e-05, -2.652803529912262e-05, 4.082417581230402e-05]","[-8.724944200366735e-05, -0.0001226081803906709, 8.697379962541163e-05, -0.00030036314274184406, -0.00017448239668738097, -0.0002338667109142989]","[0.0, -1.5707963267948966, 0.0, 0.0, 0.0, 0.0]","[0.0, -1.5707963267948966, 0.0, 0.0, 0.0, 0.0]",0.002,7,1
0,-1,"[9.559105819789693e-05, -1.5708204708495082, 5.418459047490387e-05, 3.187238659663194e-05, -1.9375477926075746e-05, -4.178682436162262e-05]","[-0.00012024937313981354, -8.368722774321213e-05, 7.832365372451022e-05, -0.00019578110368456692, -0.00016174543998204172, -0.00020606578618753701]","[0.0, -1.5707963267948966, 0.0, 0.0, 0.0, 0.0]","[0.0, -1.5707963267948966, 0.0, 0.0, 0.0, 0.0]",0.002,7,1
0,-1,"[4.607439041137695e-05, -1.570787646059518, -1.655972664593719e-05, -4.367237426805559e-06, 3.0243401852203533e-05, 2.4385213691857643e-05]","[-0.00022946158424019814, -6.350809211852493e-09, 7.288683991646394e-05, -0.00015524800983257592, -0.00016013132699299604, -0.0001758646103553474]","[0.0, -1.5707963267948966, 0.0, 0.0, 0.0, 0.0]","[0.0, -1.5707963267948966, 0.0, 0.0, 0.0, 0.0]",0.002,7,1
0,-1,"[9.101629257202148e-05, -1.5707455225059057, -4.76837158203125e-06, 3.819047894282335e-05, 9.453548045712523e-06, -7.788287561538709e-07]","[-0.000385274674044922, -8.94374379301266e-26, 1.0138550020138623e-13, -0.00011846230336232111, -0.00012703078391496092, -0.00014417302736546844]","[0.0, -1.5707963267948966, 0.0, 0.0, 0.0, 0.0]","[0.0, -1.5707963267948966, 0.0, 0.0, 0.0, 0.0]",0.002,7,1
0,-1,"[2.9519200325012207e-05, -1.5708233318724574, -9.059906005859375e-06, 1.9951457641553816e-05, -3.987947572881012e-05, -2.080598940068512e-05]","[-0.00024530841619707644, 0.0, 6.2062247816328256e-40, -8.655965939396992e-05, -0.00012724820408038795, -0.00011260536120971665]","[0.0, -1.5707963267948966, 0.0, 0.0, 0.0, 0.0]","[0.0, -1.5707963267948966, 0.0, 0.0, 0.0, 0.0]",0.002,7,1
0,-1,"[2.492332350811921e-05, -1.5708400211729945, 5.0846730367481996e-05, 2.9130572936963972e-05, -1.732503072560121e-06, -7.788287561538709e-07]","[-0.00022057279420550913, 0.0, -0.0, -9.15449854801409e-05, -0.00011160617577843368, -0.00010149271838599816]","[0.0, -1.5707963267948966, 0.0, 0.0, 0.0, 0.0]","[0.0, -1.5707963267948966, 0.0, 0.0, 0.0, 0.0]",0.002,7,1
0,-1,"[-2.271333803349762e-05, -1.5707575626405124, 2.080598940068512e-05, -2.069891009526259e-05, -1.7468129293263246e-05, -4.116688863575746e-06]","[-0.0007048858678899705, 0.0, -0.0, -7.942646334413439e-05, -9.625984966987744e-05, -9.006745676742867e-05]","[0.0, -1.5707963267948966, 0.0, 0.0, 0.0, 0.0]","[0.0, -1.5707963267948966, 0.0, 0.0, 0.0, 0.0]",0.002,7,1
0,-1,"[5.054473876953125e-05, -1.5707591669600625, 1.794496645146637e-05, 2.114355053706163e-05, -1.7468129293263246e-05, 7.949333848955575e-06]","[-0.000606715097092092, 0.0, -0.0, -7.684115553274751e-05, -7.929741695988923e-05, -5.662347923873767e-09]","[0.0, -1.5707963267948966, 0.0, 0.0, 0.0, 0.0]","[0.0, -1.5707963267948966, 0.0, 0.0, 0.0, 0.0]",0.002,7,1
0,-1,"[1.0028483302448876e-05, -1.5707951681664163, -3.298960655229166e-05, 4.692668579053816e-06, 1.550817432871554e-05, -2.080598940068512e-05]","[-7.728537827886208e-15, 0.0, -0.0, -7.079663191689178e-05, -7.287580956472084e-05, -2.8645532619229816e-17]","[0.0, -1.5707963267948966, 0.0, 0.0, 0.0, 0.0]","[0.0, -1.5707963267948966, 0.0, 0.0, 0.0, 0.0]",0.002,7,1
0,-1,"[-1.5083943502247621e-05, -1.5707740317214594, 1.3653432027638246e-05, 3.366052593989366e-05, 1.1061667464673519e-05, 0.0]","[-1.088398918084552e-31, 0.0, -0.0, -8.999832807167832e-14, -8.265558376630011e-11, -6.1780110756325e-28]","[0.0, -1.5707963267948966, 0.0, 0.0, 0.0, 0.0]","[0.0, -1.5707963267948966, 0.0, 0.0, 0.0, 0.0]",0.002,7,1
0,-1,"[-1.5083943502247621e-05, -1.5707951681677805, 1.603761781865387e-05, -1.1758213378953997e-05, 7.152557373046875e-06, 2.8993605155847035e-05]","[-3.6568602808983997e-05, 0.0001211451381095685, -0.0, -4.319823307657317e-14, -9.018292601429448e-30, -6.202491675821875e-08]","[0.0, -1.5707963267948966, 0.0, 0.0, 0.0, 0.0]","[0.0, -1.5707963267948966, 0.0, 0.0, 0.0, 0.0]",0.002,7,1
0,-1,"[1.754432378220372e-05, -1.570817609826559, 2.557436098271637e-05, -3.2619839050340715e-05, -6.024037496388246e-06, -7.788287561538709e-07]","[-2.84706457023276e-05, 6.160583143355325e-05, -0.0, -2.1853769481127e-22, -4.562308584051431e-38, -3.13780867151073e-16]","[0.0, -1.5707963267948966, 0.0, 0.0, 0.0, 0.0]","[0.0, -1.5707963267948966, 0.0, 0.0, 0.0, 0.0]",0.002,7,1
0,-1,"[3.396843749214895e-05, -1.5708023510374964, 0.0, -6.277978930668837e-05, -4.3217335836231996e-05, -1.3653432027638246e-05]","[-2.216113352915272e-05, 1.3022413369867536e-08, -0.0, -4.7132235781486576e-33, -0.0, -6.76734265342358e-27]","[0.0, -1.5707963267948966, 0.0, 0.0, 0.0, 0.0]","[0.0, -1.5707963267948966, 0.0, 0.0, 0.0, 0.0]",0.002,7,1
0,-1,"[5.534172487386968e-06, -1.5707951681664163, -4.76837158203125e-06, -1.1758213378953997e-05, 3.632211883086711e-05, 1.2554644854390062e-05]","[-1.618368514755275e-05, 1.0694877587127214e-36, -0.0, -0.0, -0.0, -1.1210387714598537e-44]","[0.0, -1.5707963267948966, 0.0, 0.0, 0.0, 0.0]","[0.0, -1.5707963267948966, 0.0, 0.0, 0.0, 0.0]",0.002,7,1
0,-1,"[-1.732503072560121e-06, -1.5707500344982073, 1.603761781865387e-05, 1.6271557612412835e-07, -2.080598940068512e-05, -8.885060445606996e-06]","[-2.8748720069415867e-05, 0.0, -0.0, -0.0, -0.0, -0.0]","[0.0, -1.5707963267948966, 0.0, 0.0, 0.0, 0.0]","[0.0, -1.5707963267948966, 0.0, 0.0, 0.0, 0.0]",0.002,7,1
0,-1,"[-6.024037496388246e-06, -1.5707666801157139, 4.116688863575746e-06, -7.228260376024309e-06, 1.1061669283662923e-05, 2.4385430151596665e-05]","[-2.70224227278959e-05, 0.0, -0.0, -0.0, -0.0, -0.0]","[0.0, -1.5707963267948966, 0.0, 0.0, 0.0, 0.0]","[0.0, -1.5707963267948966, 0.0, 0.0, 0.0, 0.0]",0.002,7,1
0,-1,"[1.0028481483459473e-05, -1.5707409592908625, 2.557436098271637e-05, -4.367237426805559e-06, -1.5083943502247621e-05, -2.271333803349762e-05]","[-2.4789287635940127e-05, 0.0, -0.0, -0.0, -1.9536408217391e-05, -0.0]","[0.0, -1.5707963267948966, 0.0, 0.0, 0.0, 0.0]","[0.0, -1.5707963267948966, 0.0, 0.0, 0.0, 0.0]",0.002,7,1
0,-1,"[-2.271333803349762e-05, -1.5707455283885174, -2.888437620640616e-06, -4.465997729496962e-05, -3.0819569722950746e-05, -5.547200338185121e-06]","[-2.2897538656252436e-05, 0.0, -0.0, -0.0, -1.5136982379343467e-12, -0.0]","[0.0, -1.5707963267948966, 0.0, 0.0, 0.0, 0.0]","[0.0, -1.5707963267948966, 0.0, 0.0, 0.0, 0.0]",0.002,7,1
0,-1,"[-3.1773244039356996e-05, -1.5708161793150843, 5.895296205693512e-05, -3.27390483398915e-05, 5.723522190237418e-05, 2.4385213691857643e-05]","[-1.1042376172554214e-05, 0.0, -0.0, -0.0, -2.7510746697925468e-17, -0.0]","[0.0, -1.5707963267948966, 0.0, 0.0, 0.0, 0.0]","[0.0, -1.5707963267948966, 0.0, 0.0, 0.0, 0.0]",0.002,7,1
0,-1,"[3.112565173069015e-05, -1.5707456007697438, 4.655519594365387e-05, -7.228260376024309e-06, -6.024037496388246e-06, -8.885060445606996e-06]","[-2.0529128960333765e-05, 0.0, -0.0, -0.0, -3.264609348392152e-23, -0.0]","[0.0, -1.5707963267948966, 0.0, 0.0, 0.0, 0.0]","[0.0, -1.5707963267948966, 0.0, 0.0, 0.0, 0.0]",0.002,7,1
0,-1,"[1.762223291734699e-05, -1.570766643886902, -2.112590300384909e-05, 1.2083644531202253e-05, -1.5083943502247621e-05, 8.315729792229831e-05]","[-2.398757061039536e-11, 0.0, -0.0, -0.0, -2.5294486804835882e-30, -0.0]","[0.0, -1.5707963267948966, 0.0, 0.0, 0.0, 0.0]","[0.0, -1.5707963267948966, 0.0, 0.0, 0.0, 0.0]",0.002,7,1
0,1,"[3.109872341156006e-05, -1.5708371601500453, 2.686177388966371e-06, 3.366052593989366e-05, 1.1101191375928465e-05, 2.442763070575893e-05]","[0.0, 0.0, -0.0, -0.0, -0.0, -0.0]","[0.05879002119914294, -1.5120063055957536, 0.05879002119914294, 0.05879002119914294, 0.05879002119914294, 0.05879002119914294]","[0.05879002119914294, -1.5120063055957536, 0.05879002119914294, 0.05879002119914294, 0.05879002119914294, 0.05879002119914294]",0.002,7,1
0,2,"[2.2083419025875628e-05, -1.5706055221711104, 0.00014001527895146637, 7.848321881098741e-05, 9.170174598693848e-05, 8.139133569784462e-05]","[0.023888587951660156, 0.11948883533477783, 0.0813695415854454, 0.04104374721646309, 0.03398117795586586, 0.03199213743209839]","[0.05936660287344685, -1.5114297239214498, 0.05936660287344685, 0.05936660287344685, 0.05936660287344685, 0.05936660287344685]","[0.05936660287344685, -1.5114297239214498, 0.05936660287344685, 0.05936660287344685, 0.05936660287344685, 0.05936660287344685]",0.002,7,1
0,3,"[8.819725189823657e-05, -1.5704826253389292, 0.000188175831929982, 0.00016967832531733507, 0.0002391040325164795, 0.00016080279601737857]","[0.03233290836215019, 0.14214138686656952, 0.09678749740123749, 0.06529124826192856, 0.05896633490920067, 0.0535677932202816]","[0.05994301779578886, -1.5108533089991076, 0.05994301779578886, 0.05994301779578886, 0.05994301779578886, 0.05994301779578886]","[0.05994301779578886, -1.5108533089991076, 0.05994301779578886, 0.05994301779578886, 0.05994301779578886, 0.05994301779578886]",0.002,7,1
0,4,"[0.00026223479653708637, -1.5703027291786675, 0.00041801134218388825, 0.00024227678265376085, 0.0002722740173339844, 0.0002730798732955009]","[0.0373537614941597, 0.13420633971691132, 0.09457235038280487, 0.06588689982891083, 0.0644010379910469, 0.058583810925483704]","[0.06051926434710513, -1.5102770624477915, 0.06051926434710513, 0.06051926434710513, 0.06051926434710513, 0.06051926434710513]","[0.06051926434710513, -1.5102770624477915, 0.06051926434710513, 0.06051926434710513, 0.06051926434710513, 0.06051926434710513]",0.002,7,1
0,5,"[0.00032055392512120306, -1.5700205441429098, 0.0006926695453088882, 0.0003545719334105968, 0.0004748277715407312, 0.0004522379895206541]","[0.05188993737101555, 0.13067953288555145, 0.09479562193155289, 0.06458669155836105, 0.06849709898233414, 0.06564327329397202]","[0.06109534090880478, -1.5097009858860917, 0.06109534090880478, 0.06109534090880478, 0.06109534090880478, 0.06109534090880478]","[0.06109534090880478, -1.5097009858860917, 0.06109534090880478, 0.06109534090880478, 0.06109534090880478, 0.06109534090880478]",0.002,7,1
0,6,"[0.0005141592118889093, -1.5697824355778103, 0.0008261839496057632, 0.0005121666141967296, 0.0005699416506104171, 0.000496423221193254]","[0.06556008011102676, 0.13401195406913757, 0.10326534509658813, 0.07080499082803726, 0.07354915142059326, 0.0705886110663414]","[0.061671245862774365, -1.5091250809321222, 0.061671245862774365, 0.061671245862774365, 0.061671245862774365, 0.061671245862774365]","[0.061671245862774365, -1.5091250809321222, 0.061671245862774365, 0.061671245862774365, 0.061671245862774365, 0.061671245862774365]",0.002,7,1
0,7,"[0.0006864845636300743, -1.5695016807042812, 0.0011327902423303726, 0.0007011133381347179, 0.0006897681159898639, 0.0006829483318142593]","[0.08382054418325424, 0.13745331764221191, 0.11241582036018372, 0.08176710456609726, 0.08097323775291443, 0.07997171580791473]","[0.06224697759138249, -1.508549349203514, 0.06224697759138249, 0.06224697759138249, 0.06224697759138249, 0.06224697759138249]","[0.06224697759138249, -1.508549349203514, 0.06224697759138249, 0.06224697759138249, 0.06224697759138249, 0.06224697759138249]",0.002,7,1
0,8,"[0.0008712035487405956, -1.5692469019307573, 0.0013230482684534195, 0.0009612280079345226, 0.0008266930235549808, 0.0008415787015110254]","[0.09830659627914429, 0.12130557745695114, 0.10381568968296051, 0.09710025787353516, 0.0909455195069313, 0.09393622726202011]","[0.06282253447748433, -1.5079737923174121, 0.06282253447748433, 0.06282253447748433, 0.06282253447748433, 0.06282253447748433]","[0.06282253447748433, -1.5079737923174121, 0.06282253447748433, 0.06282253447748433, 0.06282253447748433, 0.06282253447748433]",0.002,7,1
0,9,"[0.0010961800580844283, -1.5690715249259775, 0.0015514532672327164, 0.0011808115192870616, 0.0009949977975338697, 0.0010425018845126033]","[0.113351009786129, 0.08482453972101212, 0.0914456844329834, 0.10530797392129898, 0.10053890198469162, 0.1025901809334755]","[0.06339791490442616, -1.5073984118904704, 0.06339791490442616, 0.06339791490442616, 0.06339791490442616, 0.06339791490442616]","[0.06339791490442616, -1.5073984118904704, 0.06339791490442616, 0.06339791490442616, 0.06339791490442616, 0.06339791490442616]",0.002,7,1
0,10,"[0.0013978674542158842, -1.5688656897148867, 0.0017197767840784195, 0.0013843017765502452, 0.0012159040197730064, 0.0012844217708334327]","[0.12117291241884232, 0.08103001117706299, 0.10962852835655212, 0.11797662079334259, 0.1117980033159256, 0.11386172473430634]","[0.06397311725604987, -1.5068232095388467, 0.06397311725604987, 0.06397311725604987, 0.06397311725604987, 0.06397311725604987]","[0.06397311725604987, -1.5068232095388467, 0.06397311725604987, 0.06397311725604987, 0.06397311725604987, 0.06397311725604987]",0.002,7,1
0,11,"[0.0015552826225757599, -1.5687337068705638, 0.0018618742572229507, 0.0015294986912230968, 0.0015030503273010254, 0.0015455321408808231]","[0.12649153172969818, 0.11657698452472687, 0.12484239786863327, 0.12425826489925385, 0.12398966401815414, 0.1252709925174713]","[0.0645481399166976, -1.506248186878199, 0.0645481399166976, 0.0645481399166976, 0.0645481399166976, 0.0645481399166976]","[0.0645481399166976, -1.506248186878199, 0.0645481399166976, 0.0645481399166976, 0.0645481399166976, 0.0645481399166976]",0.002,7,1
0,12,"[0.0018131857505068183, -1.5685627879905333, 0.0020850340472620132, 0.0018158394047240733, 0.0017840862274169922, 0.0018422916764393449]","[0.13528135418891907, 0.12700603902339935, 0.12797141075134277, 0.1301526576280594, 0.13666483759880066, 0.1364562213420868]","[0.06512298127121614, -1.5056733455236804, 0.06512298127121614, 0.06512298127121614, 0.06512298127121614, 0.06512298127121614]","[0.06512298127121614, -1.5056733455236804, 0.06512298127121614, 0.06512298127121614, 0.06512298127121614, 0.06512298127121614]",0.002,7,1
0,13,"[0.0020816773176193237, -1.5683091848953445, 0.0023673216449182632, 0.001991077060363722, 0.0020512938499450684, 0.00204280368052423]","[0.1426604688167572, 0.12758463621139526, 0.1292094737291336, 0.13659386336803436, 0.14502237737178802, 0.14300474524497986]","[0.06569763970496163, -1.505098687089935, 0.06569763970496163, 0.06569763970496163, 0.06569763970496163, 0.06569763970496163]","[0.06569763970496163, -1.505098687089935, 0.06569763970496163, 0.06569763970496163, 0.06569763970496163, 0.06569763970496163]",0.002,7,1
0,14,"[0.002456686459481716, -1.567981838281714, 0.0026930014239709976, 0.0023409563251952648, 0.0023562610149383545, 0.0024060781579464674]","[0.15239055454730988, 0.13464954495429993, 0.13905535638332367, 0.14492276310920715, 0.1566714495420456, 0.15229275822639465]","[0.06627211360380393, -1.5045242131910925, 0.06627211360380393, 0.06627211360380393, 0.06627211360380393, 0.06627211360380393]","[0.06627211360380393, -1.5045242131910925, 0.06627211360380393, 0.06627211360380393, 0.06627211360380393, 0.06627211360380393]",0.002,7,1
0,15,"[0.0027251930441707373, -1.5677722187577565, 0.002984348927633107, 0.0026375490375976085, 0.002694563241675496, 0.0027627344243228436]","[0.15914826095104218, 0.14427272975444794, 0.15554940700531006, 0.15727150440216064, 0.16592127084732056, 0.162336066365242]","[0.06684640135413125, -1.5039499254407653, 0.06684640135413125, 0.06684640135413125, 0.06684640135413125, 0.06684640135413125]","[0.06684640135413125, -1.5039499254407653, 0.06684640135413125, 0.06684640135413125, 0.06684640135413125, 0.06684640135413125]",0.002,7,1
0,16,"[0.0031227495055645704, -1.567403499768563, 0.003285710011617482, 0.003050847644470167, 0.0030434976797550917, 0.0030701016075909138]","[0.17497876286506653, 0.15478231012821198, 0.1651402860879898, 0.17195801436901093, 0.17474684119224548, 0.17224666476249695]","[0.06742050134285471, -1.503375825452042, 0.06742050134285471, 0.06742050134285471, 0.06742050134285471, 0.06742050134285471]","[0.06742050134285471, -1.503375825452042, 0.06742050134285471, 0.06742050134285471, 0.06742050134285471, 0.06742050134285471]",0.002,7,1
0,17,"[0.0035444023087620735, -1.5671454647420724, 0.003685776387349904, 0.003425760860107374, 0.0033878544345498085, 0.003425245638936758]","[0.18591462075710297, 0.16508817672729492, 0.1752168834209442, 0.18643787503242493, 0.18059450387954712, 0.1819090098142624]","[0.06799441195741276, -1.5028019148374838, 0.06799441195741276, 0.06799441195741276, 0.06799441195741276, 0.06799441195741276]","[0.06799441195741276, -1.5028019148374838, 0.06799441195741276, 0.06799441195741276, 0.06799441195741276, 0.06799441195741276]",0.002,7,1
0,18,"[0.003895714646205306, -1.5668335382691403, 0.004012886677877248, 0.003806872958801222, 0.0038306666538119316, 0.003827602369710803]","[0.19533967971801758, 0.17301255464553833, 0.18411904573440552, 0.19627472758293152, 0.18948513269424438, 0.1911143660545349]","[0.06856813158577582, -1.5022281952091208, 0.06856813158577582, 0.06856813158577582, 0.06856813158577582, 0.06856813158577582]","[0.06856813158577582, -1.5022281952091208, 0.06856813158577582, 0.06856813158577582, 0.06856813158577582, 0.06856813158577582]",0.002,7,1
0,19,"[0.0043364111334085464, -1.5664570064148684, 0.004361454640523732, 0.004177137012145948, 0.004272778518497944, 0.004230777733027935]","[0.20377500355243683, 0.17996609210968018, 0.1887078732252121, 0.2030501365661621, 0.20195510983467102, 0.20018745958805084]","[0.06914165861645073, -1.5016546681784457, 0.06914165861645073, 0.06914165861645073, 0.06914165861645073, 0.06914165861645073]","[0.06914165861645073, -1.5016546681784457, 0.06914165861645073, 0.06914165861645073, 0.06914165861645073, 0.06914165861645073]",0.002,7,1
0,20,"[0.00472961226478219, -1.5660695380396028, 0.004771057759420216, 0.0046222644993285655, 0.0046060155145823956, 0.0046849558129906654]","[0.20919552445411682, 0.18775847554206848, 0.19656746089458466, 0.20821402966976166, 0.21116206049919128, 0.2101600021123886]","[0.06971499143848532, -1.5010813353564112, 0.06971499143848532, 0.06971499143848532, 0.06971499143848532, 0.06971499143848532]","[0.06971499143848532, -1.5010813353564112, 0.06971499143848532, 0.06971499143848532, 0.06971499143848532, 0.06971499143848532]",0.002,7,1
0,21,"[0.00512424623593688, -1.5656902140802522, 0.005158726369039357, 0.005064650172851515, 0.005105005111545324, 0.005065674427896738]","[0.21632562577724457, 0.19491901993751526, 0.20431646704673767, 0.21516352891921997, 0.22123567759990692, 0.22002658247947693]","[0.07028812844147295, -1.5005081983534236, 0.07028812844147295, 0.07028812844147295, 0.07028812844147295, 0.07028812844147295]","[0.07028812844147295, -1.5005081983534236, 0.07028812844147295, 0.07028812844147295, 0.07028812844147295, 0.07028812844147295]",0.002,7,1
0,22,"[0.005633010063320398, -1.5652566047250112, 0.005637947713033498, 0.005524321193359327, 0.005578609649091959, 0.005543110892176628]","[0.22593189775943756, 0.20530875027179718, 0.21453511714935303, 0.2229691743850708, 0.23165203630924225, 0.22791895270347595]","[0.07086106801555694, -1.4999352587793395, 0.07086106801555694, 0.07086106801555694, 0.07086106801555694, 0.07086106801555694]","[0.07086106801555694, -1.4999352587793395, 0.07086106801555694, 0.07086106801555694, 0.07086106801555694, 0.07086106801555694]",0.002,7,1
0,23,"[0.006133686751127243, -1.5648562561585386, 0.006073300038472951, 0.006002469653747511, 0.006018687970936298, 0.006015594583004713]","[0.23506392538547516, 0.21464312076568604, 0.22288702428340912, 0.23452097177505493, 0.23850148916244507, 0.2370351105928421]","[0.07143380855143525, -1.4993625182434613, 0.07143380855143525, 0.07143380855143525, 0.07143380855143525, 0.07143380855143525]","[0.07143380855143525, -1.4993625182434613, 0.07143380855143525, 0.07143380855143525, 0.07143380855143525, 0.07143380855143525]",0.002,7,1
0,24,"[0.006626052316278219, -1.5644784414074202, 0.006563488637105763, 0.006550951594970655, 0.006508985068649054, 0.0065094479359686375]","[0.24301499128341675, 0.22355027496814728, 0.23377163708209991, 0.24480488896369934, 0.2448180913925171, 0.24476347863674164]","[0.07200634844036483, -1.4987899783545318, 0.07200634844036483, 0.07200634844036483, 0.07200634844036483, 0.07200634844036483]","[0.07200634844036483, -1.4987899783545318, 0.07200634844036483, 0.07200634844036483, 0.07200634844036483, 0.07200634844036483]",0.002,7,1
0,25,"[0.0071581341326236725, -1.563955901456513, 0.007059876118795216, 0.007073803538940382, 0.006961442530155182, 0.006989057641476393]","[0.25129732489585876, 0.23301666975021362, 0.24175912141799927, 0.256012499332428, 0.24971896409988403, 0.2525586783885956]","[0.07257868607416625, -1.4982176407207304, 0.07257868607416625, 0.07257868607416625, 0.07257868607416625, 0.07257868607416625]","[0.07257868607416625, -1.4982176407207304, 0.07257868607416625, 0.07257868607416625, 0.07257868607416625, 0.07257868607416625]",0.002,7,1
0,26,"[0.007612995337694883, -1.563476168350764, 0.007510010396138966, 0.007617517108581495, 0.007523904088884592, 0.00753935519605875]","[0.25893285870552063, 0.24269339442253113, 0.25207120180130005, 0.26286259293556213, 0.25800302624702454, 0.2613319456577301]","[0.07315081984522818, -1.4976455069496684, 0.07315081984522818, 0.07315081984522818, 0.07315081984522818, 0.07315081984522818]","[0.07315081984522818, -1.4976455069496684, 0.07315081984522818, 0.07315081984522818, 0.07315081984522818, 0.07315081984522818]",0.002,7,1
0,27,"[0.008142597042024136, -1.562984191612788, 0.008068863545553029, 0.008079929942748976, 0.00806405395269394, 0.008033723570406437]","[0.26598691940307617, 0.2493652105331421, 0.26123282313346863, 0.2691023647785187, 0.2667369544506073, 0.26845070719718933]","[0.07372274814651193, -1.4970735786483846, 0.07372274814651193, 0.07372274814651193, 0.07372274814651193, 0.07372274814651193]","[0.07372274814651193, -1.4970735786483846, 0.07372274814651193, 0.07372274814651193, 0.07372274814651193, 0.07372274814651193]",0.002,7,1
0,28,"[0.008666242472827435, -1.562447491367795, 0.008588616047994435, 0.008668346995971632, 0.008613995276391506, 0.00856052991002798]","[0.2729465067386627, 0.25917428731918335, 0.26759546995162964, 0.2710950970649719, 0.27566275000572205, 0.27439504861831665]","[0.0742944693715559, -1.4965018574233406, 0.0742944693715559, 0.0742944693715559, 0.0742944693715559, 0.0742944693715559]","[0.0742944693715559, -1.4965018574233406, 0.0742944693715559, 0.0742944693715559, 0.0742944693715559, 0.0742944693715559]",0.002,7,1
0,29,"[0.009263128973543644, -1.5618862158483644, 0.009183708821431935, 0.009190126056335401, 0.009191294200718403, 0.009158367291092873]","[0.27982187271118164, 0.26819488406181335, 0.27266398072242737, 0.27683866024017334, 0.2859019339084625, 0.28274771571159363]","[0.07486598191448017, -1.4959303448804164, 0.07486598191448017, 0.07486598191448017, 0.07486598191448017, 0.07486598191448017]","[0.07486598191448017, -1.4959303448804164, 0.07486598191448017, 0.07486598191448017, 0.07486598191448017, 0.07486598191448017]",0.002,7,1
0,30,"[0.009803147055208683, -1.561346842241921, 0.009740654622213185, 0.009796662921569776, 0.00975585076957941, 0.009746069088578224]","[0.2870073914527893, 0.2772810459136963, 0.279192179441452, 0.28451624512672424, 0.29051363468170166, 0.2911241948604584]","[0.07543728416999097, -1.4953590426249055, 0.07543728416999097, 0.07543728416999097, 0.07543728416999097, 0.07543728416999097]","[0.07543728416999097, -1.4953590426249055, 0.07543728416999097, 0.07543728416999097, 0.07543728416999097, 0.07543728416999097]",0.002,7,1
0,31,"[0.010400239378213882, -1.5607498439824958, 0.010329071675435841, 0.010439200992248487, 0.010340881533920765, 0.010372594930231571]","[0.2938597798347473, 0.283488005399704, 0.2873019576072693, 0.29274189472198486, 0.29699158668518066, 0.29677560925483704]","[0.07600837453338521, -1.4947879522615113, 0.07600837453338521, 0.07600837453338521, 0.07600837453338521, 0.07600837453338521]","[0.07600837453338521, -1.4947879522615113, 0.07600837453338521, 0.07600837453338521, 0.07600837453338521, 0.07600837453338521]",0.002,7,1
0,32,"[0.010999802500009537, -1.5602037341198702, 0.01094371477235967, 0.0111202436634521, 0.010932734236121178, 0.010936337523162365]","[0.3018345832824707, 0.2916453778743744, 0.295766144990921, 0.3015819489955902, 0.3038814961910248, 0.3031694293022156]","[0.07657925140055495, -1.4942170753943416, 0.07657925140055495, 0.07657925140055495, 0.07657925140055495, 0.07657925140055495]","[0.07657925140055495, -1.4942170753943416, 0.07657925140055495, 0.07657925140055495, 0.07657925140055495, 0.07657925140055495]",0.002,7,1
0,33,"[0.011632855050265789, -1.5595407898402591, 0.011623207722799123, 0.011638446445129347, 0.0115487826988101, 0.011486386880278587]","[0.3078140318393707, 0.3020402789115906, 0.30526119470596313, 0.3088201880455017, 0.3096252679824829, 0.3119716942310333]","[0.07714991316799193, -1.4936464136269045, 0.07714991316799193, 0.07714991316799193, 0.07714991316799193, 0.07714991316799193]","[0.07714991316799193, -1.4936464136269045, 0.07714991316799193, 0.07714991316799193, 0.07714991316799193, 0.07714991316799193]",0.002,7,1
0,34,"[0.01225288026034832, -1.5589495378411193, 0.012164894734517873, 0.012325091952941847, 0.012191112153232098, 0.012138890102505684]","[0.31488674879074097, 0.30836552381515503, 0.31116440892219543, 0.31477150321006775, 0.31902366876602173, 0.31915083527565]","[0.0777203582327921, -1.4930759685621044, 0.0777203582327921, 0.0777203582327921, 0.0777203582327921, 0.0777203582327921]","[0.0777203582327921, -1.4930759685621044, 0.0777203582327921, 0.0777203582327921, 0.0777203582327921, 0.0777203582327921]",0.002,7,1
0,35,"[0.012876655906438828, -1.558310455908515, 0.012791935597554982, 0.012962265605590773, 0.012809730134904385, 0.012798458337783813]","[0.32017046213150024, 0.31656360626220703, 0.3174078166484833, 0.32174965739250183, 0.3237833082675934, 0.32558563351631165]","[0.07829058499266005, -1.4925057418022365, 0.07829058499266005, 0.07829058499266005, 0.07829058499266005, 0.07829058499266005]","[0.07829058499266005, -1.4925057418022365, 0.07829058499266005, 0.07829058499266005, 0.07829058499266005, 0.07829058499266005]",0.002,7,1
0,36,"[0.013526147231459618, -1.5576653231731434, 0.013371769581929982, 0.013626976604125929, 0.01346258632838726, 0.013450807891786098]","[0.32656678557395935, 0.3242820203304291, 0.32132792472839355, 0.3234424889087677, 0.33099547028541565, 0.3322311341762543]","[0.07886059184591358, -1.491935734948983, 0.07886059184591358, 0.07886059184591358, 0.07886059184591358, 0.07886059184591358]","[0.07886059184591358, -1.491935734948983, 0.07886059184591358, 0.07886059184591358, 0.07886059184591358, 0.07886059184591358]",0.002,7,1
0,37,"[0.014241263270378113, -1.5569179386696597, 0.014083687459127248, 0.014262719745300245, 0.014172470197081566, 0.014124474488198757]","[0.33247122168540955, 0.3329125642776489, 0.33031603693962097, 0.3298332989215851, 0.33721551299095154, 0.3388902544975281]","[0.07943037719148822, -1.4913659496034084, 0.07943037719148822, 0.07943037719148822, 0.07943037719148822, 0.07943037719148822]","[0.07943037719148822, -1.4913659496034084, 0.07943037719148822, 0.07943037719148822, 0.07943037719148822, 0.07943037719148822]",0.002,7,1
0,38,"[0.014877435751259327, -1.5562975427931924, 0.014737431203023732, 0.015020771617553663, 0.014848724007606506, 0.014782802201807499]","[0.3389873802661896, 0.33972546458244324, 0.3378211557865143, 0.3361070156097412, 0.3424091041088104, 0.34357935190200806]","[0.07999993942894161, -1.4907963873659549, 0.07999993942894161, 0.07999993942894161, 0.07999993942894161, 0.07999993942894161]","[0.07999993942894161, -1.4907963873659549, 0.07999993942894161, 0.07999993942894161, 0.07999993942894161, 0.07999993942894161]",0.002,7,1
0,39,"[0.015590537339448929, -1.5555709798685093, 0.015446011220113576, 0.01565508424725337, 0.015532966703176498, 0.015463445335626602]","[0.3445096015930176, 0.34732070565223694, 0.3431488275527954, 0.3419490158557892, 0.34758156538009644, 0.3486289978027344]","[0.08056927695845807, -1.4902270498364385, 0.08056927695845807, 0.08056927695845807, 0.08056927695845807, 0.08056927695845807]","[0.08056927695845807, -1.4902270498364385, 0.08056927695845807, 0.08056927695845807, 0.08056927695845807, 0.08056927695845807]",0.002,7,1
0,40,"[0.016307368874549866, -1.5548444644412776, 0.016157452260152638, 0.016410632724426222, 0.01619226671755314, 0.016216618940234184]","[0.35048821568489075, 0.3543103039264679, 0.34982869029045105, 0.3508653938770294, 0.3545016050338745, 0.35567474365234375]","[0.08113838818085317, -1.4896579386140434, 0.08113838818085317, 0.08113838818085317, 0.08113838818085317, 0.08113838818085317]","[0.08113838818085317, -1.4896579386140434, 0.08113838818085317, 0.08113838818085317, 0.08113838818085317, 0.08113838818085317]",0.002,7,1
0,41,"[0.016982508823275566, -1.5541119624725361, 0.016880337391988576, 0.017093582744262648, 0.016904639080166817, 0.016898395493626595]","[0.35575559735298157, 0.3588395416736603, 0.3576958477497101, 0.35613545775413513, 0.35995587706565857, 0.3623526692390442]","[0.08170727149757809, -1.4890890552973184, 0.08170727149757809, 0.08170727149757809, 0.08170727149757809, 0.08170727149757809]","[0.08170727149757809, -1.4890890552973184, 0.08170727149757809, 0.08170727149757809, 0.08170727149757809, 0.08170727149757809]",0.002,7,1
0,42,"[0.017723364755511284, -1.5533622943660994, 0.017562691365377248, 0.017763419742248487, 0.017645953223109245, 0.017627699300646782]","[0.36145132780075073, 0.36472275853157043, 0.3604017198085785, 0.3607270121574402, 0.36430487036705017, 0.36764729022979736]","[0.08227592531072411, -1.4885204014841724, 0.08227592531072411, 0.08227592531072411, 0.08227592531072411, 0.08227592531072411]","[0.08227592531072411, -1.4885204014841724, 0.08227592531072411, 0.08227592531072411, 0.08227592531072411, 0.08227592531072411]",0.002,7,1
0,43,"[0.018451442942023277, -1.5526363600841542, 0.0183184782611292, 0.01850847780194087, 0.01837952621281147, 0.018395766615867615]","[0.3650972247123718, 0.3720565140247345, 0.36873963475227356, 0.36590588092803955, 0.3704376220703125, 0.37233635783195496]","[0.08284434802302726, -1.4879519787718694, 0.08284434802302726, 0.08284434802302726, 0.08284434802302726, 0.08284434802302726]","[0.08284434802302726, -1.4879519787718694, 0.08284434802302726, 0.08284434802302726, 0.08284434802302726, 0.08284434802302726]",0.002,7,1
0,44,"[0.019207805395126343, -1.5518291232040902, 0.01900369325746709, 0.019201679820678663, 0.01911897398531437, 0.019188979640603065]","[0.3702518343925476, 0.37715986371040344, 0.37317726016044617, 0.3701201379299164, 0.37741366028785706, 0.376227468252182]","[0.08341253803787262, -1.487383788757024, 0.08341253803787262, 0.08341253803787262, 0.08341253803787262, 0.08341253803787262]","[0.08341253803787262, -1.487383788757024, 0.08341253803787262, 0.08341253803787262, 0.08341253803787262, 0.08341253803787262]",0.002,7,1
0,45,"[0.019961731508374214, -1.5510958482376118, 0.01974803606142217, 0.019946976298950148, 0.019966257736086845, 0.01991758495569229]","[0.3760847747325897, 0.3819541037082672, 0.3806729316711426, 0.37503781914711, 0.3831600546836853, 0.38310471177101135]","[0.0839804937592989, -1.4868158330355976, 0.0839804937592989, 0.0839804937592989, 0.0839804937592989, 0.0839804937592989]","[0.0839804937592989, -1.4868158330355976, 0.0839804937592989, 0.0839804937592989, 0.0839804937592989, 0.0839804937592989]",0.002,7,1
0,46,"[0.020702769979834557, -1.5503164765289803, 0.020591084157125294, 0.02067677556958003, 0.020692596212029457, 0.020709436386823654]","[0.38247737288475037, 0.38738930225372314, 0.383601576089859, 0.37997370958328247, 0.3866508901119232, 0.3874097764492035]","[0.08454821359200293, -1.4862481132028935, 0.08454821359200293, 0.08454821359200293, 0.08454821359200293, 0.08454821359200293]","[0.08454821359200293, -1.4862481132028935, 0.08454821359200293, 0.08454821359200293, 0.08454821359200293, 0.08454821359200293]",0.002,7,1
0,47,"[0.021482504904270172, -1.5495528199574728, 0.021350685750142873, 0.021377964610717726, 0.021473487839102745, 0.021472427994012833]","[0.387471467256546, 0.393530935049057, 0.3888271152973175, 0.3859056234359741, 0.3922427296638489, 0.3925274908542633]","[0.08511569594134409, -1.4856806308535524, 0.08511569594134409, 0.08511569594134409, 0.08511569594134409, 0.08511569594134409]","[0.08511569594134409, -1.4856806308535524, 0.08511569594134409, 0.08511569594134409, 0.08511569594134409, 0.08511569594134409]",0.002,7,1
0,48,"[0.02223699539899826, -1.5486779895475884, 0.022130314503804982, 0.02223627149548335, 0.022221248596906662, 0.02226344309747219]","[0.39180076122283936, 0.39570552110671997, 0.3936876058578491, 0.39326462149620056, 0.3963511884212494, 0.39605647325515747]","[0.08568293921334884, -1.4851133875815477, 0.08568293921334884, 0.08568293921334884, 0.08568293921334884, 0.08568293921334884]","[0.08568293921334884, -1.4851133875815477, 0.08568293921334884, 0.08568293921334884, 0.08568293921334884, 0.08568293921334884]",0.002,7,1
0,49,"[0.02299029566347599, -1.5478913851878424, 0.022933785115377248, 0.023005529040954542, 0.023037370294332504, 0.023108165711164474]","[0.3965441882610321, 0.3986317813396454, 0.3980860710144043, 0.3988279104232788, 0.3997975289821625, 0.3999381959438324]","[0.08624994181471513, -1.4845463849801814, 0.08624994181471513, 0.08624994181471513, 0.08624994181471513, 0.08624994181471513]","[0.08624994181471513, -1.4845463849801814, 0.08624994181471513, 0.08624994181471513, 0.08624994181471513, 0.08624994181471513]",0.002,7,1
0,50,"[0.023884372785687447, -1.5470388562283297, 0.02372152010072881, 0.023834152812622023, 0.023862680420279503, 0.023866716772317886]","[0.4009634256362915, 0.40237346291542053, 0.4008336067199707, 0.4040040373802185, 0.4045586884021759, 0.4036118984222412]","[0.08681670215281696, -1.4839796246420796, 0.08681670215281696, 0.08681670215281696, 0.08681670215281696, 0.08681670215281696]","[0.08681670215281696, -1.4839796246420796, 0.08681670215281696, 0.08681670215281696, 0.08681670215281696, 0.08681670215281696]",0.002,7,1
0,51,"[0.024684885516762733, -1.5461570036462327, 0.02454072633852178, 0.024608774776123, 0.0247159656137228, 0.02474609576165676]","[0.40483418107032776, 0.40588143467903137, 0.40344250202178955, 0.4088297486305237, 0.4056684672832489, 0.4078197777271271]","[0.0873832186357088, -1.4834131081591877, 0.0873832186357088, 0.0873832186357088, 0.0873832186357088, 0.0873832186357088]","[0.0873832186357088, -1.4834131081591877, 0.0873832186357088, 0.0873832186357088, 0.0873832186357088, 0.0873832186357088]",0.002,7,1
0,52,"[0.025463523343205452, -1.545399285187461, 0.02531463304628545, 0.02538101255383296, 0.025491146370768547, 0.025565845891833305]","[0.41134530305862427, 0.4099130630493164, 0.40746447443962097, 0.4141485095024109, 0.41092023253440857, 0.4100026488304138]","[0.08794948967213004, -1.4828468371227665, 0.08794948967213004, 0.08794948967213004, 0.08794948967213004, 0.08794948967213004]","[0.08794948967213004, -1.4828468371227665, 0.08794948967213004, 0.08794948967213004, 0.08794948967213004, 0.08794948967213004]",0.002,7,1
0,53,"[0.026274491101503372, -1.5444768343916913, 0.0262225309955042, 0.026195331210754347, 0.026375172659754753, 0.026351282373070717]","[0.4140280485153198, 0.41475751996040344, 0.411234587430954, 0.41829198598861694, 0.41533035039901733, 0.4119885563850403]","[0.08851551367150956, -1.482280813123387, 0.08851551367150956, 0.08851551367150956, 0.08851551367150956, 0.08851551367150956]","[0.08851551367150956, -1.482280813123387, 0.08851551367150956, 0.08851551367150956, 0.08851551367150956, 0.08851551367150956]",0.002,7,1
0,54,"[0.027051545679569244, -1.5436891478351136, 0.02702981630434209, 0.02701513349499507, 0.027271289378404617, 0.02729027159512043]","[0.41897106170654297, 0.4164500832557678, 0.41778573393821716, 0.4232710301876068, 0.4212260842323303, 0.41771459579467773]","[0.08908128904397009, -1.4817150377509265, 0.08908128904397009, 0.08908128904397009, 0.08908128904397009, 0.08908128904397009]","[0.08908128904397009, -1.4817150377509265, 0.08908128904397009, 0.08908128904397009, 0.08908128904397009, 0.08908128904397009]",0.002,7,1
0,55,"[0.02787018194794655, -1.5428092305413266, 0.027843777333394826, 0.027868552798889112, 0.02805851399898529, 0.028083041310310364]","[0.4229324162006378, 0.4196585714817047, 0.4224628806114197, 0.42745405435562134, 0.42393460869789124, 0.42304691672325134]","[0.08964681420033266, -1.481149512594564, 0.08964681420033266, 0.08964681420033266, 0.08964681420033266, 0.08964681420033266]","[0.08964681420033266, -1.481149512594564, 0.08964681420033266, 0.08964681420033266, 0.08964681420033266, 0.08964681420033266]",0.002,7,1
0,56,"[0.028709853067994118, -1.5419043277255078, 0.028762165700094044, 0.028731508845947218, 0.028938250616192818, 0.028998052701354027]","[0.42385369539260864, 0.424065500497818, 0.42648059129714966, 0.43160274624824524, 0.427557110786438, 0.426652729511261]","[0.09021208755212123, -1.4805842392427753, 0.09021208755212123, 0.09021208755212123, 0.09021208755212123, 0.09021208755212123]","[0.09021208755212123, -1.4805842392427753, 0.09021208755212123, 0.09021208755212123, 0.09021208755212123, 0.09021208755212123]",0.002,7,1
0,57,"[0.029552794992923737, -1.541078233425953, 0.029597107564107716, 0.029577775592468214, 0.029852736741304398, 0.02985003963112831]","[0.43132370710372925, 0.42582085728645325, 0.42957887053489685, 0.4354880452156067, 0.4323112666606903, 0.4293336272239685]","[0.09077710751156703, -1.4800192192833295, 0.09077710751156703, 0.09077710751156703, 0.09077710751156703, 0.09077710751156703]","[0.09077710751156703, -1.4800192192833295, 0.09077710751156703, 0.09077710751156703, 0.09077710751156703, 0.09077710751156703]",0.002,7,1
0,58,"[0.030489714816212654, -1.5402779144099732, 0.030466381703512013, 0.030428333873413038, 0.03073740378022194, 0.030705247074365616]","[0.43540412187576294, 0.4298074543476105, 0.4341006278991699, 0.44063863158226013, 0.4341215491294861, 0.43210485577583313]","[0.09134187249161291, -1.4794544543032837, 0.09134187249161291, 0.09134187249161291, 0.09134187249161291, 0.09134187249161291]","[0.09134187249161291, -1.4794544543032837, 0.09134187249161291, 0.09134187249161291, 0.09134187249161291, 0.09134187249161291]",0.002,7,1
0,59,"[0.03130558505654335, -1.5393054646304627, 0.03133279481996709, 0.03134755670513911, 0.03159995377063751, 0.031638845801353455]","[0.43622735142707825, 0.4284968972206116, 0.4353763461112976, 0.44226232171058655, 0.4374145567417145, 0.43700742721557617]","[0.091906380905918, -1.4788899458889786, 0.091906380905918, 0.091906380905918, 0.091906380905918, 0.091906380905918]","[0.091906380905918, -1.4788899458889786, 0.091906380905918, 0.091906380905918, 0.091906380905918, 0.091906380905918]",0.002,7,1
0,60,"[0.032179784029722214, -1.5384912763587018, 0.032223049794332326, 0.03226737558331294, 0.03250895440578461, 0.03246353566646576]","[0.4405965507030487, 0.43471667170524597, 0.4391070306301117, 0.4451143741607666, 0.44034671783447266, 0.438527375459671]","[0.09247063116886214, -1.4783256956260344, 0.09247063116886214, 0.09247063116886214, 0.09247063116886214, 0.09247063116886214]","[0.09247063116886214, -1.4783256956260344, 0.09247063116886214, 0.09247063116886214, 0.09247063116886214, 0.09247063116886214]",0.002,7,1
0,61,"[0.033093664795160294, -1.5375876885703583, 0.033127609883443654, 0.033204837436340284, 0.03340945392847061, 0.033338919281959534]","[0.4448467195034027, 0.43566974997520447, 0.43977513909339905, 0.45118534564971924, 0.4412279427051544, 0.4418250024318695]","[0.09303462169555024, -1.4777617050993463, 0.09303462169555024, 0.09303462169555024, 0.09303462169555024, 0.09303462169555024]","[0.09303462169555024, -1.4777617050993463, 0.09303462169555024, 0.09303462169555024, 0.09303462169555024, 0.09303462169555024]",0.002,7,1
0,62,"[0.03393169119954109, -1.5367243450931092, 0.033997360860006154, 0.034157319659851026, 0.03425310179591179, 0.03425906226038933]","[0.4461522698402405, 0.4400765299797058, 0.4428626000881195, 0.451683908700943, 0.44411101937294006, 0.4413798153400421]","[0.09359835090181669, -1.4771979758930798, 0.09359835090181669, 0.09359835090181669, 0.09359835090181669, 0.09359835090181669]","[0.09359835090181669, -1.4771979758930798, 0.09359835090181669, 0.09359835090181669, 0.09359835090181669, 0.09359835090181669]",0.002,7,1
0,63,"[0.03483135253190994, -1.5358411271921177, 0.03488141695131475, 0.0350687938877563, 0.03508475050330162, 0.035151269286870956]","[0.4476158916950226, 0.4418700635433197, 0.44384488463401794, 0.4558786153793335, 0.4445180892944336, 0.44422629475593567]","[0.09416181720422998, -1.4766345095906666, 0.09416181720422998, 0.09416181720422998, 0.09416181720422998, 0.09416181720422998]","[0.09416181720422998, -1.4766345095906666, 0.09416181720422998, 0.09416181720422998, 0.09416181720422998, 0.09416181720422998]",0.002,7,1
0,64,"[0.03574772924184799, -1.5349081021598359, 0.035820786152974904, 0.03596334039654536, 0.03603772819042206, 0.035994455218315125]","[0.45041757822036743, 0.44448086619377136, 0.4457123577594757, 0.45693373680114746, 0.4487066864967346, 0.4473649859428406]","[0.09472501902009701, -1.4760713077747996, 0.09472501902009701, 0.09472501902009701, 0.09472501902009701, 0.09472501902009701]","[0.09472501902009701, -1.4760713077747996, 0.09472501902009701, 0.09472501902009701, 0.09472501902009701, 0.09472501902009701]",0.002,7,1
0,65,"[0.0367555096745491, -1.5340982128730793, 0.03675681749452764, 0.03686790048565669, 0.03690510615706444, 0.036910198628902435]","[0.45475149154663086, 0.44720858335494995, 0.4506804943084717, 0.4572789669036865, 0.45050913095474243, 0.45065388083457947]","[0.09528795476746764, -1.475508372027429, 0.09528795476746764, 0.09528795476746764, 0.09528795476746764, 0.09528795476746764]","[0.09528795476746764, -1.475508372027429, 0.09528795476746764, 0.09528795476746764, 0.09528795476746764, 0.09528795476746764]",0.002,7,1
0,66,"[0.0376444011926651, -1.5331201714328309, 0.037651840840474904, 0.037873907680175734, 0.037851136177778244, 0.037760064005851746]","[0.457967072725296, 0.4516407549381256, 0.4509413242340088, 0.4562094807624817, 0.45386552810668945, 0.4548057019710541]","[0.09585062286513904, -1.4749457039297575, 0.09585062286513904, 0.09585062286513904, 0.09585062286513904, 0.09585062286513904]","[0.09585062286513904, -1.4749457039297575, 0.09585062286513904, 0.09585062286513904, 0.09585062286513904, 0.09585062286513904]",0.002,7,1
0,67,"[0.03860405087471008, -1.5322391291013737, 0.03856879869569951, 0.038763566608093214, 0.03872574865818024, 0.038698844611644745]","[0.4599321186542511, 0.45349279046058655, 0.45595282316207886, 0.45653659105300903, 0.4552260935306549, 0.45545709133148193]","[0.09641302173266018, -1.4743833050622364, 0.09641302173266018, 0.09641302173266018, 0.09641302173266018, 0.09641302173266018]","[0.09641302173266018, -1.4743833050622364, 0.09641302173266018, 0.09641302173266018, 0.09641302173266018, 0.09641302173266018]",0.002,7,1
0,68,"[0.03948105499148369, -1.5313480918160458, 0.03948957124818975, 0.03978554784741206, 0.03968701511621475, 0.039634931832551956]","[0.4616962969303131, 0.458154559135437, 0.459570050239563, 0.45964041352272034, 0.4584988057613373, 0.4592888057231903]","[0.0969751497903362, -1.4738211770045604, 0.0969751497903362, 0.0969751497903362, 0.0969751497903362, 0.0969751497903362]","[0.0969751497903362, -1.4738211770045604, 0.0969751497903362, 0.0969751497903362, 0.0969751497903362, 0.0969751497903362]",0.002,7,1
0,69,"[0.040315788239240646, -1.530398817067482, 0.04039031664003545, 0.04071311532940669, 0.04057776927947998, 0.04049668833613396]","[0.46217963099479675, 0.4594786763191223, 0.4603586494922638, 0.46220862865448, 0.4595335125923157, 0.4624179005622864]","[0.09753700545923298, -1.4732593213356635, 0.09753700545923298, 0.09753700545923298, 0.09753700545923298, 0.09753700545923298]","[0.09753700545923298, -1.4732593213356635, 0.09753700545923298, 0.09753700545923298, 0.09753700545923298, 0.09753700545923298]",0.002,7,1
0,70,"[0.041353750973939896, -1.5294990998557587, 0.04129916826357061, 0.0416605907627563, 0.04145711660385132, 0.041441235691308975]","[0.46208178997039795, 0.46153324842453003, 0.4645860493183136, 0.4646883010864258, 0.4596397876739502, 0.46572744846343994]","[0.09809858716118151, -1.472697739633715, 0.09809858716118151, 0.09809858716118151, 0.09809858716118151, 0.09809858716118151]","[0.09809858716118151, -1.472697739633715, 0.09809858716118151, 0.09809858716118151, 0.09809858716118151, 0.09809858716118151]",0.002,7,1
0,71,"[0.04218819737434387, -1.5285422180644055, 0.04225665727724248, 0.04254083215679927, 0.04240229353308678, 0.04234344884753227]","[0.46642059087753296, 0.4629555940628052, 0.4635467827320099, 0.46360889077186584, 0.46414342522621155, 0.4665301442146301]","[0.09865989331878224, -1.4721364334761142, 0.09865989331878224, 0.09865989331878224, 0.09865989331878224, 0.09865989331878224]","[0.09865989331878224, -1.4721364334761142, 0.09865989331878224, 0.09865989331878224, 0.09865989331878224, 0.09865989331878224]",0.002,7,1
0,72,"[0.043127454817295074, -1.5276300993612786, 0.04318076768984014, 0.04355065404858394, 0.04329894110560417, 0.04321921616792679]","[0.4688194990158081, 0.4685266315937042, 0.46283039450645447, 0.4622700810432434, 0.46853381395339966, 0.4690772593021393]","[0.0992209223554096, -1.4715754044394869, 0.0992209223554096, 0.0992209223554096, 0.0992209223554096, 0.0992209223554096]","[0.0992209223554096, -1.4715754044394869, 0.0992209223554096, 0.0992209223554096, 0.0992209223554096, 0.0992209223554096]",0.002,7,1
0,73,"[0.04415952041745186, -1.526732714181282, 0.044068161641256154, 0.04443578302349849, 0.04424283280968666, 0.04413852095603943]","[0.46947816014289856, 0.46548670530319214, 0.46619731187820435, 0.46217313408851624, 0.4698426127433777, 0.47076937556266785]","[0.09978167269521644, -1.47101465409968, 0.09978167269521644, 0.09978167269521644, 0.09978167269521644, 0.09978167269521644]","[0.09978167269521644, -1.47101465409968, 0.09978167269521644, 0.09978167269521644, 0.09978167269521644, 0.09978167269521644]",0.002,7,1
0,74,"[0.045052096247673035, -1.5258209568313141, 0.04502565065492803, 0.04545037328686519, 0.04518064484000206, 0.045103128999471664]","[0.4707072675228119, 0.46973493695259094, 0.468251496553421, 0.46370142698287964, 0.47095516324043274, 0.4724847376346588]","[0.10034214276313845, -1.4704541840317582, 0.10034214276313845, 0.10034214276313845, 0.10034214276313845, 0.10034214276313845]","[0.10034214276313845, -1.4704541840317582, 0.10034214276313845, 0.10034214276313845, 0.10034214276313845, 0.10034214276313845]",0.002,7,1
0,75,"[0.04597694054245949, -1.5248549555293103, 0.04596883455385381, 0.04634980737652583, 0.046174678951501846, 0.04605502635240555]","[0.46990472078323364, 0.4718330204486847, 0.4700792133808136, 0.46578696370124817, 0.4723063111305237, 0.47447025775909424]","[0.10090233098489851, -1.4698939958099981, 0.10090233098489851, 0.10090233098489851, 0.10090233098489851, 0.10090233098489851]","[0.10090233098489851, -1.4698939958099981, 0.10090233098489851, 0.10090233098489851, 0.10090233098489851, 0.10090233098489851]",0.002,7,1
0,76,"[0.0469808466732502, -1.5239478398910542, 0.04690438905824834, 0.047297759647033644, 0.04710102453827858, 0.046981871128082275]","[0.4746003746986389, 0.4745623469352722, 0.471589595079422, 0.4693548381328583, 0.4730404019355774, 0.47574812173843384]","[0.10146223578701119, -1.4693340910078854, 0.10146223578701119, 0.10146223578701119, 0.10146223578701119, 0.10146223578701119]","[0.10146223578701119, -1.4693340910078854, 0.10146223578701119, 0.10146223578701119, 0.10146223578701119, 0.10146223578701119]",0.002,7,1
0,77,"[0.04793929681181908, -1.522930571143963, 0.047837082539693654, 0.04820470392193599, 0.048022642731666565, 0.04791676998138428]","[0.4757430851459503, 0.47431156039237976, 0.4743748605251312, 0.46871981024742126, 0.4756198823451996, 0.47717007994651794]","[0.1020218555967871, -1.4687744711981094, 0.1020218555967871, 0.1020218555967871, 0.1020218555967871, 0.1020218555967871]","[0.1020218555967871, -1.4687744711981094, 0.1020218555967871, 0.1020218555967871, 0.1020218555967871, 0.1020218555967871]",0.002,7,1
0,78,"[0.04882727563381195, -1.522080735569336, 0.04876071611513311, 0.049141212100646925, 0.04891753941774368, 0.048921868205070496]","[0.47630074620246887, 0.47502046823501587, 0.4728640913963318, 0.4675893783569336, 0.47632187604904175, 0.4790913462638855]","[0.10258118884233744, -1.4682151379525592, 0.10258118884233744, 0.10258118884233744, 0.10258118884233744, 0.10258118884233744]","[0.10258118884233744, -1.4682151379525592, 0.10258118884233744, 0.10258118884233744, 0.10258118884233744, 0.10258118884233744]",0.002,7,1
0,79,"[0.04978238791227341, -1.5210499924472352, 0.04967958131899053, 0.05007295190777583, 0.04991494491696358, 0.049812477082014084]","[0.474392831325531, 0.47455474734306335, 0.47421443462371826, 0.4693998098373413, 0.47736406326293945, 0.47863060235977173]","[0.10314023395257824, -1.4676560928423183, 0.10314023395257824, 0.10314023395257824, 0.10314023395257824, 0.10314023395257824]","[0.10314023395257824, -1.4676560928423183, 0.10314023395257824, 0.10314023395257824, 0.10314023395257824, 0.10314023395257824]",0.002,7,1
0,80,"[0.05075351521372795, -1.520126373772957, 0.05061513582338506, 0.051019354457519484, 0.05087694525718689, 0.05080479383468628]","[0.4787350296974182, 0.4738709032535553, 0.47397568821907043, 0.47286397218704224, 0.4777021110057831, 0.4789758026599884]","[0.1036989893572349, -1.4670973374376617, 0.1036989893572349, 0.1036989893572349, 0.1036989893572349, 0.1036989893572349]","[0.1036989893572349, -1.4670973374376617, 0.1036989893572349, 0.1036989893572349, 0.1036989893572349, 0.1036989893572349]",0.002,7,1
0,81,"[0.051730625331401825, -1.5191790846041222, 0.051612679158346, 0.051889224643371534, 0.05179966241121292, 0.051817044615745544]","[0.4774843752384186, 0.47546395659446716, 0.47748786211013794, 0.4735400080680847, 0.4802978038787842, 0.4810636043548584]","[0.10425745348684658, -1.46653887330805, 0.10425745348684658, 0.10425745348684658, 0.10425745348684658, 0.10425745348684658]","[0.10425745348684658, -1.46653887330805, 0.10425745348684658, 0.10425745348684658, 0.10425745348684658, 0.10425745348684658]",0.002,7,1
0,82,"[0.05266091600060463, -1.5182232458940526, 0.05257112184633428, 0.05280546724285884, 0.052757374942302704, 0.0528191477060318]","[0.4791843295097351, 0.4780041575431824, 0.4772392511367798, 0.4761991500854492, 0.4804930090904236, 0.48277145624160767]","[0.10481562477277054, -1.465980702022126, 0.10481562477277054, 0.10481562477277054, 0.10481562477277054, 0.10481562477277054]","[0.10481562477277054, -1.465980702022126, 0.10481562477277054, 0.10481562477277054, 0.10481562477277054, 0.10481562477277054]",0.002,7,1
0,83,"[0.053709011524915695, -1.5172744405320664, 0.053502861653463185, 0.05372528612103267, 0.05366739630699158, 0.05373121798038483]","[0.48076337575912476, 0.47798216342926025, 0.48006781935691833, 0.4770258963108063, 0.4801177978515625, 0.48130831122398376]","[0.10537350164718662, -1.46542282514771, 0.10537350164718662, 0.10537350164718662, 0.10537350164718662, 0.10537350164718662]","[0.10537350164718662, -1.46542282514771, 0.10537350164718662, 0.10537350164718662, 0.10537350164718662, 0.10537350164718662]",0.002,7,1
0,84,"[0.054616779088974, -1.5163133305362244, 0.05451947847475225, 0.054609819049499464, 0.054673269391059875, 0.05471499264240265]","[0.48008236289024353, 0.47643306851387024, 0.4789503812789917, 0.47679218649864197, 0.4820885956287384, 0.4808719754219055]","[0.1059310825431016, -1.4648652442517949, 0.1059310825431016, 0.1059310825431016, 0.1059310825431016, 0.1059310825431016]","[0.1059310825431016, -1.4648652442517949, 0.1059310825431016, 0.1059310825431016, 0.1059310825431016, 0.1059310825431016]",0.002,7,1
0,85,"[0.05554685369133949, -1.5153296415558835, 0.05542976060976201, 0.055569930667541456, 0.055613305419683456, 0.05563967674970627]","[0.4810086190700531, 0.475594699382782, 0.4778442680835724, 0.47874751687049866, 0.4831925630569458, 0.48111289739608765]","[0.10648836589435366, -1.464307960900543, 0.10648836589435366, 0.10648836589435366, 0.10648836589435366, 0.10648836589435366]","[0.10648836589435366, -1.464307960900543, 0.10648836589435366, 0.10648836589435366, 0.10648836589435366, 0.10648836589435366]",0.002,7,1
0,86,"[0.056515686213970184, -1.514344946747162, 0.05628854433168584, 0.05655114232983394, 0.056615155190229416, 0.05671360343694687]","[0.48251330852508545, 0.4747103452682495, 0.47770431637763977, 0.4810332953929901, 0.482829749584198, 0.47998708486557007]","[0.1070453501356167, -1.4637509766592798, 0.1070453501356167, 0.1070453501356167, 0.1070453501356167, 0.1070453501356167]","[0.1070453501356167, -1.4637509766592798, 0.1070453501356167, 0.1070453501356167, 0.1070453501356167, 0.1070453501356167]",0.002,7,1
0,87,"[0.05756177008152008, -1.5133949120393773, 0.057366196309224904, 0.05745069562878413, 0.05759542062878609, 0.05763979256153107]","[0.48213163018226624, 0.47449928522109985, 0.4802384078502655, 0.48211759328842163, 0.4828329086303711, 0.47992080450057983]","[0.1076020337024048, -1.4631942930924917, 0.1076020337024048, 0.1076020337024048, 0.1076020337024048, 0.1076020337024048]","[0.1076020337024048, -1.4631942930924917, 0.1076020337024048, 0.1076020337024048, 0.1076020337024048, 0.1076020337024048]",0.002,7,1
0,88,"[0.05850927531719208, -1.5124688011458893, 0.058296028767721, 0.0583689647861938, 0.058555372059345245, 0.058635324239730835]","[0.4817644953727722, 0.47746899724006653, 0.48129352927207947, 0.48308953642845154, 0.48266786336898804, 0.4813328683376312]","[0.10815841503107655, -1.46263791176382, 0.10815841503107655, 0.10815841503107655, 0.10815841503107655, 0.10815841503107655]","[0.10815841503107655, -1.46263791176382, 0.10815841503107655, 0.10815841503107655, 0.10815841503107655, 0.10815841503107655]",0.002,7,1
0,89,"[0.05938160419464111, -1.5114720550230523, 0.059272591267721, 0.059326692218444776, 0.05956925079226494, 0.0596424899995327]","[0.48288053274154663, 0.4791313707828522, 0.4812370836734772, 0.48400768637657166, 0.4848273694515228, 0.48008647561073303]","[0.10871449255883957, -1.462081834236057, 0.10871449255883957, 0.10871449255883957, 0.10871449255883957, 0.10871449255883957]","[0.10871449255883957, -1.462081834236057, 0.10871449255883957, 0.10871449255883957, 0.10871449255883957, 0.10871449255883957]",0.002,7,1
0,90,"[0.060353461652994156, -1.5105149869671841, 0.06022102037538701, 0.060379429454467726, 0.06052777171134949, 0.060626085847616196]","[0.48250246047973633, 0.4779609143733978, 0.4802134335041046, 0.4858432114124298, 0.48223334550857544, 0.4795953333377838]","[0.10927026472375466, -1.4615260620711419, 0.10927026472375466, 0.10927026472375466, 0.10927026472375466, 0.10927026472375466]","[0.10927026472375466, -1.4615260620711419, 0.10927026472375466, 0.10927026472375466, 0.10927026472375466, 0.10927026472375466]",0.002,7,1
0,91,"[0.0613107793033123, -1.5095105928233643, 0.06123525301088506, 0.06131999074902339, 0.06151565909385681, 0.06157759949564934]","[0.4811466336250305, 0.4766044318675995, 0.4808593690395355, 0.4883823096752167, 0.48078930377960205, 0.47961005568504333]","[0.1098257299647405, -1.460970596830156, 0.1098257299647405, 0.1098257299647405, 0.1098257299647405, 0.1098257299647405]","[0.1098257299647405, -1.460970596830156, 0.1098257299647405, 0.1098257299647405, 0.1098257299647405, 0.1098257299647405]",0.002,7,1
0,92,"[0.06229334697127342, -1.508553860043623, 0.0621874968158167, 0.06233338891949458, 0.06252840161323547, 0.06258728355169296]","[0.48054322600364685, 0.47772741317749023, 0.480446457862854, 0.48743775486946106, 0.47998443245887756, 0.4796157777309418]","[0.11038088672157781, -1.4604154400733187, 0.11038088672157781, 0.11038088672157781, 0.11038088672157781, 0.11038088672157781]","[0.11038088672157781, -1.4604154400733187, 0.11038088672157781, 0.11038088672157781, 0.11038088672157781, 0.11038088672157781]",0.002,7,1
0,93,"[0.06326465308666229, -1.507620246415474, 0.06319028535951787, 0.06322578966107173, 0.06346780061721802, 0.06355445832014084]","[0.48147863149642944, 0.4764634370803833, 0.4818812310695648, 0.4864383041858673, 0.4796842932701111, 0.47899961471557617]","[0.11093573343491375, -1.4598605933599829, 0.11093573343491375, 0.11093573343491375, 0.11093573343491375, 0.11093573343491375]","[0.11093573343491375, -1.4598605933599829, 0.11093573343491375, 0.11093573343491375, 0.11093573343491375, 0.11093573343491375]",0.002,7,1
0,94,"[0.0642123594880104, -1.506599561577179, 0.06415826479067022, 0.06424717485394282, 0.0644429624080658, 0.06447508931159973]","[0.4829840660095215, 0.4764273166656494, 0.4822414219379425, 0.48555928468704224, 0.4798465073108673, 0.47799813747406006]","[0.11149026854626641, -1.4593060582486301, 0.11149026854626641, 0.11149026854626641, 0.11149026854626641, 0.11149026854626641]","[0.11149026854626641, -1.4593060582486301, 0.11149026854626641, 0.11149026854626641, 0.11149026854626641, 0.11149026854626641]",0.002,7,1
0,95,"[0.06517576426267624, -1.5056411188891907, 0.06515819231142217, 0.06521348535504146, 0.06535225361585617, 0.06543144583702087]","[0.47953516244888306, 0.47787797451019287, 0.47912895679473877, 0.48414990305900574, 0.4800366759300232, 0.4759882986545563]","[0.11204449049802913, -1.4587518362968674, 0.11204449049802913, 0.11204449049802913, 0.11204449049802913, 0.11204449049802913]","[0.11204449049802913, -1.4587518362968674, 0.11204449049802913, 0.11204449049802913, 0.11204449049802913, 0.11204449049802913]",0.002,7,1
0,96,"[0.06611214578151703, -1.5046985459378739, 0.06608993211855108, 0.06625978528942866, 0.06636162102222443, 0.06635475903749466]","[0.48098886013031006, 0.47857019305229187, 0.4789651036262512, 0.4839833676815033, 0.47650519013404846, 0.4755523204803467]","[0.11259839773347476, -1.4581979290614218, 0.11259839773347476, 0.11259839773347476, 0.11259839773347476, 0.11259839773347476]","[0.11259839773347476, -1.4581979290614218, 0.11259839773347476, 0.11259839773347476, 0.11259839773347476, 0.11259839773347476]",0.002,7,1
0,97,"[0.0671006515622139, -1.5037100476077576, 0.06702930132021123, 0.06724707662548823, 0.06732198596000671, 0.06732647866010666]","[0.4797990918159485, 0.47836118936538696, 0.47726479172706604, 0.4838922321796417, 0.47330331802368164, 0.4732901453971863]","[0.11315198869676027, -1.4576443380981363, 0.11315198869676027, 0.11315198869676027, 0.11315198869676027, 0.11315198869676027]","[0.11315198869676027, -1.4576443380981363, 0.11315198869676027, 0.11315198869676027, 0.11315198869676027, 0.11315198869676027]",0.002,7,1
0,98,"[0.06803896278142929, -1.502762810592987, 0.06795865694154912, 0.0681653457828979, 0.06826190650463104, 0.0682593286037445]","[0.47730523347854614, 0.47774916887283325, 0.4775722324848175, 0.4822250306606293, 0.47364839911460876, 0.47524797916412354]","[0.11370526183293096, -1.4570910649619655, 0.11370526183293096, 0.11370526183293096, 0.11370526183293096, 0.11370526183293096]","[0.11370526183293096, -1.4570910649619655, 0.11370526183293096, 0.11370526183293096, 0.11370526183293096, 0.11370526183293096]",0.002,7,1
0,99,"[0.06909386813640594, -1.5017915305546303, 0.06898481050600225, 0.06913761674847407, 0.06919436901807785, 0.06921863555908203]","[0.47653675079345703, 0.4790661931037903, 0.4780089855194092, 0.477493017911911, 0.47540155053138733, 0.47294166684150696]","[0.11425821558792479, -1.4565381112069717, 0.11425821558792479, 0.11425821558792479, 0.11425821558792479, 0.11425821558792479]","[0.11425821558792479, -1.4565381112069717, 0.11425821558792479, 0.11425821558792479, 0.11425821558792479, 0.11425821558792479]",0.002,7,1
0,100,"[0.06999307125806808, -1.5008588147214432, 0.06992894807924444, 0.07010786115612788, 0.07013510912656784, 0.070133276283741]","[0.47747430205345154, 0.4804361164569855, 0.4774295389652252, 0.4735359251499176, 0.47424814105033875, 0.474497526884079]","[0.11481084840857694, -1.4559854783863195, 0.11481084840857694, 0.11481084840857694, 0.11481084840857694, 0.11481084840857694]","[0.11481084840857694, -1.4559854783863195, 0.11481084840857694, 0.11481084840857694, 0.11481084840857694, 0.11481084840857694]",0.002,7,1
0,101,"[0.07090054452419281, -1.4998460200480004, 0.07086784044374639, 0.07105342924084468, 0.0710129365324974, 0.07107582688331604]","[0.4776947796344757, 0.4785904586315155, 0.4775664806365967, 0.4734673500061035, 0.47243234515190125, 0.4731215536594391]","[0.11536315874262389, -1.4554331680522727, 0.11536315874262389, 0.11536315874262389, 0.11536315874262389, 0.11536315874262389]","[0.11536315874262389, -1.4554331680522727, 0.11536315874262389, 0.11536315874262389, 0.11536315874262389, 0.11536315874262389]",0.002,7,1
0,102,"[0.07184672355651855, -1.4989110243371506, 0.07186586061586553, 0.07207636415447993, 0.07206837832927704, 0.0719992071390152]","[0.4755587577819824, 0.48132333159446716, 0.4771086871623993, 0.47457683086395264, 0.4707842469215393, 0.4738059937953949]","[0.11591514503870809, -1.4548811817561884, 0.11591514503870809, 0.11591514503870809, 0.11591514503870809, 0.11591514503870809]","[0.11591514503870809, -1.4548811817561884, 0.11591514503870809, 0.11591514503870809, 0.11591514503870809, 0.11591514503870809]",0.002,7,1
0,103,"[0.07281432300806046, -1.4979202163270493, 0.07282668748964483, 0.07306615888562007, 0.0729122906923294, 0.07287777215242386]","[0.473006933927536, 0.4775591492652893, 0.4747191369533539, 0.47462260723114014, 0.47191911935806274, 0.47316330671310425]","[0.11646680574638203, -1.4543295210485145, 0.11646680574638203, 0.11646680574638203, 0.11646680574638203, 0.11646680574638203]","[0.11646680574638203, -1.4543295210485145, 0.11646680574638203, 0.11646680574638203, 0.11646680574638203, 0.11646680574638203]",0.002,7,1
0,104,"[0.0737854614853859, -1.4970003974488755, 0.07378846803774053, 0.0739871698566894, 0.07386338710784912, 0.0738239511847496]","[0.4718256890773773, 0.4756220579147339, 0.47503143548965454, 0.47220075130462646, 0.4688556492328644, 0.47252240777015686]","[0.11701813931611282, -1.4537781874787838, 0.11701813931611282, 0.11701813931611282, 0.11701813931611282, 0.11701813931611282]","[0.11701813931611282, -1.4537781874787838, 0.11701813931611282, 0.11701813931611282, 0.11701813931611282, 0.11701813931611282]",0.002,7,1
0,105,"[0.07471074163913727, -1.496102662091591, 0.07474309602846319, 0.07496432840313716, 0.07485757023096085, 0.07471872121095657]","[0.47175759077072144, 0.47649794816970825, 0.4739590287208557, 0.469425767660141, 0.47205787897109985, 0.4718926250934601]","[0.11756914419928645, -1.45322718259561, 0.11756914419928645, 0.11756914419928645, 0.11756914419928645, 0.11756914419928645]","[0.11756914419928645, -1.45322718259561, 0.11756914419928645, 0.11756914419928645, 0.11756914419928645, 0.11756914419928645]",0.002,7,1
0,106,"[0.07565119862556458, -1.4951637548259278, 0.07565814653505498, 0.07594768583264155, 0.07574277371168137, 0.07563603669404984]","[0.4698568284511566, 0.47604286670684814, 0.47208502888679504, 0.4643680453300476, 0.47101616859436035, 0.472337931394577]","[0.11811981884821209, -1.4526765079466846, 0.11811981884821209, 0.11811981884821209, 0.11811981884821209, 0.11811981884821209]","[0.11811981884821209, -1.4526765079466846, 0.11811981884821209, 0.11811981884821209, 0.11811981884821209, 0.11811981884821209]",0.002,7,1
0,107,"[0.07661394774913788, -1.4941781920245667, 0.07658416429628545, 0.07691316186871333, 0.07667854428291321, 0.07656563818454742]","[0.4694012701511383, 0.4744470715522766, 0.47028693556785583, 0.4617593586444855, 0.47023648023605347, 0.4728076756000519]","[0.11867016171612652, -1.45212616507877, 0.11867016171612652, 0.11867016171612652, 0.11867016171612652, 0.11867016171612652]","[0.11867016171612652, -1.45212616507877, 0.11867016171612652, 0.11867016171612652, 0.11867016171612652, 0.11867016171612652]",0.002,7,1
0,108,"[0.07752300053834915, -1.4932258662632485, 0.07758838335146123, 0.07783178865399165, 0.07756946980953217, 0.07756339013576508]","[0.4685112535953522, 0.47139984369277954, 0.4703671634197235, 0.4606902003288269, 0.4665412902832031, 0.46920135617256165]","[0.11922017125719844, -1.451576155537698, 0.11922017125719844, 0.11922017125719844, 0.11922017125719844, 0.11922017125719844]","[0.11922017125719844, -1.451576155537698, 0.11922017125719844, 0.11922017125719844, 0.11922017125719844, 0.11922017125719844]",0.002,7,1
0,109,"[0.07849226891994476, -1.492340327506401, 0.07844955125917608, 0.07874350130047603, 0.07852396368980408, 0.07846210896968842]","[0.46792998909950256, 0.4724873900413513, 0.46825647354125977, 0.4613714814186096, 0.46615275740623474, 0.4692440927028656]","[0.11976984592653282, -1.4510264808683637, 0.11976984592653282, 0.11976984592653282, 0.11976984592653282, 0.11976984592653282]","[0.11976984592653282, -1.4510264808683637, 0.11976984592653282, 0.11976984592653282, 0.11976984592653282, 0.11976984592653282]",0.002,7,1
0,110,"[0.07941518723964691, -1.491374247973301, 0.07935220399965459, 0.0796324449726562, 0.07942953705787659, 0.07938987761735916]","[0.4671502709388733, 0.46888893842697144, 0.46812477707862854, 0.45896387100219727, 0.4660555422306061, 0.4678109884262085]","[0.12031918418017519, -1.4504771426147214, 0.12031918418017519, 0.12031918418017519, 0.12031918418017519, 0.12031918418017519]","[0.12031918418017519, -1.4504771426147214, 0.12031918418017519, 0.12031918418017519, 0.12031918418017519, 0.12031918418017519]",0.002,7,1
0,111,"[0.08035803586244583, -1.4904766839793702, 0.0803144613849085, 0.08051995813336177, 0.08040644973516464, 0.08034040778875351]","[0.46538257598876953, 0.46582621335983276, 0.4642767608165741, 0.4560733735561371, 0.46538442373275757, 0.46627044677734375]","[0.12086818447511613, -1.4499281423197805, 0.12086818447511613, 0.12086818447511613, 0.12086818447511613, 0.12086818447511613]","[0.12086818447511613, -1.4499281423197805, 0.12086818447511613, 0.12086818447511613, 0.12086818447511613, 0.12086818447511613]",0.002,7,1
0,112,"[0.08132239431142807, -1.4895405036262055, 0.08121806779970342, 0.08145157873120112, 0.08127038180828094, 0.08133049309253693]","[0.46259501576423645, 0.464444637298584, 0.4617021083831787, 0.4548547863960266, 0.4645876884460449, 0.4644111096858978]","[0.12141684526929539, -1.4493794815256011, 0.12141684526929539, 0.12141684526929539, 0.12141684526929539, 0.12141684526929539]","[0.12141684526929539, -1.4493794815256011, 0.12141684526929539, 0.12141684526929539, 0.12141684526929539, 0.12141684526929539]",0.002,7,1
0,113,"[0.08216866105794907, -1.4885962691954155, 0.08218270937074834, 0.08234088003124995, 0.08224599808454514, 0.08219467848539352]","[0.46305862069129944, 0.4601816236972809, 0.46135008335113525, 0.4543133080005646, 0.4624556601047516, 0.4638631343841553]","[0.12196516502160637, -1.44883116177329, 0.12196516502160637, 0.12196516502160637, 0.12196516502160637, 0.12196516502160637]","[0.12196516502160637, -1.44883116177329, 0.12196516502160637, 0.12196516502160637, 0.12196516502160637, 0.12196516502160637]",0.002,7,1
0,114,"[0.08315395563840866, -1.487670176928379, 0.08308202425111944, 0.0832175451466064, 0.08316503465175629, 0.08319347351789474]","[0.4603935778141022, 0.45941340923309326, 0.45904332399368286, 0.45405489206314087, 0.4616680443286896, 0.46239250898361206]","[0.12251314219190039, -1.4482831846029962, 0.12251314219190039, 0.12251314219190039, 0.12251314219190039, 0.12251314219190039]","[0.12251314219190039, -1.4482831846029962, 0.12251314219190039, 0.12251314219190039, 0.12251314219190039, 0.12251314219190039]",0.002,7,1
0,115,"[0.08412282168865204, -1.486784854238369, 0.08392078081239873, 0.08405391752209468, 0.08408138155937195, 0.08406955003738403]","[0.45986345410346985, 0.45694106817245483, 0.4596408009529114, 0.45348480343818665, 0.46046367287635803, 0.45968008041381836]","[0.12306077524099104, -1.4477355515539054, 0.12306077524099104, 0.12306077524099104, 0.12306077524099104, 0.12306077524099104]","[0.12306077524099104, -1.4477355515539054, 0.12306077524099104, 0.12306077524099104, 0.12306077524099104, 0.12306077524099104]",0.002,7,1
0,116,"[0.08500825613737106, -1.4858830955675622, 0.08490354219545537, 0.08497063695874019, 0.08496353775262833, 0.0850510448217392]","[0.4579017460346222, 0.4549206793308258, 0.45801058411598206, 0.4542102515697479, 0.4579809308052063, 0.4577477276325226]","[0.12360806263065853, -1.447188264164238, 0.12360806263065853, 0.12360806263065853, 0.12360806263065853, 0.12360806263065853]","[0.12360806263065853, -1.447188264164238, 0.12360806263065853, 0.12360806263065853, 0.12360806263065853, 0.12360806263065853]",0.002,7,1
0,117,"[0.08586835861206055, -1.484978311961033, 0.08578616777528936, 0.08582191049542232, 0.08587222546339035, 0.08596228063106537]","[0.45652613043785095, 0.45212113857269287, 0.4548473656177521, 0.4540115296840668, 0.4577273428440094, 0.4558309316635132]","[0.12415500282365388, -1.4466413239712428, 0.12415500282365388, 0.12415500282365388, 0.12415500282365388, 0.12415500282365388]","[0.12415500282365388, -1.4466413239712428, 0.12415500282365388, 0.12415500282365388, 0.12415500282365388, 0.12415500282365388]",0.002,7,1
0,118,"[0.08683986216783524, -1.4840245109847565, 0.08670694032777959, 0.08676187574353023, 0.08679583668708801, 0.08690408617258072]","[0.4513660967350006, 0.4479915499687195, 0.45054301619529724, 0.45403167605400085, 0.45439058542251587, 0.4533642828464508]","[0.12470159428370346, -1.446094732511193, 0.12470159428370346, 0.12470159428370346, 0.12470159428370346, 0.12470159428370346]","[0.12470159428370346, -1.446094732511193, 0.12470159428370346, 0.12470159428370346, 0.12470159428370346, 0.12470159428370346]",0.002,7,1
0,119,"[0.08775516599416733, -1.4831497457674523, 0.08758098283876592, 0.08759955942120357, 0.08768444508314133, 0.08780834823846817]","[0.45252031087875366, 0.44495517015457153, 0.4499209523200989, 0.4533482491970062, 0.45152032375335693, 0.45090582966804504]","[0.1252478354755131, -1.4455484913193835, 0.1252478354755131, 0.1252478354755131, 0.1252478354755131, 0.1252478354755131]","[0.1252478354755131, -1.4455484913193835, 0.1252478354755131, 0.1252478354755131, 0.1252478354755131, 0.1252478354755131]",0.002,7,1
0,120,"[0.08869146555662155, -1.4822048035315056, 0.08855897585024053, 0.08856002866711421, 0.08858256787061691, 0.08875058591365814]","[0.4491933584213257, 0.4454478919506073, 0.4475332498550415, 0.4524804353713989, 0.448485791683197, 0.4463448226451874]","[0.1257937248647725, -1.445002601930124, 0.1257937248647725, 0.1257937248647725, 0.1257937248647725, 0.1257937248647725]","[0.1257937248647725, -1.445002601930124, 0.1257937248647725, 0.1257937248647725, 0.1257937248647725, 0.1257937248647725]",0.002,7,1
0,121,"[0.08952068537473679, -1.4813224163702507, 0.08937961259950811, 0.08940784513439937, 0.08952522277832031, 0.08964700251817703]","[0.4487587511539459, 0.4414237141609192, 0.4478759765625, 0.4512329399585724, 0.44936785101890564, 0.44481196999549866]","[0.1263392609181595, -1.444457065876737, 0.1263392609181595, 0.1263392609181595, 0.1263392609181595, 0.1263392609181595]","[0.1263392609181595, -1.444457065876737, 0.1263392609181595, 0.1263392609181595, 0.1263392609181595, 0.1263392609181595]",0.002,7,1
0,122,"[0.09034176170825958, -1.4804328468493004, 0.0902636686908167, 0.09029726564373775, 0.09049228578805923, 0.09054943174123764]","[0.44688114523887634, 0.4400806725025177, 0.44683128595352173, 0.4477382004261017, 0.4448340833187103, 0.44397327303886414]","[0.1268844421033444, -1.4439118846915522, 0.1268844421033444, 0.1268844421033444, 0.1268844421033444, 0.1268844421033444]","[0.1268844421033444, -1.4439118846915522, 0.1268844421033444, 0.1268844421033444, 0.1268844421033444, 0.1268844421033444]",0.002,7,1
0,123,"[0.09130698442459106, -1.4795330253294487, 0.09122163454164678, 0.09114377080883784, 0.09141387790441513, 0.09142940491437912]","[0.44402289390563965, 0.44033125042915344, 0.44469553232192993, 0.4469093978404999, 0.4435249865055084, 0.4431878328323364]","[0.12742926688899436, -1.4433670599059023, 0.12742926688899436, 0.12742926688899436, 0.12742926688899436, 0.12742926688899436]","[0.12742926688899436, -1.4433670599059023, 0.12742926688899436, 0.12742926688899436, 0.12742926688899436, 0.12742926688899436]",0.002,7,1
0,124,"[0.09214845299720764, -1.4786592063358803, 0.092078987752096, 0.09202198564495845, 0.09225808084011078, 0.09230823814868927]","[0.44204625487327576, 0.4371061325073242, 0.4424232244491577, 0.4476332366466522, 0.4420817196369171, 0.4379436671733856]","[0.12797373374477752, -1.442822593050119, 0.12797373374477752, 0.12797373374477752, 0.12797373374477752, 0.12797373374477752]","[0.12797373374477752, -1.442822593050119, 0.12797373374477752, 0.12797373374477752, 0.12797373374477752, 0.12797373374477752]",0.002,7,1
0,125,"[0.09303971379995346, -1.477748618727066, 0.09293109575380498, 0.0929158168980102, 0.09312029927968979, 0.09316310286521912]","[0.4397667944431305, 0.4365585148334503, 0.441938191652298, 0.4454856216907501, 0.43943729996681213, 0.43656668066978455]","[0.12851784114136747, -1.4422784856535291, 0.12851784114136747, 0.12851784114136747, 0.12851784114136747, 0.12851784114136747]","[0.12851784114136747, -1.4422784856535291, 0.12851784114136747, 0.12851784114136747, 0.12851784114136747, 0.12851784114136747]",0.002,7,1
0,126,"[0.09387282282114029, -1.4768011730960389, 0.09382564226259404, 0.0937778192707519, 0.09407525509595871, 0.0940907672047615]","[0.43667617440223694, 0.43072310090065, 0.4389689564704895, 0.4421824812889099, 0.4368944764137268, 0.43567758798599243]","[0.12906158755044736, -1.4417347392444493, 0.12906158755044736, 0.12906158755044736, 0.12906158755044736, 0.12906158755044736]","[0.12906158755044736, -1.4417347392444493, 0.12906158755044736, 0.12906158755044736, 0.12906158755044736, 0.12906158755044736]",0.002,7,1
0,127,"[0.09471478313207626, -1.475933925514557, 0.0947344938861292, 0.09468297540631099, 0.09496267139911652, 0.09492085129022598]","[0.4382975399494171, 0.4343750476837158, 0.43778538703918457, 0.4403981566429138, 0.4365769326686859, 0.4325715899467468]","[0.12960497144471436, -1.4411913553501823, 0.12960497144471436, 0.12960497144471436, 0.12960497144471436, 0.12960497144471436]","[0.12960497144471436, -1.4411913553501823, 0.12960497144471436, 0.12960497144471436, 0.12960497144471436, 0.12960497144471436]",0.002,7,1
0,128,"[0.09566748142242432, -1.4750962641886254, 0.09560090700258428, 0.09558395921673579, 0.09574799239635468, 0.09582708775997162]","[0.43461498618125916, 0.43095967173576355, 0.4349057078361511, 0.43847715854644775, 0.4312884509563446, 0.4312974810600281]","[0.13014799129788393, -1.4406483354970125, 0.13014799129788393, 0.13014799129788393, 0.13014799129788393, 0.13014799129788393]","[0.13014799129788393, -1.4406483354970125, 0.13014799129788393, 0.13014799129788393, 0.13014799129788393, 0.13014799129788393]",0.002,7,1
0,129,"[0.09648718684911728, -1.4742329207113762, 0.09645539919008428, 0.09648398935284419, 0.09664924442768097, 0.0966649055480957]","[0.43317219614982605, 0.43035247921943665, 0.43303290009498596, 0.43686702847480774, 0.4301604926586151, 0.4276614487171173]","[0.13069064558469398, -1.4401056812102027, 0.13069064558469398, 0.13069064558469398, 0.13069064558469398, 0.13069064558469398]","[0.13069064558469398, -1.4401056812102027, 0.13069064558469398, 0.13069064558469398, 0.13069064558469398, 0.13069064558469398]",0.002,7,1
0,130,"[0.09731446951627731, -1.4732700374773522, 0.09735662141908819, 0.09737758218731685, 0.09746945649385452, 0.0974922925233841]","[0.43028441071510315, 0.4255043864250183, 0.4302625358104706, 0.4372159242630005, 0.4259675145149231, 0.4268806278705597]","[0.13123293278090936, -1.4395633940139871, 0.13123293278090936, 0.13123293278090936, 0.13123293278090936, 0.13123293278090936]","[0.13123293278090936, -1.4395633940139871, 0.13123293278090936, 0.13123293278090936, 0.13123293278090936, 0.13123293278090936]",0.002,7,1
0,131,"[0.09816195070743561, -1.4724834871343155, 0.09823495546449834, 0.09823398172344966, 0.09839692711830139, 0.09835963696241379]","[0.426157683134079, 0.42377057671546936, 0.427714467048645, 0.4345654547214508, 0.42456257343292236, 0.4236832857131958]","[0.1317748513633259, -1.4390214754315707, 0.1317748513633259, 0.1317748513633259, 0.1317748513633259, 0.1317748513633259]","[0.1317748513633259, -1.4390214754315707, 0.1317748513633259, 0.1317748513633259, 0.1317748513633259, 0.1317748513633259]",0.002,7,1
0,132,"[0.09907732158899307, -1.4716073286584397, 0.09908944765199834, 0.09913162767376704, 0.09915605187416077, 0.09915244579315186]","[0.42378702759742737, 0.4227663278579712, 0.4294760823249817, 0.42949920892715454, 0.4214304983615875, 0.4219900369644165]","[0.1323163998097749, -1.4384799269851216, 0.1323163998097749, 0.1323163998097749, 0.1323163998097749, 0.1323163998097749]","[0.1323163998097749, -1.4384799269851216, 0.1323163998097749, 0.1323163998097749, 0.1323163998097749, 0.1323163998097749]",0.002,7,1
0,133,"[0.09988551586866379, -1.4707717162421723, 0.09999353090395147, 0.09996382772412105, 0.10002515465021133, 0.09998968988656998]","[0.42219486832618713, 0.4232841730117798, 0.4249194264411926, 0.4235503673553467, 0.4218316674232483, 0.42144647240638733]","[0.13285757659912725, -1.4379387501957692, 0.13285757659912725, 0.13285757659912725, 0.13285757659912725, 0.13285757659912725]","[0.13285757659912725, -1.4379387501957692, 0.13285757659912725, 0.13285757659912725, 0.13285757659912725, 0.13285757659912725]",0.002,7,1
0,134,"[0.10073696076869965, -1.469958373611309, 0.10081273714174444, 0.10086731492962642, 0.10088727623224258, 0.10083921253681183]","[0.4216828942298889, 0.4224419891834259, 0.4234028160572052, 0.41914451122283936, 0.418759286403656, 0.4176541566848755]","[0.13339838021129782, -1.4373979465835987, 0.13339838021129782, 0.13339838021129782, 0.13339838021129782, 0.13339838021129782]","[0.13339838021129782, -1.4373979465835987, 0.13339838021129782, 0.13339838021129782, 0.13339838021129782, 0.13339838021129782]",0.002,7,1
0,135,"[0.10160160809755325, -1.4691229325583954, 0.10166389146913701, 0.10173241674389644, 0.10171996802091599, 0.10165775567293167]","[0.4188959002494812, 0.42192867398262024, 0.420874685049057, 0.419196218252182, 0.4171738922595978, 0.41749173402786255]","[0.13393880912724965, -1.4368575176676468, 0.13393880912724965, 0.13393880912724965, 0.13393880912724965, 0.13393880912724965]","[0.13393880912724965, -1.4368575176676468, 0.13393880912724965, 0.13393880912724965, 0.13393880912724965, 0.13393880912724965]",0.002,7,1
0,136,"[0.10244782269001007, -1.4682244074395676, 0.10251933733095342, 0.10264520227398677, 0.10246207565069199, 0.10246433317661285]","[0.41696858406066895, 0.4198872447013855, 0.41574859619140625, 0.4188096821308136, 0.4144305884838104, 0.4163557291030884]","[0.13447886182899826, -1.4363174649658983, 0.13447886182899826, 0.13447886182899826, 0.13447886182899826, 0.13447886182899826]","[0.13447886182899826, -1.4363174649658983, 0.13447886182899826, 0.13447886182899826, 0.13447886182899826, 0.13447886182899826]",0.002,7,1
0,137,"[0.1032411977648735, -1.4674929168871422, 0.10338193575014287, 0.10342757284130855, 0.10327176004648209, 0.10321808606386185]","[0.4124862253665924, 0.4181176722049713, 0.4146828353404999, 0.4164976477622986, 0.41107648611068726, 0.4159257709980011]","[0.1350185367996159, -1.4357777899952806, 0.1350185367996159, 0.1350185367996159, 0.1350185367996159, 0.1350185367996159]","[0.1350185367996159, -1.4357777899952806, 0.1350185367996159, 0.1350185367996159, 0.1350185367996159, 0.1350185367996159]",0.002,7,1
0,138,"[0.10402137786149979, -1.466564529841282, 0.10414725938905889, 0.1042448717304687, 0.10412498563528061, 0.10407069325447083]","[0.4114852845668793, 0.4175105392932892, 0.4139419496059418, 0.4118097126483917, 0.41069748997688293, 0.4138733148574829]","[0.13555783252323578, -1.4352384942716607, 0.13555783252323578, 0.13555783252323578, 0.13555783252323578, 0.13555783252323578]","[0.13555783252323578, -1.4352384942716607, 0.13555783252323578, 0.13555783252323578, 0.13555783252323578, 0.13555783252323578]",0.002,7,1
0,139,"[0.10485078394412994, -1.4658025962165375, 0.10496980348695928, 0.10507397233929439, 0.10489971190690994, 0.10489634424448013]","[0.40861424803733826, 0.4137641489505768, 0.4086298942565918, 0.40643271803855896, 0.4108649790287018, 0.41204002499580383]","[0.13609674748505646, -1.43469957930984, 0.13609674748505646, 0.13609674748505646, 0.13609674748505646, 0.13609674748505646]","[0.13609674748505646, -1.43469957930984, 0.13609674748505646, 0.13609674748505646, 0.13609674748505646, 0.13609674748505646]",0.002,7,1
0,140,"[0.10570034384727478, -1.4650217977217217, 0.10577804247011358, 0.10588638364758296, 0.10578500479459763, 0.10569000244140625]","[0.40706750750541687, 0.4150048494338989, 0.40785446763038635, 0.4024793803691864, 0.4100983738899231, 0.4114387333393097]","[0.13663528017134585, -1.4341610466235508, 0.13663528017134585, 0.13663528017134585, 0.13663528017134585, 0.13663528017134585]","[0.13663528017134585, -1.4341610466235508, 0.13663528017134585, 0.13663528017134585, 0.13663528017134585, 0.13663528017134585]",0.002,7,1
0,141,"[0.1064901128411293, -1.4641831454685708, 0.10657006898988897, 0.10672597467388911, 0.1065090224146843, 0.10643924027681351]","[0.40569278597831726, 0.40879544615745544, 0.40553468465805054, 0.3998616933822632, 0.4055024981498718, 0.4078015685081482]","[0.1371734290694457, -1.4336228977254508, 0.1371734290694457, 0.1371734290694457, 0.1371734290694457, 0.1371734290694457]","[0.1371734290694457, -1.4336228977254508, 0.1371734290694457, 0.1371734290694457, 0.1371734290694457, 0.1371734290694457]",0.002,7,1
0,142,"[0.10731794685125351, -1.463380129342415, 0.10736018816103154, 0.10761074602093501, 0.10729055106639862, 0.10726828873157501]","[0.40228140354156494, 0.4081372916698456, 0.40321066975593567, 0.39923128485679626, 0.40468597412109375, 0.40676721930503845]","[0.13771119266777582, -1.4330851341271207, 0.13771119266777582, 0.13771119266777582, 0.13771119266777582, 0.13771119266777582]","[0.13771119266777582, -1.4330851341271207, 0.13771119266777582, 0.13771119266777582, 0.13771119266777582, 0.13771119266777582]",0.002,7,1
0,143,"[0.10815280675888062, -1.4625880506685753, 0.10819846788515264, 0.10841672002758784, 0.1081014946103096, 0.10808376222848892]","[0.40062612295150757, 0.40489861369132996, 0.4013431966304779, 0.3993797302246094, 0.40129542350769043, 0.4057973623275757]","[0.13824856945583813, -1.4325477573390584, 0.13824856945583813, 0.13824856945583813, 0.13824856945583813, 0.13824856945583813]","[0.13824856945583813, -1.4325477573390584, 0.13824856945583813, 0.13824856945583813, 0.13824856945583813, 0.13824856945583813]",0.002,7,1
0,144,"[0.10896429419517517, -1.4618059334209939, 0.10901910463442022, 0.10917679845776362, 0.10894462466239929, 0.10888245701789856]","[0.39938923716545105, 0.40300124883651733, 0.39840537309646606, 0.3967756927013397, 0.3989393413066864, 0.4033832252025604]","[0.13878555792422115, -1.4320107688706754, 0.13878555792422115, 0.13878555792422115, 0.13878555792422115, 0.13878555792422115]","[0.13878555792422115, -1.4320107688706754, 0.13878555792422115, 0.13878555792422115, 0.13878555792422115, 0.13878555792422115]",0.002,7,1
0,145,"[0.1097540557384491, -1.4610596758178254, 0.10981303850282842, 0.10994534074749751, 0.10972698777914047, 0.10969127714633942]","[0.39890867471694946, 0.40088316798210144, 0.3970659375190735, 0.39175403118133545, 0.3989484906196594, 0.40062135457992554]","[0.13932215656460414, -1.4314741702302924, 0.13932215656460414, 0.13932215656460414, 0.13932215656460414, 0.13932215656460414]","[0.13932215656460414, -1.4314741702302924, 0.13932215656460414, 0.13932215656460414, 0.13932215656460414, 0.13932215656460414]",0.002,7,1
0,146,"[0.11055260896682739, -1.4602178570679207, 0.1105735937701624, 0.1107455927082519, 0.11050062626600266, 0.11048386245965958]","[0.39491385221481323, 0.3983951508998871, 0.39354708790779114, 0.38681256771087646, 0.39633259177207947, 0.39811697602272034]","[0.13985836386976125, -1.4309379629251353, 0.13985836386976125, 0.13985836386976125, 0.13985836386976125, 0.13985836386976125]","[0.13985836386976125, -1.4309379629251353, 0.13985836386976125, 0.13985836386976125, 0.13985836386976125, 0.13985836386976125]",0.002,7,1
0,147,"[0.11131087690591812, -1.4594833862832566, 0.11137849489320928, 0.11145786821331782, 0.1112833172082901, 0.11126171797513962]","[0.392597496509552, 0.3934485614299774, 0.39040181040763855, 0.38387492299079895, 0.39316314458847046, 0.3942418098449707]","[0.14039417833356588, -1.4304021484613307, 0.14039417833356588, 0.14039417833356588, 0.14039417833356588, 0.14039417833356588]","[0.14039417833356588, -1.4304021484613307, 0.14039417833356588, 0.14039417833356588, 0.14039417833356588, 0.14039417833356588]",0.002,7,1
0,148,"[0.1121106743812561, -1.45871106654916, 0.11214143434633428, 0.11216764032330317, 0.11208086460828781, 0.11198878288269043]","[0.3893052637577057, 0.3914359211921692, 0.38863569498062134, 0.3834431767463684, 0.392622172832489, 0.39233076572418213]","[0.14092959845099487, -1.4298667283439017, 0.14092959845099487, 0.14092959845099487, 0.14092959845099487, 0.14092959845099487]","[0.14092959845099487, -1.4298667283439017, 0.14092959845099487, 0.14092959845099487, 0.14092959845099487, 0.14092959845099487]",0.002,7,1
0,149,"[0.11283579468727112, -1.4579389330795784, 0.11285096803774053, 0.11300496637310786, 0.11292722821235657, 0.11279506236314774]","[0.3895588219165802, 0.38709861040115356, 0.3862202763557434, 0.38388487696647644, 0.3893287479877472, 0.38949787616729736]","[0.14146462271813265, -1.429331704076764, 0.14146462271813265, 0.14146462271813265, 0.14146462271813265, 0.14146462271813265]","[0.14146462271813265, -1.429331704076764, 0.14146462271813265, 0.14146462271813265, 0.14146462271813265, 0.14146462271813265]",0.002,7,1
0,150,"[0.1135953739285469, -1.4572110039046784, 0.11360627809633428, 0.11372415601696773, 0.11363985389471054, 0.11363425105810165]","[0.3859598636627197, 0.3843030631542206, 0.38322845101356506, 0.3836313486099243, 0.3875727951526642, 0.3885219395160675]","[0.14199924963217567, -1.428797077162721, 0.14199924963217567, 0.14199924963217567, 0.14199924963217567, 0.14199924963217567]","[0.14199924963217567, -1.428797077162721, 0.14199924963217567, 0.14199924963217567, 0.14199924963217567, 0.14199924963217567]",0.002,7,1
0,151,"[0.11443878710269928, -1.4564632561853905, 0.11437350908388311, 0.11443607389416499, 0.1143866628408432, 0.11439952999353409]","[0.3833397328853607, 0.38271284103393555, 0.3821447491645813, 0.37961646914482117, 0.3851054608821869, 0.3883003890514374]","[0.1425334776914364, -1.4282628491034601, 0.1425334776914364, 0.1425334776914364, 0.1425334776914364, 0.1425334776914364]","[0.1425334776914364, -1.4282628491034601, 0.1425334776914364, 0.1425334776914364, 0.1425334776914364, 0.1425334776914364]",0.002,7,1
0,152,"[0.11518193781375885, -1.4556653958610077, 0.11511785188783819, 0.11511222898449702, 0.11518353223800659, 0.11517270654439926]","[0.3820013403892517, 0.38051658868789673, 0.379880428314209, 0.37722286581993103, 0.3830667734146118, 0.38420209288597107]","[0.14306730539534757, -1.427729021399549, 0.14306730539534757, 0.14306730539534757, 0.14306730539534757, 0.14306730539534757]","[0.14306730539534757, -1.427729021399549, 0.14306730539534757, 0.14306730539534757, 0.14306730539534757, 0.14306730539534757]",0.002,7,1
0,153,"[0.11593952029943466, -1.454944909816124, 0.11588555971254522, 0.1158870893665771, 0.11595836281776428, 0.11593887209892273]","[0.38058406114578247, 0.37725135684013367, 0.3763793408870697, 0.37797996401786804, 0.380819708108902, 0.3798281252384186]","[0.14360073124446657, -1.42719559555043, 0.14360073124446657, 0.14360073124446657, 0.14360073124446657, 0.14360073124446657]","[0.14360073124446657, -1.42719559555043, 0.14360073124446657, 0.14360073124446657, 0.14360073124446657, 0.14360073124446657]",0.002,7,1
0,154,"[0.11669233441352844, -1.4541758608869095, 0.11659843126405889, 0.11668638765301509, 0.11663767695426941, 0.11670013517141342]","[0.3751206398010254, 0.3740594983100891, 0.37477773427963257, 0.3751674294471741, 0.37937650084495544, 0.3777259886264801]","[0.14413375374047951, -1.4266625730544171, 0.14413375374047951, 0.14413375374047951, 0.14413375374047951, 0.14413375374047951]","[0.14413375374047951, -1.4266625730544171, 0.14413375374047951, 0.14413375374047951, 0.14413375374047951, 0.14413375374047951]",0.002,7,1
