Arnibjarnst/BoxLift/logs/ur_rtde/trajectory_dur=10.0_delay=0.0_gain=200_lh=0.05_real.csv
arm_idx,step,actual_q,actual_qd,target_q,expected_q,loop_time,robot_mode,safety_mode
0,-1,"[0.07762894034385681, -1.4931960341385384, 0.07754832903017217, 0.07768027364697261, 0.07776953279972076, 0.07771606743335724]","[-0.04996496066451073, -0.05197259783744812, -0.052233461290597916, -0.0484854057431221, -0.046818532049655914, -0.047197375446558]","[0.0, -1.5707963267948966, 0.0, 0.0, 0.0, 0.0]","[0.0, -1.5707963267948966, 0.0, 0.0, 0.0, 0.0]",0.002,7,1
0,-1,"[0.07670386135578156, -1.4941282582334061, 0.07659274736513311, 0.07676069318737788, 0.07679922878742218, 0.07680291682481766]","[-0.06459298729896545, -0.06591855734586716, -0.06590720266103745, -0.06538829952478409, -0.0651068240404129, -0.06410340219736099]","[0.0, -1.5707963267948966, 0.0, 0.0, 0.0, 0.0]","[0.0, -1.5707963267948966, 0.0, 0.0, 0.0, 0.0]",0.002,7,1
0,-1,"[0.07571607828140259, -1.4951398384622117, 0.0755546728717249, 0.07574789106335444, 0.07586948573589325, 0.07584867626428604]","[-0.07917189598083496, -0.07596595585346222, -0.0793154239654541, -0.07931334525346756, -0.07923472672700882, -0.0783660039305687]","[0.0, -1.5707963267948966, 0.0, 0.0, 0.0, 0.0]","[0.0, -1.5707963267948966, 0.0, 0.0, 0.0, 0.0]",0.002,7,1
0,-1,"[0.07430751621723175, -1.4965064910105248, 0.07420951524843389, 0.07434408246960444, 0.07444902509450912, 0.07442288845777512]","[-0.0936114639043808, -0.09388843178749084, -0.094450443983078, -0.09466053545475006, -0.09790361672639847, -0.09674954414367676]","[0.0, -1.5707963267948966, 0.0, 0.0, 0.0, 0.0]","[0.0, -1.5707963267948966, 0.0, 0.0, 0.0, 0.0]",0.002,7,1
0,-1,"[0.07347660511732101, -1.4972706970623513, 0.07339650789369756, 0.07349197446789546, 0.07357650995254517, 0.07362055778503418]","[-0.10375291854143143, -0.10172415524721146, -0.10096727311611176, -0.10124170035123825, -0.10551406443119049, -0.10649553686380386]","[0.0, -1.5707963267948966, 0.0, 0.0, 0.0, 0.0]","[0.0, -1.5707963267948966, 0.0, 0.0, 0.0, 0.0]",0.002,7,1
0,-1,"[0.07214611768722534, -1.498613604610302, 0.07205754915346319, 0.07214169084515376, 0.0722941905260086, 0.07230126112699509]","[-0.11415424197912216, -0.1119668111205101, -0.11663903295993805, -0.11360185593366623, -0.11568716913461685, -0.11623630672693253]","[0.0, -1.5707963267948966, 0.0, 0.0, 0.0, 0.0]","[0.0, -1.5707963267948966, 0.0, 0.0, 0.0, 0.0]",0.002,7,1
0,-1,"[0.07093993574380875, -1.4997676995447655, 0.07088119188417608, 0.07091562330212398, 0.07102296501398087, 0.07106996327638626]","[-0.12559275329113007, -0.12396880239248276, -0.1234879344701767, -0.1223166361451149, -0.12602099776268005, -0.1254529058933258]","[0.0, -1.5707963267948966, 0.0, 0.0, 0.0, 0.0]","[0.0, -1.5707963267948966, 0.0, 0.0, 0.0, 0.0]",0.002,7,1
0,-1,"[0.06855370104312897, -1.5022120785764237, 0.06849033037294561, 0.06844358026470942, 0.068564772605896, 0.06864655762910843]","[-0.14096908271312714, -0.14237870275974274, -0.13917207717895508, -0.1396365761756897, -0.14468449354171753, -0.1440829634666443]","[0.0, -1.5707963267948966, 0.0, 0.0, 0.0, 0.0]","[0.0, -1.5707963267948966, 0.0, 0.0, 0.0, 0.0]",0.002,7,1
0,-1,"[0.06677710264921188, -1.5039940935424347, 0.06665164629091436, 0.06662551938977046, 0.06678511202335358, 0.06688942760229111]","[-0.15485216677188873, -0.15489017963409424, -0.15253889560699463, -0.1499248445034027, -0.15588094294071198, -0.15529488027095795]","[0.0, -1.5707963267948966, 0.0, 0.0, 0.0, 0.0]","[0.0, -1.5707963267948966, 0.0, 0.0, 0.0, 0.0]",0.002,7,1
0,-1,"[0.06545988470315933, -1.505226307814457, 0.06537944475282842, 0.06541578351940913, 0.06553205102682114, 0.06553550064563751]","[-0.1612023413181305, -0.16100485622882843, -0.1592390388250351, -0.15739044547080994, -0.16045090556144714, -0.16436278820037842]","[0.0, -1.5707963267948966, 0.0, 0.0, 0.0, 0.0]","[0.0, -1.5707963267948966, 0.0, 0.0, 0.0, 0.0]",0.002,7,1
0,-1,"[0.06339885294437408, -1.5072896865061303, 0.0634081999408167, 0.06337992727246089, 0.06346332281827927, 0.0635630413889885]","[-0.17325466871261597, -0.1732061356306076, -0.17416705191135406, -0.1701052486896515, -0.17495565116405487, -0.17456498742103577]","[0.0, -1.5707963267948966, 0.0, 0.0, 0.0, 0.0]","[0.0, -1.5707963267948966, 0.0, 0.0, 0.0, 0.0]",0.002,7,1
0,-1,"[0.06124945357441902, -1.5094435674003144, 0.06124622026552373, 0.061221523875854444, 0.061336856335401535, 0.06129028648138046]","[-0.18574045598506927, -0.18472729623317719, -0.1811377853155136, -0.1851130574941635, -0.18285538256168365, -0.18603438138961792]","[0.0, -1.5707963267948966, 0.0, 0.0, 0.0, 0.0]","[0.0, -1.5707963267948966, 0.0, 0.0, 0.0, 0.0]",0.002,7,1
0,-1,"[0.058969490230083466, -1.511770625864603, 0.05897075334657842, 0.05899111806835933, 0.05892077088356018, 0.058947499841451645]","[-0.1990191638469696, -0.1970261037349701, -0.19312743842601776, -0.19482341408729553, -0.19756485521793365, -0.19794675707817078]","[0.0, -1.5707963267948966, 0.0, 0.0, 0.0, 0.0]","[0.0, -1.5707963267948966, 0.0, 0.0, 0.0, 0.0]",0.002,7,1
0,-1,"[0.0565553680062294, -1.5141913679293175, 0.05655223528017217, 0.056604071254394484, 0.05638355761766434, 0.056419454514980316]","[-0.21253149211406708, -0.20905281603336334, -0.20636998116970062, -0.2082131803035736, -0.20784209668636322, -0.20867115259170532]","[0.0, -1.5707963267948966, 0.0, 0.0, 0.0, 0.0]","[0.0, -1.5707963267948966, 0.0, 0.0, 0.0, 0.0]",0.002,7,1
0,-1,"[0.05397457629442215, -1.5168585752001782, 0.053878132496969044, 0.05401675283398433, 0.05387330427765846, 0.053850434720516205]","[-0.22417528927326202, -0.2213834673166275, -0.22250495851039886, -0.22440007328987122, -0.2182818055152893, -0.2187654823064804]","[0.0, -1.5707963267948966, 0.0, 0.0, 0.0, 0.0]","[0.0, -1.5707963267948966, 0.0, 0.0, 0.0, 0.0]",0.002,7,1
0,-1,"[0.05112020671367645, -1.5196332906237622, 0.051281277333394826, 0.051317139262817335, 0.05116861313581467, 0.05107387155294418]","[-0.23471862077713013, -0.23540157079696655, -0.23307716846466064, -0.24009427428245544, -0.2328835129737854, -0.2311016172170639]","[0.0, -1.5707963267948966, 0.0, 0.0, 0.0, 0.0]","[0.0, -1.5707963267948966, 0.0, 0.0, 0.0, 0.0]",0.002,7,1
0,-1,"[0.04827865958213806, -1.5225302514484902, 0.04832154909242803, 0.04841820775952144, 0.048249419778585434, 0.04815320670604706]","[-0.24675723910331726, -0.24683474004268646, -0.248016357421875, -0.25503405928611755, -0.24842163920402527, -0.24624332785606384]","[0.0, -1.5707963267948966, 0.0, 0.0, 0.0, 0.0]","[0.0, -1.5707963267948966, 0.0, 0.0, 0.0, 0.0]",0.002,7,1
0,-1,"[0.045212358236312866, -1.5255321984044095, 0.045347038899556935, 0.0453229385563354, 0.045241642743349075, 0.045181043446063995]","[-0.25789594650268555, -0.2588953375816345, -0.26096707582473755, -0.26365023851394653, -0.25891825556755066, -0.25551146268844604]","[0.0, -1.5707963267948966, 0.0, 0.0, 0.0, 0.0]","[0.0, -1.5707963267948966, 0.0, 0.0, 0.0, 0.0]",0.002,7,1
0,-1,"[0.04204072803258896, -1.528674678211548, 0.04214078584779912, 0.04209057867016597, 0.04212912544608116, 0.04209881275892258]","[-0.2705634832382202, -0.26923394203186035, -0.2706321179866791, -0.2709469795227051, -0.27166348695755005, -0.2697363793849945]","[0.0, -1.5707963267948966, 0.0, 0.0, 0.0, 0.0]","[0.0, -1.5707963267948966, 0.0, 0.0, 0.0, 0.0]",0.002,7,1
0,-1,"[0.037063319236040115, -1.5334642764976998, 0.037211243306295216, 0.036922140712402296, 0.03715033084154129, 0.03714790940284729]","[-0.2797229588031769, -0.2345976084470749, -0.25501367449760437, -0.2665248215198517, -0.2716704308986664, -0.27603253722190857]","[0.0, -1.5707963267948966, 0.0, 0.0, 0.0, 0.0]","[0.0, -1.5707963267948966, 0.0, 0.0, 0.0, 0.0]",0.002,7,1
0,-1,"[0.03389480337500572, -1.5366023641875763, 0.03404266039003545, 0.03377191602673335, 0.033910516649484634, 0.03395732492208481]","[-0.2559857666492462, -0.2747441828250885, -0.2678305506706238, -0.25520193576812744, -0.2627028524875641, -0.26401665806770325]","[0.0, -1.5707963267948966, 0.0, 0.0, 0.0, 0.0]","[0.0, -1.5707963267948966, 0.0, 0.0, 0.0, 0.0]",0.002,7,1
0,-1,"[0.03034607134759426, -1.5401881144246836, 0.03040773073305303, 0.030260129565856886, 0.030385008081793785, 0.030380409210920334]","[-0.24394989013671875, -0.25042131543159485, -0.24420876801013947, -0.23928774893283844, -0.2482452541589737, -0.24799910187721252]","[0.0, -1.5707963267948966, 0.0, 0.0, 0.0, 0.0]","[0.0, -1.5707963267948966, 0.0, 0.0, 0.0, 0.0]",0.002,7,1
0,-1,"[0.027529824525117874, -1.5431061399034043, 0.02758342424501592, 0.027486129398010206, 0.027424417436122894, 0.027498066425323486]","[-0.2364618331193924, -0.23231440782546997, -0.23335687816143036, -0.2299630045890808, -0.23313699662685394, -0.23522545397281647]","[0.0, -1.5707963267948966, 0.0, 0.0, 0.0, 0.0]","[0.0, -1.5707963267948966, 0.0, 0.0, 0.0, 0.0]",0.002,7,1
0,-1,"[0.02568456344306469, -1.544932336812355, 0.02570230165590459, 0.02562491476025386, 0.02553759142756462, 0.025639526546001434]","[-0.22726503014564514, -0.22691571712493896, -0.22423683106899261, -0.2244078516960144, -0.22485370934009552, -0.22753602266311646]","[0.0, -1.5707963267948966, 0.0, 0.0, 0.0, 0.0]","[0.0, -1.5707963267948966, 0.0, 0.0, 0.0, 0.0]",0.002,7,1
0,-1,"[0.023540593683719635, -1.5473070696792384, 0.023565117512838185, 0.023530526752136183, 0.02333775907754898, 0.02340119332075119]","[-0.21574339270591736, -0.21691423654556274, -0.21745026111602783, -0.21760320663452148, -0.2145877629518509, -0.21524767577648163]","[0.0, -1.5707963267948966, 0.0, 0.0, 0.0, 0.0]","[0.0, -1.5707963267948966, 0.0, 0.0, 0.0, 0.0]",0.002,7,1
0,-1,"[0.020972199738025665, -1.5498412878117342, 0.021028820668355763, 0.02105657636608882, 0.02082914486527443, 0.020908230915665627]","[-0.20752573013305664, -0.20476892590522766, -0.2037975937128067, -0.2082759439945221, -0.20414595305919647, -0.20419630408287048]","[0.0, -1.5707963267948966, 0.0, 0.0, 0.0, 0.0]","[0.0, -1.5707963267948966, 0.0, 0.0, 0.0, 0.0]",0.002,7,1
0,-1,"[0.019361568614840508, -1.5515414115837594, 0.01941997209657842, 0.019455357188842726, 0.01927410438656807, 0.01925613544881344]","[-0.19521375000476837, -0.1966402232646942, -0.19924168288707733, -0.20293012261390686, -0.19563786685466766, -0.19496703147888184]","[0.0, -1.5707963267948966, 0.0, 0.0, 0.0, 0.0]","[0.0, -1.5707963267948966, 0.0, 0.0, 0.0, 0.0]",0.002,7,1
0,-1,"[0.015293209813535213, -1.5555505550331254, 0.015357796345845998, 0.015329166049621534, 0.01526874490082264, 0.015227152965962887]","[-0.175888329744339, -0.17268802225589752, -0.17784923315048218, -0.17845624685287476, -0.17558380961418152, -0.1744813323020935]","[0.0, -1.5707963267948966, 0.0, 0.0, 0.0, 0.0]","[0.0, -1.5707963267948966, 0.0, 0.0, 0.0, 0.0]",0.002,7,1
0,-1,"[0.013859407044947147, -1.5569136434099455, 0.014002148305074513, 0.013921304340026808, 0.013855274766683578, 0.013916335999965668]","[-0.1677340865135193, -0.16549822688102722, -0.17059658467769623, -0.16961762309074402, -0.16775472462177277, -0.1665518581867218]","[0.0, -1.5707963267948966, 0.0, 0.0, 0.0, 0.0]","[0.0, -1.5707963267948966, 0.0, 0.0, 0.0, 0.0]",0.002,7,1
0,-1,"[0.010444856248795986, -1.560285023679473, 0.010560337697164357, 0.010395808810852003, 0.010488147847354412, 0.010583566501736641]","[-0.1445213109254837, -0.14387938380241394, -0.1468915045261383, -0.14565803110599518, -0.14730630815029144, -0.1469939798116684]","[0.0, -1.5707963267948966, 0.0, 0.0, 0.0, 0.0]","[0.0, -1.5707963267948966, 0.0, 0.0, 0.0, 0.0]",0.002,7,1
0,-1,"[0.0087527921423316, -1.5618808160400768, 0.008852783833638966, 0.008795781726501417, 0.008821613155305386, 0.008806612342596054]","[-0.13290375471115112, -0.13149622082710266, -0.1346258670091629, -0.1306074559688568, -0.13539938628673553, -0.13442811369895935]","[0.0, -1.5707963267948966, 0.0, 0.0, 0.0, 0.0]","[0.0, -1.5707963267948966, 0.0, 0.0, 0.0, 0.0]",0.002,7,1
0,-1,"[0.007254333700984716, -1.563364271340408, 0.0073121229754846695, 0.007188125247619581, 0.00732232304289937, 0.007369214668869972]","[-0.12168873101472855, -0.12288253754377365, -0.12096536159515381, -0.12131612002849579, -0.12391084432601929, -0.12453855574131012]","[0.0, -1.5707963267948966, 0.0, 0.0, 0.0, 0.0]","[0.0, -1.5707963267948966, 0.0, 0.0, 0.0, 0.0]",0.002,7,1
0,-1,"[0.005899468436837196, -1.5647384284860273, 0.005923096333638966, 0.005801244372985792, 0.005887266248464584, 0.00598364369943738]","[-0.1088358536362648, -0.1109183058142662, -0.1112636998295784, -0.1083698570728302, -0.11119585484266281, -0.10973446816205978]","[0.0, -1.5707963267948966, 0.0, 0.0, 0.0, 0.0]","[0.0, -1.5707963267948966, 0.0, 0.0, 0.0, 0.0]",0.002,7,1
0,-1,"[0.004630716517567635, -1.5659743154286225, 0.004600350056783498, 0.004632754916809034, 0.0047165523283183575, 0.004702673759311438]","[-0.09794910252094269, -0.09999722987413406, -0.09813202172517776, -0.09481678158044815, -0.09999291598796844, -0.09863755851984024]","[0.0, -1.5707963267948966, 0.0, 0.0, 0.0, 0.0]","[0.0, -1.5707963267948966, 0.0, 0.0, 0.0, 0.0]",0.002,7,1
0,-1,"[0.003519122488796711, -1.5670888193747778, 0.00354940096010381, 0.0034605699726562023, 0.0035716211423277855, 0.0035753785632550716]","[-0.08380897343158722, -0.0895540863275528, -0.08562034368515015, -0.08162282407283783, -0.08781120926141739, -0.0872185230255127]","[0.0, -1.5707963267948966, 0.0, 0.0, 0.0, 0.0]","[0.0, -1.5707963267948966, 0.0, 0.0, 0.0, 0.0]",0.002,7,1
0,-1,"[0.0025830911472439766, -1.5681087524029245, 0.002564255391256154, 0.002582235927246046, 0.0026645069010555744, 0.002679362427443266]","[-0.07076773792505264, -0.07669142633676529, -0.07337629795074463, -0.07107510417699814, -0.07292526215314865, -0.07417024672031403]","[0.0, -1.5707963267948966, 0.0, 0.0, 0.0, 0.0]","[0.0, -1.5707963267948966, 0.0, 0.0, 0.0, 0.0]",0.002,7,1
0,-1,"[0.0020066499710083008, -1.5688452100478862, 0.0018814245807092789, 0.0019602018543700694, 0.002003283007070422, 0.001983427908271551]","[-0.06306973844766617, -0.0670986995100975, -0.06441134959459305, -0.061143502593040466, -0.06415168941020966, -0.06250941008329391]","[0.0, -1.5707963267948966, 0.0, 0.0, 0.0, 0.0]","[0.0, -1.5707963267948966, 0.0, 0.0, 0.0, 0.0]",0.002,7,1
0,-1,"[0.0014936537481844425, -1.5693341016634186, 0.0013826529132288101, 0.0014584499546508312, 0.001465642941184342, 0.0015441852156072855]","[-0.05447258800268173, -0.05648067221045494, -0.054718565195798874, -0.052622102200984955, -0.056065380573272705, -0.054913852363824844]","[0.0, -1.5707963267948966, 0.0, 0.0, 0.0, 0.0]","[0.0, -1.5707963267948966, 0.0, 0.0, 0.0, 0.0]",0.002,7,1
0,-1,"[0.0008006157586351037, -1.5700329155991604, 0.0007141272174280289, 0.0008136469074706554, 0.0008176450501196086, 0.0008319597109220922]","[-0.04025215283036232, -0.04093611240386963, -0.04158109799027443, -0.04014431685209274, -0.0423893965780735, -0.043289244174957275]","[0.0, -1.5707963267948966, 0.0, 0.0, 0.0, 0.0]","[0.0, -1.5707963267948966, 0.0, 0.0, 0.0, 0.0]",0.002,7,1
0,-1,"[0.00041810295078903437, -1.5704441489109122, 0.0003121534930627945, 0.0003703075596312999, 0.00039261626079678535, 0.00039290738641284406]","[-0.02692156285047531, -0.030877599492669106, -0.02976417727768421, -0.029787587001919746, -0.029421066865324974, -0.030873792245984077]","[0.0, -1.5707963267948966, 0.0, 0.0, 0.0, 0.0]","[0.0, -1.5707963267948966, 0.0, 0.0, 0.0, 0.0]",0.002,7,1
0,-1,"[0.00013303529703989625, -1.5707274505442292, -2.850770761142485e-05, 7.323801007075303e-05, 0.00015814304060768336, 0.0001590251922607422]","[-0.016663724556565285, -0.019365675747394562, -0.017611395567655563, -0.01718004234135151, -0.017037738114595413, -0.017652198672294617]","[0.0, -1.5707963267948966, 0.0, 0.0, 0.0, 0.0]","[0.0, -1.5707963267948966, 0.0, 0.0, 0.0, 0.0]",0.002,7,1
0,-1,"[5.054473876953125e-05, -1.5709268055357875, -7.03002224327065e-05, 2.4481410644483503e-05, 3.0279159545898438e-05, 5.578722266363911e-05]","[-0.00045338302152231336, -0.003104681381955743, -0.0004966140259057283, 0.00014156884572003037, -0.00021688983542844653, -0.00019882811466231942]","[0.0, -1.5707963267948966, 0.0, 0.0, 0.0, 0.0]","[0.0, -1.5707963267948966, 0.0, 0.0, 0.0, 0.0]",0.002,7,1
0,-1,"[0.00011805618123617023, -1.5708862743773402, -7.666826422791928e-05, 8.861600842280382e-05, 6.467472849180922e-05, 0.00012015723041258752]","[0.0038990620523691177, -0.009819422848522663, 0.00028668224695138633, 0.0035116428043693304, 0.004217545967549086, 0.0031773981172591448]","[0.0, -1.5707963267948966, 0.0, 0.0, 0.0, 0.0]","[0.0, -1.5707963267948966, 0.0, 0.0, 0.0, 0.0]",0.002,7,1
0,-1,"[9.095677523873746e-05, -1.5709225140013636, -4.637958045350388e-05, 4.0932292602491316e-05, 0.00012636184692382812, 9.917343413690105e-05]","[0.0008859211811795831, -0.002327850554138422, 0.001754157361574471, -0.0003701596288010478, 0.0005869193701073527, 0.0005469887400977314]","[0.0, -1.5707963267948966, 0.0, 0.0, 0.0, 0.0]","[0.0, -1.5707963267948966, 0.0, 0.0, 0.0, 0.0]",0.002,7,1
0,-1,"[7.316248957067728e-05, -1.5708233318724574, -7.4242361733922735e-06, 3.0322665832471785e-05, 4.5370856241788715e-05, 9.603511716704816e-05]","[0.00011448187433416024, 0.0024644816294312477, 0.002255647676065564, -1.625917036562896e-07, -0.00031863994081504643, 0.00023313080600928515]","[0.0, -1.5707963267948966, 0.0, 0.0, 0.0, 0.0]","[0.0, -1.5707963267948966, 0.0, 0.0, 0.0, 0.0]",0.002,7,1
0,-1,"[8.655479177832603e-05, -1.5707425636104126, 8.885060445606996e-06, 9.767591442866319e-05, 5.890703323530033e-05, 0.00010352134995628148]","[1.1508756187633695e-12, 0.00423107435926795, 0.0008869715384207666, -0.0001171788971987553, -0.00023427853011526167, -0.0001701643195701763]","[0.0, -1.5707963267948966, 0.0, 0.0, 0.0, 0.0]","[0.0, -1.5707963267948966, 0.0, 0.0, 0.0, 0.0]",0.002,7,1
0,-1,"[6.571150152012706e-05, -1.5707724751267342, 4.178682436162262e-05, 3.473340954585069e-05, 0.00012053203681716695, 8.724375220481306e-05]","[6.711538651477173e-24, 0.0022544991225004196, 0.0009286284330300987, 8.048891331213781e-09, -0.0011377343907952309, -0.0004402254708111286]","[0.0, -1.5707963267948966, 0.0, 0.0, 0.0, 0.0]","[0.0, -1.5707963267948966, 0.0, 0.0, 0.0, 0.0]",0.002,7,1
0,-1,"[0.00014487958105746657, -1.5707756017494212, 8.885060445606996e-06, 7.2165126464796e-05, 5.435943603515625e-05, 3.066063072765246e-05]","[2.9173163496028212e-33, 0.000659403798636049, 0.0005609857034869492, -0.0004943935200572014, -0.0007345988997258246, -0.0004982828395441175]","[0.0, -1.5707963267948966, 0.0, 0.0, 0.0, 0.0]","[0.0, -1.5707963267948966, 0.0, 0.0, 0.0, 0.0]",0.002,7,1
0,-1,"[0.00013593959738500416, -1.5707622092998754, 1.794496645146637e-05, 9.016572918696397e-05, 7.078672933857888e-05, 6.318092346191406e-05]","[1.6815581571897805e-44, -0.00024019530974328518, 0.000354157731635496, -0.0005188931245356798, -0.0005983469891361892, -0.0007801494211889803]","[0.0, -1.5707963267948966, 0.0, 0.0, 0.0, 0.0]","[0.0, -1.5707963267948966, 0.0, 0.0, 0.0, 0.0]",0.002,7,1
0,-1,"[0.000110626220703125, -1.5707533403441012, -2.2604466721531935e-05, 4.832326855463975e-05, 4.990100933355279e-05, 3.933906555175781e-05]","[0.0, -0.0006934545235708356, 8.718780736671761e-05, -0.0003936485154554248, -0.0008941450505517423, -0.0006534396670758724]","[0.0, -1.5707963267948966, 0.0, 0.0, 0.0, 0.0]","[0.0, -1.5707963267948966, 0.0, 0.0, 0.0, 0.0]",0.002,7,1
0,-1,"[0.00011955735681112856, -1.5707817153982724, -2.390837653365452e-05, 1.554071392817491e-05, 4.220008850097656e-05, 4.692077709478326e-05]","[0.0, -0.0003916584246326238, 7.018835458438843e-05, -0.0008430290617980063, -0.0007478666375391185, -0.0008948770118877292]","[0.0, -1.5707963267948966, 0.0, 0.0, 0.0, 0.0]","[0.0, -1.5707963267948966, 0.0, 0.0, 0.0, 0.0]",0.002,7,1
0,-1,"[5.2327915909700096e-05, -1.5707622092998754, -2.86102294921875e-06, 2.7342433593702253e-05, 1.9788735698966775e-06, 1.52587890625e-05]","[0.0, -0.00022482092026621103, 5.873601185157895e-05, -0.0006165047525428236, -0.0012661120854318142, -0.001209304085932672]","[0.0, -1.5707963267948966, 0.0, 0.0, 0.0, 0.0]","[0.0, -1.5707963267948966, 0.0, 0.0, 0.0, 0.0]",0.002,7,1
0,-1,"[9.856811811914667e-05, -1.570787502292962, 3.4634266988575746e-05, 1.542150463862413e-05, 2.1266972908051684e-05, -1.7468129293263246e-05]","[0.0, -0.00012582665658555925, 7.574088522233069e-05, -0.0006062018219381571, -0.0007894884329289198, -0.000956770614720881]","[0.0, -1.5707963267948966, 0.0, 0.0, 0.0, 0.0]","[0.0, -1.5707963267948966, 0.0, 0.0, 0.0, 0.0]",0.002,7,1
0,-1,"[7.758808351354674e-05, -1.5707051269312906, 1.3653432027638246e-05, -1.6254237671375904e-06, 5.5575368605786934e-05, 2.2753716621082276e-05]","[0.0, 0.0001730407529976219, 6.810333434259519e-05, -0.0008352854638360441, -0.0006809374899603426, -0.0008794997120276093]","[0.0, -1.5707963267948966, 0.0, 0.0, 0.0, 0.0]","[0.0, -1.5707963267948966, 0.0, 0.0, 0.0, 0.0]",0.002,7,1
0,-1,"[0.00012699366197921336, -1.5707546037486573, 2.7004872457325746e-05, 4.0932292602491316e-05, 2.284342554048635e-05, -4.7032033101856996e-05]","[0.0, 0.00014556487440131605, 6.186181417433545e-05, -0.00060145219322294, -0.0005905715515837073, -0.0006012388621456921]","[0.0, -1.5707963267948966, 0.0, 0.0, 0.0, 0.0]","[0.0, -1.5707963267948966, 0.0, 0.0, 0.0, 0.0]",0.002,7,1
0,-1,"[0.00011198711581528187, -1.5707336057497123, -1.9357203200343065e-05, -1.6254237671375904e-06, 5.5602173233637586e-05, 4.467080725589767e-05]","[0.0, 0.00012529856758192182, 7.555776392109692e-05, -0.0004969684523530304, -0.00038707253406755626, -0.0003913345863111317]","[0.0, -1.5707963267948966, 0.0, 0.0, 0.0, 0.0]","[0.0, -1.5707963267948966, 0.0, 0.0, 0.0, 0.0]",0.002,7,1
0,-1,"[8.206701022572815e-05, -1.5707546037486573, 4.116688863575746e-06, 1.2083644531202253e-05, 6.473219855251955e-06, -3.701845277959137e-05]","[0.0, 0.00010998571087839082, 6.970574759179726e-05, -0.0003430305514484644, -0.00034552125725895166, -0.00034833309473469853]","[0.0, -1.5707963267948966, 0.0, 0.0, 0.0, 0.0]","[0.0, -1.5707963267948966, 0.0, 0.0, 0.0, 0.0]",0.002,7,1
0,-1,"[7.46609439374879e-05, -1.570787436628354, 4.178682436162262e-05, 1.9951457641553816e-05, 3.919601294910535e-05, -4.274049867802887e-05]","[0.0, 4.105197513126768e-05, 4.683796578319743e-05, -0.00034298383980058134, -0.00033001156407408416, -0.00029285979690030217]","[0.0, -1.5707963267948966, 0.0, 0.0, 0.0, 0.0]","[0.0, -1.5707963267948966, 0.0, 0.0, 0.0, 0.0]",0.002,7,1
0,-1,"[7.310837099794298e-05, -1.5708066425719203, 6.024037496388246e-06, 2.9130572936963972e-05, 3.75837080355268e-05, -2.5097523824513246e-05]","[0.0, 2.3940200408016643e-16, 4.242251816322096e-05, -0.0004356931312941015, -0.0002361070510232821, -0.00022905771038495004]","[0.0, -1.5707963267948966, 0.0, 0.0, 0.0, 0.0]","[0.0, -1.5707963267948966, 0.0, 0.0, 0.0, 0.0]",0.002,7,1
0,-1,"[6.123256753198802e-05, -1.5707950718459252, -7.397002264042385e-06, -3.71497920532704e-05, -1.7468129293263246e-05, -7.788287561538709e-07]","[0.0, 1.396116150039532e-27, 3.8767888327129185e-05, -0.00035252890666015446, -0.0002455386857036501, -0.00018803348939400166]","[0.0, -1.5707963267948966, 0.0, 0.0, 0.0, 0.0]","[0.0, -1.5707963267948966, 0.0, 0.0, 0.0, 0.0]",0.002,7,1
0,-1,"[2.063322244794108e-05, -1.570762221221532, -1.4763826584385242e-05, 2.9130572936963972e-05, 4.385955253383145e-05, 2.845001290552318e-05]","[-0.0001336505520157516, 8.14170382575212e-39, 3.569295586203225e-05, -0.0002515633241273463, -0.0002661996113602072, -0.0001807287917472422]","[0.0, -1.5707963267948966, 0.0, 0.0, 0.0, 0.0]","[0.0, -1.5707963267948966, 0.0, 0.0, 0.0, 0.0]",0.002,7,1
0,-1,"[0.00011959016410401091, -1.570766643886902, 1.794496645146637e-05, -4.632890734868056e-05, -5.6568776265919496e-05, 7.312965317396447e-05]","[-0.0001362612674711272, 0.0, 3.306999496999197e-05, -0.00022603660181630403, -0.00024227920221164823, -0.00015822300338186324]","[0.0, -1.5707963267948966, 0.0, 0.0, 0.0, 0.0]","[0.0, -1.5707963267948966, 0.0, 0.0, 0.0, 0.0]",0.002,7,1
0,-1,"[0.00010749066132120788, -1.5707380967181344, 1.3653432027638246e-05, 7.434482238721785e-06, 2.280473563587293e-05, 2.847644645953551e-05]","[-0.00033537851413711905, 0.00011178406566614285, 4.107478162040934e-05, -0.00021073126117698848, -0.00022270670160651207, -0.0001397861196892336]","[0.0, -1.5707963267948966, 0.0, 0.0, 0.0, 0.0]","[0.0, -1.5707963267948966, 0.0, 0.0, 0.0, 0.0]",0.002,7,1
0,-1,"[5.80227242608089e-05, -1.570733629825856, 2.080598940068512e-05, 6.20323368529796e-05, 3.185750392731279e-05, 4.0284154238179326e-05]","[-0.00037084604264236987, 0.0001193875796161592, 9.590821192784205e-11, -0.00020060314272996038, -0.00020997649698983878, -0.0001252054062206298]","[0.0, -1.5707963267948966, 0.0, 0.0, 0.0, 0.0]","[0.0, -1.5707963267948966, 0.0, 0.0, 0.0, 0.0]",0.002,7,1
0,-1,"[6.568753451574594e-05, -1.5708114109435023, 3.4634266988575746e-05, 2.114355053706163e-05, -2.652803529912262e-05, -1.7468129293263246e-05]","[-0.00034325956949032843, 6.932217729627155e-06, 5.593064207695321e-22, -0.00016100755601655692, -0.0001787075598258525, -0.00011337600881233811]","[0.0, -1.5707963267948966, 0.0, 0.0, 0.0, 0.0]","[0.0, -1.5707963267948966, 0.0, 0.0, 0.0, 0.0]",0.002,7,1
0,-1,"[4.0106504457071424e-05, -1.5707740680212119, 8.885060445606996e-06, -4.248028137254778e-06, -1.732503072560121e-06, 7.763862413412426e-06]","[-0.00028256484074518085, 4.04264672050591e-17, 3.261697072472388e-33, -0.00017856559134088457, -0.00015554288984276354, -0.00010358863073633984]","[0.0, -1.5707963267948966, 0.0, 0.0, 0.0, 0.0]","[0.0, -1.5707963267948966, 0.0, 0.0, 0.0, 0.0]",0.002,7,1
0,-1,"[4.450178312254138e-05, -1.5707443379217985, 2.9865895406544496e-05, 9.222621581983503e-06, -1.5083943502247621e-05, -2.5097523824513246e-05]","[-0.0002508841862436384, -0.000582604028750211, 1.961817850054744e-44, -0.0001576018112245947, -0.00013769454380962998, -9.535714343655854e-05]","[0.0, -1.5707963267948966, 0.0, 0.0, 0.0, 0.0]","[0.0, -1.5707963267948966, 0.0, 0.0, 0.0, 0.0]",0.002,7,1
0,-1,"[-3.163014547169496e-06, -1.5707861822896412, -3.626096076914109e-05, 5.726396527094835e-05, 1.1083358003816102e-05, -1.7468129293263246e-05]","[-0.00034802572918124497, -0.00026231404626742005, -0.0, -0.00015660858480259776, -0.0001235208910657093, -8.833769243210554e-05]","[0.0, -1.5707963267948966, 0.0, 0.0, 0.0, 0.0]","[0.0, -1.5707963267948966, 0.0, 0.0, 0.0, 0.0]",0.002,7,1
0,-1,"[5.350780702428892e-05, -1.570733629825856, 2.366701234990387e-05, -9.016399719286028e-06, -1.9375477926075746e-05, 1.2189864719402976e-05]","[-0.0008187646744772792, 0.0001315135887125507, -0.0, -0.00014327758981380612, -0.000111992827442009, -8.228047954617068e-05]","[0.0, -1.5707963267948966, 0.0, 0.0, 0.0, 0.0]","[0.0, -1.5707963267948966, 0.0, 0.0, 0.0, 0.0]",0.002,7,1
0,-1,"[3.400159039301798e-05, -1.570766643886902, 3.701845277959137e-05, 2.1024341247510847e-05, 6.4736818785604555e-06, -2.9865895406544496e-05]","[-0.0010789192747324705, 0.00018286146223545074, -0.0, -4.387761265434165e-09, -0.00010243313590763137, -2.214398442390575e-08]","[0.0, -1.5707963267948966, 0.0, 0.0, 0.0, 0.0]","[0.0, -1.5707963267948966, 0.0, 0.0, 0.0, 0.0]",0.002,7,1
0,-1,"[3.8504600524902344e-05, -1.5708080730833949, -3.626096076914109e-05, 2.1024341247510847e-05, 5.2689552830997854e-05, 3.15189354296308e-05]","[-0.0007473308360204101, 0.0001401528570568189, -0.0, -3.3996765833904815e-16, -9.437696280656382e-05, -1.7157355383982074e-15]","[0.0, -1.5707963267948966, 0.0, 0.0, 0.0, 0.0]","[0.0, -1.5707963267948966, 0.0, 0.0, 0.0, 0.0]",0.002,7,1
0,-1,"[4.611900294548832e-05, -1.570840974847311, -2.8507711249403656e-05, 4.692668579053816e-06, -1.7468129293263246e-05, 6.56347256153822e-05]","[-0.0002191025560023263, 1.4400907275557984e-05, -0.0, -1.7198792787282813e-24, -8.644526678835973e-05, -8.679817607485068e-24]","[0.0, -1.5707963267948966, 0.0, 0.0, 0.0, 0.0]","[0.0, -1.5707963267948966, 0.0, 0.0, 0.0, 0.0]",0.002,7,1
0,-1,"[3.4013628464890644e-05, -1.570778564815857, 4.116688863575746e-06, 1.649438824458116e-05, -2.175966371709137e-05, -1.3176594869435121e-05]","[-0.00016540287469979376, 4.665724729312204e-13, -0.0, -3.1257987442150667e-29, -8.248400990851223e-05, -1.577515254455488e-28]","[0.0, -1.5707963267948966, 0.0, 0.0, 0.0, 0.0]","[0.0, -1.5707963267948966, 0.0, 0.0, 0.0, 0.0]",0.002,7,1
0,-1,"[-2.4143849508106996e-05, -1.570745714194647, -7.424235263897572e-06, 3.354131665034288e-05, -1.7468129293263246e-05, -1.6514454976856996e-05]","[-0.000126614686450921, 2.0280583936434357e-22, -0.0, -3.7092818945552695e-35, -6.706492854391399e-07, -1.8719850851778106e-34]","[0.0, -1.5707963267948966, 0.0, 0.0, 0.0, 0.0]","[0.0, -1.5707963267948966, 0.0, 0.0, 0.0, 0.0]",0.002,7,1
0,-1,"[3.851362635032274e-05, -1.5708114109435023, 2.9865895406544496e-05, 5.011140789790147e-05, 1.553288529976271e-05, -4.593526021778871e-06]","[-9.881091682473198e-05, 1.1826986618248896e-33, -0.0, -2.8740631503302e-42, -5.196249653434057e-14, -1.4504840404226182e-41]","[0.0, -1.5707963267948966, 0.0, 0.0, 0.0, 0.0]","[0.0, -1.5707963267948966, 0.0, 0.0, 0.0, 0.0]",0.002,7,1
0,-1,"[2.215793756477069e-05, -1.570766643886902, 2.557436098271637e-05, -2.9878025390672747e-05, 1.9990920918644406e-05, 3.337860107421875e-06]","[-8.619359869044274e-05, 0.00015361270925495774, -0.0, -0.0, -9.443936563154402e-19, -0.0]","[0.0, -1.5707963267948966, 0.0, 0.0, 0.0, 0.0]","[0.0, -1.5707963267948966, 0.0, 0.0, 0.0, 0.0]",0.002,7,1
0,-1,"[1.0052562174678314e-05, -1.5707590826790074, 3.701845277959137e-05, 1.6271557612412835e-07, -2.652803529912262e-05, -2.080598940068512e-05]","[-7.432899292325601e-05, 0.0001623427524464205, -0.0, -0.0, -1.1206806510754838e-24, -0.0]","[0.0, -1.5707963267948966, 0.0, 0.0, 0.0, 0.0]","[0.0, -1.5707963267948966, 0.0, 0.0, 0.0, 0.0]",0.002,7,1
0,-1,"[-1.0792409078419496e-05, -1.5707095495493668, 4.178682436162262e-05, 7.434482238721785e-06, -3.415742983037262e-05, 2.7179718017578125e-05]","[-6.379207479767501e-05, 0.00011929972970392555, -0.0, -0.0, -8.683130503457741e-32, -0.0]","[0.0, -1.5707963267948966, 0.0, 0.0, 0.0, 0.0]","[0.0, -1.5707963267948966, 0.0, 0.0, 0.0, 0.0]",0.002,7,1
0,-1,"[2.2149086362333037e-05, -1.5707994900145472, 4.178682436162262e-05, -2.546728167729384e-05, 2.0035913621541113e-05, 7.763862413412426e-06]","[-5.587176201515831e-05, 6.301603571046144e-05, -0.0, -0.0, -6.727765649279093e-39, -0.0]","[0.0, -1.5707963267948966, 0.0, 0.0, 0.0, 0.0]","[0.0, -1.5707963267948966, 0.0, 0.0, 0.0, 0.0]",0.002,7,1
0,-1,"[6.396434764610603e-05, -1.5707380967181344, 1.3653432027638246e-05, 4.5581454894971785e-05, -3.987947572881012e-05, -8.885060445606996e-06]","[-4.880268170381896e-05, 3.4865098541558837e-07, -0.0, -0.0, -0.0, -0.0]","[0.0, -1.5707963267948966, 0.0, 0.0, 0.0, 0.0]","[0.0, -1.5707963267948966, 0.0, 0.0, 0.0, 0.0]",0.002,7,1
0,-1,"[6.397318793460727e-05, -1.5708276234068812, 5.418459047490387e-05, 2.4481410644483503e-05, 1.5460838767467067e-05, -2.652803529912262e-05]","[-4.47576712758746e-05, 1.5154875264257526e-16, -0.0, -0.0, -0.0, -0.0]","[0.0, -1.5707963267948966, 0.0, 0.0, 0.0, 0.0]","[0.0, -1.5707963267948966, 0.0, 0.0, 0.0, 0.0]",0.002,7,1
0,-1,"[7.1427108196076e-05, -1.5708114109435023, 5.895296205693512e-05, 4.692668579053816e-06, 7.69821199355647e-05, 2.4024007871048525e-05]","[-4.070874638273381e-05, 8.83784021797031e-28, -0.0, -0.0, -0.0, -0.0]","[0.0, -1.5707963267948966, 0.0, 0.0, 0.0, 0.0]","[0.0, -1.5707963267948966, 0.0, 0.0, 0.0, 0.0]",0.002,7,1
0,-1,"[3.107464362983592e-05, -1.570803781548971, -4.082417581230402e-05, 2.9130572936963972e-05, 1.5496505511691794e-05, 5.686950316885486e-05]","[-3.8393405702663586e-05, 2.863355866879612e-35, -0.0, -0.0, -0.0, -0.0]","[0.0, -1.5707963267948966, 0.0, 0.0, 0.0, 0.0]","[0.0, -1.5707963267948966, 0.0, 0.0, 0.0, 0.0]",0.002,7,1
0,-1,"[3.8477781345136464e-05, -1.5707874543716862, 5.0846730367481996e-05, -3.27390483398915e-05, 2.2816659111413173e-05, 1.6529082131455652e-05]","[-3.5375283914618194e-05, 0.0, -0.0, -0.0, -0.0, -0.0]","[0.0, -1.5707963267948966, 0.0, 0.0, 0.0, 0.0]","[0.0, -1.5707963267948966, 0.0, 0.0, 0.0, 0.0]",0.002,7,1
0,-1,"[6.692409806419164e-05, -1.570762221221532, 8.885060445606996e-06, 1.9951457641553816e-05, -8.947054018193512e-05, -7.788287561538709e-07]","[-3.320030009490438e-05, 0.0, -0.0, -0.0, -0.0, -0.0]","[0.0, -1.5707963267948966, 0.0, 0.0, 0.0, 0.0]","[0.0, -1.5707963267948966, 0.0, 0.0, 0.0, 0.0]",0.002,7,1
0,-1,"[2.6601630452205427e-05, -1.570745714194647, 2.7004872457325746e-05, 9.103412292432722e-06, -1.0792409078419496e-05, -3.415742983037262e-05]","[-3.091919279540889e-05, 0.0, -0.0, -0.0, -0.0, -0.0]","[0.0, -1.5707963267948966, 0.0, 0.0, 0.0, 0.0]","[0.0, -1.5707963267948966, 0.0, 0.0, 0.0, 0.0]",0.002,7,1
0,-1,"[2.658367156982422e-05, -1.5706755375325265, 1.732503072560121e-06, 1.661359753413194e-05, 7.152557373046875e-06, -2.080598940068512e-05]","[-2.837589972021215e-12, 0.0, -0.0, -0.0, -0.0, -0.0]","[0.0, -1.5707963267948966, 0.0, 0.0, 0.0, 0.0]","[0.0, -1.5707963267948966, 0.0, 0.0, 0.0, 0.0]",0.002,7,1
0,-1,"[1.899003837024793e-05, -1.5707533316675217, -1.9345163309480995e-05, 9.103412292432722e-06, -3.415742983037262e-05, 2.402400969003793e-05]","[-1.654791469843763e-23, 0.0, -0.0, -0.0, -0.0, -0.0]","[0.0, -1.5707963267948966, 0.0, 0.0, 0.0, 0.0]","[0.0, -1.5707963267948966, 0.0, 0.0, 0.0, 0.0]",0.002,7,1
0,-1,"[7.14031484676525e-05, -1.5707533586576865, 6.024037496388246e-06, 2.9130572936963972e-05, 6.4373016357421875e-06, -8.885060445606996e-06]","[-9.650217429244463e-35, 0.0, -0.0, -0.0, -0.0, -0.0]","[0.0, -1.5707963267948966, 0.0, 0.0, 0.0, 0.0]","[0.0, -1.5707963267948966, 0.0, 0.0, 0.0, 0.0]",0.002,7,1
0,1,"[2.21371665247716e-05, -1.570803781548971, 0.0, -3.2619839050340715e-05, -1.9375477926075746e-05, -1.7468129293263246e-05]","[0.0, 0.0, -0.0, -0.0, -0.0, -0.0]","[0.0004387367163421333, -1.5703575900785545, 0.0004387367163421333, 0.0004387367163421333, 0.0004387367163421333, 0.0004387367163421333]","[0.0004387367163421333, -1.5703575900785545, 0.0004387367163421333, 0.0004387367163421333, 0.0004387367163421333, 0.0004387367163421333]",0.002,7,1
0,2,"[4.295110556995496e-05, -1.5707906049541016, 5.895296205693512e-05, 2.4481410644483503e-05, -2.9865895406544496e-05, -1.3176594869435121e-05]","[0.0, 0.0, -0.0, -0.0, -0.0, -0.0]","[0.0008774727395818924, -1.5699188540553146, 0.0008774727395818924, 0.0008774727395818924, 0.0008774727395818924, 0.0008774727395818924]","[0.0008774727395818924, -1.5699188540553146, 0.0008774727395818924, 0.0008774727395818924, 0.0008774727395818924, 0.0008774727395818924]",0.002,7,1
0,3,"[-6.024037496388246e-06, -1.5707994900145472, 3.7495289937794496e-05, 2.9130572936963972e-05, 7.685875607421622e-05, 3.337860107421875e-06]","[-2.299808787853408e-09, -0.0003652009763754904, 0.0008060724940150976, -0.0, -3.523802083460481e-11, -2.07770714695521e-12]","[0.0013162073766179979, -1.5694801194182786, 0.0013162073766179979, 0.0013162073766179979, 0.0013162073766179979, 0.0013162073766179979]","[0.0013162073766179979, -1.5694801194182786, 0.0013162073766179979, 0.0013162073766179979, 0.0013162073766179979, 0.0013162073766179979]",0.002,7,1
0,4,"[5.504775253939442e-05, -1.5707590883833582, 9.47157489221695e-05, 4.713117565913194e-05, 5.5575368605786934e-05, -7.788287561538709e-07]","[0.000825188762973994, 0.004360841121524572, 0.0031093619763851166, 0.002248485339805484, 0.0018980413442477584, 0.0022992962040007114]","[0.0017549399343513602, -1.5690413868605453, 0.0017549399343513602, 0.0017549399343513602, 0.0017549399343513602, 0.0017549399343513602]","[0.0017549399343513602, -1.5690413868605453, 0.0017549399343513602, 0.0017549399343513602, 0.0017549399343513602, 0.0017549399343513602]",0.002,7,1
0,5,"[5.501780105987564e-05, -1.5707756375635036, 1.1746083394825746e-05, 1.2083644531202253e-05, 2.582073284429498e-05, 2.2753716621082276e-05]","[0.0009038735297508538, 0.0035750267561525106, 0.004633509088307619, 0.0028008418157696724, 0.001723433961160481, 0.0025543130468577147]","[0.002193669719686175, -1.5686026570752103, 0.002193669719686175, 0.002193669719686175, 0.002193669719686175, 0.002193669719686175]","[0.002193669719686175, -1.5686026570752103, 0.002193669719686175, 0.002193669719686175, 0.002193669719686175, 0.002193669719686175]",0.002,7,1
0,6,"[7.584965351270512e-05, -1.5707457498031836, 7.3734913961232e-05, 2.9130572936963972e-05, 2.745342135312967e-05, -5.070363179981996e-06]","[0.0013518395135179162, 0.0028572427108883858, 0.004204754717648029, 0.00280645489692688, 0.002235272666439414, 0.0023259997833520174]","[0.0026323960395310173, -1.5681639307553656, 0.0026323960395310173, 0.0026323960395310173, 0.0026323960395310173, 0.0026323960395310173]","[0.0026323960395310173, -1.5681639307553656, 0.0026323960395310173, 0.0026323960395310173, 0.0026323960395310173, 0.0026323960395310173]",0.002,7,1
0,7,"[6.691519956802949e-05, -1.5707412113009305, 6.6105519429982e-05, 5.285322155756944e-05, 7.974481559358537e-05, 1.977682222786825e-05]","[0.001589704304933548, 0.0020090260077267885, 0.0035810968838632107, 0.0028694525826722383, 0.004362291656434536, 0.002214415930211544]","[0.003071118200799937, -1.5677252085940967, 0.003071118200799937, 0.003071118200799937, 0.003071118200799937, 0.003071118200799937]","[0.003071118200799937, -1.5677252085940967, 0.003071118200799937, 0.003071118200799937, 0.003071118200799937, 0.003071118200799937]",0.002,7,1
0,8,"[5.947045792709105e-05, -1.5707006514315545, 4.5124684469044496e-05, 5.285322155756944e-05, 2.582073284429498e-05, 1.80017977982061e-05]","[0.0015455775428563356, 0.0031821660231798887, 0.0039735157042741776, 0.003509949427098036, 0.005728841293603182, 0.002722581382840872]","[0.0035098355104135528, -1.567286491284483, 0.0035098355104135528, 0.0035098355104135528, 0.0035098355104135528, 0.0035098355104135528]","[0.0035098355104135528, -1.567286491284483, 0.0035098355104135528, 0.0035098355104135528, 0.0035098355104135528, 0.0035098355104135528]",0.002,7,1
0,9,"[7.1427108196076e-05, -1.5706572222155337, 3.2726918355763246e-05, 5.571424450678819e-05, 6.782388663850725e-05, 6.770797335775569e-05]","[0.0021115229465067387, 0.008258332498371601, 0.0073912497609853745, 0.005383151583373547, 0.006706404034048319, 0.005812852177768946]","[0.00394854727530015, -1.5668477795195963, 0.00394854727530015, 0.00394854727530015, 0.00394854727530015, 0.00394854727530015]","[0.00394854727530015, -1.5668477795195963, 0.00394854727530015, 0.00394854727530015, 0.00394854727530015, 0.00394854727530015]",0.002,7,1
0,10,"[3.7089328543515876e-05, -1.5706900433327355, 7.3734913961232e-05, 7.502614941401475e-05, 5.434151898953132e-05, 6.318092346191406e-05]","[0.003432281780987978, 0.011863108724355698, 0.009906603954732418, 0.008692002855241299, 0.008745748549699783, 0.008336909115314484]","[0.00438725280239677, -1.5664090739924998, 0.00438725280239677, 0.00438725280239677, 0.00438725280239677, 0.00438725280239677]","[0.00438725280239677, -1.5664090739924998, 0.00438725280239677, 0.00438725280239677, 0.00438725280239677, 0.00438725280239677]",0.002,7,1
0,11,"[2.9471168090822175e-05, -1.5706826013377686, 0.00011903444399052887, 7.955610241694444e-05, 9.059010335477069e-05, 9.918212890625e-05]","[0.005473267287015915, 0.012676536105573177, 0.011851263232529163, 0.00969361886382103, 0.010624457150697708, 0.010195326060056686]","[0.004825951398650312, -1.5659703753962462, 0.004825951398650312, 0.004825951398650312, 0.004825951398650312, 0.004825951398650312]","[0.004825951398650312, -1.5659703753962462, 0.004825951398650312, 0.004825951398650312, 0.004825951398650312, 0.004825951398650312]",0.002,7,1
0,12,"[6.241162918740883e-05, -1.5706870802717567, 9.757677187138825e-05, 0.00010792791333003038, 0.00011443196126492694, 0.00014435217599384487]","[0.0078100599348545074, 0.016525128856301308, 0.013992508873343468, 0.011053413152694702, 0.012946989387273788, 0.012949503026902676]","[0.005264642371018622, -1.565531684423878, 0.005264642371018622, 0.005264642371018622, 0.005264642371018622, 0.005264642371018622]","[0.005264642371018622, -1.565531684423878, 0.005264642371018622, 0.005264642371018622, 0.005264642371018622, 0.005264642371018622]",0.002,7,1
0,13,"[0.000139090305310674, -1.5706453191417786, 0.000108067189351857, 0.00013677656140131944, 0.000100976467365399, 0.00011841559171443805]","[0.010610354132950306, 0.01827581599354744, 0.01867048442363739, 0.014324602670967579, 0.01540390681475401, 0.014867403544485569]","[0.005703325026471591, -1.565093001768425, 0.005703325026471591, 0.005703325026471591, 0.005703325026471591, 0.005703325026471591]","[0.005703325026471591, -1.565093001768425, 0.005703325026471591, 0.005703325026471591, 0.005703325026471591, 0.005703325026471591]",0.002,7,1
0,14,"[0.00013461426715366542, -1.570626966368156, 0.00017005601991826325, 0.00018958627667231553, 0.00014306878438219428, 0.00020126796152908355]","[0.011922952719032764, 0.021149221807718277, 0.02075832523405552, 0.017799407243728638, 0.018108652904629707, 0.017783408984541893]","[0.006141998671992247, -1.5646543281229044, 0.006141998671992247, 0.006141998671992247, 0.006141998671992247, 0.006141998671992247]","[0.006141998671992247, -1.5646543281229044, 0.006141998671992247, 0.006141998671992247, 0.006141998671992247, 0.006141998671992247]",0.002,7,1
0,15,"[0.0001255812676390633, -1.5705985587886353, 0.00023919740785771637, 0.0002348858067016124, 0.00023915147176012397, 0.00023277847503777593]","[0.013714251108467579, 0.021828798577189445, 0.021639496088027954, 0.019142422825098038, 0.01872190088033676, 0.018793243914842606]","[0.006580662614577854, -1.5642156641803187, 0.006580662614577854, 0.006580662614577854, 0.006580662614577854, 0.006580662614577854]","[0.006580662614577854, -1.5642156641803187, 0.006580662614577854, 0.006580662614577854, 0.006580662614577854, 0.006580662614577854]",0.002,7,1
0,16,"[0.00016162706015165895, -1.570555115588224, 0.00030357042421513825, 0.000228567714355421, 0.00028115464374423027, 0.00021458863920997828]","[0.015427876263856888, 0.022064559161663055, 0.02286454476416111, 0.019570879638195038, 0.019050518050789833, 0.01755577325820923]","[0.0070193161612410035, -1.5637770106336555, 0.0070193161612410035, 0.0070193161612410035, 0.0070193161612410035, 0.0070193161612410035]","[0.0070193161612410035, -1.5637770106336555, 0.0070193161612410035, 0.0070193161612410035, 0.0070193161612410035, 0.0070193161612410035]",0.002,7,1
0,17,"[0.0001646338205318898, -1.5704518493478936, 0.00033027330507451325, 0.00025693952526850694, 0.00024967812350951135, 0.00026703800540417433]","[0.017471443861722946, 0.022399356588721275, 0.024340162053704262, 0.019837480038404465, 0.019679082557559013, 0.02033025212585926]","[0.0074579586190107105, -1.563338368175886, 0.0074579586190107105, 0.0074579586190107105, 0.0074579586190107105, 0.0074579586190107105]","[0.0074579586190107105, -1.563338368175886, 0.0074579586190107105, 0.0074579586190107105, 0.0074579586190107105, 0.0074579586190107105]",0.002,7,1
0,18,"[0.0003040786541532725, -1.5704666119748545, 0.000333134328023732, 0.0003170210072021007, 0.0002974867820739746, 0.0003197977493982762]","[0.018492814153432846, 0.024268651381134987, 0.025477763265371323, 0.02062707580626011, 0.02026090957224369, 0.021892398595809937]","[0.007896589294933507, -1.5628997374999631, 0.007896589294933507, 0.007896589294933507, 0.007896589294933507, 0.007896589294933507]","[0.007896589294933507, -1.5628997374999631, 0.007896589294933507, 0.007896589294933507, 0.007896589294933507, 0.007896589294933507]",0.002,7,1
0,19,"[0.00026963066193275154, -1.5704337195241642, 0.00042039552797490387, 0.00034086286511225694, 0.00035922526149079204, 0.0003554701688699424]","[0.021483058109879494, 0.026097847148776054, 0.027248769998550415, 0.022494077682495117, 0.021856063976883888, 0.0220465287566185]","[0.008335207496074538, -1.562461119298822, 0.008335207496074538, 0.008335207496074538, 0.008335207496074538, 0.008335207496074538]","[0.008335207496074538, -1.562461119298822, 0.008335207496074538, 0.008335207496074538, 0.008335207496074538, 0.008335207496074538]",0.002,7,1
0,20,"[0.0003477092832326889, -1.5703422823902038, 0.00045806566347295075, 0.00039307653393549913, 0.0003488840884529054, 0.0003705144044943154]","[0.023429783061146736, 0.028802234679460526, 0.029197782278060913, 0.024216702207922935, 0.023769328370690346, 0.023087255656719208]","[0.008773812529518655, -1.5620225142653779, 0.008773812529518655, 0.008773812529518655, 0.008773812529518655, 0.008773812529518655]","[0.008773812529518655, -1.5620225142653779, 0.008773812529518655, 0.008773812529518655, 0.008773812529518655, 0.008773812529518655]",0.002,7,1
0,21,"[0.0004074541211593896, -1.5702808492681761, 0.0005272070514124039, 0.00039927541699213975, 0.0004240569833200425, 0.0004726002225652337]","[0.025323186069726944, 0.030918583273887634, 0.03108513168990612, 0.026089543476700783, 0.026453405618667603, 0.024961549788713455]","[0.009212403702371514, -1.561583923092525, 0.009212403702371514, 0.009212403702371514, 0.009212403702371514, 0.009212403702371514]","[0.009212403702371514, -1.561583923092525, 0.009212403702371514, 0.009212403702371514, 0.009212403702371514, 0.009212403702371514]",0.002,7,1
0,22,"[0.000496023625601083, -1.570250723951478, 0.0005944410907190445, 0.000505967731140089, 0.0005005536368116736, 0.0005295583978295326]","[0.029559839516878128, 0.032262399792671204, 0.033362895250320435, 0.02833758294582367, 0.027752917259931564, 0.02783575840294361]","[0.009650980321760663, -1.561145346473136, 0.009650980321760663, 0.009650980321760663, 0.009650980321760663, 0.009650980321760663]","[0.009650980321760663, -1.561145346473136, 0.009650980321760663, 0.009650980321760663, 0.009650980321760663, 0.009650980321760663]",0.002,7,1
0,23,"[0.0005530710332095623, -1.5701697901570988, 0.0007045904742639664, 0.0005280214497069835, 0.0004903078079223633, 0.0005684353527612984]","[0.03143569082021713, 0.034511998295784, 0.035170819610357285, 0.031178969889879227, 0.03019431047141552, 0.03134235367178917]","[0.010089541694836647, -1.56070678510006, 0.010089541694836647, 0.010089541694836647, 0.010089541694836647, 0.010089541694836647]","[0.010089541694836647, -1.56070678510006, 0.010089541694836647, 0.010089541694836647, 0.010089541694836647, 0.010089541694836647]",0.002,7,1
0,24,"[0.0005306005477905273, -1.5701215763441105, 0.0007599035846155289, 0.0006466346928100108, 0.0006012138910591602, 0.0006526062497869134]","[0.03335515782237053, 0.037872642278671265, 0.03764035925269127, 0.03417019173502922, 0.033547770231962204, 0.033908661454916]","[0.010528087128774092, -1.5602682396661225, 0.010528087128774092, 0.010528087128774092, 0.010528087128774092, 0.010528087128774092]","[0.010528087128774092, -1.5602682396661225, 0.010528087128774092, 0.010528087128774092, 0.010528087128774092, 0.010528087128774092]",0.002,7,1
0,25,"[0.0006070613744668663, -1.5699674514219915, 0.0008528868304651382, 0.0007067161747436046, 0.0006361983250826597, 0.0006913748802617192]","[0.034758493304252625, 0.0392937958240509, 0.039929937571287155, 0.03622167557477951, 0.0361773744225502, 0.03739791736006737]","[0.010966615930772807, -1.5598297108641237, 0.010966615930772807, 0.010966615930772807, 0.010966615930772807, 0.010966615930772807]","[0.010966615930772807, -1.5598297108641237, 0.010966615930772807, 0.010966615930772807, 0.010966615930772807, 0.010966615930772807]",0.002,7,1
0,26,"[0.0007360214949585497, -1.5699461653460567, 0.000928227101461232, 0.0007741886326293468, 0.0007081297226250172, 0.0007963726529851556]","[0.03818046674132347, 0.04410668462514877, 0.043847229331731796, 0.039035774767398834, 0.03945142775774002, 0.04134629666805267]","[0.01140512740805887, -1.5593911993868377, 0.01140512740805887, 0.01140512740805887, 0.01140512740805887, 0.01140512740805887]","[0.01140512740805887, -1.5593911993868377, 0.01140512740805887, 0.01140512740805887, 0.01140512740805887, 0.01140512740805887]",0.002,7,1
0,27,"[0.0007885896484367549, -1.569836865794361, 0.0009906927691858414, 0.0008762317844848155, 0.000824943243060261, 0.0008606974733993411]","[0.04220522195100784, 0.04697582870721817, 0.0456080287694931, 0.0433269627392292, 0.04233391955494881, 0.042543694376945496]","[0.011843620867885736, -1.5589527059270107, 0.011843620867885736, 0.011843620867885736, 0.011843620867885736, 0.011843620867885736]","[0.011843620867885736, -1.5589527059270107, 0.011843620867885736, 0.011843620867885736, 0.011843620867885736, 0.011843620867885736]",0.002,7,1
0,28,"[0.000872578879352659, -1.5697616924629365, 0.0011294523822229507, 0.0009384590336303233, 0.000918269157409668, 0.0009403774747624993]","[0.044606249779462814, 0.047651257365942, 0.04908449202775955, 0.046551428735256195, 0.04540535807609558, 0.04438747838139534]","[0.01228209561753532, -1.5585142311773612, 0.01228209561753532, 0.01228209561753532, 0.01228209561753532, 0.01228209561753532]","[0.01228209561753532, -1.5585142311773612, 0.01228209561753532, 0.01228209561753532, 0.01228209561753532, 0.01228209561753532]",0.002,7,1
0,29,"[0.0009686615667305887, -1.5696583312568073, 0.0011971632586877945, 0.0010087925144652843, 0.0009606092935428023, 0.0010815449059009552]","[0.04772966355085373, 0.05209837853908539, 0.05367503687739372, 0.047402385622262955, 0.0490083172917366, 0.04916343465447426]","[0.012720550964319092, -1.5580757758305774, 0.012720550964319092, 0.012720550964319092, 0.012720550964319092, 0.012720550964319092]","[0.012720550964319092, -1.5580757758305774, 0.012720550964319092, 0.012720550964319092, 0.012720550964319092, 0.012720550964319092]",0.002,7,1
0,30,"[0.0010719983838498592, -1.5695742443534364, 0.0013092199908655289, 0.001090093249938917, 0.0011029120068997145, 0.0011866702698171139]","[0.051253024488687515, 0.05533232167363167, 0.05346136912703514, 0.051491912454366684, 0.053068727254867554, 0.05274597927927971]","[0.01315898621557918, -1.5576373405793174, 0.01315898621557918, 0.01315898621557918, 0.01315898621557918, 0.01315898621557918]","[0.01315898621557918, -1.5576373405793174, 0.01315898621557918, 0.01315898621557918, 0.01315898621557918, 0.01315898621557918]",0.002,7,1
0,31,"[0.0011725840158760548, -1.5693871026490633, 0.0013802687274377945, 0.0012300449558715343, 0.0012025689939036965, 0.001290053129196167]","[0.05423464998602867, 0.06070990487933159, 0.057497307658195496, 0.05609157308936119, 0.05701979249715805, 0.05622159689664841]","[0.013597400678689451, -1.5571989261162071, 0.013597400678689451, 0.013597400678689451, 0.013597400678689451, 0.013597400678689451]","[0.013597400678689451, -1.5571989261162071, 0.013597400678689451, 0.013597400678689451, 0.013597400678689451, 0.013597400678689451]",0.002,7,1
0,32,"[0.001276093302294612, -1.5692968211700027, 0.0015257040606897476, 0.0013378101536254405, 0.001326769357547164, 0.0013676445232704282]","[0.05795062333345413, 0.0590897873044014, 0.0625712051987648, 0.06075039505958557, 0.06080586835741997, 0.06005379557609558]","[0.014035793661056617, -1.5567605331338399, 0.014035793661056617, 0.014035793661056617, 0.014035793661056617, 0.014035793661056617]","[0.014035793661056617, -1.5567605331338399, 0.014035793661056617, 0.014035793661056617, 0.014035793661056617, 0.014035793661056617]",0.002,7,1
0,33,"[0.0014260167954489589, -1.5691723819221188, 0.0016115347491663101, 0.001498265857360792, 0.001475905766710639, 0.0015002682339400053]","[0.06062297895550728, 0.06564605981111526, 0.06444647163152695, 0.06189075484871864, 0.06428802013397217, 0.06390225142240524]","[0.014474164470121325, -1.5563221623247752, 0.014474164470121325, 0.014474164470121325, 0.014474164470121325, 0.014474164470121325]","[0.014474164470121325, -1.5563221623247752, 0.014474164470121325, 0.014474164470121325, 0.014474164470121325, 0.014474164470121325]",0.002,7,1
0,34,"[0.0015460210852324963, -1.5690404795207833, 0.0017855803119104507, 0.0016404825397948741, 0.0015841297572478652, 0.001645173062570393]","[0.06476008892059326, 0.06896789371967316, 0.06603211164474487, 0.06605394929647446, 0.06800761818885803, 0.06681293249130249]","[0.014912512413359249, -1.5558838143815372, 0.014912512413359249, 0.014912512413359249, 0.014912512413359249, 0.014912512413359249]","[0.014912512413359249, -1.5558838143815372, 0.014912512413359249, 0.014912512413359249, 0.014912512413359249, 0.014912512413359249]",0.002,7,1
0,35,"[0.0016436988953500986, -1.5688546508648251, 0.0018890539752405289, 0.0017209488102416515, 0.0017672228859737515, 0.0018028131453320384]","[0.06867805868387222, 0.07222883403301239, 0.07111775875091553, 0.07006948441267014, 0.07285680621862411, 0.07263986766338348]","[0.015350836798282188, -1.5554454899966144, 0.015350836798282188, 0.015350836798282188, 0.015350836798282188, 0.015350836798282188]","[0.015350836798282188, -1.5554454899966144, 0.015350836798282188, 0.015350836798282188, 0.015350836798282188, 0.015350836798282188]",0.002,7,1
0,36,"[0.0018790143076330423, -1.5687613922967394, 0.002057377492086232, 0.0018951135822753429, 0.0018350454047322273, 0.0019376609707251191]","[0.07178454101085663, 0.07549482583999634, 0.07362568378448486, 0.07380729168653488, 0.07609423995018005, 0.07309304922819138]","[0.01578913693243915, -1.5550071898624573, 0.01578913693243915, 0.01578913693243915, 0.01578913693243915, 0.01578913693243915]","[0.01578913693243915, -1.5550071898624573, 0.01578913693243915, 0.01578913693243915, 0.01578913693243915, 0.01578913693243915]",0.002,7,1
0,37,"[0.0019899120088666677, -1.5686249398025502, 0.00216848054994756, 0.0020419794270019054, 0.0020214563701301813, 0.0020318576134741306]","[0.07613078504800797, 0.07796929776668549, 0.07756593078374863, 0.0782344788312912, 0.07745371013879776, 0.07757745683193207]","[0.016227412123417467, -1.5545689146714792, 0.016227412123417467, 0.016227412123417467, 0.016227412123417467, 0.016227412123417467]","[0.016227412123417467, -1.5545689146714792, 0.016227412123417467, 0.016227412123417467, 0.016227412123417467, 0.016227412123417467]",0.002,7,1
0,38,"[0.002162514952942729, -1.5684240698213507, 0.0023196379290979507, 0.0022234159656981944, 0.0021700619254261255, 0.0022087404504418373]","[0.07867240905761719, 0.08170300722122192, 0.08046373724937439, 0.08071783930063248, 0.08325172960758209, 0.08242066949605942]","[0.01666566167884386, -1.5541306651160527, 0.01666566167884386, 0.01666566167884386, 0.01666566167884386, 0.01666566167884386]","[0.01666566167884386, -1.5541306651160527, 0.01666566167884386, 0.01666566167884386, 0.01666566167884386, 0.01666566167884386]",0.002,7,1
0,39,"[0.002327515045180917, -1.5682800945690651, 0.002572361622945607, 0.002295537585876417, 0.002324551111087203, 0.0024280466604977846]","[0.08394079655408859, 0.08608122169971466, 0.0827254056930542, 0.08514068275690079, 0.08679120987653732, 0.0847385972738266]","[0.017103884906385567, -1.553692441888511, 0.017103884906385567, 0.017103884906385567, 0.017103884906385567, 0.017103884906385567]","[0.017103884906385567, -1.553692441888511, 0.017103884906385567, 0.017103884906385567, 0.017103884906385567, 0.017103884906385567]",0.002,7,1
0,40,"[0.0025060134939849377, -1.568050649981462, 0.0027197043048303726, 0.0025829511829833507, 0.002509680576622486, 0.0025776224210858345]","[0.08473774045705795, 0.08848797529935837, 0.08791220933198929, 0.08943084627389908, 0.08989760279655457, 0.0885847806930542]","[0.017542081113751395, -1.5532542456811451, 0.017542081113751395, 0.017542081113751395, 0.017542081113751395, 0.017542081113751395]","[0.017542081113751395, -1.5532542456811451, 0.017542081113751395, 0.017542081113751395, 0.017542081113751395, 0.017542081113751395]",0.002,7,1
0,41,"[0.002657567383721471, -1.5678902552793552, 0.0028670469867151382, 0.002717896098754835, 0.0026763619389384985, 0.0027412076015025377]","[0.08909192681312561, 0.09246140718460083, 0.09098520129919052, 0.09376025199890137, 0.09413512051105499, 0.09245754778385162]","[0.017980249608692853, -1.5528160771862036, 0.017980249608692853, 0.017980249608692853, 0.017980249608692853, 0.017980249608692853]","[0.017980249608692853, -1.5528160771862036, 0.017980249608692853, 0.017980249608692853, 0.017980249608692853, 0.017980249608692853]",0.002,7,1
0,42,"[0.0028465110808610916, -1.5676862039002408, 0.0030711332904260757, 0.0028931337543944835, 0.0028918457683175802, 0.0029090542811900377]","[0.09779790043830872, 0.0951685756444931, 0.09555390477180481, 0.09753966331481934, 0.0984598770737648, 0.09624416381120682]","[0.018418389699005232, -1.5523779370958912, 0.018418389699005232, 0.018418389699005232, 0.018418389699005232, 0.018418389699005232]","[0.018418389699005232, -1.5523779370958912, 0.018418389699005232, 0.018418389699005232, 0.018418389699005232, 0.018418389699005232]",0.002,7,1
0,43,"[0.0030806013382971287, -1.5675106768361111, 0.00330526033510381, 0.003092809314392042, 0.0031320820562541485, 0.0031698239035904408]","[0.09828387945890427, 0.09751637279987335, 0.096611388027668, 0.10037054866552353, 0.10325395315885544, 0.10013208538293839]","[0.01885650069252868, -1.5519398261023678, 0.01885650069252868, 0.01885650069252868, 0.01885650069252868, 0.01885650069252868]","[0.01885650069252868, -1.5519398261023678, 0.01885650069252868, 0.01885650069252868, 0.01885650069252868, 0.01885650069252868]",0.002,7,1
0,44,"[0.0032874629832804203, -1.5672977518155058, 0.0035384337054651382, 0.003290577525756788, 0.0033633739221841097, 0.0033646889496594667]","[0.10431769490242004, 0.10331838577985764, 0.10248459130525589, 0.10626422613859177, 0.10402395576238632, 0.10387615114450455]","[0.01929458189714932, -1.5515017448977473, 0.01929458189714932, 0.01929458189714932, 0.01929458189714932, 0.01929458189714932]","[0.01929458189714932, -1.5515017448977473, 0.01929458189714932, 0.01929458189714932, 0.01929458189714932, 0.01929458189714932]",0.002,7,1
0,45,"[0.0035410234704613686, -1.56710289515134, 0.0036929289447229507, 0.0035682159611205577, 0.003508794354274869, 0.0036156096030026674]","[0.1082371175289154, 0.10601478815078735, 0.10570963472127914, 0.10872331261634827, 0.10949845612049103, 0.10844524949789047]","[0.01973263262080034, -1.5510636941740963, 0.01973263262080034, 0.01973263262080034, 0.01973263262080034, 0.01973263262080034]","[0.01973263262080034, -1.5510636941740963, 0.01973263262080034, 0.01973263262080034, 0.01973263262080034, 0.01973263262080034]",0.002,7,1
0,46,"[0.003785438137128949, -1.5669108599289139, 0.003954235707418263, 0.0037895876118163585, 0.0037572155706584454, 0.003829353488981724]","[0.11216403543949127, 0.11058220267295837, 0.10977879911661148, 0.11545051634311676, 0.11231842637062073, 0.11193643510341644]","[0.020170652171463074, -1.5506256746234335, 0.020170652171463074, 0.020170652171463074, 0.020170652171463074, 0.020170652171463074]","[0.020170652171463074, -1.5506256746234335, 0.020170652171463074, 0.020170652171463074, 0.020170652171463074, 0.020170652171463074]",0.002,7,1
0,47,"[0.0038891576696187258, -1.5666212903200467, 0.004141632710592091, 0.004100485438964796, 0.004022998735308647, 0.004037930630147457]","[0.11582411080598831, 0.11414799839258194, 0.11330632865428925, 0.11741617321968079, 0.11766684055328369, 0.11537393927574158]","[0.0206086398571681, -1.5501876869377285, 0.0206086398571681, 0.0206086398571681, 0.0206086398571681, 0.0206086398571681]","[0.0206086398571681, -1.5501876869377285, 0.0206086398571681, 0.0206086398571681, 0.0206086398571681, 0.0206086398571681]",0.002,7,1
0,48,"[0.004281905945390463, -1.5664475562847038, 0.004436318074361623, 0.00431470453228755, 0.004275394603610039, 0.004265858791768551]","[0.12115099281072617, 0.11720449477434158, 0.11504675447940826, 0.12176866829395294, 0.12244556099176407, 0.11986371874809265]","[0.02104659498599634, -1.5497497318089002, 0.02104659498599634, 0.02104659498599634, 0.02104659498599634, 0.02104659498599634]","[0.02104659498599634, -1.5497497318089002, 0.02104659498599634, 0.02104659498599634, 0.02104659498599634, 0.02104659498599634]",0.002,7,1
0,49,"[0.004484792239964008, -1.5661848795465012, 0.004671875630513966, 0.0045512157627563, 0.0044783418998122215, 0.00457212096080184]","[0.12288463115692139, 0.12115708738565445, 0.12078525871038437, 0.12451546639204025, 0.12512050569057465, 0.12459477037191391]","[0.021484516866080144, -1.5493118099288163, 0.021484516866080144, 0.021484516866080144, 0.021484516866080144, 0.021484516866080144]","[0.021484516866080144, -1.5493118099288163, 0.021484516866080144, 0.021484516866080144, 0.021484516866080144, 0.021484516866080144]",0.002,7,1
0,50,"[0.004757470916956663, -1.565970544503518, 0.004907910023824513, 0.004810376758239698, 0.004809341859072447, 0.00478657940402627]","[0.12997744977474213, 0.1246480643749237, 0.12455925345420837, 0.12754283845424652, 0.1297781765460968, 0.12786751985549927]","[0.0219224048056044, -1.5488739219892922, 0.0219224048056044, 0.0219224048056044, 0.0219224048056044, 0.0219224048056044]","[0.0219224048056044, -1.5488739219892922, 0.0219224048056044, 0.0219224048056044, 0.0219224048056044, 0.0219224048056044]",0.002,7,1
0,51,"[0.004996286239475012, -1.5656604522703965, 0.005176369343892873, 0.005107446307800245, 0.005032939836382866, 0.005101374350488186]","[0.13162152469158173, 0.13109563291072845, 0.126450315117836, 0.13365983963012695, 0.133685901761055, 0.13455745577812195]","[0.02236025811280759, -1.548436068682089, 0.02236025811280759, 0.02236025811280759, 0.02236025811280759, 0.02236025811280759]","[0.02236025811280759, -1.548436068682089, 0.02236025811280759, 0.02236025811280759, 0.02236025811280759, 0.02236025811280759]",0.002,7,1
0,52,"[0.005293042398989201, -1.565405119476356, 0.005466763173238576, 0.005336447353027296, 0.005350313615053892, 0.0052991220727562904]","[0.1361938863992691, 0.13149334490299225, 0.13141746819019318, 0.13457900285720825, 0.1386655867099762, 0.13667075335979462]","[0.022798076095982937, -1.5479982506989136, 0.022798076095982937, 0.022798076095982937, 0.022798076095982937, 0.022798076095982937]","[0.022798076095982937, -1.5479982506989136, 0.022798076095982937, 0.022798076095982937, 0.022798076095982937, 0.022798076095982937]",0.002,7,1
0,53,"[0.005606712773442268, -1.5651920202984293, 0.005776230488912404, 0.005600138301513624, 0.0055814264342188835, 0.005597507581114769]","[0.13939128816127777, 0.13633184134960175, 0.13798953592777252, 0.13890941441059113, 0.14121508598327637, 0.1399015635251999]","[0.023235858063479446, -1.547560468731417, 0.023235858063479446, 0.023235858063479446, 0.023235858063479446, 0.023235858063479446]","[0.023235858063479446, -1.547560468731417, 0.023235858063479446, 0.023235858063479446, 0.023235858063479446, 0.023235858063479446]",0.002,7,1
0,54,"[0.005857452750205994, -1.564872636259981, 0.006005112324849904, 0.0059323745914916515, 0.005862575955688953, 0.005891619715839624]","[0.1426093727350235, 0.14064738154411316, 0.1393497884273529, 0.14447391033172607, 0.14549289643764496, 0.14613254368305206]","[0.023673603323703017, -1.5471227234711935, 0.023673603323703017, 0.023673603323703017, 0.023673603323703017, 0.023673603323703017]","[0.023673603323703017, -1.5471227234711935, 0.023673603323703017, 0.023673603323703017, 0.023673603323703017, 0.023673603323703017]",0.002,7,1
0,55,"[0.006170839071273804, -1.5646475085853417, 0.006290737782613576, 0.0062255102344970226, 0.006155367009341717, 0.006208727136254311]","[0.14691127836704254, 0.144242525100708, 0.14287161827087402, 0.1456492841243744, 0.14758385717868805, 0.14653892815113068]","[0.02411131118511755, -1.5466850156097791, 0.02411131118511755, 0.02411131118511755, 0.02411131118511755, 0.02411131118511755]","[0.02411131118511755, -1.5466850156097791, 0.02411131118511755, 0.02411131118511755, 0.02411131118511755, 0.02411131118511755]",0.002,7,1
0,56,"[0.006433472037315369, -1.5643101728386064, 0.006619755421773732, 0.006545825595519972, 0.006451530382037163, 0.006508419290184975]","[0.1507984697818756, 0.14804433286190033, 0.14882010221481323, 0.1495422124862671, 0.15309689939022064, 0.15147137641906738]","[0.02454898095624604, -1.5462473458386505, 0.02454898095624604, 0.02454898095624604, 0.02454898095624604, 0.02454898095624604]","[0.02454898095624604, -1.5462473458386505, 0.02454898095624604, 0.02454898095624604, 0.02454898095624604, 0.02454898095624604]",0.002,7,1
0,57,"[0.006765052676200867, -1.564001440336444, 0.006887261067525685, 0.0068576770969848155, 0.006892059464007616, 0.0068081701174378395]","[0.15488369762897491, 0.15231330692768097, 0.15312974154949188, 0.15371498465538025, 0.15585361421108246, 0.1542193591594696]","[0.024986611945671616, -1.545809714849225, 0.024986611945671616, 0.024986611945671616, 0.024986611945671616, 0.024986611945671616]","[0.024986611945671616, -1.545809714849225, 0.024986611945671616, 0.024986611945671616, 0.024986611945671616, 0.024986611945671616]",0.002,7,1
0,58,"[0.007109757047146559, -1.5636773447370906, 0.0071633497821252945, 0.007211251849792433, 0.007121821399778128, 0.007083147298544645]","[0.15943752229213715, 0.15682116150856018, 0.15476709604263306, 0.15707054734230042, 0.15829458832740784, 0.16004033386707306]","[0.025424203462038705, -1.545372123332858, 0.025424203462038705, 0.025424203462038705, 0.025424203462038705, 0.025424203462038705]","[0.025424203462038705, -1.545372123332858, 0.025424203462038705, 0.025424203462038705, 0.025424203462038705, 0.025424203462038705]",0.002,7,1
0,59,"[0.007388760801404715, -1.5633894277601321, 0.0074875990497034195, 0.007521672839782667, 0.007479449734091759, 0.007463701069355011]","[0.16180382668972015, 0.16160465776920319, 0.15978991985321045, 0.16005423665046692, 0.16373805701732635, 0.16334328055381775]","[0.025861754814054082, -1.5449345719808425, 0.025861754814054082, 0.025861754814054082, 0.025861754814054082, 0.025861754814054082]","[0.025861754814054082, -1.5449345719808425, 0.025861754814054082, 0.025861754814054082, 0.025861754814054082, 0.025861754814054082]",0.002,7,1
0,60,"[0.0077908653765916824, -1.563036813200899, 0.00785237947572881, 0.007891221637390089, 0.00779208866879344, 0.007819983176887035]","[0.1656593680381775, 0.16379870474338531, 0.16532933712005615, 0.16478809714317322, 0.16840343177318573, 0.16633599996566772]","[0.026299265310487988, -1.5444970614844085, 0.026299265310487988, 0.026299265310487988, 0.026299265310487988, 0.026299265310487988]","[0.026299265310487988, -1.5444970614844085, 0.026299265310487988, 0.026299265310487988, 0.026299265310487988, 0.026299265310487988]",0.002,7,1
0,61,"[0.008065566420555115, -1.5626919682002445, 0.008222405110494435, 0.008197589511535597, 0.008098616264760494, 0.008111518807709217]","[0.1690998524427414, 0.1675572395324707, 0.1687280386686325, 0.1702621728181839, 0.16959096491336823, 0.16957980394363403]","[0.02673673426017517, -1.5440595925347214, 0.02673673426017517, 0.02673673426017517, 0.02673673426017517, 0.02673673426017517]","[0.02673673426017517, -1.5440595925347214, 0.02673673426017517, 0.02673673426017517, 0.02673673426017517, 0.02673673426017517]",0.002,7,1
0,62,"[0.008455266244709492, -1.5623606855845829, 0.008549038563863576, 0.008524222964904737, 0.00843491405248642, 0.008442910388112068]","[0.1751612275838852, 0.1717170625925064, 0.17202414572238922, 0.17148451507091522, 0.17435075342655182, 0.17354102432727814]","[0.027174160972016047, -1.5436221658228806, 0.027174160972016047, 0.027174160972016047, 0.027174160972016047, 0.027174160972016047]","[0.027174160972016047, -1.5436221658228806, 0.027174160972016047, 0.027174160972016047, 0.027174160972016047, 0.027174160972016047]",0.002,7,1
0,63,"[0.008765976876020432, -1.5620499963736911, 0.008902374898092091, 0.00888316213574214, 0.008821223862469196, 0.00877892691642046]","[0.1760684847831726, 0.1752069890499115, 0.17516383528709412, 0.17495867609977722, 0.17771652340888977, 0.17877134680747986]","[0.027611544754977735, -1.5431847820399187, 0.027611544754977735, 0.027611544754977735, 0.027611544754977735, 0.027611544754977735]","[0.027611544754977735, -1.5431847820399187, 0.027611544754977735, 0.027611544754977735, 0.027611544754977735, 0.027611544754977735]",0.002,7,1
0,64,"[0.009175494313240051, -1.5616647510654111, 0.009212795888082326, 0.009286447162292433, 0.009265048429369926, 0.009134992025792599]","[0.1799403727054596, 0.17787574231624603, 0.1765740066766739, 0.18103767931461334, 0.18179333209991455, 0.18270084261894226]","[0.028048884918095193, -1.5427474418768015, 0.028048884918095193, 0.028048884918095193, 0.028048884918095193, 0.028048884918095193]","[0.028048884918095193, -1.5427474418768015, 0.028048884918095193, 0.028048884918095193, 0.028048884918095193, 0.028048884918095193]",0.002,7,1
0,65,"[0.009552009403705597, -1.5612918420559545, 0.009679619465963185, 0.009640498752258253, 0.00955409649759531, 0.009523113258183002]","[0.18382582068443298, 0.18077100813388824, 0.17879165709018707, 0.18272455036640167, 0.18342700600624084, 0.18542177975177765]","[0.028486180770472276, -1.5423101460244242, 0.028486180770472276, 0.028486180770472276, 0.028486180770472276, 0.028486180770472276]","[0.028486180770472276, -1.5423101460244242, 0.028486180770472276, 0.028486180770472276, 0.028486180770472276, 0.028486180770472276]",0.002,7,1
0,66,"[0.009936153888702393, -1.560965866116323, 0.009983364735738576, 0.010052843684814405, 0.009893045760691166, 0.009928696788847446]","[0.18739494681358337, 0.18388092517852783, 0.18472807109355927, 0.18433010578155518, 0.18688762187957764, 0.18887124955654144]","[0.02892343162128283, -1.5418728951736138, 0.02892343162128283, 0.02892343162128283, 0.02892343162128283, 0.02892343162128283]","[0.02892343162128283, -1.5418728951736138, 0.02892343162128283, 0.02892343162128283, 0.02892343162128283, 0.02892343162128283]",0.002,7,1
0,67,"[0.010263027623295784, -1.560619120751955, 0.010384861622945607, 0.010418816203735304, 0.010354483500123024, 0.010275437496602535]","[0.1906358003616333, 0.18873311579227448, 0.18750986456871033, 0.18841300904750824, 0.19079455733299255, 0.19107195734977722]","[0.029360636779771816, -1.5414356900151247, 0.029360636779771816, 0.029360636779771816, 0.029360636779771816, 0.029360636779771816]","[0.029360636779771816, -1.5414356900151247, 0.029360636779771816, 0.029360636779771816, 0.029360636779771816, 0.029360636779771816]",0.002,7,1
0,68,"[0.010639622807502747, -1.5601920907250424, 0.010735813771383107, 0.010829611415527296, 0.010706611908972263, 0.010655763559043407]","[0.19442997872829437, 0.19178590178489685, 0.190101757645607, 0.19151237607002258, 0.19385237991809845, 0.19548974931240082]","[0.029797795555256364, -1.5409985312396401, 0.029797795555256364, 0.029797795555256364, 0.029797795555256364, 0.029797795555256364]","[0.029797795555256364, -1.5409985312396401, 0.029797795555256364, 0.029797795555256364, 0.029797795555256364, 0.029797795555256364]",0.002,7,1
0,69,"[0.011010214686393738, -1.5597874515554686, 0.011162583027974904, 0.011216564769409132, 0.011125514283776283, 0.011035537347197533]","[0.19775468111038208, 0.19450564682483673, 0.19224709272384644, 0.19541732966899872, 0.19595089554786682, 0.19835960865020752]","[0.030234907257126884, -1.5405614195377697, 0.030234907257126884, 0.030234907257126884, 0.030234907257126884, 0.030234907257126884]","[0.030234907257126884, -1.5405614195377697, 0.030234907257126884, 0.030234907257126884, 0.030234907257126884, 0.030234907257126884]",0.002,7,1
0,70,"[0.011490300297737122, -1.5594792852974315, 0.011527363454000294, 0.011592908496520948, 0.011459942907094955, 0.01147572509944439]","[0.20158614218235016, 0.1985968053340912, 0.19937197864055634, 0.1989797204732895, 0.1993107944726944, 0.20265015959739685]","[0.030671971194848137, -1.5401243556000483, 0.030671971194848137, 0.030671971194848137, 0.030671971194848137, 0.030671971194848137]","[0.030671971194848137, -1.5401243556000483, 0.030671971194848137, 0.030671971194848137, 0.030671971194848137, 0.030671971194848137]",0.002,7,1
0,71,"[0.011868134140968323, -1.5590250820717593, 0.011952702199117482, 0.01199452459301753, 0.011901572346687317, 0.011876123026013374]","[0.20388701558113098, 0.2008182853460312, 0.20218981802463531, 0.20310702919960022, 0.20456121861934662, 0.20589953660964966]","[0.031108986677960353, -1.5396873401169362, 0.031108986677960353, 0.031108986677960353, 0.031108986677960353, 0.031108986677960353]","[0.031108986677960353, -1.5396873401169362, 0.031108986677960353, 0.031108986677960353, 0.031108986677960353, 0.031108986677960353]",0.002,7,1
0,72,"[0.012299932539463043, -1.5585918568870802, 0.012364212666646779, 0.012438221568725538, 0.012356170453131199, 0.01227525807917118]","[0.20753462612628937, 0.20445525646209717, 0.20386065542697906, 0.20482252538204193, 0.208858922123909, 0.20996467769145966]","[0.03154595301608032, -1.5392503737788163, 0.03154595301608032, 0.03154595301608032, 0.03154595301608032, 0.03154595301608032]","[0.03154595301608032, -1.5392503737788163, 0.03154595301608032, 0.03154595301608032, 0.03154595301608032, 0.03154595301608032]",0.002,7,1
0,73,"[0.012700840830802917, -1.5582075801542778, 0.012731377278463185, 0.012877388591430616, 0.01275394856929779, 0.012690641917288303]","[0.21088287234306335, 0.20914196968078613, 0.2068168669939041, 0.20691247284412384, 0.2113179713487625, 0.21257200837135315]","[0.031982869518902446, -1.5388134572759942, 0.031982869518902446, 0.031982869518902446, 0.031982869518902446, 0.031982869518902446]","[0.031982869518902446, -1.5388134572759942, 0.031982869518902446, 0.031982869518902446, 0.031982869518902446, 0.031982869518902446]",0.002,7,1
0,74,"[0.013123825192451477, -1.5577649523368855, 0.0131610075580042, 0.013279839152954054, 0.013171548955142498, 0.013114574365317822]","[0.2130146473646164, 0.21307897567749023, 0.20955508947372437, 0.20858807861804962, 0.21425622701644897, 0.21716351807117462]","[0.03241973549619986, -1.5383765912986966, 0.03241973549619986, 0.03241973549619986, 0.03241973549619986, 0.03241973549619986]","[0.03241973549619986, -1.5383765912986966, 0.03241973549619986, 0.03241973549619986, 0.03241973549619986, 0.03241973549619986]",0.002,7,1
0,75,"[0.013601803220808506, -1.5573721102303644, 0.013572518025533498, 0.013729973430297804, 0.013563986867666245, 0.013550630770623684]","[0.21567091345787048, 0.21701084077358246, 0.21170184016227722, 0.21014006435871124, 0.21803027391433716, 0.22001232206821442]","[0.03285655025782554, -1.537939776537071, 0.03285655025782554, 0.03285655025782554, 0.03285655025782554, 0.03285655025782554]","[0.03285655025782554, -1.537939776537071, 0.03285655025782554, 0.03285655025782554, 0.03285655025782554, 0.03285655025782554]",0.002,7,1
0,76,"[0.014003977179527283, -1.5569417311674734, 0.014042679463521779, 0.014169855708740187, 0.014002579264342785, 0.013971039094030857]","[0.21970140933990479, 0.22015301883220673, 0.21693164110183716, 0.21536147594451904, 0.22012795507907867, 0.22212520241737366]","[0.03329331311371334, -1.5375030136811831, 0.03329331311371334, 0.03329331311371334, 0.03329331311371334, 0.03329331311371334]","[0.03329331311371334, -1.5375030136811831, 0.03329331311371334, 0.03329331311371334, 0.03329331311371334, 0.03329331311371334]",0.002,7,1
0,77,"[0.014459952712059021, -1.5564677205732842, 0.014438931141988576, 0.014582200641296339, 0.014496056362986565, 0.014443393796682358]","[0.22307753562927246, 0.22290769219398499, 0.2199617326259613, 0.21925468742847443, 0.2234441041946411, 0.22431649267673492]","[0.03373002337387915, -1.5370663034210175, 0.03373002337387915, 0.03373002337387915, 0.03373002337387915, 0.03373002337387915]","[0.03373002337387915, -1.5370663034210175, 0.03373002337387915, 0.03373002337387915, 0.03373002337387915, 0.03373002337387915]",0.002,7,1
0,78,"[0.014916092157363892, -1.556064442065992, 0.014900032673970998, 0.015101953143737745, 0.014893737621605396, 0.01489153690636158]","[0.22520728409290314, 0.22464320063591003, 0.222429558634758, 0.2225545346736908, 0.22497239708900452, 0.2270047813653946]","[0.03416668034842189, -1.5366296464464746, 0.03416668034842189, 0.03416668034842189, 0.03416668034842189, 0.03416668034842189]","[0.03416668034842189, -1.5366296464464746, 0.03416668034842189, 0.03416668034842189, 0.03416668034842189, 0.03416668034842189]",0.002,7,1
0,79,"[0.01540224626660347, -1.5555291038802643, 0.015424553547994435, 0.015487475986144972, 0.015396220609545708, 0.015310188755393028]","[0.22586998343467712, 0.2295442372560501, 0.22373953461647034, 0.22285772860050201, 0.22837574779987335, 0.22952699661254883]","[0.03460328334752473, -1.5361930434473718, 0.03460328334752473, 0.03460328334752473, 0.03460328334752473, 0.03460328334752473]","[0.03460328334752473, -1.5361930434473718, 0.03460328334752473, 0.03460328334752473, 0.03460328334752473, 0.03460328334752473]",0.002,7,1
0,80,"[0.0158250592648983, -1.5551357504776497, 0.015813652669088185, 0.01593725263562007, 0.01588086038827896, 0.01579856500029564]","[0.22960762679576874, 0.2323721945285797, 0.22637484967708588, 0.22635339200496674, 0.23345410823822021, 0.2338169366121292]","[0.035039831681456066, -1.5357564951134406, 0.035039831681456066, 0.035039831681456066, 0.035039831681456066, 0.035039831681456066]","[0.035039831681456066, -1.5357564951134406, 0.035039831681456066, 0.035039831681456066, 0.035039831681456066, 0.035039831681456066]",0.002,7,1
0,81,"[0.016350317746400833, -1.554693331276514, 0.016262356434957326, 0.01636318742718501, 0.016209416091442108, 0.016279445961117744]","[0.23432663083076477, 0.2324986457824707, 0.2302059531211853, 0.229644775390625, 0.23531003296375275, 0.2361835390329361]","[0.03547632466057065, -1.5353200021343258, 0.03547632466057065, 0.03547632466057065, 0.03547632466057065, 0.03547632466057065]","[0.03547632466057065, -1.5353200021343258, 0.03547632466057065, 0.03547632466057065, 0.03547632466057065, 0.03547632466057065]",0.002,7,1
0,82,"[0.016790002584457397, -1.554149256353714, 0.016723457966939748, 0.016861601466796827, 0.016835449263453484, 0.01672249659895897]","[0.23809893429279327, 0.23513035476207733, 0.2340855747461319, 0.23155401647090912, 0.23789535462856293, 0.23809802532196045]","[0.035912761595310705, -1.5348835651995858, 0.035912761595310705, 0.035912761595310705, 0.035912761595310705, 0.035912761595310705]","[0.035912761595310705, -1.5348835651995858, 0.035912761595310705, 0.035912761595310705, 0.035912761595310705, 0.035912761595310705]",0.002,7,1
0,83,"[0.0172953549772501, -1.5537485063872118, 0.01714498201479131, 0.017311020488403273, 0.017277928069233894, 0.01723441667854786]","[0.2387508600950241, 0.23920558393001556, 0.23589986562728882, 0.2327921837568283, 0.23915469646453857, 0.2406325340270996]","[0.03634914179620697, -1.5344471849986896, 0.03634914179620697, 0.03634914179620697, 0.03634914179620697, 0.03634914179620697]","[0.03634914179620697, -1.5344471849986896, 0.03634914179620697, 0.03634914179620697, 0.03634914179620697, 0.03634914179620697]",0.002,7,1
0,84,"[0.017757520079612732, -1.553193626259901, 0.017672363911763966, 0.01778499662365718, 0.017713334411382675, 0.017758740112185478]","[0.24112044274806976, 0.239250048995018, 0.23665213584899902, 0.23577642440795898, 0.24107037484645844, 0.24299757182598114]","[0.03678546457387983, -1.5340108622210167, 0.03678546457387983, 0.03678546457387983, 0.03678546457387983, 0.03678546457387983]","[0.03678546457387983, -1.5340108622210167, 0.03678546457387983, 0.03678546457387983, 0.03678546457387983, 0.03678546457387983]",0.002,7,1
0,85,"[0.01822238229215145, -1.552755532120802, 0.018091503773824513, 0.018209739322326612, 0.01812286116182804, 0.01823382079601288]","[0.24309250712394714, 0.2417471706867218, 0.23987506330013275, 0.24020811915397644, 0.24513030052185059, 0.24457810819149017]","[0.037221729239040366, -1.5335745975558561, 0.037221729239040366, 0.037221729239040366, 0.037221729239040366, 0.037221729239040366]","[0.037221729239040366, -1.5335745975558561, 0.037221729239040366, 0.037221729239040366, 0.037221729239040366, 0.037221729239040366]",0.002,7,1
0,86,"[0.018693475052714348, -1.5522338685444375, 0.018637959157125294, 0.018749399776123, 0.01868937909603119, 0.018697144463658333]","[0.24526441097259521, 0.24485883116722107, 0.24375200271606445, 0.24423302710056305, 0.2472856491804123, 0.24667057394981384]","[0.03765793510249147, -1.533138391692405, 0.03765793510249147, 0.03765793510249147, 0.03765793510249147, 0.03765793510249147]","[0.03765793510249147, -1.533138391692405, 0.03765793510249147, 0.03765793510249147, 0.03765793510249147, 0.03765793510249147]",0.002,7,1
0,87,"[0.019269578158855438, -1.5518182341805478, 0.01912099519838506, 0.01914600908245845, 0.019145110622048378, 0.019175322726368904]","[0.2477889508008957, 0.24569344520568848, 0.24583634734153748, 0.24673248827457428, 0.2492554783821106, 0.24958164989948273]","[0.03809408147512893, -1.5327022453197676, 0.03809408147512893, 0.03809408147512893, 0.03809408147512893, 0.03809408147512893]","[0.03809408147512893, -1.5327022453197676, 0.03809408147512893, 0.03809408147512893, 0.03809408147512893, 0.03809408147512893]",0.002,7,1
0,88,"[0.019735140725970268, -1.551271130596735, 0.019586865101949513, 0.01965264856304927, 0.019661376252770424, 0.019701851531863213]","[0.25046834349632263, 0.24781261384487152, 0.2496505081653595, 0.2492830455303192, 0.25106561183929443, 0.25223666429519653]","[0.03853016766794253, -1.532266159126954, 0.03853016766794253, 0.03853016766794253, 0.03853016766794253, 0.03853016766794253]","[0.03853016766794253, -1.532266159126954, 0.03853016766794253, 0.03853016766794253, 0.03853016766794253, 0.03853016766794253]",0.002,7,1
0,89,"[0.020250409841537476, -1.5507551834783335, 0.020077053700582326, 0.020198627109191847, 0.020245594903826714, 0.020213032141327858]","[0.2523402273654938, 0.2518259286880493, 0.2524203956127167, 0.25139158964157104, 0.2517376244068146, 0.2540195882320404]","[0.03896619299201709, -1.5318301338028795, 0.03896619299201709, 0.03896619299201709, 0.03896619299201709, 0.03896619299201709]","[0.03896619299201709, -1.5318301338028795, 0.03896619299201709, 0.03896619299201709, 0.03896619299201709, 0.03896619299201709]",0.002,7,1
0,90,"[0.020754769444465637, -1.55022629283879, 0.020580116902486623, 0.020673199290893507, 0.020686853677034378, 0.020740535110235214]","[0.2541047930717468, 0.25364869832992554, 0.25341561436653137, 0.25341200828552246, 0.2546824514865875, 0.25468480587005615]","[0.03940215675853362, -1.531394170036363, 0.03940215675853362, 0.03940215675853362, 0.03940215675853362, 0.03940215675853362]","[0.03940215675853362, -1.531394170036363, 0.03940215675853362, 0.03940215675853362, 0.03940215675853362, 0.03940215675853362]",0.002,7,1
0,91,"[0.021224722266197205, -1.549711351548769, 0.021076504384176076, 0.0211910444447021, 0.02121458388864994, 0.02125168964266777]","[0.25618693232536316, 0.25570401549339294, 0.2565404772758484, 0.2575203478336334, 0.2581186592578888, 0.2560984194278717]","[0.03983805827877034, -1.5309582685161263, 0.03983805827877034, 0.03983805827877034, 0.03983805827877034, 0.03983805827877034]","[0.03983805827877034, -1.5309582685161263, 0.03983805827877034, 0.03983805827877034, 0.03983805827877034, 0.03983805827877034]",0.002,7,1
0,92,"[0.021747156977653503, -1.5491819728961964, 0.021625343953267873, 0.02165643751110835, 0.02176416479051113, 0.02179785445332527]","[0.25648233294487, 0.2569684088230133, 0.2596461772918701, 0.2618754804134369, 0.25939974188804626, 0.2581137716770172]","[0.04027389686410387, -1.5305224299307927, 0.04027389686410387, 0.04027389686410387, 0.04027389686410387, 0.04027389686410387]","[0.04027389686410387, -1.5305224299307927, 0.04027389686410387, 0.04027389686410387, 0.04027389686410387, 0.04027389686410387]",0.002,7,1
0,93,"[0.02220974862575531, -1.5486793921193858, 0.02212077776064092, 0.022203369731567335, 0.0222899429500103, 0.022342152893543243]","[0.25866958498954773, 0.2570050358772278, 0.25936365127563477, 0.2634362578392029, 0.2617848813533783, 0.25888192653656006]","[0.04070967182601018, -1.5300866549688863, 0.04070967182601018, 0.04070967182601018, 0.04070967182601018, 0.04070967182601018]","[0.04070967182601018, -1.5300866549688863, 0.04070967182601018, 0.04070967182601018, 0.04070967182601018, 0.04070967182601018]",0.002,7,1
0,94,"[0.022823408246040344, -1.548135071327426, 0.022657696400777638, 0.022696538562438917, 0.022867588326334953, 0.02280396781861782]","[0.2608491778373718, 0.25994375348091125, 0.260934978723526, 0.2651052474975586, 0.2632969319820404, 0.26023003458976746]","[0.041145382476065785, -1.5296509443188309, 0.041145382476065785, 0.041145382476065785, 0.041145382476065785, 0.041145382476065785]","[0.041145382476065785, -1.5296509443188309, 0.041145382476065785, 0.041145382476065785, 0.041145382476065785, 0.041145382476065785]",0.002,7,1
0,95,"[0.02329905889928341, -1.5475418095341702, 0.02319032350649053, 0.023169203395507765, 0.02327813394367695, 0.023402580991387367]","[0.26249343156814575, 0.2598806321620941, 0.26342329382896423, 0.26765406131744385, 0.2655615508556366, 0.2639193534851074]","[0.0415810281259488, -1.5292152986689478, 0.0415810281259488, 0.0415810281259488, 0.0415810281259488, 0.0415810281259488]","[0.0415810281259488, -1.5292152986689478, 0.0415810281259488, 0.0415810281259488, 0.0415810281259488, 0.0415810281259488]",0.002,7,1
0,96,"[0.023884668946266174, -1.5470747680268069, 0.023706738148824513, 0.023707910174987745, 0.023940784856677055, 0.023861872032284737]","[0.26235252618789673, 0.2612603008747101, 0.2627122402191162, 0.2683284878730774, 0.26740026473999023, 0.2655397653579712]","[0.04201660808744002, -1.5287797187074565, 0.04201660808744002, 0.04201660808744002, 0.04201660808744002, 0.04201660808744002]","[0.04201660808744002, -1.5287797187074565, 0.04201660808744002, 0.04201660808744002, 0.04201660808744002, 0.04201660808744002]",0.002,7,1
0,97,"[0.024402588605880737, -1.5465512567064543, 0.024213139210836232, 0.024270458812377882, 0.02434367872774601, 0.024419931694865227]","[0.2667362689971924, 0.2631264626979828, 0.2647401988506317, 0.27101707458496094, 0.2663426399230957, 0.2667444348335266]","[0.042452121672424015, -1.5283442051224725, 0.042452121672424015, 0.042452121672424015, 0.042452121672424015, 0.042452121672424015]","[0.042452121672424015, -1.5283442051224725, 0.042452121672424015, 0.042452121672424015, 0.042452121672424015, 0.042452121672424015]",0.002,7,1
0,98,"[0.024880046024918556, -1.545987232854106, 0.024724785481588185, 0.024734659785888624, 0.02490529604256153, 0.025000691413879395]","[0.2703857123851776, 0.2657378613948822, 0.26777076721191406, 0.27385684847831726, 0.26761141419410706, 0.2678913474082947]","[0.042887568192890205, -1.5279087586020064, 0.042887568192890205, 0.042887568192890205, 0.042887568192890205, 0.042887568192890205]","[0.042887568192890205, -1.5279087586020064, 0.042887568192890205, 0.042887568192890205, 0.042887568192890205, 0.042887568192890205]",0.002,7,1
0,99,"[0.02539779245853424, -1.5454727739891787, 0.025260273610250294, 0.025389118785522413, 0.025427311658859253, 0.02552700601518154]","[0.269313782453537, 0.26791542768478394, 0.26767662167549133, 0.2746763229370117, 0.27053728699684143, 0.26830360293388367]","[0.043322946960933965, -1.5274733798339626, 0.043322946960933965, 0.043322946960933965, 0.043322946960933965, 0.043322946960933965]","[0.043322946960933965, -1.5274733798339626, 0.043322946960933965, 0.043322946960933965, 0.043322946960933965, 0.043322946960933965]",0.002,7,1
0,100,"[0.025927651673555374, -1.5449160926840086, 0.02583343187441045, 0.0258449751087646, 0.025995852425694466, 0.026026757434010506]","[0.2704075574874878, 0.2685561776161194, 0.268322229385376, 0.2740412950515747, 0.2716003358364105, 0.26859429478645325]","[0.04375825728875771, -1.5270380695061387, 0.04375825728875771, 0.04375825728875771, 0.04375825728875771, 0.04375825728875771]","[0.04375825728875771, -1.5270380695061387, 0.04375825728875771, 0.04375825728875771, 0.04375825728875771, 0.04375825728875771]",0.002,7,1
0,101,"[0.02652427740395069, -1.5442937345108767, 0.026356999074117482, 0.026438875789306593, 0.02654138021171093, 0.026631450280547142]","[0.27199792861938477, 0.26893511414527893, 0.27312904596328735, 0.2765844464302063, 0.273258239030838, 0.27022063732147217]","[0.04419349848867195, -1.5266028283062245, 0.04419349848867195, 0.04419349848867195, 0.04419349848867195, 0.04419349848867195]","[0.04419349848867195, -1.5266028283062245, 0.04419349848867195, 0.04419349848867195, 0.04419349848867195, 0.04419349848867195]",0.002,7,1
0,102,"[0.027002131566405296, -1.5437871378711243, 0.02692109743227178, 0.02695743619885249, 0.027193771675229073, 0.027162587270140648]","[0.2733634114265442, 0.2713283598423004, 0.27353960275650024, 0.2784443199634552, 0.27415335178375244, 0.2734203636646271]","[0.04462866987309642, -1.5261676569218001, 0.04462866987309642, 0.04462866987309642, 0.04462866987309642, 0.04462866987309642]","[0.04462866987309642, -1.5261676569218001, 0.04462866987309642, 0.04462866987309642, 0.04462866987309642, 0.04462866987309642]",0.002,7,1
0,103,"[0.027594441547989845, -1.5431782373091956, 0.027468506489888966, 0.027534409160278273, 0.027749186381697655, 0.02771862782537937]","[0.2735884487628937, 0.27393221855163574, 0.27503809332847595, 0.279111385345459, 0.27321508526802063, 0.27478837966918945]","[0.04506377075456115, -1.5257325560403354, 0.04506377075456115, 0.04506377075456115, 0.04506377075456115, 0.04506377075456115]","[0.04506377075456115, -1.5257325560403354, 0.04506377075456115, 0.04506377075456115, 0.04506377075456115, 0.04506377075456115]",0.002,7,1
0,104,"[0.02807244472205639, -1.5426259853741904, 0.028017346058980763, 0.028071804637573194, 0.028298400342464447, 0.028290441259741783]","[0.2758946418762207, 0.27662357687950134, 0.2759726643562317, 0.28019994497299194, 0.2751988172531128, 0.2753159999847412]","[0.04549880044570755, -1.525297526349189, 0.04549880044570755, 0.04549880044570755, 0.04549880044570755, 0.04549880044570755]","[0.04549880044570755, -1.525297526349189, 0.04549880044570755, 0.04549880044570755, 0.04549880044570755, 0.04549880044570755]",0.002,7,1
0,105,"[0.028590349480509758, -1.542078373288252, 0.028628174458638966, 0.0286143261143188, 0.028813254088163376, 0.028859615325927734]","[0.2756529748439789, 0.27523162961006165, 0.2781008183956146, 0.2806355953216553, 0.27778705954551697, 0.2756125330924988]","[0.04593375825928948, -1.524862568535607, 0.04593375825928948, 0.04593375825928948, 0.04593375825928948, 0.04593375825928948]","[0.04593375825928948, -1.524862568535607, 0.04593375825928948, 0.04593375825928948, 0.04593375825928948, 0.04593375825928948]",0.002,7,1
0,106,"[0.029228636994957924, -1.5414904870888968, 0.029233280812398732, 0.029204054469726515, 0.02937575988471508, 0.029435643926262856]","[0.2774442434310913, 0.2766433656215668, 0.27969083189964294, 0.2835136353969574, 0.27820441126823425, 0.27721598744392395]","[0.04636864350817435, -1.5244276832867223, 0.04636864350817435, 0.04636864350817435, 0.04636864350817435, 0.04636864350817435]","[0.04636864350817435, -1.5244276832867223, 0.04636864350817435, 0.04636864350817435, 0.04636864350817435, 0.04636864350817435]",0.002,7,1
0,107,"[0.02969750203192234, -1.5409270760468026, 0.029775921498433888, 0.02975718557324214, 0.029970139265060425, 0.029945053160190582]","[0.27919942140579224, 0.2757726013660431, 0.28098613023757935, 0.284695029258728, 0.2789379954338074, 0.27498289942741394]","[0.04680345550534421, -1.5239928712895523, 0.04680345550534421, 0.04680345550534421, 0.04680345550534421, 0.04680345550534421]","[0.04680345550534421, -1.5239928712895523, 0.04680345550534421, 0.04680345550534421, 0.04680345550534421, 0.04680345550534421]",0.002,7,1
0,108,"[0.03034372627735138, -1.5403588333031912, 0.03027230898012334, 0.03033260881390376, 0.03053865022957325, 0.030491791665554047]","[0.281049519777298, 0.2776915431022644, 0.2801773250102997, 0.2854559123516083, 0.2779342234134674, 0.2774149477481842]","[0.04723819356389685, -1.5235581332309998, 0.04723819356389685, 0.04723819356389685, 0.04723819356389685, 0.04723819356389685]","[0.04723819356389685, -1.5235581332309998, 0.04723819356389685, 0.04723819356389685, 0.04723819356389685, 0.04723819356389685]",0.002,7,1
0,109,"[0.030810993164777756, -1.5398161199739953, 0.0309069792376917, 0.030847712154052687, 0.031068148091435432, 0.031053094193339348]","[0.2802931070327759, 0.2786286473274231, 0.2820807993412018, 0.2851615250110626, 0.2804717719554901, 0.27943578362464905]","[0.04767285699704684, -1.5231234697978497, 0.04767285699704684, 0.04767285699704684, 0.04767285699704684, 0.04767285699704684]","[0.04767285699704684, -1.5231234697978497, 0.04767285699704684, 0.04767285699704684, 0.04767285699704684, 0.04767285699704684]",0.002,7,1
0,110,"[0.031381506472826004, -1.5392570954612275, 0.03144675890077764, 0.0314376789280395, 0.031694717705249786, 0.03166145831346512]","[0.2814369797706604, 0.27618417143821716, 0.2817510664463043, 0.28595149517059326, 0.27990588545799255, 0.27994462847709656]","[0.04810744511812663, -1.5226888816767699, 0.04810744511812663, 0.04810744511812663, 0.04810744511812663, 0.04810744511812663]","[0.04810744511812663, -1.5226888816767699, 0.04810744511812663, 0.04810744511812663, 0.04810744511812663, 0.04810744511812663]",0.002,7,1
0,111,"[0.03201204165816307, -1.538667083983757, 0.03202563921083623, 0.032065315837524366, 0.032206423580646515, 0.03220842406153679]","[0.28167614340782166, 0.2790089249610901, 0.2836245596408844, 0.2865058481693268, 0.2797912061214447, 0.27947160601615906]","[0.048541957240587706, -1.522254369554309, 0.048541957240587706, 0.048541957240587706, 0.048541957240587706, 0.048541957240587706]","[0.048541957240587706, -1.522254369554309, 0.048541957240587706, 0.048541957240587706, 0.048541957240587706, 0.048541957240587706]",0.002,7,1
0,112,"[0.03252040222287178, -1.5381035071662446, 0.03255778947939092, 0.032626672382018995, 0.03279908373951912, 0.03276030719280243]","[0.28363317251205444, 0.2797688841819763, 0.28185445070266724, 0.2864466905593872, 0.28069618344306946, 0.27969419956207275]","[0.048976392678001544, -1.521819934116895, 0.048976392678001544, 0.048976392678001544, 0.048976392678001544, 0.048976392678001544]","[0.048976392678001544, -1.521819934116895, 0.048976392678001544, 0.048976392678001544, 0.048976392678001544, 0.048976392678001544]",0.002,7,1
0,113,"[0.03308505937457085, -1.5375476864031334, 0.03315955797304326, 0.033273382777831984, 0.03340652212500572, 0.03333190083503723]","[0.2837167978286743, 0.27810683846473694, 0.28177496790885925, 0.2862117886543274, 0.2802722752094269, 0.28157415986061096]","[0.049410750744060795, -1.5213855760508357, 0.049410750744060795, 0.049410750744060795, 0.049410750744060795, 0.049410750744060795]","[0.049410750744060795, -1.5213855760508357, 0.049410750744060795, 0.049410750744060795, 0.049410750744060795, 0.049410750744060795]",0.002,7,1
0,114,"[0.033722538501024246, -1.5369600814631958, 0.03379995027651006, 0.03378848611798091, 0.033910784870386124, 0.033899981528520584]","[0.2835298776626587, 0.280002623796463, 0.28291091322898865, 0.28447991609573364, 0.2806686460971832, 0.2812654674053192]","[0.04984503075258035, -1.5209512960423162, 0.04984503075258035, 0.04984503075258035, 0.04984503075258035, 0.04984503075258035]","[0.04984503075258035, -1.5209512960423162, 0.04984503075258035, 0.04984503075258035, 0.04984503075258035, 0.04984503075258035]",0.002,7,1
0,115,"[0.03421373665332794, -1.536405411814787, 0.034302536641256154, 0.03444485246624751, 0.03442038595676422, 0.03444318845868111]","[0.2826066315174103, 0.2790992558002472, 0.282606303691864, 0.2846629023551941, 0.28114309906959534, 0.28037717938423157]","[0.050279232017498385, -1.5205170947773983, 0.050279232017498385, 0.050279232017498385, 0.050279232017498385, 0.050279232017498385]","[0.050279232017498385, -1.5205170947773983, 0.050279232017498385, 0.050279232017498385, 0.050279232017498385, 0.050279232017498385]",0.002,7,1
0,116,"[0.03480048477649689, -1.5358582747033616, 0.034945313130513966, 0.03498832761730952, 0.035063207149505615, 0.03499877452850342]","[0.2838950455188751, 0.2822156548500061, 0.2824029326438904, 0.2848701477050781, 0.27905479073524475, 0.2801096439361572]","[0.0507133538528775, -1.520082972942019, 0.0507133538528775, 0.0507133538528775, 0.0507133538528775, 0.0507133538528775]","[0.0507133538528775, -1.520082972942019, 0.0507133538528775, 0.0507133538528775, 0.0507133538528775, 0.0507133538528775]",0.002,7,1
0,117,"[0.03539616987109184, -1.5353034076145669, 0.03544074693788701, 0.035608215922973585, 0.03561988100409508, 0.03555849939584732]","[0.28471022844314575, 0.2816302180290222, 0.2820820212364197, 0.2836954891681671, 0.2825066149234772, 0.2797490060329437]","[0.05114739557290577, -1.5196489312219907, 0.05114739557290577, 0.05114739557290577, 0.05114739557290577, 0.05114739557290577]","[0.05114739557290577, -1.5196489312219907, 0.05114739557290577, 0.05114739557290577, 0.05114739557290577, 0.05114739557290577]",0.002,7,1
0,118,"[0.03593067079782486, -1.5347134073129673, 0.0360334555255335, 0.036168141955993605, 0.03618389740586281, 0.03615638613700867]","[0.28574126958847046, 0.2827439308166504, 0.28377655148506165, 0.28285524249076843, 0.282999724149704, 0.2804463505744934]","[0.05158135649189781, -1.5192149703029987, 0.05158135649189781, 0.05158135649189781, 0.05158135649189781, 0.05158135649189781]","[0.05158135649189781, -1.5192149703029987, 0.05158135649189781, 0.05158135649189781, 0.05158135649189781, 0.05158135649189781]",0.002,7,1
0,119,"[0.036541666835546494, -1.5341546919992943, 0.03662759462465459, 0.03672556459393306, 0.036739520728588104, 0.036657560616731644]","[0.2853425145149231, 0.28322386741638184, 0.28487786650657654, 0.2848992645740509, 0.2826738953590393, 0.2816976010799408]","[0.05201523592429592, -1.5187810908706005, 0.05201523592429592, 0.05201523592429592, 0.05201523592429592, 0.05201523592429592]","[0.05201523592429592, -1.5187810908706005, 0.05201523592429592, 0.05201523592429592, 0.05201523592429592, 0.05201523592429592]",0.002,7,1
0,120,"[0.03711649402976036, -1.533537534331419, 0.03714019456972295, 0.03732256471600337, 0.03731535002589226, 0.037234075367450714]","[0.28308042883872986, 0.28281548619270325, 0.2835131287574768, 0.28391408920288086, 0.2814069986343384, 0.2817976176738739]","[0.05244903318467109, -1.5183472936102254, 0.05244903318467109, 0.05244903318467109, 0.05244903318467109, 0.05244903318467109]","[0.05244903318467109, -1.5183472936102254, 0.05244903318467109, 0.05244903318467109, 0.05244903318467109, 0.05244903318467109]",0.002,7,1
0,121,"[0.037716660648584366, -1.5329992820373555, 0.03776294389833623, 0.03785090028729243, 0.037886399775743484, 0.03779102489352226]","[0.28446683287620544, 0.2831263542175293, 0.2836068272590637, 0.2827329635620117, 0.2820018231868744, 0.2833581864833832]","[0.05288274758772415, -1.5179135792071725, 0.05288274758772415, 0.05288274758772415, 0.05288274758772415, 0.05288274758772415]","[0.05288274758772415, -1.5179135792071725, 0.05288274758772415, 0.05288274758772415, 0.05288274758772415, 0.05288274758772415]",0.002,7,1
0,122,"[0.03826143592596054, -1.5324148957482358, 0.038341824208394826, 0.03841952859844966, 0.03840849921107292, 0.038324613124132156]","[0.28411391377449036, 0.2835804224014282, 0.28559061884880066, 0.28341466188430786, 0.2820490300655365, 0.2823438048362732]","[0.05331637844828681, -1.5174799483466097, 0.05331637844828681, 0.05331637844828681, 0.05331637844828681, 0.05331637844828681]","[0.05331637844828681, -1.5174799483466097, 0.05331637844828681, 0.05331637844828681, 0.05331637844828681, 0.05331637844828681]",0.002,7,1
0,123,"[0.03887069970369339, -1.531842553322651, 0.03893167177309209, 0.039055271739623976, 0.03894427418708801, 0.0388922281563282]","[0.28398916125297546, 0.2851928770542145, 0.28488942980766296, 0.28188255429267883, 0.2820851802825928, 0.2831514775753021]","[0.053749925081322765, -1.5170464017135739, 0.053749925081322765, 0.053749925081322765, 0.053749925081322765, 0.053749925081322765]","[0.053749925081322765, -1.5170464017135739, 0.053749925081322765, 0.053749925081322765, 0.053749925081322765, 0.053749925081322765]",0.002,7,1
