Arnibjarnst/BoxLift/logs/ur_rtde/trajectory_dur=5.0_delay=0.0_gain=200_lh=0.1_real.csv
arm_idx,step,actual_q,actual_qd,target_q,expected_q,loop_time,robot_mode,safety_mode
0,-1,"[-0.027049843464986623, -1.5978385410704554, -0.027029000222682953, -0.027076677685119677, -0.027080837880269826, -0.027112785969869435]","[0.03241151571273804, 0.033156346529722214, 0.030738074332475662, 0.03207412734627724, 0.032094068825244904, 0.032777223736047745]","[0.0, -1.5707963267948966, 0.0, 0.0, 0.0, 0.0]","[0.0, -1.5707963267948966, 0.0, 0.0, 0.0, 0.0]",0.002,7,1
0,-1,"[-0.02662069002260381, -1.597267290154928, -0.026629867032170296, -0.026661471729614306, -0.026634995137349904, -0.02666932741274053]","[0.04348914325237274, 0.04567042738199234, 0.04350201413035393, 0.04469864070415497, 0.04399934038519859, 0.04574522748589516]","[0.0, -1.5707963267948966, 0.0, 0.0, 0.0, 0.0]","[0.0, -1.5707963267948966, 0.0, 0.0, 0.0, 0.0]",0.002,7,1
0,-1,"[-0.02573568025697881, -1.5964886150755824, -0.025788726285099983, -0.02576334894213872, -0.02585155168642217, -0.02575856844057256]","[0.0569092258810997, 0.060330167412757874, 0.06060825660824776, 0.0599234476685524, 0.06047501415014267, 0.0607462078332901]","[0.0, -1.5707963267948966, 0.0, 0.0, 0.0, 0.0]","[0.0, -1.5707963267948966, 0.0, 0.0, 0.0, 0.0]",0.002,7,1
0,-1,"[-0.025095287953512013, -1.5958076916136683, -0.025196975097060204, -0.02500791967425542, -0.025113884602681935, -0.02516061464418584]","[0.06966598331928253, 0.06920437514781952, 0.06834886968135834, 0.07154180109500885, 0.0720549076795578, 0.07229588180780411]","[0.0, -1.5707963267948966, 0.0, 0.0, 0.0, 0.0]","[0.0, -1.5707963267948966, 0.0, 0.0, 0.0, 0.0]",0.002,7,1
0,-1,"[-0.024372402821676076, -1.5951129398741664, -0.024398289620876312, -0.024365262394287157, -0.024287048970357716, -0.02440959612001592]","[0.08014722168445587, 0.07861188054084778, 0.0791754499077797, 0.08098077028989792, 0.08254168927669525, 0.08332768827676773]","[0.0, -1.5707963267948966, 0.0, 0.0, 0.0, 0.0]","[0.0, -1.5707963267948966, 0.0, 0.0, 0.0, 0.0]",0.002,7,1
0,-1,"[-0.023704353963033498, -1.5944277248778285, -0.02364276722073555, -0.023599223499633837, -0.023610893880025685, -0.023611370717183888]","[0.08834020048379898, 0.0876990556716919, 0.08767633885145187, 0.08706842362880707, 0.09008479118347168, 0.09106378257274628]","[0.0, -1.5707963267948966, 0.0, 0.0, 0.0, 0.0]","[0.0, -1.5707963267948966, 0.0, 0.0, 0.0, 0.0]",0.002,7,1
0,-1,"[-0.02268106142152959, -1.593485494653219, -0.022718628868460655, -0.022651748066284227, -0.02266389528383428, -0.022759739552633107]","[0.10081570595502853, 0.09836623072624207, 0.09672664105892181, 0.0983915701508522, 0.09884047508239746, 0.10005845874547958]","[0.0, -1.5707963267948966, 0.0, 0.0, 0.0, 0.0]","[0.0, -1.5707963267948966, 0.0, 0.0, 0.0, 0.0]",0.002,7,1
0,-1,"[-0.02145415941347295, -1.5922137699522914, -0.021491384133696556, -0.021331862812377977, -0.021394077931539357, -0.021468464528219044]","[0.10988767445087433, 0.11055248230695724, 0.10897786915302277, 0.1105923131108284, 0.10989730805158615, 0.11273377388715744]","[0.0, -1.5707963267948966, 0.0, 0.0, 0.0, 0.0]","[0.0, -1.5707963267948966, 0.0, 0.0, 0.0, 0.0]",0.002,7,1
0,-1,"[-0.020007912312642873, -1.5908500156798304, -0.02006346732378006, -0.019963220959045458, -0.019978825245992482, -0.020049397145406544]","[0.12142936140298843, 0.12236037105321884, 0.12213339656591415, 0.121751569211483, 0.12331026047468185, 0.12470743805170059]","[0.0, -1.5707963267948966, 0.0, 0.0, 0.0, 0.0]","[0.0, -1.5707963267948966, 0.0, 0.0, 0.0, 0.0]",0.002,7,1
0,-1,"[-0.0176318327533167, -1.5884605846800746, -0.01771712861955166, -0.017531709080078173, -0.017679993306295216, -0.017664734517232716]","[0.14418387413024902, 0.14328308403491974, 0.13907445967197418, 0.13793258368968964, 0.1404161900281906, 0.1425933688879013]","[0.0, -1.5707963267948966, 0.0, 0.0, 0.0, 0.0]","[0.0, -1.5707963267948966, 0.0, 0.0, 0.0, 0.0]",0.002,7,1
0,-1,"[-0.013326946889058888, -1.5840937099852503, -0.01340280007570982, -0.013290361767150927, -0.013309780751363576, -0.01327068010439092]","[0.16678760945796967, 0.1614871472120285, 0.16169850528240204, 0.16439379751682281, 0.167608380317688, 0.1659872978925705]","[0.0, -1.5707963267948966, 0.0, 0.0, 0.0, 0.0]","[0.0, -1.5707963267948966, 0.0, 0.0, 0.0, 0.0]",0.002,7,1
0,-1,"[-0.011175457631246388, -1.5820590458311976, -0.011318130418658257, -0.011216954593994188, -0.011159722005025685, -0.011038605366842091]","[0.14640364050865173, 0.14898580312728882, 0.14935600757598877, 0.1470954567193985, 0.15096069872379303, 0.14802953600883484]","[0.0, -1.5707963267948966, 0.0, 0.0, 0.0, 0.0]","[0.0, -1.5707963267948966, 0.0, 0.0, 0.0, 0.0]",0.002,7,1
0,-1,"[-0.008684460316793263, -1.5795232258238734, -0.008832297287881374, -0.008703069095947313, -0.008592907582418263, -0.008558098469869435]","[0.13061724603176117, 0.13297829031944275, 0.13081543147563934, 0.133820578455925, 0.13266457617282867, 0.13072313368320465]","[0.0, -1.5707963267948966, 0.0, 0.0, 0.0, 0.0]","[0.0, -1.5707963267948966, 0.0, 0.0, 0.0, 0.0]",0.002,7,1
0,-1,"[-0.0051720778094690445, -1.5760137043394984, -0.0053195166401565075, -0.005173401241638231, -0.005091492329732716, -0.005019966756002248]","[0.10055286437273026, 0.10225411504507065, 0.107582226395607, 0.10366086661815643, 0.10120183974504471, 0.10061067342758179]","[0.0, -1.5707963267948966, 0.0, 0.0, 0.0, 0.0]","[0.0, -1.5707963267948966, 0.0, 0.0, 0.0, 0.0]",0.002,7,1
0,-1,"[-0.00389272371401006, -1.5746289692320765, -0.003971066325902939, -0.003896192913391161, -0.003777805958883107, -0.003754917775289357]","[0.08991508930921555, 0.09069067984819412, 0.09129812568426132, 0.0910983607172966, 0.08718576282262802, 0.08526589721441269]","[0.0, -1.5707963267948966, 0.0, 0.0, 0.0, 0.0]","[0.0, -1.5707963267948966, 0.0, 0.0, 0.0, 0.0]",0.002,7,1
0,-1,"[-0.0024932066546838882, -1.5732079945006312, -0.0024905777536332607, -0.0024780792048950673, -0.002453629170553029, -0.0023940245257776382]","[0.07201029360294342, 0.06935478746891022, 0.0758594274520874, 0.07194317877292633, 0.07030122727155685, 0.07041103392839432]","[0.0, -1.5707963267948966, 0.0, 0.0, 0.0, 0.0]","[0.0, -1.5707963267948966, 0.0, 0.0, 0.0, 0.0]",0.002,7,1
0,-1,"[-0.0015390555011194351, -1.5721594295897425, -0.0014049672754481435, -0.0014680188945312977, -0.0014961401568811539, -0.0013607184039514664]","[0.056617990136146545, 0.0527789480984211, 0.05807828530669212, 0.05512811616063118, 0.054343994706869125, 0.05298764258623123]","[0.0, -1.5707963267948966, 0.0, 0.0, 0.0, 0.0]","[0.0, -1.5707963267948966, 0.0, 0.0, 0.0, 0.0]",0.002,7,1
0,-1,"[-0.0010231176959436539, -1.5716902218260707, -0.0009141173795796931, -0.0010053676417847157, -0.000897709523336232, -0.0009139219867151382]","[0.04574982449412346, 0.0442868173122406, 0.04573235660791397, 0.04494684189558029, 0.042107727378606796, 0.043337639421224594]","[0.0, -1.5707963267948966, 0.0, 0.0, 0.0, 0.0]","[0.0, -1.5707963267948966, 0.0, 0.0, 0.0, 0.0]",0.002,7,1
0,-1,"[-0.0003660360919397476, -1.571087499658102, -0.0002941179263871163, -0.0002870124629517079, -0.00029784837831670075, -0.0003774801837366226]","[0.02778886817395687, 0.02607511729001999, 0.02764011360704899, 0.025630012154579163, 0.024917542934417725, 0.025271039456129074]","[0.0, -1.5707963267948966, 0.0, 0.0, 0.0, 0.0]","[0.0, -1.5707963267948966, 0.0, 0.0, 0.0, 0.0]",0.002,7,1
0,-1,"[-5.0846730367481996e-05, -1.5707694230262241, 0.0, -1.9149189331102434e-05, -4.941621889287262e-05, -2.366701234990387e-05]","[0.009994078427553177, 0.006980939768254757, 0.00878886692225933, 0.010256371460855007, 0.007951311767101288, 0.006886008195579052]","[0.0, -1.5707963267948966, 0.0, 0.0, 0.0, 0.0]","[0.0, -1.5707963267948966, 0.0, 0.0, 0.0, 0.0]",0.002,7,1
0,-1,"[-4.0356312887013246e-05, -1.5707576298776367, -1.4800215467403177e-05, -5.479276690678603e-05, -6.133714784795075e-05, -8.470216859990387e-05]","[-0.004530316684395075, 1.9602330212364905e-05, -0.0035618222318589687, -0.003346055978909135, -0.005372084677219391, -0.0037309827748686075]","[0.0, -1.5707963267948966, 0.0, 0.0, 0.0, 0.0]","[0.0, -1.5707963267948966, 0.0, 0.0, 0.0, 0.0]",0.002,7,1
0,-1,"[-4.5124684469044496e-05, -1.5708261928954066, -3.169774936395697e-05, -2.1891002990770403e-05, -8.994737734013825e-05, -6.467500795537262e-05]","[0.00030355967464856803, 8.63693276187405e-05, -0.001991676865145564, -9.166925551973293e-10, -1.0163152985853685e-08, -0.0005012567853555083]","[0.0, -1.5707963267948966, 0.0, 0.0, 0.0, 0.0]","[0.0, -1.5707963267948966, 0.0, 0.0, 0.0, 0.0]",0.002,7,1
0,-1,"[-8.231798280888825e-05, -1.5709191761412562, -4.820585309062153e-05, -1.4738445617723528e-05, -0.00011474290956670075, -7.802644838506012e-05]","[5.821379378545544e-09, -0.0013815640704706311, -0.0015697317430749536, -7.102616108188624e-17, 0.00021247008407954127, -0.0002053424104815349]","[0.0, -1.5707963267948966, 0.0, 0.0, 0.0, 0.0]","[0.0, -1.5707963267948966, 0.0, 0.0, 0.0, 0.0]",0.002,7,1
0,-1,"[-6.896654237920075e-05, -1.5709010563292445, -2.9974222343298607e-05, -3.107011828618056e-05, -7.7549611226857e-05, -6.896654237920075e-05]","[8.198166083287412e-26, -0.0007419701432809234, -0.0005882774712517858, 0.0005668285884894431, 0.0006868026102893054, 8.545028686057776e-05]","[0.0, -1.5707963267948966, 0.0, 0.0, 0.0, 0.0]","[0.0, -1.5707963267948966, 0.0, 0.0, 0.0, 0.0]",0.002,7,1
0,-1,"[-5.323091615849762e-05, -1.5708443127074183, -5.100309499539435e-05, -6.397188220219618e-05, -0.00013524690736943512, -3.987947572881012e-05]","[4.780909743187638e-37, -0.0002982969454023987, -0.00039472896605730057, 0.0005404528346844018, 0.000678792130202055, 0.00016508949920535088]","[0.0, -1.5707963267948966, 0.0, 0.0, 0.0, 0.0]","[0.0, -1.5707963267948966, 0.0, 0.0, 0.0, 0.0]",0.002,7,1
0,-1,"[-4.846254457646637e-05, -1.57086243251943, -6.29425048828125e-05, -5.658090625004775e-05, -7.7549611226857e-05, -1.9375477926075746e-05]","[0.0, 9.725315612740815e-05, -0.0002598920837044716, 0.0004845492949243635, 0.0006277814973145723, 0.00032289786031469703]","[0.0, -1.5707963267948966, 0.0, 0.0, 0.0, 0.0]","[0.0, -1.5707963267948966, 0.0, 0.0, 0.0, 0.0]",0.002,7,1
0,-1,"[-8.1364308492482e-05, -1.570869585076803, -7.938146882224828e-05, -4.0130024292039934e-05, -6.658235658818512e-05, -2.366701234990387e-05]","[0.0, 7.600666140206158e-05, -0.00020165767637081444, 0.0005328529514372349, 0.0009606254752725363, 0.0004407640954013914]","[0.0, -1.5707963267948966, 0.0, 0.0, 0.0, 0.0]","[0.0, -1.5707963267948966, 0.0, 0.0, 0.0, 0.0]",0.002,7,1
0,-1,"[-4.846254457646637e-05, -1.5708581409850062, -6.29425048828125e-05, -4.001081500248915e-05, -7.421175111943512e-05, 4.291534423828125e-06]","[0.0001432177086826414, 2.2679505491396412e-05, -0.00013335564290173352, 0.0006135394796729088, 0.0007265830645337701, 0.0006308404263108969]","[0.0, -1.5707963267948966, 0.0, 0.0, 0.0, 0.0]","[0.0, -1.5707963267948966, 0.0, 0.0, 0.0, 0.0]",0.002,7,1
0,-1,"[9.5367431640625e-07, -1.5708819828429164, -6.29425048828125e-05, -2.069891009526259e-05, -4.593526021778871e-06, -2.080598940068512e-05]","[0.00037679323577322066, 1.887451253423933e-05, -0.0001140436579589732, 0.0003729032468982041, 0.0007134496700018644, 0.0004942533560097218]","[0.0, -1.5707963267948966, 0.0, 0.0, 0.0, 0.0]","[0.0, -1.5707963267948966, 0.0, 0.0, 0.0, 0.0]",0.002,7,1
0,-1,"[-6.2290822164357e-05, -1.5709406338133753, -4.1889335989253595e-05, -2.069891009526259e-05, -2.175966371709137e-05, -1.6514454976856996e-05]","[0.00038615064113400877, 1.5877949408604763e-05, -9.806825983105227e-05, 0.00027893990045413375, 0.00032578784157522023, 0.0004788610967807472]","[0.0, -1.5707963267948966, 0.0, 0.0, 0.0, 0.0]","[0.0, -1.5707963267948966, 0.0, 0.0, 0.0, 0.0]",0.002,7,1
0,-1,"[-8.231798280888825e-05, -1.570834299127096, -9.764909918885678e-05, -6.099164996342665e-05, -3.415742983037262e-05, 3.328735147078987e-06]","[0.00037825130857527256, 0.00043613259913399816, -1.385659743391443e-05, 0.0001808478991733864, 0.00023545917065348476, 0.0002279423497384414]","[0.0, -1.5707963267948966, 0.0, 0.0, 0.0, 0.0]","[0.0, -1.5707963267948966, 0.0, 0.0, 0.0, 0.0]",0.002,7,1
0,-1,"[-5.070363179981996e-06, -1.5708595714964808, -3.910064697265625e-05, -1.3427143432664934e-05, 1.5216351130220573e-05, 7.90977446740726e-06]","[0.0008585528121329844, 0.0002790404832921922, -1.1317043572489638e-05, 0.00015380445984192193, 0.00018228654516860843, 0.00016826514911372215]","[0.0, -1.5707963267948966, 0.0, 0.0, 0.0, 0.0]","[0.0, -1.5707963267948966, 0.0, 0.0, 0.0, 0.0]",0.002,7,1
0,-1,"[-3.4634266988575746e-05, -1.570904394189352, -6.29425048828125e-05, -4.367237426805559e-06, 2.2661686671199277e-05, -6.276765932256012e-05]","[0.00037480832543224096, 0.00016000011237338185, -1.0166514584852848e-05, 0.0001290023938054219, 0.0002965411695186049, 0.0001510720612714067]","[0.0, -1.5707963267948966, 0.0, 0.0, 0.0, 0.0]","[0.0, -1.5707963267948966, 0.0, 0.0, 0.0, 0.0]",0.002,7,1
0,-1,"[-3.0199159795074593e-07, -1.570902486840719, -2.0844936443609186e-05, 2.996503796381944e-05, -1.7468129293263246e-05, 1.2481688827392645e-05]","[0.00020566044258885086, 0.00012378707469906658, -5.797800234123797e-17, 0.00011282976629445329, 0.00019630616588983685, 0.0001234427618328482]","[0.0, -1.5707963267948966, 0.0, 0.0, 0.0, 0.0]","[0.0, -1.5707963267948966, 0.0, 0.0, 0.0, 0.0]",0.002,7,1
0,-1,"[-1.6514454976856996e-05, -1.5708157024779261, -1.0215415386483073e-05, -3.71497920532704e-05, 6.4373016357421875e-06, -8.885060445606996e-06]","[0.00014114746591076255, 0.0001420397311449051, -6.085857515153459e-32, 0.0001002604840323329, 0.00020368599507492036, 0.00010435748845338821]","[0.0, -1.5707963267948966, 0.0, 0.0, 0.0, 0.0]","[0.0, -1.5707963267948966, 0.0, 0.0, 0.0, 0.0]",0.002,7,1
0,-1,"[-5.8476124898731996e-05, -1.570876260797018, -2.26227111852495e-05, -1.6288166381883684e-05, -3.415742983037262e-05, 7.921933502075262e-06]","[0.0001043312149704434, 0.0008995613316074014, -0.0, 8.909471944207326e-05, 0.00018033625383395702, 0.0001037116744555533]","[0.0, -1.5707963267948966, 0.0, 0.0, 0.0, 0.0]","[0.0, -1.5707963267948966, 0.0, 0.0, 0.0, 0.0]",0.002,7,1
0,-1,"[1.165592584584374e-05, -1.570867200891012, -6.75508999847807e-05, 3.8071269653272566e-05, -1.732503072560121e-06, -2.557436098271637e-05]","[7.421837653964758e-05, 0.0003146367671433836, -0.0, 7.303595506158445e-10, 0.000112150824861601, 9.62231497396715e-05]","[0.0, -1.5707963267948966, 0.0, 0.0, 0.0, 0.0]","[0.0, -1.5707963267948966, 0.0, 0.0, 0.0, 0.0]",0.002,7,1
0,-1,"[-3.797212709599762e-05, -1.57086243251943, -4.814554995391518e-05, -1.1758213378953997e-05, 1.5216351130220573e-05, 2.1494821339729242e-05]","[6.48585264571011e-05, 0.0002570773649495095, -0.0, 3.69485077374217e-18, 9.549108654027805e-05, 8.807855192571878e-05]","[0.0, -1.5707963267948966, 0.0, 0.0, 0.0, 0.0]","[0.0, -1.5707963267948966, 0.0, 0.0, 0.0, 0.0]",0.002,7,1
0,-1,"[2.3576854800921865e-05, -1.570871492425436, -1.349008107354166e-05, 2.1024341247510847e-05, 3.45826156262774e-05, -2.557436098271637e-05]","[5.853150287293829e-05, 0.00017240174929611385, -0.0, 2.862802849102603e-25, 8.470592001685873e-05, 8.205576887121424e-05]","[0.0, -1.5707963267948966, 0.0, 0.0, 0.0, 0.0]","[0.0, -1.5707963267948966, 0.0, 0.0, 0.0, 0.0]",0.002,7,1
0,-1,"[3.814697265625e-06, -1.570829530755514, -6.010281867929734e-05, -2.546728167729384e-05, -1.0792409078419496e-05, -2.080598940068512e-05]","[5.106008393340744e-05, 0.0008594710961915553, -0.0, 6.174237442481172e-36, 8.692134724697098e-05, 5.557113399845548e-05]","[0.0, -1.5707963267948966, 0.0, 0.0, 0.0, 0.0]","[0.0, -1.5707963267948966, 0.0, 0.0, 0.0, 0.0]",0.002,7,1
0,-1,"[-2.557436098271637e-05, -1.5708261928954066, -1.8074511899612844e-05, 7.434482238721785e-06, 2.1338473743526265e-06, 1.9798657376668416e-05]","[4.210287079331465e-05, -1.3300571755081592e-09, 7.272001676028594e-05, 0.0, 7.001619815127924e-05, 1.508074221057143e-11]","[0.0, -1.5707963267948966, 0.0, 0.0, 0.0, 0.0]","[0.0, -1.5707963267948966, 0.0, 0.0, 0.0, 0.0]",0.002,7,1
0,-1,"[-3.034273256474762e-05, -1.5708214245238246, -6.923198816366494e-05, -2.069891009526259e-05, 3.893620305461809e-05, -8.885060445606996e-06]","[7.159712378523864e-09, -1.0406300914167497e-22, 6.371239578584209e-05, 0.0, 6.41902006464079e-05, 7.629270966509838e-20]","[0.0, -1.5707963267948966, 0.0, 0.0, 0.0, 0.0]","[0.0, -1.5707963267948966, 0.0, 0.0, 0.0, 0.0]",0.002,7,1
0,-1,"[-9.361897603810121e-06, -1.5708214245238246, -5.555152893066406e-05, 5.452215161128038e-05, 6.309396121650934e-05, -1.794496645146637e-05]","[4.175315310896449e-20, -6.0686222884120076e-34, 5.7596436818130314e-05, 0.0, 5.991682337480597e-05, 5.9112271189865994e-27]","[0.0, -1.5707963267948966, 0.0, 0.0, 0.0, 0.0]","[0.0, -1.5707963267948966, 0.0, 0.0, 0.0, 0.0]",0.002,7,1
0,-1,"[-1.6514454976856996e-05, -1.570784406071045, -4.930734576191753e-05, -4.907072100834853e-05, -4.274049867802887e-05, 1.9720215277629904e-05]","[5.8800326550809604e-37, 0.0, 5.0347076467005536e-05, 0.0, 5.029134457512109e-15, 1.2748803794176923e-37]","[0.0, -1.5707963267948966, 0.0, 0.0, 0.0, 0.0]","[0.0, -1.5707963267948966, 0.0, 0.0, 0.0, 0.0]",0.002,7,1
0,-1,"[-4.2263661519825746e-05, -1.5707886976054688, -5.2745104767382145e-05, 7.085382427973741e-05, 1.5192031241895165e-05, -8.885060445606996e-06]","[0.0, 0.0, 3.9457578870916166e-10, 0.0, 1.2871047182464217e-31, 0.0]","[0.0, -1.5707963267948966, 0.0, 0.0, 0.0, 0.0]","[0.0, -1.5707963267948966, 0.0, 0.0, 0.0, 0.0]",0.002,7,1
0,-1,"[-3.4634266988575746e-05, -1.5708524189391078, -3.169774936395697e-05, -1.1758213378953997e-05, -3.4634266988575746e-05, 4.845349758397788e-05]","[0.0, 0.0, 7.455098471762457e-29, 0.0, 1.807675018979014e-43, 0.0]","[0.0, -1.5707963267948966, 0.0, 0.0, 0.0, 0.0]","[0.0, -1.5707963267948966, 0.0, 0.0, 0.0, 0.0]",0.002,7,1
0,-1,"[1.163196429843083e-05, -1.5708052120604457, -5.1021575927734375e-05, 1.7124363402842846e-06, 2.2649765014648438e-05, 4.9674228648655117e-05]","[0.0, 0.0, 3.2405214761505614e-38, 0.0, 0.0, 0.0]","[0.0, -1.5707963267948966, 0.0, 0.0, 0.0, 0.0]","[0.0, -1.5707963267948966, 0.0, 0.0, 0.0, 0.0]",0.002,7,1
0,-1,"[4.4602391426451504e-05, -1.570834299127096, -4.368198642623611e-05, -3.71497920532704e-05, -2.9865895406544496e-05, 4.974315743311308e-05]","[0.0, 0.0, -0.0, 0.0, 0.0, 0.0]","[0.0, -1.5707963267948966, 0.0, 0.0, 0.0, 0.0]","[0.0, -1.5707963267948966, 0.0, 0.0, 0.0, 0.0]",0.002,7,1
0,-1,"[-3.0199159795074593e-07, -1.5708524189391078, -2.86102294921875e-06, 1.6271557612412835e-07, -6.024037496388246e-06, 1.5295005141524598e-05]","[0.0, 0.0, -0.0, 0.0, 0.0, 0.0]","[0.0, -1.5707963267948966, 0.0, 0.0, 0.0, 0.0]","[0.0, -1.5707963267948966, 0.0, 0.0, 0.0, 0.0]",0.002,7,1
0,-1,"[-2.1282826558888246e-05, -1.570843359033102, -1.3490081983036362e-05, -1.1758213378953997e-05, 6.4373016357421875e-06, 3.319968072901247e-06]","[0.0, 0.0, -0.0, 0.0, 0.0, 0.0]","[0.0, -1.5707963267948966, 0.0, 0.0, 0.0, 0.0]","[0.0, -1.5707963267948966, 0.0, 0.0, 0.0, 0.0]",0.002,7,1
0,1,"[-7.087389101201325e-05, -1.5708052120604457, -2.260446490254253e-05, 1.8163318298292097e-05, -8.885060445606996e-06, 4.291534423828125e-06]","[0.0, 0.0, -0.0, 0.0, 0.0, 0.0]","[0.0008776483039858048, -1.5699186784909107, 0.0008776483039858048, 0.0008776483039858048, 0.0008776483039858048, 0.0008776483039858048]","[0.0008776483039858048, -1.5699186784909107, 0.0008776483039858048, 0.0008776483039858048, 0.0008776483039858048, 0.0008776483039858048]",0.002,7,1
0,2,"[-3.034273256474762e-05, -1.5708142719664515, -5.2781106205657125e-05, -1.6288166381883684e-05, 6.4373016357421875e-06, -2.080598940068512e-05]","[0.0, 0.0, -0.0, 0.0, 0.0, 0.0]","[0.001755291059830304, -1.5690410357350661, 0.001755291059830304, 0.001755291059830304, 0.001755291059830304, 0.001755291059830304]","[0.001755291059830304, -1.5690410357350661, 0.001755291059830304, 0.001755291059830304, 0.001755291059830304, 0.001755291059830304]",0.002,7,1
0,3,"[-9.361897603810121e-06, -1.570760357146657, 1.794496645146637e-05, -9.016399719286028e-06, -7.56422625940445e-05, -2.557436098271637e-05]","[7.772915644466138e-10, 0.005458961706608534, 0.005107540171593428, 3.281427041201823e-08, 5.033008164900821e-06, 9.006218533613719e-06]","[0.0026329227194272654, -1.5681634040754693, 0.0026329227194272654, 0.0026329227194272654, 0.0026329227194272654, 0.0026329227194272654]","[0.0026329227194272654, -1.5681634040754693, 0.0026329227194272654, 0.0026329227194272654, 0.0026329227194272654, 0.0026329227194272654]",0.002,7,1
0,4,"[-2.557436098271637e-05, -1.5707500921674473, 1.3653432027638246e-05, -1.6254237671375904e-06, -3.034273256474762e-05, 3.616809772211127e-05]","[0.00304231746122241, 0.003725533140823245, 0.0035727987997233868, 0.003696073777973652, 0.005231223534792662, 0.00440330570563674]","[0.003510537734740602, -1.567285789060156, 0.003510537734740602, 0.003510537734740602, 0.003510537734740602, 0.003510537734740602]","[0.003510537734740602, -1.567285789060156, 0.003510537734740602, 0.003510537734740602, 0.003510537734740602, 0.003510537734740602]",0.002,7,1
0,5,"[2.802570816129446e-05, -1.5708161793150843, -5.652784238918684e-06, 8.289396252436632e-05, -2.209340230763246e-06, 6.767511513317004e-05]","[0.00512669188901782, 0.00793197937309742, 0.005112153943628073, 0.0062633538618683815, 0.007266397122293711, 0.007473800331354141]","[0.004388130557839446, -1.566408196237057, 0.004388130557839446, 0.004388130557839446, 0.004388130557839446, 0.004388130557839446]","[0.004388130557839446, -1.566408196237057, 0.004388130557839446, 0.004388130557839446, 0.004388130557839446, 0.004388130557839446]",0.002,7,1
0,6,"[4.753805114887655e-05, -1.570766643886902, 1.3653432027638246e-05, 5.285322155756944e-05, 1.7308664610027336e-05, 3.933906555175781e-05]","[0.0051019941456615925, 0.007776321843266487, 0.00648333178833127, 0.006870410870760679, 0.007184185553342104, 0.00775966327637434]","[0.00526569564093322, -1.5655306311539634, 0.00526569564093322, 0.00526569564093322, 0.00526569564093322, 0.00526569564093322]","[0.00526569564093322, -1.5655306311539634, 0.00526569564093322, 0.00526569564093322, 0.00526569564093322, 0.00526569564093322]",0.002,7,1
0,7,"[5.5110944231273606e-05, -1.5707951802053977, 2.7958546773731996e-05, 0.00010053693737788194, 1.2979269740753807e-05, 6.31719158263877e-05]","[0.005191230680793524, 0.006033564917743206, 0.006292620673775673, 0.007247832138091326, 0.007233763113617897, 0.007752855308353901]","[0.006143227436406706, -1.56465309935849, 0.006143227436406706, 0.006143227436406706, 0.006143227436406706, 0.006143227436406706]","[0.006143227436406706, -1.56465309935849, 0.006143227436406706, 0.006143227436406706, 0.006143227436406706, 0.006143227436406706]",0.002,7,1
0,8,"[0.00012117361620767042, -1.5707288831511796, 2.080598940068512e-05, 5.1303500793409285e-05, 0.00012857299589086324, 9.185446106130257e-05]","[0.007807077374309301, 0.00926913321018219, 0.008806190453469753, 0.008773984387516975, 0.009596983902156353, 0.008625190705060959]","[0.007020720396855121, -1.5637756063980415, 0.007020720396855121, 0.007020720396855121, 0.007020720396855121, 0.007020720396855121]","[0.007020720396855121, -1.5637756063980415, 0.007020720396855121, 0.007020720396855121, 0.007020720396855121, 0.007020720396855121]",0.002,7,1
0,9,"[8.654594421386719e-05, -1.5707092812629817, 5.704561342412262e-05, 5.1303500793409285e-05, 0.00010813699191203341, 9.63303173193708e-05]","[0.011715952306985855, 0.01764148846268654, 0.015424991957843304, 0.013317175209522247, 0.012489798478782177, 0.01243017241358757]","[0.007898168975119177, -1.5628981578197774, 0.007898168975119177, 0.007898168975119177, 0.007898168975119177, 0.007898168975119177]","[0.007898168975119177, -1.5628981578197774, 0.007898168975119177, 0.007898168975119177, 0.007898168975119177, 0.007898168975119177]",0.002,7,1
0,10,"[5.193762626731768e-05, -1.5706735324241272, 0.00010663667787724762, 8.68278690795421e-05, 8.626107592135668e-05, 0.00013976740592624992]","[0.012251227162778378, 0.022658253088593483, 0.01856367103755474, 0.017322679981589317, 0.01734883151948452, 0.017837446182966232]","[0.008775567624320156, -1.5620207591705764, 0.008775567624320156, 0.008775567624320156, 0.008775567624320156, 0.008775567624320156]","[0.008775567624320156, -1.5620207591705764, 0.008775567624320156, 0.008775567624320156, 0.008775567624320156, 0.008775567624320156]",0.002,7,1
0,11,"[9.401969873579219e-05, -1.5706420248792092, 0.00016671815981084137, 0.00020770608868403428, 0.00019624574633780867, 0.000217587235965766]","[0.0159891527146101, 0.025994902476668358, 0.02241913229227066, 0.021260790526866913, 0.021541878581047058, 0.02137329988181591]","[0.00965291079789497, -1.5611434159970017, 0.00965291079789497, 0.00965291079789497, 0.00965291079789497, 0.00965291079789497]","[0.00965291079789497, -1.5611434159970017, 0.00965291079789497, 0.00965291079789497, 0.00965291079789497, 0.00965291079789497]",0.002,7,1
0,12,"[0.00015100240125320852, -1.5706510964267473, 0.000157658253804982, 0.00016395627941889757, 0.0002555317769292742, 0.00024460005806759]","[0.0182662196457386, 0.02988600730895996, 0.026791848242282867, 0.0243428573012352, 0.022877825424075127, 0.024191681295633316]","[0.010530192949631223, -1.5602661338452652, 0.010530192949631223, 0.010530192949631223, 0.010530192949631223, 0.010530192949631223]","[0.010530192949631223, -1.5602661338452652, 0.010530192949631223, 0.010530192949631223, 0.010530192949631223, 0.010530192949631223]",0.002,7,1
0,13,"[0.00019000741303898394, -1.5705654925153176, 0.00022679964174443512, 0.00027780115093989366, 0.0002883241104427725, 0.0002970163768623024]","[0.021322861313819885, 0.03293323889374733, 0.029382668435573578, 0.025994829833507538, 0.02457195706665516, 0.025875763967633247]","[0.011407408533702281, -1.5593889182611942, 0.011407408533702281, 0.011407408533702281, 0.011407408533702281, 0.011407408533702281]","[0.011407408533702281, -1.5593889182611942, 0.011407408533702281, 0.011407408533702281, 0.011407408533702281, 0.011407408533702281]",0.002,7,1
0,14,"[0.00024259090423583984, -1.570555211907351, 0.00032502809633427887, 0.0003079611011962413, 0.00031475265859626234, 0.00035261287121102214]","[0.02475198730826378, 0.034188609570264816, 0.031040983274579048, 0.02712925150990486, 0.024444812908768654, 0.025914784520864487]","[0.012284552004702319, -1.5585117747901942, 0.012284552004702319, 0.012284552004702319, 0.012284552004702319, 0.012284552004702319]","[0.012284552004702319, -1.5585117747901942, 0.012284552004702319, 0.012284552004702319, 0.012284552004702319, 0.012284552004702319]",0.002,7,1
0,15,"[0.0003658001951407641, -1.5704666669519902, 0.00038749376405888825, 0.00041906415905756944, 0.00035147665766999125, 0.0004095231997780502]","[0.028409702703356743, 0.03486141934990883, 0.033623773604631424, 0.02897050976753235, 0.025932541117072105, 0.026172876358032227]","[0.01316161781768138, -1.5576347089772151, 0.01316161781768138, 0.01316161781768138, 0.01316161781768138, 0.01316161781768138]","[0.01316161781768138, -1.5576347089772151, 0.01316161781768138, 0.01316161781768138, 0.01316161781768138, 0.01316161781768138]",0.002,7,1
0,16,"[0.00038811020203866065, -1.570364469608041, 0.0004308859454553726, 0.0004593568989257335, 0.0003910064697265625, 0.00040652751340530813]","[0.031118834391236305, 0.03709558770060539, 0.03617089241743088, 0.030627530068159103, 0.02804379165172577, 0.02797933667898178]","[0.01403860042818044, -1.556757726366716, 0.01403860042818044, 0.01403860042818044, 0.01403860042818044, 0.01403860042818044]","[0.01403860042818044, -1.556757726366716, 0.01403860042818044, 0.01403860042818044, 0.01403860042818044, 0.01403860042818044]",0.002,7,1
0,17,"[0.0004721253353636712, -1.570320894683693, 0.0005105177508752945, 0.0004713970371703624, 0.000516660395078361, 0.000491804035846144]","[0.03653038293123245, 0.03932312875986099, 0.0387658067047596, 0.03245900571346283, 0.031349170953035355, 0.03117367811501026]","[0.014915494292266438, -1.55588083250263, 0.014915494292266438, 0.014915494292266438, 0.014915494292266438, 0.014915494292266438]","[0.014915494292266438, -1.55588083250263, 0.014915494292266438, 0.014915494292266438, 0.014915494292266438, 0.014915494292266438]",0.002,7,1
0,18,"[0.0005037199007347226, -1.5702849209522647, 0.0005496183978479507, 0.0005399423786620616, 0.0005565715255215764, 0.0005592942470684648]","[0.03837970644235611, 0.041778575628995895, 0.04148368164896965, 0.03496355563402176, 0.03472279757261276, 0.0351550430059433]","[0.015792293866567334, -1.5550040329283292, 0.015792293866567334, 0.015792293866567334, 0.015792293866567334, 0.015792293866567334]","[0.015792293866567334, -1.5550040329283292, 0.015792293866567334, 0.015792293866567334, 0.015792293866567334, 0.015792293866567334]",0.002,7,1
0,19,"[0.0006116630975157022, -1.5702146130828005, 0.0006635824786584976, 0.0006792980381469249, 0.0006234589964151382, 0.0006316280923783779]","[0.041018206626176834, 0.04607026278972626, 0.04494055360555649, 0.03757515549659729, 0.03857817128300667, 0.038592200726270676]","[0.01666899360830715, -1.5541273331865895, 0.01666899360830715, 0.01666899360830715, 0.01666899360830715, 0.01666899360830715]","[0.01666899360830715, -1.5541273331865895, 0.01666899360830715, 0.01666899360830715, 0.01666899360830715, 0.01666899360830715]",0.002,7,1
0,20,"[0.0007422725902870297, -1.5700433391360384, 0.0007265249835413101, 0.0007451015659789562, 0.0006794929504394531, 0.0006988048553466797]","[0.04444805905222893, 0.04838547483086586, 0.047367073595523834, 0.04161427170038223, 0.042635347694158554, 0.04393383488059044]","[0.017545587975341018, -1.5532507388195556, 0.017545587975341018, 0.017545587975341018, 0.017545587975341018, 0.017545587975341018]","[0.017545587975341018, -1.5532507388195556, 0.017545587975341018, 0.017545587975341018, 0.017545587975341018, 0.017545587975341018]",0.002,7,1
0,21,"[0.0008262970368377864, -1.5700226403171946, 0.0008772055255334976, 0.0008051830479125499, 0.0007833761046640575, 0.0007963368552736938]","[0.0505807027220726, 0.05552740395069122, 0.05337655171751976, 0.047710489481687546, 0.04616285488009453, 0.04717465490102768]","[0.018422071426190196, -1.5523742553687063, 0.018422071426190196, 0.018422071426190196, 0.018422071426190196, 0.018422071426190196]","[0.018422071426190196, -1.5523742553687063, 0.018422071426190196, 0.018422071426190196, 0.018422071426190196, 0.018422071426190196]",0.002,7,1
0,22,"[0.0009177485480904579, -1.5698604231332247, 0.0009596983539026382, 0.0008964973637084483, 0.0009536243742331862, 0.0009492070530541241]","[0.0546424426138401, 0.05672716349363327, 0.05625862255692482, 0.050063543021678925, 0.04979502782225609, 0.04893521964550018]","[0.019298438420077113, -1.5514978883748194, 0.019298438420077113, 0.019298438420077113, 0.019298438420077113, 0.019298438420077113]","[0.019298438420077113, -1.5514978883748194, 0.019298438420077113, 0.019298438420077113, 0.019298438420077113, 0.019298438420077113]",0.002,7,1
0,23,"[0.0010376910213381052, -1.569735934408829, 0.0010722319232385757, 0.001067801112792921, 0.0010585275012999773, 0.0010168382432311773]","[0.05859530717134476, 0.061079446226358414, 0.06195324286818504, 0.05397772416472435, 0.054148025810718536, 0.05442280322313309]","[0.020174683416960392, -1.550621643377936, 0.020174683416960392, 0.020174683416960392, 0.020174683416960392, 0.020174683416960392]","[0.020174683416960392, -1.550621643377936, 0.020174683416960392, 0.020174683416960392, 0.020174683416960392, 0.020174683416960392]",0.002,7,1
0,24,"[0.001145841320976615, -1.5696370452972879, 0.0012043158160608414, 0.0011581617542724132, 0.001141594722867012, 0.0011036579962819815]","[0.06321810185909271, 0.06703425198793411, 0.06487078964710236, 0.05870531499385834, 0.059540923684835434, 0.05929459258913994]","[0.021050800877569876, -1.5497455259173267, 0.021050800877569876, 0.021050800877569876, 0.021050800877569876, 0.021050800877569876]","[0.021050800877569876, -1.5497455259173267, 0.021050800877569876, 0.021050800877569876, 0.021050800877569876, 0.021050800877569876]",0.002,7,1
0,25,"[0.0012898367131128907, -1.5694582056351756, 0.0013154188739221695, 0.0012894111820678233, 0.0011766542447730899, 0.0012776056537404656]","[0.06824462860822678, 0.07147365063428879, 0.06832669675350189, 0.06572896242141724, 0.06466005742549896, 0.06455625593662262]","[0.021926785263441637, -1.5488695415314548, 0.021926785263441637, 0.021926785263441637, 0.021926785263441637, 0.021926785263441637]","[0.021926785263441637, -1.5488695415314548, 0.021926785263441637, 0.021926785263441637, 0.021926785263441637, 0.021926785263441637]",0.002,7,1
0,26,"[0.0014262686017900705, -1.5693473953618486, 0.001515690480367482, 0.0014396148869018077, 0.0013939115451648831, 0.001388496602885425]","[0.07166425883769989, 0.07401414215564728, 0.07577215135097504, 0.06768763810396194, 0.0696985125541687, 0.06950095295906067]","[0.022802631036952997, -1.5479936957579437, 0.022802631036952997, 0.022802631036952997, 0.022802631036952997, 0.022802631036952997]","[0.022802631036952997, -1.5479936957579437, 0.022802631036952997, 0.022802631036952997, 0.022802631036952997, 0.022802631036952997]",0.002,7,1
0,27,"[0.0015732801984995604, -1.5691206881641229, 0.0016430060016077164, 0.0015247303196410655, 0.0015425182646140456, 0.0015626749955117702]","[0.0774030089378357, 0.08180246502161026, 0.07610568404197693, 0.07251492887735367, 0.07415447384119034, 0.0742727518081665]","[0.023678332661357517, -1.5471179941335391, 0.023678332661357517, 0.023678332661357517, 0.023678332661357517, 0.023678332661357517]","[0.023678332661357517, -1.5471179941335391, 0.023678332661357517, 0.023678332661357517, 0.023678332661357517, 0.023678332661357517]",0.002,7,1
0,28,"[0.0017143231816589832, -1.5690353614375745, 0.0017898718463342789, 0.001697226161621046, 0.0016825146740302444, 0.0017547443276271224]","[0.08210080116987228, 0.08586075156927109, 0.08330299705266953, 0.07842011004686356, 0.08015453815460205, 0.08187610656023026]","[0.024553884600820034, -1.5462424421940766, 0.024553884600820034, 0.024553884600820034, 0.024553884600820034, 0.024553884600820034]","[0.024553884600820034, -1.5462424421940766, 0.024553884600820034, 0.024553884600820034, 0.024553884600820034, 0.024553884600820034]",0.002,7,1
0,29,"[0.0019063693471252918, -1.5688359635281195, 0.002007786427633107, 0.0019262272068480968, 0.0019121270161122084, 0.0019061831990256906]","[0.08683812618255615, 0.09135302901268005, 0.08840779215097427, 0.08323149383068085, 0.08327315747737885, 0.08354002237319946]","[0.025429281320451615, -1.545367045474445, 0.025429281320451615, 0.025429281320451615, 0.025429281320451615, 0.025429281320451615]","[0.025429281320451615, -1.545367045474445, 0.025429281320451615, 0.025429281320451615, 0.025429281320451615, 0.025429281320451615]",0.002,7,1
0,30,"[0.0021734824404120445, -1.568616790264361, 0.0021880308734338882, 0.002062841052673292, 0.0020605626050382853, 0.002128090476617217]","[0.09210507571697235, 0.09557431191205978, 0.09345799684524536, 0.08872675895690918, 0.08662131428718567, 0.08915917575359344]","[0.02630451728634456, -1.544491809508552, 0.02630451728634456, 0.02630451728634456, 0.02630451728634456, 0.02630451728634456]","[0.02630451728634456, -1.544491809508552, 0.02630451728634456, 0.02630451728634456, 0.02630451728634456, 0.02630451728634456]",0.002,7,1
0,31,"[0.002282915636897087, -1.568442797554173, 0.00239736238588506, 0.002308769817016554, 0.0022202450782060623, 0.0022701153066009283]","[0.09764137119054794, 0.10093674808740616, 0.09811118245124817, 0.09309136867523193, 0.09641144424676895, 0.09487847238779068]","[0.027179586965607412, -1.543616739829289, 0.027179586965607412, 0.027179586965607412, 0.027179586965607412, 0.027179586965607412]","[0.027179586965607412, -1.543616739829289, 0.027179586965607412, 0.027179586965607412, 0.027179586965607412, 0.027179586965607412]",0.002,7,1
0,32,"[0.002475006738677621, -1.5682840936682005, 0.002537552510396779, 0.0024631458469848155, 0.0025141185615211725, 0.002415639581158757]","[0.10095999389886856, 0.10600710660219193, 0.10148080438375473, 0.09841208904981613, 0.09975826740264893, 0.09930375218391418]","[0.02805448482639989, -1.5427418419684966, 0.02805448482639989, 0.02805448482639989, 0.02805448482639989, 0.02805448482639989]","[0.02805448482639989, -1.5427418419684966, 0.02805448482639989, 0.02805448482639989, 0.02805448482639989, 0.02805448482639989]",0.002,7,1
0,33,"[0.0026488222647458315, -1.5679687231643875, 0.002793614064351857, 0.002650304431579542, 0.002727428451180458, 0.002675296738743782]","[0.10837587714195251, 0.11149921268224716, 0.10733840614557266, 0.10445453226566315, 0.10579102486371994, 0.10460121929645538]","[0.028929205337967896, -1.5418671214569286, 0.028929205337967896, 0.028929205337967896, 0.028929205337967896, 0.028929205337967896]","[0.028929205337967896, -1.5418671214569286, 0.028929205337967896, 0.028929205337967896, 0.028929205337967896, 0.028929205337967896]",0.002,7,1
0,34,"[0.0028934397269040346, -1.567769027348124, 0.0030120054828088882, 0.002857370967529249, 0.0029157004319131374, 0.0028909756802022457]","[0.11370202153921127, 0.11477965116500854, 0.11594463884830475, 0.11042733490467072, 0.11125324666500092, 0.11015258729457855]","[0.029803742970678452, -1.540992583824218, 0.029803742970678452, 0.029803742970678452, 0.029803742970678452, 0.029803742970678452]","[0.029803742970678452, -1.540992583824218, 0.029803742970678452, 0.029803742970678452, 0.029803742970678452, 0.029803742970678452]",0.002,7,1
0,35,"[0.0031770600471645594, -1.567462825016566, 0.003248039876119435, 0.0030854183384398937, 0.003132370999082923, 0.0031383237801492214]","[0.11897069215774536, 0.12232886254787445, 0.11739752441644669, 0.11530420184135437, 0.11816465109586716, 0.11652218550443649]","[0.03067809219605467, -1.5401182345988418, 0.03067809219605467, 0.03067809219605467, 0.03067809219605467, 0.03067809219605467]","[0.03067809219605467, -1.5401182345988418, 0.03067809219605467, 0.03067809219605467, 0.03067809219605467, 0.03067809219605467]",0.002,7,1
0,36,"[0.0034441440366208553, -1.5672847743010898, 0.003506485615865529, 0.0033743816563109874, 0.003398181637749076, 0.003340767463669181]","[0.12522168457508087, 0.12593045830726624, 0.12454307079315186, 0.12269524484872818, 0.11928967386484146, 0.12121450901031494]","[0.0315522474868107, -1.539244079308086, 0.0315522474868107, 0.0315522474868107, 0.0315522474868107, 0.0315522474868107]","[0.0315522474868107, -1.539244079308086, 0.0315522474868107, 0.0315522474868107, 0.0315522474868107, 0.0315522474868107]",0.002,7,1
0,37,"[0.0037005802150815725, -1.5670014759856095, 0.0037949720965784195, 0.0036097007938842296, 0.00359653914347291, 0.003640838898718357]","[0.13033728301525116, 0.13071919977664948, 0.1295522004365921, 0.12488321959972382, 0.12661220133304596, 0.12699605524539948]","[0.03242620331688668, -1.5383701234780098, 0.03242620331688668, 0.03242620331688668, 0.03242620331688668, 0.03242620331688668]","[0.03242620331688668, -1.5383701234780098, 0.03242620331688668, 0.03242620331688668, 0.03242620331688668, 0.03242620331688668]",0.002,7,1
0,38,"[0.00398396048694849, -1.5667477271384378, 0.004056278859273732, 0.0038706499287108898, 0.0038608245085924864, 0.0038986888248473406]","[0.13612088561058044, 0.13696537911891937, 0.13491278886795044, 0.13427570462226868, 0.1316603124141693, 0.13207344710826874]","[0.033299954161483625, -1.537496372633413, 0.033299954161483625, 0.033299954161483625, 0.033299954161483625, 0.033299954161483625]","[0.033299954161483625, -1.537496372633413, 0.033299954161483625, 0.033299954161483625, 0.033299954161483625, 0.033299954161483625]",0.002,7,1
0,39,"[0.004317040555179119, -1.566518371724971, 0.0043328444110315445, 0.00421254217114253, 0.004212483763694763, 0.004162671975791454]","[0.14428235590457916, 0.1421048939228058, 0.1390228122472763, 0.13873380422592163, 0.13901391625404358, 0.13709788024425507]","[0.03417349449709842, -1.5366228322977982, 0.03417349449709842, 0.03417349449709842, 0.03417349449709842, 0.03417349449709842]","[0.03417349449709842, -1.5366228322977982, 0.03417349449709842, 0.03417349449709842, 0.03417349449709842, 0.03417349449709842]",0.002,7,1
0,40,"[0.004579446744173765, -1.5662166185541828, 0.004574600850240529, 0.004486246699951124, 0.0044819931499660015, 0.004431107547134161]","[0.14560985565185547, 0.14650680124759674, 0.14572685956954956, 0.14460444450378418, 0.14249563217163086, 0.14120347797870636]","[0.03504681880155869, -1.5357495079933379, 0.03504681880155869, 0.03504681880155869, 0.03504681880155869, 0.03504681880155869]","[0.03504681880155869, -1.5357495079933379, 0.03504681880155869, 0.03504681880155869, 0.03504681880155869, 0.03504681880155869]",0.002,7,1
0,41,"[0.004905153997242451, -1.5658837810954829, 0.004949871693746388, 0.004820747966430616, 0.004789978731423616, 0.004743177443742752]","[0.15181413292884827, 0.15072230994701385, 0.15090450644493103, 0.14953617751598358, 0.14885707199573517, 0.14943678677082062]","[0.035919921554057724, -1.5348764052408388, 0.035919921554057724, 0.035919921554057724, 0.035919921554057724, 0.035919921554057724]","[0.035919921554057724, -1.5348764052408388, 0.035919921554057724, 0.035919921554057724, 0.035919921554057724, 0.035919921554057724]",0.002,7,1
0,42,"[0.005238207057118416, -1.5655053549310942, 0.005217377339498341, 0.0050626236149291515, 0.005060103256255388, 0.005030598025768995]","[0.15854360163211823, 0.15481223165988922, 0.15605567395687103, 0.15687058866024017, 0.15571631491184235, 0.157060906291008]","[0.03679279723518938, -1.5340035295597072, 0.03679279723518938, 0.03679279723518938, 0.03679279723518938, 0.03679279723518938]","[0.03679279723518938, -1.5340035295597072, 0.03679279723518938, 0.03679279723518938, 0.03679279723518938, 0.03679279723518938]",0.002,7,1
0,43,"[0.005542787257581949, -1.5652386059849341, 0.0056336561786096695, 0.005442901248596144, 0.005423967260867357, 0.005390281789004803]","[0.16359369456768036, 0.16258379817008972, 0.16039402782917023, 0.16065581142902374, 0.16301941871643066, 0.16105809807777405]","[0.03766544032698294, -1.5331308864679136, 0.03766544032698294, 0.03766544032698294, 0.03766544032698294, 0.03766544032698294]","[0.03766544032698294, -1.5331308864679136, 0.03766544032698294, 0.03766544032698294, 0.03766544032698294, 0.03766544032698294]",0.002,7,1
0,44,"[0.005893765948712826, -1.564926805706211, 0.005904022847310841, 0.005758805865905714, 0.005725744180381298, 0.00573212094604969]","[0.16835284233093262, 0.16821232438087463, 0.1664894074201584, 0.1651923507452011, 0.16607187688350677, 0.16600556671619415]","[0.03853784531293808, -1.5322584814819584, 0.03853784531293808, 0.03853784531293808, 0.03853784531293808, 0.03853784531293808]","[0.03853784531293808, -1.5322584814819584, 0.03853784531293808, 0.03853784531293808, 0.03853784531293808, 0.03853784531293808]",0.002,7,1
0,45,"[0.006230036728084087, -1.5646118915504594, 0.006226364766256154, 0.0061356264301757335, 0.00610214052721858, 0.006035083904862404]","[0.1734405755996704, 0.17313675582408905, 0.17115820944309235, 0.1710493415594101, 0.17183846235275269, 0.17145228385925293]","[0.03941000667805963, -1.531386320116837, 0.03941000667805963, 0.03941000667805963, 0.03941000667805963, 0.03941000667805963]","[0.03941000667805963, -1.531386320116837, 0.03941000667805963, 0.03941000667805963, 0.03941000667805963, 0.03941000667805963]",0.002,7,1
0,46,"[0.0066184974275529385, -1.564218849675246, 0.006633583699361623, 0.006440683002136183, 0.006462346762418747, 0.0064362953417003155]","[0.17946559190750122, 0.17756594717502594, 0.17852000892162323, 0.17580053210258484, 0.1785154640674591, 0.17883308231830597]","[0.04028191890889251, -1.530514407886004, 0.04028191890889251, 0.04028191890889251, 0.04028191890889251, 0.04028191890889251]","[0.04028191890889251, -1.530514407886004, 0.04028191890889251, 0.04028191890889251, 0.04028191890889251, 0.04028191890889251]",0.002,7,1
0,47,"[0.00697834137827158, -1.5638333179852744, 0.007034603749410451, 0.006828709239623976, 0.0068515995517373085, 0.006816290784627199]","[0.18312908709049225, 0.18507492542266846, 0.18349012732505798, 0.1821938008069992, 0.1832541972398758, 0.18336884677410126]","[0.041153576493556596, -1.52964275030134, 0.041153576493556596, 0.041153576493556596, 0.041153576493556596, 0.041153576493556596]","[0.041153576493556596, -1.52964275030134, 0.041153576493556596, 0.041153576493556596, 0.041153576493556596, 0.041153576493556596]",0.002,7,1
0,48,"[0.007387882098555565, -1.5635081229596217, 0.007322613392965138, 0.0072141128727416515, 0.007257500663399696, 0.007147842552512884]","[0.18959520757198334, 0.188248410820961, 0.1894441395998001, 0.18731790781021118, 0.18707722425460815, 0.1903247833251953]","[0.0420249739217815, -1.528771352873115, 0.0420249739217815, 0.0420249739217815, 0.0420249739217815, 0.0420249739217815]","[0.0420249739217815, -1.528771352873115, 0.0420249739217815, 0.0420249739217815, 0.0420249739217815, 0.0420249739217815]",0.002,7,1
0,49,"[0.007734321523457766, -1.5631223444691678, 0.007787052785054982, 0.007633967990539503, 0.007566721644252539, 0.007552512921392918]","[0.195424422621727, 0.19485093653202057, 0.19800327718257904, 0.19347022473812103, 0.1925959289073944, 0.19631025195121765]","[0.04289610568494145, -1.527900221109955, 0.04289610568494145, 0.04289610568494145, 0.04289610568494145, 0.04289610568494145]","[0.04289610568494145, -1.527900221109955, 0.04289610568494145, 0.04289610568494145, 0.04289610568494145, 0.04289610568494145]",0.002,7,1
0,50,"[0.008134993724524975, -1.5627428398332377, 0.008147541676656544, 0.008067889804504347, 0.008005533367395401, 0.00793212279677391]","[0.2004081755876541, 0.19993363320827484, 0.20182515680789948, 0.19844499230384827, 0.19972415268421173, 0.20166879892349243]","[0.04376696627609011, -1.5270293605188066, 0.04376696627609011, 0.04376696627609011, 0.04376696627609011, 0.04376696627609011]","[0.04376696627609011, -1.5270293605188066, 0.04376696627609011, 0.04376696627609011, 0.04376696627609011, 0.04376696627609011]",0.002,7,1
0,51,"[0.008573507890105247, -1.562326093470194, 0.008590046559469044, 0.008516831988952589, 0.008402539417147636, 0.008359246887266636]","[0.20652441680431366, 0.20599977672100067, 0.2068149894475937, 0.2046027034521103, 0.20543669164180756, 0.20741768181324005]","[0.044637550189995365, -1.5261587766049012, 0.044637550189995365, 0.044637550189995365, 0.044637550189995365, 0.044637550189995365]","[0.044637550189995365, -1.5261587766049012, 0.044637550189995365, 0.044637550189995365, 0.044637550189995365, 0.044637550189995365]",0.002,7,1
0,52,"[0.008983975276350975, -1.5619723231396456, 0.0089953581439417, 0.008909984225891066, 0.008827639743685722, 0.008783753961324692]","[0.2117489129304886, 0.21101124584674835, 0.2111409604549408, 0.2096104919910431, 0.21176332235336304, 0.21335947513580322]","[0.045507851923174164, -1.5252884748717224, 0.045507851923174164, 0.045507851923174164, 0.045507851923174164, 0.045507851923174164]","[0.045507851923174164, -1.5252884748717224, 0.045507851923174164, 0.045507851923174164, 0.045507851923174164, 0.045507851923174164]",0.002,7,1
0,53,"[0.009418877772986889, -1.5614981002039094, 0.00950652757753545, 0.009345694179199171, 0.009272908791899681, 0.009210878051817417]","[0.21659043431282043, 0.21755318343639374, 0.21651169657707214, 0.21702709794044495, 0.21795281767845154, 0.21976366639137268]","[0.04637786597392728, -1.5244184608209692, 0.04637786597392728, 0.04637786597392728, 0.04637786597392728, 0.04637786597392728]","[0.04637786597392728, -1.5244184608209692, 0.04637786597392728, 0.04637786597392728, 0.04637786597392728, 0.04637786597392728]",0.002,7,1
0,54,"[0.009897742420434952, -1.5610571636683126, 0.009922329579488576, 0.009787483806274366, 0.0097047695890069, 0.009663471020758152]","[0.22244815528392792, 0.2201290875673294, 0.22201092541217804, 0.22072163224220276, 0.22235283255577087, 0.22409208118915558]","[0.04724758684237411, -1.5235487399525225, 0.04724758684237411, 0.04724758684237411, 0.04724758684237411, 0.04724758684237411]","[0.04724758684237411, -1.5235487399525225, 0.04724758684237411, 0.04724758684237411, 0.04724758684237411, 0.04724758684237411]",0.002,7,1
0,55,"[0.010328104719519615, -1.560560623449721, 0.010401550923482716, 0.010194106692932081, 0.01017014030367136, 0.01008731871843338]","[0.22700117528438568, 0.22565694153308868, 0.2255207598209381, 0.2248070389032364, 0.22899805009365082, 0.22984468936920166]","[0.04811700903048741, -1.5226793177644091, 0.04811700903048741, 0.04811700903048741, 0.04811700903048741, 0.04811700903048741]","[0.04811700903048741, -1.5226793177644091, 0.04811700903048741, 0.04811700903048741, 0.04811700903048741, 0.04811700903048741]",0.002,7,1
0,56,"[0.010797607712447643, -1.5601406491226335, 0.010794464741842091, 0.010747237796447706, 0.010621633380651474, 0.010608677752315998]","[0.2319396734237671, 0.23077091574668884, 0.2300916165113449, 0.23139692842960358, 0.2337992638349533, 0.23435640335083008]","[0.0489861270421281, -1.5218101997527684, 0.0489861270421281, 0.0489861270421281, 0.0489861270421281, 0.0489861270421281]","[0.0489861270421281, -1.5218101997527684, 0.0489861270421281, 0.0489861270421281, 0.0489861270421281, 0.0489861270421281]",0.002,7,1
0,57,"[0.011310786940157413, -1.5597148940763255, 0.011296097432271779, 0.011176272029540968, 0.011090307496488094, 0.011022768914699554]","[0.23739075660705566, 0.23633643984794617, 0.23313374817371368, 0.23697598278522491, 0.23624004423618317, 0.23904822766780853]","[0.04985493538307995, -1.5209413914118166, 0.04985493538307995, 0.04985493538307995, 0.04985493538307995, 0.04985493538307995]","[0.04985493538307995, -1.5209413914118166, 0.04985493538307995, 0.04985493538307995, 0.04985493538307995, 0.04985493538307995]",0.002,7,1
0,58,"[0.011741413734853268, -1.5592334254509588, 0.01179057756532842, 0.011683030719421339, 0.011607751250267029, 0.011523304507136345]","[0.2417200654745102, 0.2407064288854599, 0.23867705464363098, 0.24177056550979614, 0.24256354570388794, 0.2451181858778]","[0.05072342856108438, -1.520072898233812, 0.05072342856108438, 0.05072342856108438, 0.05072342856108438, 0.05072342856108438]","[0.05072342856108438, -1.520072898233812, 0.05072342856108438, 0.05072342856108438, 0.05072342856108438, 0.05072342856108438]",0.002,7,1
0,59,"[0.012287394143640995, -1.558715882976987, 0.01225454012026006, 0.012231155032775831, 0.012066586874425411, 0.012019467540085316]","[0.24773825705051422, 0.24488656222820282, 0.2444062978029251, 0.24602647125720978, 0.2507171630859375, 0.2511250972747803]","[0.05159160108587512, -1.5192047257090215, 0.05159160108587512, 0.05159160108587512, 0.05159160108587512, 0.05159160108587512]","[0.05159160108587512, -1.5192047257090215, 0.05159160108587512, 0.05159160108587512, 0.05159160108587512, 0.05159160108587512]",0.002,7,1
0,60,"[0.012733026407659054, -1.5582491990974923, 0.012766663228170216, 0.012691302890441847, 0.012571308761835098, 0.012503867037594318]","[0.2518174350261688, 0.25135383009910583, 0.24911585450172424, 0.24999913573265076, 0.2544809579849243, 0.2565201222896576]","[0.05245944746921293, -1.5183368793256837, 0.05245944746921293, 0.05245944746921293, 0.05245944746921293, 0.05245944746921293]","[0.05245944746921293, -1.5183368793256837, 0.05245944746921293, 0.05245944746921293, 0.05245944746921293, 0.05245944746921293]",0.002,7,1
0,61,"[0.013262269087135792, -1.5577407714775582, 0.013237778340474904, 0.01321665822949214, 0.013070979155600071, 0.01302777137607336]","[0.25681036710739136, 0.25663188099861145, 0.2536839544773102, 0.2538069486618042, 0.2594827115535736, 0.25999605655670166]","[0.05332696222492035, -1.5174693645699762, 0.05332696222492035, 0.05332696222492035, 0.05332696222492035, 0.05332696222492035]","[0.05332696222492035, -1.5174693645699762, 0.05332696222492035, 0.05332696222492035, 0.05332696222492035, 0.05332696222492035]",0.002,7,1
0,62,"[0.01378876157104969, -1.557222062987723, 0.013761345540181935, 0.013725443477294874, 0.013607986271381378, 0.013547360897064209]","[0.2620736360549927, 0.26058006286621094, 0.2577996253967285, 0.25775235891342163, 0.2645454704761505, 0.2661573588848114]","[0.05419413986891631, -1.5166021869259803, 0.05419413986891631, 0.05419413986891631, 0.05419413986891631, 0.05419413986891631]","[0.05419413986891631, -1.5166021869259803, 0.05419413986891631, 0.05419413986891631, 0.05419413986891631, 0.05419413986891631]",0.002,7,1
0,63,"[0.01434989832341671, -1.55664259873841, 0.014355484639303029, 0.014294429416320753, 0.014117250218987465, 0.014113489538431168]","[0.26779431104660034, 0.2671659290790558, 0.26502901315689087, 0.2648525536060333, 0.269640177488327, 0.27159640192985535]","[0.05506097491925081, -1.5157353518756458, 0.05506097491925081, 0.05506097491925081, 0.05506097491925081, 0.05506097491925081]","[0.05506097491925081, -1.5157353518756458, 0.05506097491925081, 0.05506097491925081, 0.05506097491925081, 0.05506097491925081]",0.002,7,1
0,64,"[0.014924379996955395, -1.5561524269035836, 0.014775578175679982, 0.01477758466687007, 0.01472332701086998, 0.014636525884270668]","[0.27201539278030396, 0.2723831236362457, 0.2703201472759247, 0.26999321579933167, 0.2743126451969147, 0.2757132947444916]","[0.055927461896139626, -1.514868864898757, 0.055927461896139626, 0.055927461896139626, 0.055927461896139626, 0.055927461896139626]","[0.055927461896139626, -1.514868864898757, 0.055927461896139626, 0.055927461896139626, 0.055927461896139626, 0.055927461896139626]",0.002,7,1
0,65,"[0.015487235970795155, -1.5555881590447207, 0.015353981648580373, 0.015331788653991651, 0.015235223807394505, 0.015200475230813026]","[0.27553606033325195, 0.27757295966148376, 0.2718188166618347, 0.2738715708255768, 0.27791041135787964, 0.2777717113494873]","[0.056793595321998874, -1.5140027314728977, 0.056793595321998874, 0.056793595321998874, 0.056793595321998874, 0.056793595321998874]","[0.056793595321998874, -1.5140027314728977, 0.056793595321998874, 0.056793595321998874, 0.056793595321998874, 0.056793595321998874]",0.002,7,1
0,66,"[0.01604039967060089, -1.5549942639521142, 0.015889946614400685, 0.01591889440502925, 0.015760203823447227, 0.01574115641415119]","[0.2811250686645508, 0.2818087339401245, 0.27815523743629456, 0.27863767743110657, 0.28475356101989746, 0.28449857234954834]","[0.057659369721479704, -1.5131369570734168, 0.057659369721479704, 0.057659369721479704, 0.057659369721479704, 0.057659369721479704]","[0.057659369721479704, -1.5131369570734168, 0.057659369721479704, 0.057659369721479704, 0.057659369721479704, 0.057659369721479704]",0.002,7,1
0,67,"[0.01665000058710575, -1.554394356240966, 0.016454521809713185, 0.016506000156066847, 0.016361935064196587, 0.0163394995033741]","[0.2862216532230377, 0.2848048508167267, 0.2818375527858734, 0.28159257769584656, 0.2895098328590393, 0.2900557518005371]","[0.05852477962150289, -1.5122715471733936, 0.05852477962150289, 0.05852477962150289, 0.05852477962150289, 0.05852477962150289]","[0.05852477962150289, -1.5122715471733936, 0.05852477962150289, 0.05852477962150289, 0.05852477962150289, 0.05852477962150289]",0.002,7,1
0,68,"[0.01719997450709343, -1.553875557412841, 0.01705819765199834, 0.017042561168334913, 0.016992267221212387, 0.016948489472270012]","[0.2917228639125824, 0.2895638346672058, 0.28760457038879395, 0.2868597209453583, 0.293620765209198, 0.2953985333442688]","[0.05938981955129341, -1.5114065072436031, 0.05938981955129341, 0.05938981955129341, 0.05938981955129341, 0.05938981955129341]","[0.05938981955129341, -1.5114065072436031, 0.05938981955129341, 0.05938981955129341, 0.05938981955129341, 0.05938981955129341]",0.002,7,1
0,69,"[0.017806263640522957, -1.5532495726696034, 0.017609421406881154, 0.01764337598767085, 0.01752348616719246, 0.01752430573105812]","[0.29474660754203796, 0.29348477721214294, 0.2895928621292114, 0.2929457724094391, 0.2978329360485077, 0.29909729957580566]","[0.060254484042415055, -1.5105418427524815, 0.060254484042415055, 0.060254484042415055, 0.060254484042415055, 0.060254484042415055]","[0.060254484042415055, -1.5105418427524815, 0.060254484042415055, 0.060254484042415055, 0.060254484042415055, 0.060254484042415055]",0.002,7,1
0,70,"[0.018380705267190933, -1.5526786235025902, 0.01822215715517217, 0.0182153421589355, 0.018090708181262016, 0.018152790144085884]","[0.2976662218570709, 0.2978783845901489, 0.296542227268219, 0.29738304018974304, 0.3021530210971832, 0.3018448054790497]","[0.06111876762880499, -1.5096775591660916, 0.06111876762880499, 0.06111876762880499, 0.06111876762880499, 0.06111876762880499]","[0.06111876762880499, -1.5096775591660916, 0.06111876762880499, 0.06111876762880499, 0.06111876762880499, 0.06111876762880499]",0.002,7,1
0,71,"[0.018975509330630302, -1.5520696745118876, 0.018807713185445607, 0.018801971072814894, 0.018727311864495277, 0.018744753673672676]","[0.30387258529663086, 0.3033366799354553, 0.3005865216255188, 0.3032592535018921, 0.3073941767215729, 0.305470734834671]","[0.061982664846808304, -1.5088136619480883, 0.061982664846808304, 0.061982664846808304, 0.061982664846808304, 0.061982664846808304]","[0.061982664846808304, -1.5088136619480883, 0.061982664846808304, 0.061982664846808304, 0.061982664846808304, 0.061982664846808304]",0.002,7,1
0,72,"[0.019619936123490334, -1.5514315471849223, 0.019339863454000294, 0.019406123752258253, 0.01932908035814762, 0.019331103190779686]","[0.30779069662094116, 0.30628544092178345, 0.3066275119781494, 0.3082985579967499, 0.3115076422691345, 0.31067365407943726]","[0.06284617023521256, -1.507950156559684, 0.06284617023521256, 0.06284617023521256, 0.06284617023521256, 0.06284617023521256]","[0.06284617023521256, -1.507950156559684, 0.06284617023521256, 0.06284617023521256, 0.06284617023521256, 0.06284617023521256]",0.002,7,1
0,73,"[0.020218411460518837, -1.5508682646653433, 0.0200732390033167, 0.020000382060668898, 0.019993716850876808, 0.019978797063231468]","[0.31132185459136963, 0.31028124690055847, 0.3133215308189392, 0.31290295720100403, 0.3164312243461609, 0.31608518958091736]","[0.0637092783352823, -1.5070870484596142, 0.0637092783352823, 0.0637092783352823, 0.0637092783352823, 0.0637092783352823]","[0.0637092783352823, -1.5070870484596142, 0.0637092783352823, 0.0637092783352823, 0.0637092783352823, 0.0637092783352823]",0.002,7,1
0,74,"[0.02083907090127468, -1.5501857840320845, 0.020662609730855763, 0.02057747423138423, 0.02065850794315338, 0.02068541944026947]","[0.31690627336502075, 0.31648510694503784, 0.31545260548591614, 0.31568923592567444, 0.3187376856803894, 0.319614440202713]","[0.06457198369079356, -1.506224343104103, 0.06457198369079356, 0.06457198369079356, 0.06457198369079356, 0.06457198369079356]","[0.06457198369079356, -1.506224343104103, 0.06457198369079356, 0.06457198369079356, 0.06457198369079356, 0.06457198369079356]",0.002,7,1
0,75,"[0.021553661674261093, -1.5495573201081534, 0.02128631273378545, 0.021199508304260206, 0.021266888827085495, 0.021270837634801865]","[0.3194400370121002, 0.31857535243034363, 0.3198731243610382, 0.3214884400367737, 0.32451993227005005, 0.32323893904685974]","[0.06543428084806839, -1.5053620459468282, 0.06543428084806839, 0.06543428084806839, 0.06543428084806839, 0.06543428084806839]","[0.06543428084806839, -1.5053620459468282, 0.06543428084806839, 0.06543428084806839, 0.06543428084806839, 0.06543428084806839]",0.002,7,1
0,76,"[0.02217135764658451, -1.548889897098281, 0.02197724977602178, 0.02185456335034175, 0.021922698244452477, 0.021957464516162872]","[0.3238522708415985, 0.32268548011779785, 0.32427340745925903, 0.32787153124809265, 0.32770541310310364, 0.3280620872974396]","[0.06629616435600925, -1.5045001624388874, 0.06629616435600925, 0.06629616435600925, 0.06629616435600925, 0.06629616435600925]","[0.06629616435600925, -1.5045001624388874, 0.06629616435600925, 0.06629616435600925, 0.06629616435600925, 0.06629616435600925]",0.002,7,1
0,77,"[0.02282993495464325, -1.5482253779521962, 0.022558514271871388, 0.022512717837951612, 0.022682342678308487, 0.022607142105698586]","[0.32778212428092957, 0.3244999051094055, 0.3287166655063629, 0.3326900601387024, 0.3312729597091675, 0.3329552412033081]","[0.06715762876613363, -1.5036386980287628, 0.06715762876613363, 0.06715762876613363, 0.06715762876613363, 0.06715762876613363]","[0.06715762876613363, -1.5036386980287628, 0.06715762876613363, 0.06715762876613363, 0.06715762876613363, 0.06715762876613363]",0.002,7,1
0,78,"[0.023505080491304398, -1.547548820530512, 0.023273293172017873, 0.023156805629394484, 0.02332334779202938, 0.023323869332671165]","[0.33097177743911743, 0.327763170003891, 0.33276039361953735, 0.3374817371368408, 0.3360542058944702, 0.33597123622894287]","[0.06801866863260826, -1.5027776581622883, 0.06801866863260826, 0.06801866863260826, 0.06801866863260826, 0.06801866863260826]","[0.06801866863260826, -1.5027776581622883, 0.06801866863260826, 0.06801866863260826, 0.06801866863260826, 0.06801866863260826]",0.002,7,1
0,79,"[0.024134207516908646, -1.546921656732895, 0.023858372365133107, 0.023872657413146925, 0.023929400369524956, 0.023986831307411194]","[0.33598583936691284, 0.33373892307281494, 0.3321203589439392, 0.34062209725379944, 0.3389934003353119, 0.3403113782405853]","[0.06887927851228377, -1.5019170482826127, 0.06887927851228377, 0.06887927851228377, 0.06887927851228377, 0.06887927851228377]","[0.06887927851228377, -1.5019170482826127, 0.06887927851228377, 0.06887927851228377, 0.06887927851228377, 0.06887927851228377]",0.002,7,1
0,80,"[0.024788159877061844, -1.5462261655232687, 0.024560276662008107, 0.0245174604603271, 0.024630112573504448, 0.02467477321624756]","[0.3409140706062317, 0.3352353572845459, 0.33693352341651917, 0.3441604673862457, 0.34069475531578064, 0.34312352538108826]","[0.06973945296472894, -1.5010568738301675, 0.06973945296472894, 0.06973945296472894, 0.06973945296472894, 0.06973945296472894]","[0.06973945296472894, -1.5010568738301675, 0.06973945296472894, 0.06973945296472894, 0.06973945296472894, 0.06973945296472894]",0.002,7,1
0,81,"[0.025501297786831856, -1.5454969455352803, 0.025277439747945607, 0.02520267545666499, 0.02532888948917389, 0.025391576811671257]","[0.3440670669078827, 0.3391072154045105, 0.3406773805618286, 0.3484337329864502, 0.3452799618244171, 0.34575846791267395]","[0.07059918655226517, -1.5001971402426313, 0.07059918655226517, 0.07059918655226517, 0.07059918655226517, 0.07059918655226517]","[0.07059918655226517, -1.5001971402426313, 0.07059918655226517, 0.07059918655226517, 0.07059918655226517, 0.07059918655226517]",0.002,7,1
0,82,"[0.02613120898604393, -1.544760589753725, 0.025899712239400685, 0.025863452548644972, 0.02612670138478279, 0.02611091546714306]","[0.34614071249961853, 0.3431723713874817, 0.34300246834754944, 0.3515016436576843, 0.34936368465423584, 0.3476025462150574]","[0.07145847384000081, -1.4993378529548957, 0.07145847384000081, 0.07145847384000081, 0.07145847384000081, 0.07145847384000081]","[0.07145847384000081, -1.4993378529548957, 0.07145847384000081, 0.07145847384000081, 0.07145847384000081, 0.07145847384000081]",0.002,7,1
0,83,"[0.026834702119231224, -1.5440362983248015, 0.026612106953756154, 0.026581450099609327, 0.026688676327466965, 0.02673131600022316]","[0.34977126121520996, 0.3480197489261627, 0.3513069152832031, 0.35559573769569397, 0.35385796427726746, 0.35156700015068054]","[0.07231730939586554, -1.498479017399031, 0.07231730939586554, 0.07231730939586554, 0.07231730939586554, 0.07231730939586554]","[0.07231730939586554, -1.498479017399031, 0.07231730939586554, 0.07231730939586554, 0.07231730939586554, 0.07231730939586554]",0.002,7,1
0,84,"[0.027578094974160194, -1.5433402110687275, 0.027313057576314748, 0.027257366771362257, 0.02751283161342144, 0.02751387655735016]","[0.3521136939525604, 0.3503137230873108, 0.3547073304653168, 0.35959768295288086, 0.3558102548122406, 0.3558705747127533]","[0.07317568779064473, -1.497620639004252, 0.07317568779064473, 0.07317568779064473, 0.07317568779064473, 0.07317568779064473]","[0.07317568779064473, -1.497620639004252, 0.07317568779064473, 0.07317568779064473, 0.07317568779064473, 0.07317568779064473]",0.002,7,1
0,85,"[0.028165973722934723, -1.5426082660308857, 0.028114144002095998, 0.027990980739257765, 0.02819974161684513, 0.028262369334697723]","[0.35638228058815, 0.355865478515625, 0.358671635389328, 0.3621975779533386, 0.3591974079608917, 0.35950663685798645]","[0.07403360359801374, -1.4967627231968827, 0.07403360359801374, 0.07403360359801374, 0.07403360359801374, 0.07403360359801374]","[0.07403360359801374, -1.4967627231968827, 0.07403360359801374, 0.07403360359801374, 0.07403360359801374, 0.07403360359801374]",0.002,7,1
0,86,"[0.028894223272800446, -1.541883784612157, 0.02878886858095342, 0.028757138843200636, 0.02893538400530815, 0.028965411707758904]","[0.35976189374923706, 0.35762202739715576, 0.36154666543006897, 0.3669927716255188, 0.3630639910697937, 0.3615383207798004]","[0.0748910513945722, -1.4959052754003244, 0.0748910513945722, 0.0748910513945722, 0.0748910513945722, 0.0748910513945722]","[0.0748910513945722, -1.4959052754003244, 0.0748910513945722, 0.0748910513945722, 0.0748910513945722, 0.0748910513945722]",0.002,7,1
0,87,"[0.029622968286275864, -1.5411776055446644, 0.029566113148824513, 0.02948252737011714, 0.029626861214637756, 0.02972104214131832]","[0.3642183840274811, 0.36059078574180603, 0.366199791431427, 0.37114253640174866, 0.36584562063217163, 0.36371907591819763]","[0.07574802575987832, -1.4950483010350182, 0.07574802575987832, 0.07574802575987832, 0.07574802575987832, 0.07574802575987832]","[0.07574802575987832, -1.4950483010350182, 0.07574802575987832, 0.07574802575987832, 0.07574802575987832, 0.07574802575987832]",0.002,7,1
0,88,"[0.030397489666938782, -1.5404100634953757, 0.03031474748720342, 0.030255718822143507, 0.030498798936605453, 0.030444849282503128]","[0.36763209104537964, 0.36467501521110535, 0.3700600564479828, 0.3750498294830322, 0.36751800775527954, 0.36615777015686035]","[0.07660452127648316, -1.4941918055184134, 0.07660452127648316, 0.07660452127648316, 0.07660452127648316, 0.07660452127648316]","[0.07660452127648316, -1.4941918055184134, 0.07660452127648316, 0.07660452127648316, 0.07660452127648316, 0.07660452127648316]",0.002,7,1
0,89,"[0.031099725514650345, -1.5396606673351307, 0.031108681355611623, 0.030963822002075148, 0.03119887411594391, 0.031205270439386368]","[0.368826687335968, 0.3664177656173706, 0.37319546937942505, 0.37715965509414673, 0.37212055921554565, 0.3709698021411896]","[0.07746053252996489, -1.4933357942649317, 0.07746053252996489, 0.07746053252996489, 0.07746053252996489, 0.07746053252996489]","[0.07746053252996489, -1.4933357942649317, 0.07746053252996489, 0.07746053252996489, 0.07746053252996489, 0.07746053252996489]",0.002,7,1
0,90,"[0.0317889079451561, -1.538886309867241, 0.03180534044374639, 0.03174666940655513, 0.031914062798023224, 0.03196146339178085]","[0.37418946623802185, 0.37056902050971985, 0.3733176290988922, 0.3801919221878052, 0.3727525472640991, 0.37265461683273315]","[0.07831605410896296, -1.4924802726859336, 0.07831605410896296, 0.07831605410896296, 0.07831605410896296, 0.07831605410896296]","[0.07831605410896296, -1.4924802726859336, 0.07831605410896296, 0.07831605410896296, 0.07831605410896296, 0.07831605410896296]",0.002,7,1
0,91,"[0.03256804868578911, -1.5381540407291432, 0.032553974782125294, 0.032518430347106886, 0.0326952300965786, 0.032719552516937256]","[0.37912946939468384, 0.372660368680954, 0.37667587399482727, 0.38249868154525757, 0.37821611762046814, 0.374254047870636]","[0.07917108060521237, -1.4916252461896842, 0.07917108060521237, 0.07917108060521237, 0.07917108060521237, 0.07917108060521237]","[0.07917108060521237, -1.4916252461896842, 0.07917108060521237, 0.07917108060521237, 0.07917108060521237, 0.07917108060521237]",0.002,7,1
0,92,"[0.03328012302517891, -1.5373866905323048, 0.033339802418844044, 0.033327026958129835, 0.03345596417784691, 0.03346829116344452]","[0.3792639374732971, 0.3758757710456848, 0.3777446150779724, 0.3847126066684723, 0.3776935636997223, 0.377660870552063]","[0.08002560661357781, -1.4907707201813187, 0.08002560661357781, 0.08002560661357781, 0.08002560661357781, 0.08002560661357781]","[0.08002560661357781, -1.4907707201813187, 0.08002560661357781, 0.08002560661357781, 0.08002560661357781, 0.08002560661357781]",0.002,7,1
0,93,"[0.034137286245822906, -1.5365775053254147, 0.03408986726869756, 0.03412918626751704, 0.03425665944814682, 0.03421177342534065]","[0.3830782473087311, 0.37998101115226746, 0.3799455761909485, 0.3848414421081543, 0.38133326172828674, 0.3788655698299408]","[0.0808796267320879, -1.4899167000628086, 0.0808796267320879, 0.0808796267320879, 0.0808796267320879, 0.0808796267320879]","[0.0808796267320879, -1.4899167000628086, 0.0808796267320879, 0.0808796267320879, 0.0808796267320879, 0.0808796267320879]",0.002,7,1
0,94,"[0.034898970276117325, -1.535854709600546, 0.034917656575338185, 0.03489534437145991, 0.0349971204996109, 0.03498359024524689]","[0.38475096225738525, 0.3810167908668518, 0.3823986351490021, 0.38819119334220886, 0.3829493522644043, 0.38166266679763794]","[0.08173313556196925, -1.4890631912329273, 0.08173313556196925, 0.08173313556196925, 0.08173313556196925, 0.08173313556196925]","[0.08173313556196925, -1.4890631912329273, 0.08173313556196925, 0.08173313556196925, 0.08173313556196925, 0.08173313556196925]",0.002,7,1
0,95,"[0.035642076283693314, -1.5350219470313569, 0.035724941884176076, 0.035742326373718214, 0.03579983860254288, 0.03574277460575104]","[0.38600385189056396, 0.3839469254016876, 0.3854210674762726, 0.39041778445243835, 0.3860476016998291, 0.3846929669380188]","[0.08258612770768066, -1.4882101990872159, 0.08258612770768066, 0.08258612770768066, 0.08258612770768066, 0.08258612770768066]","[0.08258612770768066, -1.4882101990872159, 0.08258612770768066, 0.08258612770768066, 0.08258612770768066, 0.08258612770768066]",0.002,7,1
0,96,"[0.03653448820114136, -1.534343821262457, 0.036426846181051076, 0.03650157033886714, 0.03662070259451866, 0.03654300794005394]","[0.39258790016174316, 0.3893296718597412, 0.38901105523109436, 0.39163047075271606, 0.3895884156227112, 0.38764068484306335]","[0.08343859777694718, -1.4873577290179494, 0.08343859777694718, 0.08343859777694718, 0.08343859777694718, 0.08343859777694718]","[0.08343859777694718, -1.4873577290179494, 0.08343859777694718, 0.08343859777694718, 0.08343859777694718, 0.08343859777694718]",0.002,7,1
0,97,"[0.03728668391704559, -1.5335155066898842, 0.03724700609316045, 0.037349029178283644, 0.03738008812069893, 0.03725650906562805]","[0.3926745355129242, 0.3901939392089844, 0.3904832601547241, 0.39287713170051575, 0.3903537392616272, 0.3908805549144745]","[0.08429054038079421, -1.4865057864141022, 0.08429054038079421, 0.08429054038079421, 0.08429054038079421, 0.08429054038079421]","[0.08429054038079421, -1.4865057864141022, 0.08429054038079421, 0.08429054038079421, 0.08429054038079421, 0.08429054038079421]",0.002,7,1
0,98,"[0.03805159404873848, -1.532749806796648, 0.03805095354189092, 0.03811900197949214, 0.03812570497393608, 0.03804977983236313]","[0.39548370242118835, 0.3914828300476074, 0.393327534198761, 0.3927340805530548, 0.3937441110610962, 0.39346978068351746]","[0.08514195013358164, -1.4856543766613148, 0.08514195013358164, 0.08514195013358164, 0.08514195013358164, 0.08514195013358164]","[0.08514195013358164, -1.4856543766613148, 0.08514195013358164, 0.08514195013358164, 0.08514195013358164, 0.08514195013358164]",0.002,7,1
0,99,"[0.0388672798871994, -1.5319774125567456, 0.03885537782777959, 0.03897623598065181, 0.03888969123363495, 0.03884091228246689]","[0.3977203071117401, 0.3967055082321167, 0.3968625068664551, 0.39614400267601013, 0.3938085734844208, 0.3950229287147522]","[0.08599282165303773, -1.4848035051418589, 0.08599282165303773, 0.08599282165303773, 0.08599282165303773, 0.08599282165303773]","[0.08599282165303773, -1.4848035051418589, 0.08599282165303773, 0.08599282165303773, 0.08599282165303773, 0.08599282165303773]",0.002,7,1
0,100,"[0.039636701345443726, -1.531101932083704, 0.03966695467104131, 0.039786263103149366, 0.039633989334106445, 0.03957722708582878]","[0.4002235233783722, 0.39824023842811584, 0.3996833264827728, 0.3986063599586487, 0.39708399772644043, 0.3982927203178406]","[0.08684314956029332, -1.4839531772346033, 0.08684314956029332, 0.08684314956029332, 0.08684314956029332, 0.08684314956029332]","[0.08684314956029332, -1.4839531772346033, 0.08684314956029332, 0.08684314956029332, 0.08684314956029332, 0.08684314956029332]",0.002,7,1
0,101,"[0.04041856899857521, -1.530335684572794, 0.04047567049135381, 0.04060892641033931, 0.04046253859996796, 0.040409576147794724]","[0.4002546966075897, 0.40083274245262146, 0.4004482924938202, 0.3995440602302551, 0.3995494246482849, 0.40108588337898254]","[0.0876929284799157, -1.4831033983149808, 0.0876929284799157, 0.0876929284799157, 0.0876929284799157, 0.0876929284799157]","[0.0876929284799157, -1.4831033983149808, 0.0876929284799157, 0.0876929284799157, 0.0876929284799157, 0.0876929284799157]",0.002,7,1
0,102,"[0.04129532724618912, -1.5295534555665036, 0.04126197496523076, 0.041446014041564894, 0.04127611219882965, 0.041157566010951996]","[0.40194863080978394, 0.4038519859313965, 0.4044107496738434, 0.40063396096229553, 0.4011572301387787, 0.4038310945034027]","[0.08854215303994269, -1.482254173754954, 0.08854215303994269, 0.08854215303994269, 0.08854215303994269, 0.08854215303994269]","[0.08854215303994269, -1.482254173754954, 0.08854215303994269, 0.08854215303994269, 0.08854215303994269, 0.08854215303994269]",0.002,7,1
0,103,"[0.04207723215222359, -1.5287336644581337, 0.04205018678774053, 0.04221300661053462, 0.04206375777721405, 0.041959427297115326]","[0.40480709075927734, 0.4035562574863434, 0.40470975637435913, 0.40139040350914, 0.4039771258831024, 0.405293345451355]","[0.08939081787191647, -1.48140550892298, 0.08939081787191647, 0.08939081787191647, 0.08939081787191647, 0.08939081787191647]","[0.08939081787191647, -1.48140550892298, 0.08939081787191647, 0.08939081787191647, 0.08939081787191647, 0.08939081787191647]",0.002,7,1
0,104,"[0.04285044968128204, -1.5279257495752354, 0.04279452959169561, 0.04303066312756343, 0.04288463294506073, 0.04280371963977814]","[0.4058001935482025, 0.4077025055885315, 0.403629332780838, 0.40270161628723145, 0.406845360994339, 0.4085930585861206]","[0.09023891761091771, -1.4805574091839788, 0.09023891761091771, 0.09023891761091771, 0.09023891761091771, 0.09023891761091771]","[0.09023891761091771, -1.4805574091839788, 0.09023891761091771, 0.09023891761091771, 0.09023891761091771, 0.09023891761091771]",0.002,7,1
0,105,"[0.04371420294046402, -1.5271221448532124, 0.043678108845846, 0.04387299596752925, 0.043681345880031586, 0.04353058338165283]","[0.40900081396102905, 0.4071763753890991, 0.40841418504714966, 0.4049951136112213, 0.4094828963279724, 0.4124878942966461]","[0.09108644689559922, -1.4797098798992974, 0.09108644689559922, 0.09108644689559922, 0.09108644689559922, 0.09108644689559922]","[0.09108644689559922, -1.4797098798992974, 0.09108644689559922, 0.09108644689559922, 0.09108644689559922, 0.09108644689559922]",0.002,7,1
0,106,"[0.04454411193728447, -1.5263675425997754, 0.04457217851747686, 0.04473344861950679, 0.04448426514863968, 0.044387150555849075]","[0.41196826100349426, 0.40932419896125793, 0.40866345167160034, 0.4056301414966583, 0.40951547026634216, 0.4131177067756653]","[0.09193340036822013, -1.4788629264266764, 0.09193340036822013, 0.09193340036822013, 0.09193340036822013, 0.09193340036822013]","[0.09193340036822013, -1.4788629264266764, 0.09193340036822013, 0.09193340036822013, 0.09193340036822013, 0.09193340036822013]",0.002,7,1
0,107,"[0.04531312733888626, -1.5255486716381093, 0.04530078569521123, 0.04550914346661372, 0.04528893530368805, 0.0452568456530571]","[0.4098193049430847, 0.41140735149383545, 0.4102073907852173, 0.4066782593727112, 0.41388070583343506, 0.41599297523498535]","[0.09277977267467959, -1.478016554120217, 0.09277977267467959, 0.09277977267467959, 0.09277977267467959, 0.09277977267467959]","[0.09277977267467959, -1.478016554120217, 0.09277977267467959, 0.09277977267467959, 0.09277977267467959, 0.09277977267467959]",0.002,7,1
0,108,"[0.046197373420000076, -1.5247527857175847, 0.04610902467836553, 0.04638044416394038, 0.04608353227376938, 0.046034496277570724]","[0.4143579304218292, 0.41386276483535767, 0.4127437472343445, 0.4091222882270813, 0.413987934589386, 0.41800564527511597]","[0.09362555846455059, -1.4771707683303459, 0.09362555846455059, 0.09362555846455059, 0.09362555846455059, 0.09362555846455059]","[0.09362555846455059, -1.4771707683303459, 0.09362555846455059, 0.09362555846455059, 0.09362555846455059, 0.09362555846455059]",0.002,7,1
0,109,"[0.04703858122229576, -1.523908694540598, 0.04688483873476201, 0.04718224584545894, 0.046866998076438904, 0.04688108339905739]","[0.41611993312835693, 0.4163225293159485, 0.41273993253707886, 0.41185539960861206, 0.41572898626327515, 0.419219434261322]","[0.09447075239111392, -1.4763255744037826, 0.09447075239111392, 0.09447075239111392, 0.09447075239111392, 0.09447075239111392]","[0.09447075239111392, -1.4763255744037826, 0.09447075239111392, 0.09447075239111392, 0.09447075239111392, 0.09447075239111392]",0.002,7,1
0,110,"[0.04783633351325989, -1.5231100370040913, 0.047736946736471, 0.04799167692150874, 0.047793157398700714, 0.04773366078734398]","[0.418165385723114, 0.4156642556190491, 0.4168810248374939, 0.41214707493782043, 0.41807442903518677, 0.4206177294254303]","[0.09531534911139185, -1.4754809776835047, 0.09531534911139185, 0.09531534911139185, 0.09531534911139185, 0.09531534911139185]","[0.09531534911139185, -1.4754809776835047, 0.09531534911139185, 0.09531534911139185, 0.09531534911139185, 0.09531534911139185]",0.002,7,1
0,111,"[0.048693351447582245, -1.5222510670176526, 0.04856616655458623, 0.04877857744183345, 0.04859921708703041, 0.04859866201877594]","[0.41848665475845337, 0.41606730222702026, 0.41559725999832153, 0.4117969870567322, 0.4185584485530853, 0.4237624406814575]","[0.09615934328618193, -1.4746369835087145, 0.09615934328618193, 0.09615934328618193, 0.09615934328618193, 0.09615934328618193]","[0.09615934328618193, -1.4746369835087145, 0.09615934328618193, 0.09615934328618193, 0.09615934328618193, 0.09615934328618193]",0.002,7,1
0,112,"[0.04953911155462265, -1.5214557398906727, 0.04935199419130498, 0.04962400972332759, 0.049472611397504807, 0.04944263771176338]","[0.4208841323852539, 0.4173645079135895, 0.4163818657398224, 0.4128320813179016, 0.4224880337715149, 0.42295965552330017]","[0.09700272958009082, -1.4737935972148057, 0.09700272958009082, 0.09700272958009082, 0.09700272958009082, 0.09700272958009082]","[0.09700272958009082, -1.4737935972148057, 0.09700272958009082, 0.09700272958009082, 0.09700272958009082, 0.09700272958009082]",0.002,7,1
0,113,"[0.050314098596572876, -1.5205876876464863, 0.050213162099019826, 0.050424380893371534, 0.050297994166612625, 0.050302378833293915]","[0.42247307300567627, 0.4181655943393707, 0.42069050669670105, 0.41636475920677185, 0.42400726675987244, 0.42506036162376404]","[0.09784550266156791, -1.4729508241333287, 0.09784550266156791, 0.09784550266156791, 0.09784550266156791, 0.09784550266156791]","[0.09784550266156791, -1.4729508241333287, 0.09784550266156791, 0.09784550266156791, 0.09784550266156791, 0.09784550266156791]",0.002,7,1
0,114,"[0.05127999186515808, -1.5197930459729214, 0.05107003847231084, 0.05125360071148677, 0.051188066601753235, 0.051095254719257355]","[0.42336034774780273, 0.41862794756889343, 0.4195268452167511, 0.4205097556114197, 0.4240013062953949, 0.4257747232913971]","[0.09868765720293912, -1.4721086695919574, 0.09868765720293912, 0.09868765720293912, 0.09868765720293912, 0.09868765720293912]","[0.09868765720293912, -1.4721086695919574, 0.09868765720293912, 0.09868765720293912, 0.09868765720293912, 0.09868765720293912]",0.002,7,1
0,115,"[0.052096523344516754, -1.5189500388554116, 0.051890198384420216, 0.05205218374218745, 0.051967013627290726, 0.051992569118738174]","[0.42404264211654663, 0.41901373863220215, 0.4247881770133972, 0.4220167398452759, 0.4258636236190796, 0.4287187159061432]","[0.09952918788044049, -1.471267138914456, 0.09952918788044049, 0.09952918788044049, 0.09952918788044049, 0.09952918788044049]","[0.09952918788044049, -1.471267138914456, 0.09952918788044049, 0.09952918788044049, 0.09952918788044049, 0.09952918788044049]",0.002,7,1
0,116,"[0.05292338877916336, -1.5180817891708394, 0.052692715321676076, 0.052855177516601515, 0.052814751863479614, 0.052863314747810364]","[0.42566314339637756, 0.4224494993686676, 0.4243398904800415, 0.4260680377483368, 0.42717882990837097, 0.429951548576355]","[0.10037008937425189, -1.4704262374206447, 0.10037008937425189, 0.10037008937425189, 0.10037008937425189, 0.10037008937425189]","[0.10037008937425189, -1.4704262374206447, 0.10037008937425189, 0.10037008937425189, 0.10037008937425189, 0.10037008937425189]",0.002,7,1
0,117,"[0.05371452122926712, -1.5172760163298626, 0.05352336565126592, 0.05368248998608394, 0.05363442003726959, 0.053734391927719116]","[0.42852234840393066, 0.4221581816673279, 0.42387375235557556, 0.428495854139328, 0.4280814230442047, 0.4291459918022156]","[0.10121035636853062, -1.4695859704263659, 0.10121035636853062, 0.10121035636853062, 0.10121035636853062, 0.10121035636853062]","[0.10121035636853062, -1.4695859704263659, 0.10121035636853062, 0.10121035636853062, 0.10121035636853062, 0.10121035636853062]",0.002,7,1
0,118,"[0.054588682949543, -1.516436619018652, 0.05441028276552373, 0.054544253940246534, 0.05451927334070206, 0.05461864173412323]","[0.42770206928253174, 0.4217754006385803, 0.42416101694107056, 0.4269297122955322, 0.4309035539627075, 0.42880502343177795]","[0.10204998355144514, -1.4687463432434513, 0.10204998355144514, 0.10204998355144514, 0.10204998355144514, 0.10204998355144514]","[0.10204998355144514, -1.4687463432434513, 0.10204998355144514, 0.10204998355144514, 0.10204998355144514, 0.10204998355144514]",0.002,7,1
0,119,"[0.05548866465687752, -1.5155571673861523, 0.05531007448305303, 0.05531553804364009, 0.05547869950532913, 0.05548228323459625]","[0.4291509985923767, 0.4220350384712219, 0.426415354013443, 0.4292871356010437, 0.43219083547592163, 0.4291088283061981]","[0.10288896561520831, -1.4679073611796882, 0.10288896561520831, 0.10288896561520831, 0.10288896561520831, 0.10288896561520831]","[0.10288896561520831, -1.4679073611796882, 0.10288896561520831, 0.10288896561520831, 0.10288896561520831, 0.10288896561520831]",0.002,7,1
0,120,"[0.056322865188121796, -1.5146842052093525, 0.056119743977681935, 0.05613998949017329, 0.05624387413263321, 0.05634550750255585]","[0.4322279095649719, 0.42177119851112366, 0.42648792266845703, 0.4323905110359192, 0.4345490336418152, 0.4302472472190857]","[0.10372729725611143, -1.4670690295387852, 0.10372729725611143, 0.10372729725611143, 0.10372729725611143, 0.10372729725611143]","[0.10372729725611143, -1.4670690295387852, 0.10372729725611143, 0.10372729725611143, 0.10372729725611143, 0.10372729725611143]",0.002,7,1
0,121,"[0.057282958179712296, -1.5138489168933411, 0.056979004536763966, 0.05702964841809077, 0.05714947730302811, 0.05723288655281067]","[0.4311174750328064, 0.42382577061653137, 0.42865753173828125, 0.4346623420715332, 0.4353911876678467, 0.42991387844085693]","[0.10456497317455739, -1.466231353620339, 0.10456497317455739, 0.10456497317455739, 0.10456497317455739, 0.10456497317455739]","[0.10456497317455739, -1.466231353620339, 0.10456497317455739, 0.10456497317455739, 0.10456497317455739, 0.10456497317455739]",0.002,7,1
0,122,"[0.05814439803361893, -1.512988955979683, 0.057812039052144826, 0.05792157232250972, 0.05799988657236099, 0.05812854319810867]","[0.43518516421318054, 0.4251112937927246, 0.4324204921722412, 0.4382805824279785, 0.43376290798187256, 0.43231168389320374]","[0.10540198807509427, -1.4653943387198023, 0.10540198807509427, 0.10540198807509427, 0.10540198807509427, 0.10540198807509427]","[0.10540198807509427, -1.4653943387198023, 0.10540198807509427, 0.10540198807509427, 0.10540198807509427, 0.10540198807509427]",0.002,7,1
0,123,"[0.05896848067641258, -1.5121424247375508, 0.05874473253359014, 0.05877332269635005, 0.058892179280519485, 0.05897442623972893]","[0.43516063690185547, 0.42768609523773193, 0.4307233989238739, 0.4388522803783417, 0.43472954630851746, 0.4333488643169403]","[0.1062383366664489, -1.4645579901284476, 0.1062383366664489, 0.1062383366664489, 0.1062383366664489, 0.1062383366664489]","[0.1062383366664489, -1.4645579901284476, 0.1062383366664489, 0.1062383366664489, 0.1062383366664489, 0.1062383366664489]",0.002,7,1
0,124,"[0.05982741340994835, -1.511253335779049, 0.05957156816591436, 0.05963806688275142, 0.05979268625378609, 0.05991304665803909]","[0.43399447202682495, 0.42808979749679565, 0.43371549248695374, 0.4405512809753418, 0.4364272356033325, 0.43349236249923706]","[0.10707401366156022, -1.4637223131333363, 0.10707401366156022, 0.10707401366156022, 0.10707401366156022, 0.10707401366156022]","[0.10707401366156022, -1.4637223131333363, 0.10707401366156022, 0.10707401366156022, 0.10707401366156022, 0.10707401366156022]",0.002,7,1
0,125,"[0.06064533442258835, -1.5104436588338395, 0.06048041978944951, 0.06048695623364253, 0.06072670593857765, 0.06075536087155342]","[0.43701642751693726, 0.4282848536968231, 0.4350642263889313, 0.4404788613319397, 0.4353552758693695, 0.4326726198196411]","[0.10790901377761274, -1.462887313017284, 0.10790901377761274, 0.10790901377761274, 0.10790901377761274, 0.10790901377761274]","[0.10790901377761274, -1.462887313017284, 0.10790901377761274, 0.10790901377761274, 0.10790901377761274, 0.10790901377761274]",0.002,7,1
0,126,"[0.061478495597839355, -1.5095521707883854, 0.06136638322939092, 0.06131844102825923, 0.06156790256500244, 0.061638351529836655]","[0.43533238768577576, 0.4290001690387726, 0.43416550755500793, 0.44029244780540466, 0.4375985860824585, 0.43402355909347534]","[0.10874333173606994, -1.4620529950588266, 0.10874333173606994, 0.10874333173606994, 0.10874333173606994, 0.10874333173606994]","[0.10874333173606994, -1.4620529950588266, 0.10874333173606994, 0.10874333173606994, 0.10874333173606994, 0.10874333173606994]",0.002,7,1
0,127,"[0.06249447166919708, -1.5087011654726048, 0.06219226518739873, 0.062280579204223585, 0.06245537847280502, 0.0625544935464859]","[0.4373799264431, 0.4299112558364868, 0.43578991293907166, 0.43981510400772095, 0.43715164065361023, 0.4339357614517212]","[0.1095769622627076, -1.461219364532189, 0.1095769622627076, 0.1095769622627076, 0.1095769622627076, 0.1095769622627076]","[0.1095769622627076, -1.461219364532189, 0.1095769622627076, 0.1095769622627076, 0.1095769622627076, 0.1095769622627076]",0.002,7,1
0,128,"[0.06330690532922745, -1.507776365881302, 0.06307441393007451, 0.06314949571575923, 0.06337772309780121, 0.06342291831970215]","[0.4373816251754761, 0.43167880177497864, 0.4362899363040924, 0.44101443886756897, 0.43739134073257446, 0.4348239302635193]","[0.1104099000876472, -1.4603864267072493, 0.1104099000876472, 0.1104099000876472, 0.1104099000876472, 0.1104099000876472]","[0.1104099000876472, -1.4603864267072493, 0.1104099000876472, 0.1104099000876472, 0.1104099000876472, 0.1104099000876472]",0.002,7,1
0,129,"[0.064188651740551, -1.5069146913341065, 0.06399709383119756, 0.06410138189282222, 0.06419176608324051, 0.06427400559186935]","[0.4402828812599182, 0.4313075840473175, 0.43679875135421753, 0.44334033131599426, 0.43807944655418396, 0.4351158142089844]","[0.11124213994538917, -1.4595541868495074, 0.11124213994538917, 0.11124213994538917, 0.11124213994538917, 0.11124213994538917]","[0.11124213994538917, -1.4595541868495074, 0.11124213994538917, 0.11124213994538917, 0.11124213994538917, 0.11124213994538917]",0.002,7,1
0,130,"[0.06500823050737381, -1.506015532915928, 0.06488114992250615, 0.0649309593388061, 0.06510050594806671, 0.06518816202878952]","[0.4379221796989441, 0.43387147784233093, 0.43690937757492065, 0.44441843032836914, 0.4369787573814392, 0.43546566367149353]","[0.11207367657484625, -1.4587226502200503, 0.11207367657484625, 0.11207367657484625, 0.11207367657484625, 0.11207367657484625]","[0.11207367657484625, -1.4587226502200503, 0.11207367657484625, 0.11207367657484625, 0.11207367657484625, 0.11207367657484625]",0.002,7,1
0,131,"[0.06587504595518112, -1.5050979268601914, 0.06574756303896123, 0.06593291341748042, 0.06599488854408264, 0.06599438935518265]","[0.4396742880344391, 0.43651071190834045, 0.43709152936935425, 0.44417548179626465, 0.43651285767555237, 0.435223788022995]","[0.11290450471937667, -1.45789182207552, 0.11290450471937667, 0.11290450471937667, 0.11290450471937667, 0.11290450471937667]","[0.11290450471937667, -1.45789182207552, 0.11290450471937667, 0.11290450471937667, 0.11290450471937667, 0.11290450471937667]",0.002,7,1
0,132,"[0.06679723411798477, -1.5042980548790474, 0.06663161913026983, 0.06681255876507564, 0.0668826773762703, 0.06689861416816711]","[0.4392872452735901, 0.4370025098323822, 0.43733981251716614, 0.44336894154548645, 0.4366000294685364, 0.43384596705436707]","[0.11373461912681745, -1.4570617076680792, 0.11373461912681745, 0.11373461912681745, 0.11373461912681745, 0.11373461912681745]","[0.11373461912681745, -1.4570617076680792, 0.11373461912681745, 0.11373461912681745, 0.11373461912681745, 0.11373461912681745]",0.002,7,1
0,133,"[0.06765289604663849, -1.5034155634096642, 0.06752282777895147, 0.06768993913616939, 0.0677795559167862, 0.0677424892783165]","[0.43963590264320374, 0.4391104578971863, 0.4386019706726074, 0.44168999791145325, 0.43826165795326233, 0.43592098355293274]","[0.11456401454951752, -1.456232312245379, 0.11456401454951752, 0.11456401454951752, 0.11456401454951752, 0.11456401454951752]","[0.11456401454951752, -1.456232312245379, 0.11456401454951752, 0.11456401454951752, 0.11456401454951752, 0.11456401454951752]",0.002,7,1
0,134,"[0.06858129799365997, -1.5024227511933823, 0.06839305559267217, 0.06859879075970454, 0.0686674565076828, 0.06860841065645218]","[0.4392208456993103, 0.43883079290390015, 0.439680278301239, 0.43879008293151855, 0.4383998513221741, 0.4367542564868927]","[0.11539268574437102, -1.4554036410505256, 0.11539268574437102, 0.11539268574437102, 0.11539268574437102, 0.11539268574437102]","[0.11539268574437102, -1.4554036410505256, 0.11539268574437102, 0.11539268574437102, 0.11539268574437102, 0.11539268574437102]",0.002,7,1
0,135,"[0.06953397393226624, -1.5016004306128998, 0.06933385530580694, 0.06949905931439204, 0.06955967098474503, 0.06946338713169098]","[0.4400005042552948, 0.4407004415988922, 0.44095438718795776, 0.4375862181186676, 0.4380466639995575, 0.43773847818374634]","[0.11622062747285028, -1.4545756993220462, 0.11622062747285028, 0.11622062747285028, 0.11622062747285028, 0.11622062747285028]","[0.11622062747285028, -1.4545756993220462, 0.11622062747285028, 0.11622062747285028, 0.11622062747285028, 0.11622062747285028]",0.002,7,1
0,136,"[0.07038941979408264, -1.500694901948311, 0.07027894655336553, 0.07042233526196284, 0.07035654038190842, 0.07030629366636276]","[0.44173938035964966, 0.4442202150821686, 0.44186192750930786, 0.4393464922904968, 0.43718421459198, 0.43892017006874084]","[0.11704783450103912, -1.4537484922938575, 0.11704783450103912, 0.11704783450103912, 0.11704783450103912, 0.11704783450103912]","[0.11704783450103912, -1.4537484922938575, 0.11704783450103912, 0.11704783450103912, 0.11704783450103912, 0.11704783450103912]",0.002,7,1
0,137,"[0.0711902529001236, -1.499758557682373, 0.07107955614198858, 0.07131843149151607, 0.07127940654754639, 0.07120268046855927]","[0.4405598044395447, 0.4434219300746918, 0.44380515813827515, 0.4412173330783844, 0.437467098236084, 0.43890902400016785]","[0.11787430159966572, -1.4529220251952308, 0.11787430159966572, 0.11787430159966572, 0.11787430159966572, 0.11787430159966572]","[0.11787430159966572, -1.4529220251952308, 0.11787430159966572, 0.11787430159966572, 0.11787430159966572, 0.11787430159966572]",0.002,7,1
0,138,"[0.07212730497121811, -1.498924882417061, 0.07200938860048467, 0.07225315153088374, 0.07216672599315643, 0.07204028218984604]","[0.43990156054496765, 0.44741711020469666, 0.4445442855358124, 0.44228023290634155, 0.4367106556892395, 0.44120967388153076]","[0.11870002354413592, -1.4520963032507606, 0.11870002354413592, 0.11870002354413592, 0.11870002354413592, 0.11870002354413592]","[0.11870002354413592, -1.4520963032507606, 0.11870002354413592, 0.11870002354413592, 0.11870002354413592, 0.11870002354413592]",0.002,7,1
0,139,"[0.07296398282051086, -1.498047300880291, 0.07285863557924444, 0.07312063753094478, 0.07298298180103302, 0.07293789833784103]","[0.4394077658653259, 0.44488614797592163, 0.4438609182834625, 0.44017282128334045, 0.4398820698261261, 0.4407506585121155]","[0.1195249951145661, -1.4512713316803305, 0.1195249951145661, 0.1195249951145661, 0.1195249951145661, 0.1195249951145661]","[0.1195249951145661, -1.4512713316803305, 0.1195249951145661, 0.1195249951145661, 0.1195249951145661, 0.1195249951145661]",0.002,7,1
0,140,"[0.07386664301156998, -1.497067705993988, 0.07375127473940069, 0.07400612413372798, 0.07386621832847595, 0.07381360977888107]","[0.4408513307571411, 0.4452972114086151, 0.443585604429245, 0.43700116872787476, 0.4389234781265259, 0.441685289144516]","[0.12034921109581614, -1.4504471156990804, 0.12034921109581614, 0.12034921109581614, 0.12034921109581614, 0.12034921109581614]","[0.12034921109581614, -1.4504471156990804, 0.12034921109581614, 0.12034921109581614, 0.12034921109581614, 0.12034921109581614]",0.002,7,1
0,141,"[0.07479394972324371, -1.4962893065861245, 0.07460624376405889, 0.07487027227368159, 0.07473288476467133, 0.07466800510883331]","[0.4407409429550171, 0.4459063410758972, 0.4433286786079407, 0.43776947259902954, 0.442043274641037, 0.4433712363243103]","[0.12117266627752252, -1.449623660517374, 0.12117266627752252, 0.12117266627752252, 0.12117266627752252, 0.12117266627752252]","[0.12117266627752252, -1.449623660517374, 0.12117266627752252, 0.12117266627752252, 0.12117266627752252, 0.12117266627752252]",0.002,7,1
0,142,"[0.07561463117599487, -1.495347411637642, 0.0755694548236292, 0.07581286012615962, 0.07561333477497101, 0.07552751898765564]","[0.43991750478744507, 0.44732964038848877, 0.44210925698280334, 0.4366745054721832, 0.4423920214176178, 0.44414281845092773]","[0.12199535545413111, -1.4488009713407655, 0.12199535545413111, 0.12199535545413111, 0.12199535545413111, 0.12199535545413111]","[0.12199535545413111, -1.4488009713407655, 0.12199535545413111, 0.12199535545413111, 0.12199535545413111, 0.12199535545413111]",0.002,7,1
0,143,"[0.07651791721582413, -1.4944751125625153, 0.07641488710512334, 0.07668523370709224, 0.07653815299272537, 0.07641296088695526]","[0.4405527412891388, 0.4471805989742279, 0.44058194756507874, 0.43532803654670715, 0.4426092505455017, 0.4456281363964081]","[0.12281727342493026, -1.4479790533699664, 0.12281727342493026, 0.12281727342493026, 0.12281727342493026, 0.12281727342493026]","[0.12281727342493026, -1.4479790533699664, 0.12281727342493026, 0.12281727342493026, 0.12281727342493026, 0.12281727342493026]",0.002,7,1
0,144,"[0.07743246853351593, -1.4935868245414277, 0.07732755342592412, 0.07758585988964839, 0.07742127776145935, 0.0772879421710968]","[0.44124969840049744, 0.44864794611930847, 0.4443433880805969, 0.43658557534217834, 0.43981194496154785, 0.44483527541160583]","[0.12363841499408351, -1.447157911800813, 0.12363841499408351, 0.12363841499408351, 0.12363841499408351, 0.12363841499408351]","[0.12363841499408351, -1.447157911800813, 0.12363841499408351, 0.12363841499408351, 0.12363841499408351, 0.12363841499408351]",0.002,7,1
0,145,"[0.07826640456914902, -1.4927205306342621, 0.07819587389101201, 0.07845406114544673, 0.07822497189044952, 0.07816308736801147]","[0.4406672418117523, 0.4471015930175781, 0.443782240152359, 0.438180148601532, 0.44183820486068726, 0.4456147253513336]","[0.1244587749706625, -1.446337551824234, 0.1244587749706625, 0.1244587749706625, 0.1244587749706625, 0.1244587749706625]","[0.1244587749706625, -1.446337551824234, 0.1244587749706625, 0.1244587749706625, 0.1244587749706625, 0.1244587749706625]",0.002,7,1
0,146,"[0.07920876145362854, -1.4917957794717331, 0.0790932814227503, 0.07930795728649898, 0.07911543548107147, 0.07909257709980011]","[0.44245317578315735, 0.4471186399459839, 0.44452133774757385, 0.43538156151771545, 0.4436209797859192, 0.44644373655319214]","[0.12527834816867986, -1.4455179786262167, 0.12527834816867986, 0.12527834816867986, 0.12527834816867986, 0.12527834816867986]","[0.12527834816867986, -1.4455179786262167, 0.12527834816867986, 0.12527834816867986, 0.12527834816867986, 0.12527834816867986]",0.002,7,1
0,147,"[0.0800371766090393, -1.4908615958741684, 0.07997352281679326, 0.08017973482098384, 0.07998207211494446, 0.07997476309537888]","[0.4413219392299652, 0.4464273452758789, 0.44141608476638794, 0.43553727865219116, 0.44333282113075256, 0.4465845823287964]","[0.12609712940712178, -1.4446991973877747, 0.12609712940712178, 0.12609712940712178, 0.12609712940712178, 0.12609712940712178]","[0.12609712940712178, -1.4446991973877747, 0.12609712940712178, 0.12609712940712178, 0.12609712940712178, 0.12609712940712178]",0.002,7,1
0,148,"[0.08094359934329987, -1.4900542956641694, 0.08083755174745733, 0.08099691450085444, 0.08085222542285919, 0.0808991864323616]","[0.4403785765171051, 0.4457417130470276, 0.44257989525794983, 0.43471962213516235, 0.44316959381103516, 0.4448022246360779]","[0.12691511350998105, -1.4438812132849155, 0.12691511350998105, 0.12691511350998105, 0.12691511350998105, 0.12691511350998105]","[0.12691511350998105, -1.4438812132849155, 0.12691511350998105, 0.12691511350998105, 0.12691511350998105, 0.12691511350998105]",0.002,7,1
0,149,"[0.08180606365203857, -1.4891624462655564, 0.08166629472841436, 0.08191458761181636, 0.08172540366649628, 0.08178263902664185]","[0.4422110617160797, 0.44614356756210327, 0.4399753212928772, 0.4364554286003113, 0.4441147744655609, 0.4448443055152893]","[0.1277322953062895, -1.443064031488607, 0.1277322953062895, 0.1277322953062895, 0.1277322953062895, 0.1277322953062895]","[0.1277322953062895, -1.443064031488607, 0.1277322953062895, 0.1277322953062895, 0.1277322953062895, 0.1277322953062895]",0.002,7,1
0,150,"[0.08267556130886078, -1.4883085054210206, 0.08261663118471319, 0.0826912361332397, 0.08269745111465454, 0.08263999968767166]","[0.4414387047290802, 0.44361570477485657, 0.44260573387145996, 0.4376949965953827, 0.44245123863220215, 0.44587844610214233]","[0.12854866963015096, -1.4422476571647456, 0.12854866963015096, 0.12854866963015096, 0.12854866963015096, 0.12854866963015096]","[0.12854866963015096, -1.4422476571647456, 0.12854866963015096, 0.12854866963015096, 0.12854866963015096, 0.12854866963015096]",0.002,7,1
0,151,"[0.0836254358291626, -1.4873126161149521, 0.08347112337221319, 0.08352713167156978, 0.0834803655743599, 0.0835183784365654]","[0.4424552917480469, 0.4455106258392334, 0.4416813552379608, 0.43794354796409607, 0.44400182366371155, 0.4451568126678467]","[0.12936423132077363, -1.4414320954741229, 0.12936423132077363, 0.12936423132077363, 0.12936423132077363, 0.12936423132077363]","[0.12936423132077363, -1.4414320954741229, 0.12936423132077363, 0.12936423132077363, 0.12936423132077363, 0.12936423132077363]",0.002,7,1
0,152,"[0.08454151451587677, -1.4864704471877594, 0.0844038168536585, 0.08439676343884273, 0.08448323607444763, 0.08446472883224487]","[0.4402316212654114, 0.44428977370262146, 0.4432567059993744, 0.4408244490623474, 0.4443621039390564, 0.4435911774635315]","[0.13017897522250294, -1.4406173515723937, 0.13017897522250294, 0.13017897522250294, 0.13017897522250294, 0.13017897522250294]","[0.13017897522250294, -1.4406173515723937, 0.13017897522250294, 0.13017897522250294, 0.13017897522250294, 0.13017897522250294]",0.002,7,1
