Arnibjarnst/BoxLift/logs/ur_rtde/trajectory_dur=5.0_delay=0.0_gain=200_lh=0.03_real.csv
arm_idx,step,actual_q,actual_qd,target_q,expected_q,loop_time,robot_mode,safety_mode
0,-1,"[-0.006126228963033498, -1.5768243275084437, -0.006058800965547562, -0.00620932996783452, -0.006168190632955373, -0.006135288869039357]","[0.04515669122338295, 0.048642683774232864, 0.047169510275125504, 0.04827798157930374, 0.04532204195857048, 0.04739316552877426]","[0.0, -1.5707963267948966, 0.0, 0.0, 0.0, 0.0]","[0.0, -1.5707963267948966, 0.0, 0.0, 0.0, 0.0]",0.002,7,1
0,-1,"[-0.005335632954732716, -1.5758663616576136, -0.005156304687261581, -0.005382851963378954, -0.005309883748189748, -0.005284611378804982]","[0.0589163713157177, 0.06670338660478592, 0.06175440177321434, 0.06338701397180557, 0.060363367199897766, 0.06267443299293518]","[0.0, -1.5707963267948966, 0.0, 0.0, 0.0, 0.0]","[0.0, -1.5707963267948966, 0.0, 0.0, 0.0, 0.0]",0.002,7,1
0,-1,"[-0.004498783742086232, -1.5750466785826625, -0.004356114659458399, -0.004472569828369188, -0.0043824354754846695, -0.004432980214254201]","[0.07397746294736862, 0.07257823646068573, 0.07424670457839966, 0.07647430151700974, 0.07622858881950378, 0.07472110539674759]","[0.0, -1.5707963267948966, 0.0, 0.0, 0.0, 0.0]","[0.0, -1.5707963267948966, 0.0, 0.0, 0.0, 0.0]",0.002,7,1
0,-1,"[-0.0035403410540979507, -1.5740987263121546, -0.003424864262342453, -0.0035177034190674306, -0.0033858458148401382, -0.003370110188619435]","[0.08783093839883804, 0.07934506982564926, 0.0850713923573494, 0.0861767902970314, 0.08509638160467148, 0.08788961172103882]","[0.0, -1.5707963267948966, 0.0, 0.0, 0.0, 0.0]","[0.0, -1.5707963267948966, 0.0, 0.0, 0.0, 0.0]",0.002,7,1
0,-1,"[-0.0025294462787073257, -1.5732323131956996, -0.002410151297226548, -0.002454833393432665, -0.0023186842547815445, -0.0023520628558557632]","[0.06919234991073608, 0.058441586792469025, 0.06881430745124817, 0.06815017759799957, 0.07000521570444107, 0.0694318562746048]","[0.0, -1.5707963267948966, 0.0, 0.0, 0.0, 0.0]","[0.0, -1.5707963267948966, 0.0, 0.0, 0.0, 0.0]",0.002,7,1
0,-1,"[-0.0012133757220667007, -1.5718361339964808, -0.001032792148180306, -0.0011778634837646962, -0.0010126272784631851, -0.0010517279254358414]","[0.048457175493240356, 0.05022305250167847, 0.050785209983587265, 0.04936882108449936, 0.045138247311115265, 0.0472833476960659]","[0.0, -1.5707963267948966, 0.0, 0.0, 0.0, 0.0]","[0.0, -1.5707963267948966, 0.0, 0.0, 0.0, 0.0]",0.002,7,1
0,-1,"[-0.0008743445025842789, -1.5715300045409144, -0.0006755986250936985, -0.000797585850097704, -0.0007670561419885757, -0.0007055441485803726]","[0.03974977880716324, 0.04044654592871666, 0.04227282851934433, 0.04070214927196503, 0.03897181898355484, 0.038616400212049484]","[0.0, -1.5707963267948966, 0.0, 0.0, 0.0, 0.0]","[0.0, -1.5707963267948966, 0.0, 0.0, 0.0, 0.0]",0.002,7,1
0,-1,"[-0.00032836595644170075, -1.5709783039488734, -0.00015584350330755115, -0.00023849428210453993, -0.000184361134664357, -0.000211064015523732]","[0.02268354408442974, 0.021680496633052826, 0.02199496701359749, 0.022350605577230453, 0.020882362499833107, 0.020774085074663162]","[0.0, -1.5707963267948966, 0.0, 0.0, 0.0, 0.0]","[0.0, -1.5707963267948966, 0.0, 0.0, 0.0, 0.0]",0.002,7,1
0,-1,"[-0.00011426607240849762, -1.5707622927478333, 6.41981707971695e-05, -6.826341662602431e-05, -2.175966371709137e-05, 0.0]","[0.00341872894205153, 0.003153064986690879, 0.002065810142084956, 0.0018572842236608267, 0.0005844416446052492, 0.0005743516376242042]","[0.0, -1.5707963267948966, 0.0, 0.0, 0.0, 0.0]","[0.0, -1.5707963267948966, 0.0, 0.0, 0.0, 0.0]",0.002,7,1
0,-1,"[-0.00011998811830693512, -1.5708829365172328, -2.9980063118273392e-05, -7.505834613041884e-05, -2.366701234990387e-05, -3.987947572881012e-05]","[0.0002276094601256773, -0.002789462450891733, -0.0026852432638406754, 1.3992734011480934e-06, -6.59204673070235e-08, -0.0005315436865203083]","[0.0, -1.5707963267948966, 0.0, 0.0, 0.0, 0.0]","[0.0, -1.5707963267948966, 0.0, 0.0, 0.0, 0.0]",0.002,7,1
0,-1,"[-0.00013810793031865387, -1.5709225140013636, -4.193425411358476e-05, -8.519113574223525e-05, -8.184114565068512e-05, -3.5587941304981996e-05]","[2.3891785919674705e-19, -0.001824473380111158, -0.0016398433363065124, -0.00020793845760636032, -2.1774407968547832e-17, -9.445624164072797e-05]","[0.0, -1.5707963267948966, 0.0, 0.0, 0.0, 0.0]","[0.0, -1.5707963267948966, 0.0, 0.0, 0.0, 0.0]",0.002,7,1
0,-1,"[-0.000100437794820607, -1.5708447895445765, -9.632760338718072e-05, -1.0446911193895403e-05, 9.059906005859375e-06, -6.9920216695607e-05]","[0.00013981763913761824, 0.0001388686941936612, -5.536183380172588e-05, 0.00041891721775755286, 0.0004367822839412838, -2.8542373932421592e-15]","[0.0, -1.5707963267948966, 0.0, 0.0, 0.0, 0.0]","[0.0, -1.5707963267948966, 0.0, 0.0, 0.0, 0.0]",0.002,7,1
0,-1,"[-8.422533144170075e-05, -1.57086243251943, -6.290609599091113e-05, 8.984203002881941e-06, -5.3707753316700746e-05, -4.464784731084137e-05]","[0.00017556942475493997, 8.302775677293539e-05, -3.427583578741178e-05, 0.0004768708604387939, 0.0006914586410857737, 0.0004011001728940755]","[0.0, -1.5707963267948966, 0.0, 0.0, 0.0, 0.0]","[0.0, -1.5707963267948966, 0.0, 0.0, 0.0, 0.0]",0.002,7,1
0,-1,"[-0.00014716783632451325, -1.5709310970702113, -7.819524762453511e-05, -4.442155871586806e-05, 1.5417259419336915e-05, 2.134990609192755e-05]","[0.0004819108871743083, 6.214751192601398e-05, -2.7900283384951763e-05, 0.00034336416865698993, 0.0007952137384563684, 0.0003393978113308549]","[0.0, -1.5707963267948966, 0.0, 0.0, 0.0, 0.0]","[0.0, -1.5707963267948966, 0.0, 0.0, 0.0, 0.0]",0.002,7,1
0,-1,"[-0.00013143221010381012, -1.5708819828429164, -7.031226414255798e-05, -3.2500629760789934e-05, 2.7380465326132253e-05, -2.843538393193512e-05]","[0.00047263296437449753, 5.460602551465854e-05, -2.482223317201715e-05, 0.0003112685517407954, 0.0008482043631374836, 0.0003366654273122549]","[0.0, -1.5707963267948966, 0.0, 0.0, 0.0, 0.0]","[0.0, -1.5707963267948966, 0.0, 0.0, 0.0, 0.0]",0.002,7,1
0,-1,"[-0.00017339388002568512, -1.5708495579161585, -9.3013935838826e-05, -6.826341662602431e-05, -1.5083943502247621e-05, -2.557436098271637e-05]","[0.0006438173586502671, 8.327465911861509e-05, -2.4194266924106034e-13, 0.0005086703458800912, 0.0006576649029739201, 0.00029875102336518466]","[0.0, -1.5707963267948966, 0.0, 0.0, 0.0, 0.0]","[0.0, -1.5707963267948966, 0.0, 0.0, 0.0, 0.0]",0.002,7,1
0,-1,"[-0.0001519362079065445, -1.5708209476866664, -4.1943312680814415e-05, 4.573459289503035e-06, -6.024037496388246e-06, -1.6514454976856996e-05]","[0.0006174191948957741, 0.00011882068065460771, -1.4109324562130793e-24, 0.0004546369018498808, 0.0005854443297721446, 0.00040455235284753144]","[0.0, -1.5707963267948966, 0.0, 0.0, 0.0, 0.0]","[0.0, -1.5707963267948966, 0.0, 0.0, 0.0, 0.0]",0.002,7,1
0,-1,"[-5.323091615849762e-05, -1.570890565911764, -6.296986975939944e-05, -3.560007128911025e-05, -2.080598940068512e-05, -2.080598940068512e-05]","[0.0009425518801435828, 0.00011521799024194479, -1.9870412224125906e-41, 0.0003333620261400938, 0.00035633138031698763, 0.0003129842516500503]","[0.0, -1.5707963267948966, 0.0, 0.0, 0.0, 0.0]","[0.0, -1.5707963267948966, 0.0, 0.0, 0.0, 0.0]",0.002,7,1
0,-1,"[-1.6514454976856996e-05, -1.5708948574461878, -5.8475405239732936e-05, -4.442155871586806e-05, -1.5083943502247621e-05, -4.116688863575746e-06]","[0.001169673865661025, 0.00011695358989527449, -0.0, 0.0002432414621580392, 0.0003143307112623006, 0.0002653850824572146]","[0.0, -1.5707963267948966, 0.0, 0.0, 0.0, 0.0]","[0.0, -1.5707963267948966, 0.0, 0.0, 0.0, 0.0]",0.002,7,1
0,-1,"[-9.948412050420075e-05, -1.570906778375143, -9.180032793665305e-05, -4.0130024292039934e-05, 3.1803130696062e-05, 7.873296453908551e-06]","[0.001075210515409708, 0.00010702005965868011, -0.0, 0.0002038778184214607, 0.0002239460445707664, 0.00018039316637441516]","[0.0, -1.5707963267948966, 0.0, 0.0, 0.0, 0.0]","[0.0, -1.5707963267948966, 0.0, 0.0, 0.0, 0.0]",0.002,7,1
0,-1,"[-2.4143849508106996e-05, -1.57086243251943, -5.1021575927734375e-05, 1.6271557612412835e-07, 1.8349366655456834e-05, 9.059906005859375e-06]","[0.0013678102986887097, 0.00011099532275693491, -0.0, 0.00019511450955178589, 0.0002045759465545416, 0.00017335153825115412]","[0.0, -1.5707963267948966, 0.0, 0.0, 0.0, 0.0]","[0.0, -1.5707963267948966, 0.0, 0.0, 0.0, 0.0]",0.002,7,1
0,-1,"[-5.070363179981996e-06, -1.570874353448385, -7.941496733110398e-05, -8.777981140184465e-06, 6.41934320810833e-06, 3.327083686599508e-05]","[0.0012029764475300908, 0.00010018471220973879, -0.0, 0.0001640027476241812, 0.00016315121320076287, 0.00016590148152317852]","[0.0, -1.5707963267948966, 0.0, 0.0, 0.0, 0.0]","[0.0, -1.5707963267948966, 0.0, 0.0, 0.0, 0.0]",0.002,7,1
0,-1,"[-1.4130269185841371e-05, -1.570902486840719, -8.843588875606656e-05, 4.573459289503035e-06, -1.0792409078419496e-05, -8.885060445606996e-06]","[-3.6287956627573893e-25, 8.719311881577596e-05, -0.0, 8.651173993712291e-05, 0.00012831218191422522, 0.00014234094123821706]","[0.0, -1.5707963267948966, 0.0, 0.0, 0.0, 0.0]","[0.0, -1.5707963267948966, 0.0, 0.0, 0.0, 0.0]",0.002,7,1
0,-1,"[4.469823761610314e-05, -1.5708877048888148, -9.175496234092861e-05, 7.553691528272566e-06, -4.3217335836231996e-05, -1.794496645146637e-05]","[-3.809093563635577e-40, 0.0007621849654242396, -0.0, 7.497975457226858e-05, 0.00011033436749130487, 0.0001157765364041552]","[0.0, -1.5707963267948966, 0.0, 0.0, 0.0, 0.0]","[0.0, -1.5707963267948966, 0.0, 0.0, 0.0, 0.0]",0.002,7,1
0,-1,"[1.1661809367069509e-05, -1.5708385906615199, -9.180032793665305e-05, -5.324304614262587e-05, -4.750887026006012e-05, -1.794496645146637e-05]","[0.0, 0.0017988147446885705, -0.0, 8.178263669833541e-05, 0.00011410599108785391, 0.00012035205872962251]","[0.0, -1.5707963267948966, 0.0, 0.0, 0.0, 0.0]","[0.0, -1.5707963267948966, 0.0, 0.0, 0.0, 0.0]",0.002,7,1
0,-1,"[-1.4130269185841371e-05, -1.5708428821959437, -8.55932230479084e-05, 3.7832851074171e-05, 6.4373016357421875e-06, 3.337860107421875e-06]","[0.0, 0.0007301695295609534, 0.00011365770478732884, 7.295693649211898e-05, 0.00010126686538569629, 0.0001021402858896181]","[0.0, -1.5707963267948966, 0.0, 0.0, 0.0, 0.0]","[0.0, -1.5707963267948966, 0.0, 0.0, 0.0, 0.0]",0.002,7,1
0,-1,"[-1.732503072560121e-06, -1.5708548031248988, -4.1943312680814415e-05, 4.534303631587022e-05, 9.512902579444926e-06, -3.415742983037262e-05]","[0.0, 0.0004927563131786883, 9.870046051219106e-05, 7.873386493884027e-05, 9.338615200249478e-05, 9.172978752758354e-05]","[0.0, -1.5707963267948966, 0.0, 0.0, 0.0, 0.0]","[0.0, -1.5707963267948966, 0.0, 0.0, 0.0, 0.0]",0.002,7,1
0,-1,"[-1.4130269185841371e-05, -1.5708991489806117, -3.002238372573629e-05, 1.3394946716260847e-05, -1.732503072560121e-06, -3.415742983037262e-05]","[0.0, 0.00038684075116179883, 9.073947876458988e-05, 7.498563354602084e-05, 8.878018707036972e-05, 8.589347271481529e-05]","[0.0, -1.5707963267948966, 0.0, 0.0, 0.0, 0.0]","[0.0, -1.5707963267948966, 0.0, 0.0, 0.0, 0.0]",0.002,7,1
0,-1,"[-3.797212709599762e-05, -1.5708304844298304, -6.753873458364978e-05, -3.691137347416884e-05, 3.027029561053496e-05, 1.9717215764103457e-05]","[0.0, 0.0002889815659727901, 9.376224625157192e-05, 1.1612222579060472e-06, 8.080885891104117e-05, 8.88949871296063e-05]","[0.0, -1.5707963267948966, 0.0, 0.0, 0.0, 0.0]","[0.0, -1.5707963267948966, 0.0, 0.0, 0.0, 0.0]",0.002,7,1
0,-1,"[-6.80128680627945e-05, -1.5708099804320277, -5.551576759899035e-05, -1.9268398620653215e-05, -6.80128680627945e-05, -1.6514454976856996e-05]","[0.0, 6.694825249731196e-10, 0.0001133512269007042, 1.3779839899349944e-12, 5.652504686537441e-09, 8.303857612190768e-05]","[0.0, -1.5707963267948966, 0.0, 0.0, 0.0, 0.0]","[0.0, -1.5707963267948966, 0.0, 0.0, 0.0, 0.0]",0.002,7,1
0,-1,"[-3.034273256474762e-05, -1.570793942814209, -6.293353362707421e-05, -1.6168957092332903e-05, -2.652803529912262e-05, -2.557436098271637e-05]","[0.0, 3.904208480719328e-21, 0.00012925968621857464, 1.0676741344944146e-19, 4.3796092647667775e-16, 7.695268141105771e-05]","[0.0, -1.5707963267948966, 0.0, 0.0, 0.0, 0.0]","[0.0, -1.5707963267948966, 0.0, 0.0, 0.0, 0.0]",0.002,7,1
0,-1,"[-4.941621889287262e-05, -1.5708304844298304, -3.4606455301400274e-05, -4.144132647709853e-05, 3.912449028575793e-05, -2.9865895406544496e-05]","[0.0, 5.498239471749984e-38, 0.000120843447803054, 2.302664222921819e-30, 9.44554776743627e-27, 3.514065974741243e-05]","[0.0, -1.5707963267948966, 0.0, 0.0, 0.0, 0.0]","[0.0, -1.5707963267948966, 0.0, 0.0, 0.0, 0.0]",0.002,7,1
0,-1,"[-1.8421803609669496e-05, -1.5708385906615199, -8.394169708481058e-05, 2.0905131957960066e-05, 3.470182491582818e-05, -4.116688863575746e-06]","[0.0, 0.0, 0.00010627159645082429, 1.1649061396258492e-38, 4.778453986686568e-35, 1.7777478707875494e-13]","[0.0, -1.5707963267948966, 0.0, 0.0, 0.0, 0.0]","[0.0, -1.5707963267948966, 0.0, 0.0, 0.0, 0.0]",0.002,7,1
0,-1,"[1.1685723620757926e-05, -1.5708757839598597, -3.910064697265625e-05, 3.1429478148936596e-06, 1.8358230590820312e-05, -2.2236500875294496e-05]","[0.0, 2.6187626644968987e-05, 0.000174869826878421, 5.159098145668395e-05, 0.0, 1.6345321215695805e-26]","[0.0, -1.5707963267948966, 0.0, 0.0, 0.0, 0.0]","[0.0, -1.5707963267948966, 0.0, 0.0, 0.0, 0.0]",0.002,7,1
0,-1,"[2.6226043701171875e-06, -1.5708385906615199, -3.16739096888341e-05, 3.1429478148936596e-06, -5.036989320927887e-05, 3.337860107421875e-06]","[0.0, 0.00015685286780353636, 0.0004226543824188411, 2.1219500935282676e-15, 0.0, 9.812592496434532e-41]","[0.0, -1.5707963267948966, 0.0, 0.0, 0.0, 0.0]","[0.0, -1.5707963267948966, 0.0, 0.0, 0.0, 0.0]",0.002,7,1
0,-1,"[-5.070363179981996e-06, -1.5707775091762706, -3.4606455301400274e-05, 2.901136364741319e-05, 6.460407166741788e-05, -1.3653432027638246e-05]","[0.0, 0.00011152086517540738, 0.00033254316076636314, 1.0734836553187444e-23, 0.0, 0.0]","[0.0, -1.5707963267948966, 0.0, 0.0, 0.0, 0.0]","[0.0, -1.5707963267948966, 0.0, 0.0, 0.0, 0.0]",0.002,7,1
0,-1,"[-1.6514454976856996e-05, -1.5708219013609828, -3.4606455301400274e-05, 2.0905131957960066e-05, -2.9865895406544496e-05, -8.885060445606996e-06]","[0.0, -3.72521644749213e-05, 0.0002985576866194606, 8.31744537811326e-31, 0.0, 0.0]","[0.0, -1.5707963267948966, 0.0, 0.0, 0.0, 0.0]","[0.0, -1.5707963267948966, 0.0, 0.0, 0.0, 0.0]",0.002,7,1
0,-1,"[7.267790806508856e-06, -1.5708056888976039, -1.4781951904296875e-05, 2.0905131957960066e-05, 0.00011384797107893974, -1.3653432027638246e-05]","[0.0, -3.791029958695855e-18, 0.0003254751500207931, 1.7938021641821983e-41, 1.9665614758379926e-15, 0.0]","[0.0, -1.5707963267948966, 0.0, 0.0, 0.0, 0.0]","[0.0, -1.5707963267948966, 0.0, 0.0, 0.0, 0.0]",0.002,7,1
0,-1,"[-1.8421803609669496e-05, -1.5708800754942835, -5.2709103329107165e-05, -2.9520397522020403e-05, -8.408223287403871e-06, -2.557436098271637e-05]","[0.0, -1.2282494036366783e-25, 0.0003028995415661484, 0.0, 3.574131427685419e-20, 0.0]","[0.0, -1.5707963267948966, 0.0, 0.0, 0.0, 0.0]","[0.0, -1.5707963267948966, 0.0, 0.0, 0.0, 0.0]",0.002,7,1
0,-1,"[-4.2263661519825746e-05, -1.570834299127096, 2.2236500875294496e-05, -4.248028137254778e-06, -5.8476124898731996e-05, 2.130174652847927e-05]","[0.0, -1.2892786650866912e-40, 0.0003611688734963536, 0.0, 1.1805831693105e-29, 0.0]","[0.0, -1.5707963267948966, 0.0, 0.0, 0.0, 0.0]","[0.0, -1.5707963267948966, 0.0, 0.0, 0.0, 0.0]",0.002,7,1
0,-1,"[-6.515184511357575e-05, -1.5708385906615199, -2.3860215151216835e-05, 2.0905131957960066e-05, -3.415742983037262e-05, -2.9865895406544496e-05]","[0.0, 0.0, 1.3919768488906249e-21, 0.0, 0.0, 0.0]","[0.0, -1.5707963267948966, 0.0, 0.0, 0.0, 0.0]","[0.0, -1.5707963267948966, 0.0, 0.0, 0.0, 0.0]",0.002,7,1
0,1,"[-1.2222920553028871e-05, -1.57086243251943, -5.720313492929563e-05, 4.0813083312940535e-05, -5.9429799215138246e-05, 1.9705294107552618e-05]","[0.0, 0.0, -0.0, 0.0, 0.0, 0.0]","[0.0008776483039858048, -1.5699186784909107, 0.0008776483039858048, 0.0008776483039858048, 0.0008776483039858048, 0.0008776483039858048]","[0.0008776483039858048, -1.5699186784909107, 0.0008776483039858048, 0.0008776483039858048, 0.0008776483039858048, 0.0008776483039858048]",0.002,7,1
0,2,"[-4.7032033101856996e-05, -1.5708800754942835, -7.362735050264746e-05, 8.984203002881941e-06, -2.209340230763246e-06, -1.3653432027638246e-05]","[0.0, 0.0, -0.0, 0.0, 0.0, 0.0]","[0.001755291059830304, -1.5690410357350661, 0.001755291059830304, 0.001755291059830304, 0.001755291059830304, 0.001755291059830304]","[0.001755291059830304, -1.5690410357350661, 0.001755291059830304, 0.001755291059830304, 0.001755291059830304, 0.001755291059830304]",0.002,7,1
0,3,"[7.1858153205539566e-06, -1.5707950204753907, 3.2726918355763246e-05, 2.901136364741319e-05, 3.0279159545898438e-05, 3.337860107421875e-06]","[0.002650489564985037, 0.0026461088564246893, 0.00277755968272686, 0.003081025555729866, 0.005702919326722622, 0.0023883511312305927]","[0.0026329227194272654, -1.5681634040754693, 0.0026329227194272654, 0.0026329227194272654, 0.0026329227194272654, 0.0026329227194272654]","[0.0026329227194272654, -1.5681634040754693, 0.0026329227194272654, 0.0026329227194272654, 0.0026329227194272654, 0.0026329227194272654]",0.002,7,1
0,4,"[7.1858153205539566e-06, -1.5707950204753907, 3.2726918355763246e-05, 2.901136364741319e-05, 3.0279159545898438e-05, 3.337860107421875e-06]","[0.002650489564985037, 0.0026461088564246893, 0.00277755968272686, 0.003081025555729866, 0.005702919326722622, 0.0023883511312305927]","[0.003510537734740602, -1.567285789060156, 0.003510537734740602, 0.003510537734740602, 0.003510537734740602, 0.003510537734740602]","[0.003510537734740602, -1.567285789060156, 0.003510537734740602, 0.003510537734740602, 0.003510537734740602, 0.003510537734740602]",0.002,7,1
0,5,"[1.906156467157416e-05, -1.5707950116451066, 7.993379701787262e-05, 5.273401226801866e-05, 6.768922321498394e-05, 9.010982466861606e-05]","[0.0026265098713338375, 0.0023704487830400467, 0.00257480563595891, 0.004694311413913965, 0.004854843020439148, 0.004167006816715002]","[0.004388130557839446, -1.566408196237057, 0.004388130557839446, 0.004388130557839446, 0.004388130557839446, 0.004388130557839446]","[0.004388130557839446, -1.566408196237057, 0.004388130557839446, 0.004388130557839446, 0.004388130557839446, 0.004388130557839446]",0.002,7,1
0,6,"[2.6226043701171875e-06, -1.5707414633109984, 6.6105519429982e-05, 6.179391827387803e-05, 5.887368388357572e-05, 2.426481296424754e-05]","[0.003063529497012496, 0.0050780558958649635, 0.004931398667395115, 0.006179930176585913, 0.00420457823202014, 0.005630240775644779]","[0.00526569564093322, -1.5655306311539634, 0.00526569564093322, 0.00526569564093322, 0.00526569564093322, 0.00526569564093322]","[0.00526569564093322, -1.5655306311539634, 0.00526569564093322, 0.00526569564093322, 0.00526569564093322, 0.00526569564093322]",0.002,7,1
0,7,"[5.962598152109422e-05, -1.5707293871713155, 1.603761781865387e-05, 6.024419750971788e-05, 5.1087034080410376e-05, 3.933906555175781e-05]","[0.004977242089807987, 0.009001742117106915, 0.0078642712906003, 0.0069152843207120895, 0.0055299075320363045, 0.007225124165415764]","[0.006143227436406706, -1.56465309935849, 0.006143227436406706, 0.006143227436406706, 0.006143227436406706, 0.006143227436406706]","[0.006143227436406706, -1.56465309935849, 0.006143227436406706, 0.006143227436406706, 0.006143227436406706, 0.006143227436406706]",0.002,7,1
0,8,"[4.0228129364550114e-05, -1.5707666526580688, 8.279481996709137e-05, 8.849679913325303e-05, 4.551410529529676e-05, 6.766022852389142e-05]","[0.008203725330531597, 0.012555171735584736, 0.011135379783809185, 0.008195951581001282, 0.010144916363060474, 0.009285110980272293]","[0.007020720396855121, -1.5637756063980415, 0.007020720396855121, 0.007020720396855121, 0.007020720396855121, 0.007020720396855121]","[0.007020720396855121, -1.5637756063980415, 0.007020720396855121, 0.007020720396855121, 0.007020720396855121, 0.007020720396855121]",0.002,7,1
0,9,"[0.00010927164839813486, -1.5707228463910106, 3.606477846318512e-05, 4.391252484126085e-05, 7.070302672218531e-05, 0.00010072565055452287]","[0.009867127984762192, 0.019608449190855026, 0.015866471454501152, 0.01288934051990509, 0.014142345637083054, 0.013367940671741962]","[0.007898168975119177, -1.5628981578197774, 0.007898168975119177, 0.007898168975119177, 0.007898168975119177, 0.007898168975119177]","[0.007898168975119177, -1.5628981578197774, 0.007898168975119177, 0.007898168975119177, 0.007898168975119177, 0.007898168975119177]",0.002,7,1
0,10,"[0.00010314929386368021, -1.5707557400495098, 0.0001099745379846695, 0.00011233865704340928, 7.733106758678332e-05, 0.00012748241715598851]","[0.013016154058277607, 0.025784587487578392, 0.02187381312251091, 0.017931856215000153, 0.018402494490146637, 0.01832512766122818]","[0.008775567624320156, -1.5620207591705764, 0.008775567624320156, 0.008775567624320156, 0.008775567624320156, 0.008775567624320156]","[0.008775567624320156, -1.5620207591705764, 0.008775567624320156, 0.008775567624320156, 0.008775567624320156, 0.008775567624320156]",0.002,7,1
0,11,"[0.00016014337597880512, -1.570658640270569, 0.000165287648336232, 0.00016490995373530382, 0.0001474194577895105, 0.00015904298925306648]","[0.01662135124206543, 0.03106899932026863, 0.026020614430308342, 0.022687222808599472, 0.022552886977791786, 0.022896017879247665]","[0.00965291079789497, -1.5611434159970017, 0.00965291079789497, 0.00965291079789497, 0.00965291079789497, 0.00965291079789497]","[0.00965291079789497, -1.5611434159970017, 0.00965291079789497, 0.00965291079789497, 0.00965291079789497, 0.00965291079789497]",0.002,7,1
0,12,"[0.00014188766363076866, -1.57060620408841, 0.00018912950624638825, 0.0002717214771728038, 0.0002658724260982126, 0.00016965898976195604]","[0.01945473626255989, 0.033822257071733475, 0.029155122116208076, 0.02589474245905876, 0.02428823709487915, 0.02648642100393772]","[0.010530192949631223, -1.5602661338452652, 0.010530192949631223, 0.010530192949631223, 0.010530192949631223, 0.010530192949631223]","[0.010530192949631223, -1.5602661338452652, 0.010530192949631223, 0.010530192949631223, 0.010530192949631223, 0.010530192949631223]",0.002,7,1
0,13,"[0.00019910684204660356, -1.5705092539177095, 0.00027496019472295075, 0.0002806621738891124, 0.0003051251114811748, 0.00026378632173873484]","[0.02222868800163269, 0.03451971709728241, 0.03182561323046684, 0.027839340269565582, 0.026209911331534386, 0.02880578301846981]","[0.011407408533702281, -1.5593889182611942, 0.011407408533702281, 0.011407408533702281, 0.011407408533702281, 0.011407408533702281]","[0.011407408533702281, -1.5593889182611942, 0.011407408533702281, 0.011407408533702281, 0.011407408533702281, 0.011407408533702281]",0.002,7,1
0,14,"[0.0002710699918679893, -1.570498249904933, 0.0003584066974084976, 0.0003422933765868663, 0.00031545161618851125, 0.0003569540858734399]","[0.026469487696886063, 0.03634025156497955, 0.03477661311626434, 0.029306083917617798, 0.025616249069571495, 0.028892116621136665]","[0.012284552004702319, -1.5585117747901942, 0.012284552004702319, 0.012284552004702319, 0.012284552004702319, 0.012284552004702319]","[0.012284552004702319, -1.5585117747901942, 0.012284552004702319, 0.012284552004702319, 0.012284552004702319, 0.012284552004702319]",0.002,7,1
0,15,"[0.0003357598907314241, -1.5704162886289232, 0.0004442373858850601, 0.00038532793011469835, 0.00043295431532897055, 0.00037949084071442485]","[0.028235485777258873, 0.03810950741171837, 0.03712186589837074, 0.031291648745536804, 0.027978019788861275, 0.02927066758275032]","[0.01316161781768138, -1.5576347089772151, 0.01316161781768138, 0.01316161781768138, 0.01316161781768138, 0.01316161781768138]","[0.01316161781768138, -1.5576347089772151, 0.01316161781768138, 0.01316161781768138, 0.01316161781768138, 0.01316161781768138]",0.002,7,1
0,16,"[0.000437782407971099, -1.5703322658994985, 0.0005167166339319351, 0.0004779535480956554, 0.0004897217731922865, 0.00047240222920663655]","[0.0335332453250885, 0.04208745062351227, 0.04008276015520096, 0.03271230682730675, 0.031020695343613625, 0.03150099515914917]","[0.01403860042818044, -1.556757726366716, 0.01403860042818044, 0.01403860042818044, 0.01403860042818044, 0.01403860042818044]","[0.01403860042818044, -1.556757726366716, 0.01403860042818044, 0.01403860042818044, 0.01403860042818044, 0.01403860042818044]",0.002,7,1
0,17,"[0.0005173850222490728, -1.5702514218031247, 0.0005663076983850601, 0.0005503135868529796, 0.0004662522696889937, 0.0005411801394075155]","[0.039710208773612976, 0.045437298715114594, 0.04370609670877457, 0.03605140373110771, 0.034992970526218414, 0.03551442548632622]","[0.014915494292266438, -1.55588083250263, 0.014915494292266438, 0.014915494292266438, 0.014915494292266438, 0.014915494292266438]","[0.014915494292266438, -1.55588083250263, 0.014915494292266438, 0.014915494292266438, 0.014915494292266438, 0.014915494292266438]",0.002,7,1
0,18,"[0.0005214953562244773, -1.5701567574618203, 0.0006797949420374039, 0.0005770164677123546, 0.0005608817446045578, 0.000559258449357003]","[0.042257197201251984, 0.04969022795557976, 0.04739125072956085, 0.03958858177065849, 0.03909642994403839, 0.039156343787908554]","[0.015792293866567334, -1.5550040329283292, 0.015792293866567334, 0.015792293866567334, 0.015792293866567334, 0.015792293866567334]","[0.015792293866567334, -1.5550040329283292, 0.015792293866567334, 0.015792293866567334, 0.015792293866567334, 0.015792293866567334]",0.002,7,1
0,19,"[0.0006686875713057816, -1.5701339062400912, 0.0007389227496545914, 0.0006943184086303233, 0.000664231542032212, 0.0007420239271596074]","[0.04503683000802994, 0.052156832069158554, 0.05078032985329628, 0.043523211032152176, 0.04391391575336456, 0.04483397677540779]","[0.01666899360830715, -1.5541273331865895, 0.01666899360830715, 0.01666899360830715, 0.01666899360830715, 0.01666899360830715]","[0.01666899360830715, -1.5541273331865895, 0.01666899360830715, 0.01666899360830715, 0.01666899360830715, 0.01666899360830715]",0.002,7,1
0,20,"[0.0006986856460571289, -1.569975451890361, 0.0008919874774377945, 0.0007604795643310069, 0.0007722616428509355, 0.0007978262729011476]","[0.0518503300845623, 0.05973720923066139, 0.0573045015335083, 0.05011794716119766, 0.048461735248565674, 0.05006910115480423]","[0.017545587975341018, -1.5532507388195556, 0.017545587975341018, 0.017545587975341018, 0.017545587975341018, 0.017545587975341018]","[0.017545587975341018, -1.5532507388195556, 0.017545587975341018, 0.017545587975341018, 0.017545587975341018, 0.017545587975341018]",0.002,7,1
0,21,"[0.0008772228029556572, -1.5699168402682808, 0.000993076954976857, 0.0009261804768065929, 0.0009074811241589487, 0.0008849501609802246]","[0.05791465938091278, 0.06236579269170761, 0.06106581538915634, 0.05478028208017349, 0.05376792326569557, 0.05213054642081261]","[0.018422071426190196, -1.5523742553687063, 0.018422071426190196, 0.018422071426190196, 0.018422071426190196, 0.018422071426190196]","[0.018422071426190196, -1.5523742553687063, 0.018422071426190196, 0.018422071426190196, 0.018422071426190196, 0.018422071426190196]",0.002,7,1
0,22,"[0.0009808683535084128, -1.5697354664192353, 0.0011170546161096695, 0.001038356418273878, 0.0010263221338391304, 0.0010137076023966074]","[0.06293577700853348, 0.06751517206430435, 0.06824947893619537, 0.058150045573711395, 0.0592600554227829, 0.05834295600652695]","[0.019298438420077113, -1.5514978883748194, 0.019298438420077113, 0.019298438420077113, 0.019298438420077113, 0.019298438420077113]","[0.019298438420077113, -1.5514978883748194, 0.019298438420077113, 0.019298438420077113, 0.019298438420077113, 0.019298438420077113]",0.002,7,1
0,23,"[0.0011460483074188232, -1.5696037258351971, 0.001260105763570607, 0.0011591154285888194, 0.0011315257288515568, 0.0011244055349379778]","[0.06846844404935837, 0.07462231069803238, 0.07105085998773575, 0.06358630955219269, 0.06505687534809113, 0.06464055180549622]","[0.020174683416960392, -1.550621643377936, 0.020174683416960392, 0.020174683416960392, 0.020174683416960392, 0.020174683416960392]","[0.020174683416960392, -1.550621643377936, 0.020174683416960392, 0.020174683416960392, 0.020174683416960392, 0.020174683416960392]",0.002,7,1
0,24,"[0.0012733954936265945, -1.569464031523541, 0.0013888517962854507, 0.0013319688984374523, 0.0012999691534787416, 0.001298510585911572]","[0.07455458492040634, 0.07858318835496902, 0.07643039524555206, 0.0727580338716507, 0.07132305949926376, 0.07170215249061584]","[0.021050800877569876, -1.5497455259173267, 0.021050800877569876, 0.021050800877569876, 0.021050800877569876, 0.021050800877569876]","[0.021050800877569876, -1.5497455259173267, 0.021050800877569876, 0.021050800877569876, 0.021050800877569876, 0.021050800877569876]",0.002,7,1
0,25,"[0.0014386058319360018, -1.5693408648115401, 0.0015738646136682632, 0.0014344888874511241, 0.0014560134150087833, 0.0014048010343685746]","[0.07932747900485992, 0.08586933463811874, 0.08612988889217377, 0.07590021938085556, 0.07729851454496384, 0.07861359417438507]","[0.021926785263441637, -1.5488695415314548, 0.021926785263441637, 0.021926785263441637, 0.021926785263441637, 0.021926785263441637]","[0.021926785263441637, -1.5488695415314548, 0.021926785263441637, 0.021926785263441637, 0.021926785263441637, 0.021926785263441637]",0.002,7,1
0,26,"[0.0015763951232656837, -1.5691400207909574, 0.0017555395709436539, 0.00162307798352046, 0.001612190855666995, 0.0016342218732461333]","[0.08653810620307922, 0.09306691586971283, 0.08829492330551147, 0.08197763562202454, 0.08390077203512192, 0.08470409363508224]","[0.022802631036952997, -1.5479936957579437, 0.022802631036952997, 0.022802631036952997, 0.022802631036952997, 0.022802631036952997]","[0.022802631036952997, -1.5479936957579437, 0.022802631036952997, 0.022802631036952997, 0.022802631036952997, 0.022802631036952997]",0.002,7,1
0,27,"[0.0018647827673703432, -1.5689185229460527, 0.0019686857806604507, 0.0018104749866942882, 0.0017923335544764996, 0.0018306784331798553]","[0.09298677742481232, 0.09955815225839615, 0.0959637239575386, 0.08909013867378235, 0.09221968054771423, 0.09296619147062302]","[0.023678332661357517, -1.5471179941335391, 0.023678332661357517, 0.023678332661357517, 0.023678332661357517, 0.023678332661357517]","[0.023678332661357517, -1.5471179941335391, 0.023678332661357517, 0.023678332661357517, 0.023678332661357517, 0.023678332661357517]",0.002,7,1
0,28,"[0.00199933466501534, -1.5687277147411187, 0.0021231810199182632, 0.0019739109226684093, 0.0019986117258667946, 0.0020058448426425457]","[0.09997335821390152, 0.10570551455020905, 0.10307558625936508, 0.0977955311536789, 0.09545210748910904, 0.09637903422117233]","[0.024553884600820034, -1.5462424421940766, 0.024553884600820034, 0.024553884600820034, 0.024553884600820034, 0.024553884600820034]","[0.024553884600820034, -1.5462424421940766, 0.024553884600820034, 0.024553884600820034, 0.024553884600820034, 0.024553884600820034]",0.002,7,1
0,29,"[0.002215551445260644, -1.5685312091703345, 0.0023649374591272476, 0.0021498638340453624, 0.0022683932911604643, 0.002172440057620406]","[0.10490623116493225, 0.11283829808235168, 0.1094914898276329, 0.10301398485898972, 0.1039959192276001, 0.10575062036514282]","[0.025429281320451615, -1.545367045474445, 0.025429281320451615, 0.025429281320451615, 0.025429281320451615, 0.025429281320451615]","[0.025429281320451615, -1.545367045474445, 0.025429281320451615, 0.025429281320451615, 0.025429281320451615, 0.025429281320451615]",0.002,7,1
0,30,"[0.0024133489932864904, -1.5682958488217373, 0.0025828520404260757, 0.0024326282688598155, 0.002497127279639244, 0.0024723042733967304]","[0.11522960662841797, 0.11983460932970047, 0.11453906446695328, 0.11049938201904297, 0.11051326990127563, 0.11062094569206238]","[0.02630451728634456, -1.544491809508552, 0.02630451728634456, 0.02630451728634456, 0.02630451728634456, 0.02630451728634456]","[0.02630451728634456, -1.544491809508552, 0.02630451728634456, 0.02630451728634456, 0.02630451728634456, 0.02630451728634456]",0.002,7,1
0,31,"[0.00269713019952178, -1.568035058943071, 0.002843205128804982, 0.002646608943603468, 0.002733309753239155, 0.0026299289893358946]","[0.11932075023651123, 0.128498375415802, 0.12216490507125854, 0.11782486736774445, 0.11873038113117218, 0.11808779090642929]","[0.027179586965607412, -1.543616739829289, 0.027179586965607412, 0.027179586965607412, 0.027179586965607412, 0.027179586965607412]","[0.027179586965607412, -1.543616739829289, 0.027179586965607412, 0.027179586965607412, 0.027179586965607412, 0.027179586965607412]",0.002,7,1
0,32,"[0.0029851580038666725, -1.5677382180332025, 0.003090683613912404, 0.002944155330322218, 0.0029242553282529116, 0.002947782399132848]","[0.12919174134731293, 0.1318625509738922, 0.13151852786540985, 0.1263613998889923, 0.12667162716388702, 0.12570515275001526]","[0.02805448482639989, -1.5427418419684966, 0.02805448482639989, 0.02805448482639989, 0.02805448482639989, 0.02805448482639989]","[0.02805448482639989, -1.5427418419684966, 0.02805448482639989, 0.02805448482639989, 0.02805448482639989, 0.02805448482639989]",0.002,7,1
0,33,"[0.0032659994903951883, -1.5674831904801358, 0.0034087339984338882, 0.0031551557728271007, 0.0032293025869876146, 0.003173839533701539]","[0.1368427723646164, 0.14211405813694, 0.13936977088451385, 0.13313108682632446, 0.13510781526565552, 0.13295143842697144]","[0.028929205337967896, -1.5418671214569286, 0.028929205337967896, 0.028929205337967896, 0.028929205337967896, 0.028929205337967896]","[0.028929205337967896, -1.5418671214569286, 0.028929205337967896, 0.028929205337967896, 0.028929205337967896, 0.028929205337967896]",0.002,7,1
0,34,"[0.003508917288854718, -1.567226704708748, 0.0036924521075647476, 0.003421946162841749, 0.003477041143923998, 0.003454148303717375]","[0.14496485888957977, 0.1468147486448288, 0.14546345174312592, 0.14250513911247253, 0.13890951871871948, 0.14086054265499115]","[0.029803742970678452, -1.540992583824218, 0.029803742970678452, 0.029803742970678452, 0.029803742970678452, 0.029803742970678452]","[0.029803742970678452, -1.540992583824218, 0.029803742970678452, 0.029803742970678452, 0.029803742970678452, 0.029803742970678452]",0.002,7,1
0,35,"[0.003881219308823347, -1.5668613205528636, 0.003997627888814748, 0.003767414683959913, 0.0037777761463075876, 0.00375416805036366]","[0.1525644212961197, 0.1551937311887741, 0.15400397777557373, 0.14985303580760956, 0.14758571982383728, 0.1487978994846344]","[0.03067809219605467, -1.5401182345988418, 0.03067809219605467, 0.03067809219605467, 0.03067809219605467, 0.03067809219605467]","[0.03067809219605467, -1.5401182345988418, 0.03067809219605467, 0.03067809219605467, 0.03067809219605467, 0.03067809219605467]",0.002,7,1
0,36,"[0.004182504490017891, -1.5665733551471313, 0.004293266926900685, 0.004093332881591749, 0.0040708077140152454, 0.004087185021489859]","[0.15981049835681915, 0.16252991557121277, 0.16041450202465057, 0.15792912244796753, 0.1580820530653, 0.15674510598182678]","[0.0315522474868107, -1.539244079308086, 0.0315522474868107, 0.0315522474868107, 0.0315522474868107, 0.0315522474868107]","[0.0315522474868107, -1.539244079308086, 0.0315522474868107, 0.0315522474868107, 0.0315522474868107, 0.0315522474868107]",0.002,7,1
0,37,"[0.00454703439027071, -1.566286735036858, 0.004620377217428029, 0.004398151034973097, 0.00446129497140646, 0.004436342511326075]","[0.16782493889331818, 0.16998451948165894, 0.16939586400985718, 0.1672227829694748, 0.16482502222061157, 0.16286548972129822]","[0.03242620331688668, -1.5383701234780098, 0.03242620331688668, 0.03242620331688668, 0.03242620331688668, 0.03242620331688668]","[0.03242620331688668, -1.5383701234780098, 0.03242620331688668, 0.03242620331688668, 0.03242620331688668, 0.03242620331688668]",0.002,7,1
0,38,"[0.004932730924338102, -1.5659186526066442, 0.005001846943990529, 0.0047824817844848155, 0.004763846751302481, 0.0047348737716674805]","[0.17796924710273743, 0.1793452799320221, 0.17720137536525726, 0.17470018565654755, 0.17317964136600494, 0.17427143454551697]","[0.033299954161483625, -1.537496372633413, 0.033299954161483625, 0.033299954161483625, 0.033299954161483625, 0.033299954161483625]","[0.033299954161483625, -1.537496372633413, 0.033299954161483625, 0.033299954161483625, 0.033299954161483625, 0.033299954161483625]",0.002,7,1
0,39,"[0.005325885955244303, -1.56550536424432, 0.005350414906637013, 0.005131765002868605, 0.005215412471443415, 0.005160259082913399]","[0.18615970015525818, 0.18586894869804382, 0.18581674993038177, 0.18438605964183807, 0.18309612572193146, 0.18462564051151276]","[0.03417349449709842, -1.5366228322977982, 0.03417349449709842, 0.03417349449709842, 0.03417349449709842, 0.03417349449709842]","[0.03417349449709842, -1.5366228322977982, 0.03417349449709842, 0.03417349449709842, 0.03417349449709842, 0.03417349449709842]",0.002,7,1
0,40,"[0.005598714575171471, -1.5651003832793613, 0.005704704915181935, 0.005518241519592237, 0.005592551548033953, 0.005532608833163977]","[0.19400706887245178, 0.19543832540512085, 0.1972329318523407, 0.19332240521907806, 0.19288983941078186, 0.19283024966716766]","[0.03504681880155869, -1.5357495079933379, 0.03504681880155869, 0.03504681880155869, 0.03504681880155869, 0.03504681880155869]","[0.03504681880155869, -1.5357495079933379, 0.03504681880155869, 0.03504681880155869, 0.03504681880155869, 0.03504681880155869]",0.002,7,1
0,41,"[0.006094091106206179, -1.5646945170922955, 0.006114784871236623, 0.0059966283985595226, 0.006026940420269966, 0.005925141274929047]","[0.20279835164546967, 0.20444539189338684, 0.20242802798748016, 0.2018970102071762, 0.20154592394828796, 0.20332574844360352]","[0.035919921554057724, -1.5348764052408388, 0.035919921554057724, 0.035919921554057724, 0.035919921554057724, 0.035919921554057724]","[0.035919921554057724, -1.5348764052408388, 0.035919921554057724, 0.035919921554057724, 0.035919921554057724, 0.035919921554057724]",0.002,7,1
0,42,"[0.0064927320927381516, -1.5643778711422165, 0.006584946309224904, 0.006407185191772413, 0.006435881368815899, 0.006367023102939129]","[0.21034450829029083, 0.2129247486591339, 0.21208243072032928, 0.20827102661132812, 0.20938515663146973, 0.21138030290603638]","[0.03679279723518938, -1.5340035295597072, 0.03679279723518938, 0.03679279723518938, 0.03679279723518938, 0.03679279723518938]","[0.03679279723518938, -1.5340035295597072, 0.03679279723518938, 0.03679279723518938, 0.03679279723518938, 0.03679279723518938]",0.002,7,1
0,43,"[0.00696592265740037, -1.5639278267375012, 0.0070641676532190445, 0.006867213840148878, 0.006847663316875696, 0.006779407616704702]","[0.21802294254302979, 0.2232440561056137, 0.21972188353538513, 0.21775542199611664, 0.21765050292015076, 0.21879421174526215]","[0.03766544032698294, -1.5331308864679136, 0.03766544032698294, 0.03766544032698294, 0.03766544032698294, 0.03766544032698294]","[0.03766544032698294, -1.5331308864679136, 0.03766544032698294, 0.03766544032698294, 0.03766544032698294, 0.03766544032698294]",0.002,7,1
0,44,"[0.007438157685101032, -1.563485140712448, 0.007475201283590138, 0.0072696644016723155, 0.007291138172149658, 0.007198875769972801]","[0.2273380607366562, 0.23189567029476166, 0.22871562838554382, 0.22610796988010406, 0.2246188372373581, 0.22943608462810516]","[0.03853784531293808, -1.5322584814819584, 0.03853784531293808, 0.03853784531293808, 0.03853784531293808, 0.03853784531293808]","[0.03853784531293808, -1.5322584814819584, 0.03853784531293808, 0.03853784531293808, 0.03853784531293808, 0.03853784531293808]",0.002,7,1
0,45,"[0.007905860431492329, -1.5629755857265373, 0.00796825090517217, 0.007754607791564894, 0.00775378430262208, 0.00770716555416584]","[0.23742656409740448, 0.2382609248161316, 0.24029281735420227, 0.23684892058372498, 0.2353030890226364, 0.23812365531921387]","[0.03941000667805963, -1.531386320116837, 0.03941000667805963, 0.03941000667805963, 0.03941000667805963, 0.03941000667805963]","[0.03941000667805963, -1.531386320116837, 0.03941000667805963, 0.03941000667805963, 0.03941000667805963, 0.03941000667805963]",0.002,7,1
0,46,"[0.00842862855643034, -1.5625274211964388, 0.00852376619447881, 0.008249803180358839, 0.008272320032119751, 0.008182870224118233]","[0.2451280653476715, 0.24799643456935883, 0.24768167734146118, 0.2451915591955185, 0.24434931576251984, 0.24676889181137085]","[0.04028191890889251, -1.530514407886004, 0.04028191890889251, 0.04028191890889251, 0.04028191890889251, 0.04028191890889251]","[0.04028191890889251, -1.530514407886004, 0.04028191890889251, 0.04028191890889251, 0.04028191890889251, 0.04028191890889251]",0.002,7,1
0,47,"[0.008899414911866188, -1.5620270439288397, 0.008945767079488576, 0.008739634151122999, 0.008748911321163177, 0.008724038489162922]","[0.2559015154838562, 0.25719985365867615, 0.25628891587257385, 0.2540399134159088, 0.25418195128440857, 0.2559386193752289]","[0.041153576493556596, -1.52964275030134, 0.041153576493556596, 0.041153576493556596, 0.041153576493556596, 0.041153576493556596]","[0.041153576493556596, -1.52964275030134, 0.041153576493556596, 0.041153576493556596, 0.041153576493556596, 0.041153576493556596]",0.002,7,1
0,48,"[0.009448537603020668, -1.561507480484881, 0.009474579487935841, 0.009352489108703566, 0.009273095056414604, 0.009202216751873493]","[0.26332566142082214, 0.2634528875350952, 0.2639206647872925, 0.2646487355232239, 0.2644772529602051, 0.26606762409210205]","[0.0420249739217815, -1.528771352873115, 0.0420249739217815, 0.0420249739217815, 0.0420249739217815, 0.0420249739217815]","[0.0420249739217815, -1.528771352873115, 0.0420249739217815, 0.0420249739217815, 0.0420249739217815, 0.0420249739217815]",0.002,7,1
0,49,"[0.009967383928596973, -1.5609963436475773, 0.010062996541158498, 0.009917421931884718, 0.009846508502960205, 0.009808458387851715]","[0.2726740837097168, 0.2734808325767517, 0.27140283584594727, 0.27099117636680603, 0.2718246877193451, 0.27442336082458496]","[0.04289610568494145, -1.527900221109955, 0.04289610568494145, 0.04289610568494145, 0.04289610568494145, 0.04289610568494145]","[0.04289610568494145, -1.527900221109955, 0.04289610568494145, 0.04289610568494145, 0.04289610568494145, 0.04289610568494145]",0.002,7,1
0,50,"[0.010540226474404335, -1.5603866030326863, 0.010612312947408498, 0.01048092424359126, 0.010444968938827515, 0.010320113971829414]","[0.28110697865486145, 0.2828352749347687, 0.28061380982398987, 0.2803399860858917, 0.28249090909957886, 0.2832234501838684]","[0.04376696627609011, -1.5270293605188066, 0.04376696627609011, 0.04376696627609011, 0.04376696627609011, 0.04376696627609011]","[0.04376696627609011, -1.5270293605188066, 0.04376696627609011, 0.04376696627609011, 0.04376696627609011, 0.04376696627609011]",0.002,7,1
0,51,"[0.011121208779513836, -1.5598191230422636, 0.011188809071676076, 0.011087580318115187, 0.010937281884253025, 0.010904829017817974]","[0.29302114248275757, 0.2929146885871887, 0.2873809337615967, 0.2897140681743622, 0.2904585599899292, 0.2919008731842041]","[0.044637550189995365, -1.5261587766049012, 0.044637550189995365, 0.044637550189995365, 0.044637550189995365, 0.044637550189995365]","[0.044637550189995365, -1.5261587766049012, 0.044637550189995365, 0.044637550189995365, 0.044637550189995365, 0.044637550189995365]",0.002,7,1
0,52,"[0.011721143499016762, -1.5592434408939262, 0.011786286030904591, 0.011709375972412062, 0.011537373065948486, 0.011504363268613815]","[0.2996356189250946, 0.3007355332374573, 0.2993287742137909, 0.29888230562210083, 0.2990107834339142, 0.3027552366256714]","[0.045507851923174164, -1.5252884748717224, 0.045507851923174164, 0.045507851923174164, 0.045507851923174164, 0.045507851923174164]","[0.045507851923174164, -1.5252884748717224, 0.045507851923174164, 0.045507851923174164, 0.045507851923174164, 0.045507851923174164]",0.002,7,1
0,53,"[0.012304755859076977, -1.558625365873315, 0.01242095628847295, 0.012309237117431593, 0.012156505137681961, 0.012129589915275574]","[0.3093147873878479, 0.30948406457901, 0.30837488174438477, 0.3073955476284027, 0.3113129138946533, 0.3128346800804138]","[0.04637786597392728, -1.5244184608209692, 0.04637786597392728, 0.04637786597392728, 0.04637786597392728, 0.04637786597392728]","[0.04637786597392728, -1.5244184608209692, 0.04637786597392728, 0.04637786597392728, 0.04637786597392728, 0.04637786597392728]",0.002,7,1
0,54,"[0.012942369095981121, -1.5579691550559183, 0.013024632130758107, 0.012902184123657179, 0.012785522267222404, 0.01276554074138403]","[0.3183518648147583, 0.32104963064193726, 0.3175387680530548, 0.31899306178092957, 0.3187945485115051, 0.3221224844455719]","[0.04724758684237411, -1.5235487399525225, 0.04724758684237411, 0.04724758684237411, 0.04724758684237411, 0.04724758684237411]","[0.04724758684237411, -1.5235487399525225, 0.04724758684237411, 0.04724758684237411, 0.04724758684237411, 0.04724758684237411]",0.002,7,1
0,55,"[0.013627836480736732, -1.5573295906982203, 0.013684097920553029, 0.013566537494323683, 0.013466119766235352, 0.013412908650934696]","[0.3266918957233429, 0.3277468979358673, 0.32525748014450073, 0.32552844285964966, 0.32829633355140686, 0.3325048089027405]","[0.04811700903048741, -1.5226793177644091, 0.04811700903048741, 0.04811700903048741, 0.04811700903048741, 0.04811700903048741]","[0.04811700903048741, -1.5226793177644091, 0.04811700903048741, 0.04811700903048741, 0.04811700903048741, 0.04811700903048741]",0.002,7,1
0,56,"[0.014281611889600754, -1.5566725631109257, 0.014380757008687794, 0.014245434398315382, 0.014130893163383007, 0.014089717529714108]","[0.3366464674472809, 0.34014689922332764, 0.3368871808052063, 0.3340034484863281, 0.33785414695739746, 0.3415868878364563]","[0.0489861270421281, -1.5218101997527684, 0.0489861270421281, 0.0489861270421281, 0.0489861270421281, 0.0489861270421281]","[0.0489861270421281, -1.5218101997527684, 0.0489861270421281, 0.0489861270421281, 0.0489861270421281, 0.0489861270421281]",0.002,7,1
0,57,"[0.014977719634771347, -1.5560171895525237, 0.015033547078267873, 0.01494257032360835, 0.014819348230957985, 0.014790450222790241]","[0.34592336416244507, 0.3473842442035675, 0.34574082493782043, 0.34262076020240784, 0.34689193964004517, 0.34968987107276917]","[0.04985493538307995, -1.5209413914118166, 0.04985493538307995, 0.04985493538307995, 0.04985493538307995, 0.04985493538307995]","[0.04985493538307995, -1.5209413914118166, 0.04985493538307995, 0.04985493538307995, 0.04985493538307995, 0.04985493538307995]",0.002,7,1
0,58,"[0.015736863017082214, -1.5553097662380715, 0.015647713338033498, 0.01565222322430415, 0.015511780977249146, 0.015490020625293255]","[0.3554205596446991, 0.3598696291446686, 0.35136303305625916, 0.3505348861217499, 0.35529789328575134, 0.3568345010280609]","[0.05072342856108438, -1.520072898233812, 0.05072342856108438, 0.05072342856108438, 0.05072342856108438, 0.05072342856108438]","[0.05072342856108438, -1.520072898233812, 0.05072342856108438, 0.05072342856108438, 0.05072342856108438, 0.05072342856108438]",0.002,7,1
0,59,"[0.016481058672070503, -1.5545685675791283, 0.01640636125673467, 0.016366763705871534, 0.016257483512163162, 0.01622181572020054]","[0.36408159136772156, 0.36434149742126465, 0.3597716987133026, 0.360441118478775, 0.36595165729522705, 0.36730390787124634]","[0.05159160108587512, -1.5192047257090215, 0.05159160108587512, 0.05159160108587512, 0.05159160108587512, 0.05159160108587512]","[0.05159160108587512, -1.5192047257090215, 0.05159160108587512, 0.05159160108587512, 0.05159160108587512, 0.05159160108587512]",0.002,7,1
0,60,"[0.017180034890770912, -1.5538442985019465, 0.01714784303774053, 0.01715199529614253, 0.01699434034526348, 0.016977636143565178]","[0.3736329674720764, 0.3735262453556061, 0.36995798349380493, 0.36768782138824463, 0.3745269477367401, 0.376761794090271]","[0.05245944746921293, -1.5183368793256837, 0.05245944746921293, 0.05245944746921293, 0.05245944746921293, 0.05245944746921293]","[0.05245944746921293, -1.5183368793256837, 0.05245944746921293, 0.05245944746921293, 0.05245944746921293, 0.05245944746921293]",0.002,7,1
0,61,"[0.0180311631411314, -1.5530515436879178, 0.017888371144429982, 0.01782493173565669, 0.017710069194436073, 0.017759203910827637]","[0.38264548778533936, 0.3789235055446625, 0.3786419928073883, 0.3769223093986511, 0.3827774226665497, 0.3856171667575836]","[0.05332696222492035, -1.5174693645699762, 0.05332696222492035, 0.05332696222492035, 0.05332696222492035, 0.05332696222492035]","[0.05332696222492035, -1.5174693645699762, 0.05332696222492035, 0.05332696222492035, 0.05332696222492035, 0.05332696222492035]",0.002,7,1
0,62,"[0.01874963752925396, -1.5523368933102866, 0.018648926411763966, 0.0186503368565063, 0.018458016216754913, 0.018543392419815063]","[0.39016467332839966, 0.390130877494812, 0.38622868061065674, 0.3860875368118286, 0.39029091596603394, 0.39304327964782715]","[0.05419413986891631, -1.5166021869259803, 0.05419413986891631, 0.05419413986891631, 0.05419413986891631, 0.05419413986891631]","[0.05419413986891631, -1.5166021869259803, 0.05419413986891631, 0.05419413986891631, 0.05419413986891631, 0.05419413986891631]",0.002,7,1
0,63,"[0.01958196796476841, -1.5515107934227963, 0.019471470509664357, 0.019387884730956984, 0.019292080774903297, 0.019329659640789032]","[0.40075504779815674, 0.3965701460838318, 0.3968343436717987, 0.396353542804718, 0.40173256397247314, 0.40179604291915894]","[0.05506097491925081, -1.5157353518756458, 0.05506097491925081, 0.05506097491925081, 0.05506097491925081, 0.05506097491925081]","[0.05506097491925081, -1.5157353518756458, 0.05506097491925081, 0.05506097491925081, 0.05506097491925081, 0.05506097491925081]",0.002,7,1
0,64,"[0.020337335765361786, -1.5506871820292254, 0.020253483449117482, 0.020139141673706007, 0.020183611661195755, 0.020158356055617332]","[0.4078531563282013, 0.40604060888290405, 0.4061588943004608, 0.405546635389328, 0.4118054509162903, 0.41103506088256836]","[0.055927461896139626, -1.514868864898757, 0.055927461896139626, 0.055927461896139626, 0.055927461896139626, 0.055927461896139626]","[0.055927461896139626, -1.514868864898757, 0.055927461896139626, 0.055927461896139626, 0.055927461896139626, 0.055927461896139626]",0.002,7,1
0,65,"[0.02120586670935154, -1.549895954584219, 0.02108794847597295, 0.020965381259582472, 0.02101203054189682, 0.020989954471588135]","[0.4169628322124481, 0.41526922583580017, 0.41383108496665955, 0.41636180877685547, 0.419301301240921, 0.41942015290260315]","[0.056793595321998874, -1.5140027314728977, 0.056793595321998874, 0.056793595321998874, 0.056793595321998874, 0.056793595321998874]","[0.056793595321998874, -1.5140027314728977, 0.056793595321998874, 0.056793595321998874, 0.056793595321998874, 0.056793595321998874]",0.002,7,1
0,66,"[0.02206798829138279, -1.5489992176047345, 0.02189046541322881, 0.021767182941101026, 0.021801099181175232, 0.021850183606147766]","[0.4255465865135193, 0.42189332842826843, 0.4235249161720276, 0.425746887922287, 0.4293476641178131, 0.42743146419525146]","[0.057659369721479704, -1.5131369570734168, 0.057659369721479704, 0.057659369721479704, 0.057659369721479704, 0.057659369721479704]","[0.057659369721479704, -1.5131369570734168, 0.057659369721479704, 0.057659369721479704, 0.057659369721479704, 0.057659369721479704]",0.002,7,1
0,67,"[0.022925743833184242, -1.5481021863273163, 0.02279216447939092, 0.022620244617126417, 0.022677676752209663, 0.022731183096766472]","[0.4332268238067627, 0.42806723713874817, 0.43062323331832886, 0.4358779191970825, 0.4378252327442169, 0.43637534976005554]","[0.05852477962150289, -1.5122715471733936, 0.05852477962150289, 0.05852477962150289, 0.05852477962150289, 0.05852477962150289]","[0.05852477962150289, -1.5122715471733936, 0.05852477962150289, 0.05852477962150289, 0.05852477962150289, 0.05852477962150289]",0.002,7,1
0,68,"[0.02386353723704815, -1.5472430431148787, 0.02368194261659795, 0.023503823871276808, 0.023658543825149536, 0.023609304800629616]","[0.4427451193332672, 0.43574297428131104, 0.4384314715862274, 0.44548022747039795, 0.4477900266647339, 0.4448432922363281]","[0.05938981955129341, -1.5114065072436031, 0.05938981955129341, 0.05938981955129341, 0.05938981955129341, 0.05938981955129341]","[0.05938981955129341, -1.5114065072436031, 0.05938981955129341, 0.05938981955129341, 0.05938981955129341, 0.05938981955129341]",0.002,7,1
0,69,"[0.024794291704893112, -1.5463587970337649, 0.02452117601503545, 0.024377508754394484, 0.024456152692437172, 0.024525195360183716]","[0.4488060176372528, 0.44320428371429443, 0.44745808839797974, 0.45466431975364685, 0.4552907347679138, 0.4527030289173126]","[0.060254484042415055, -1.5105418427524815, 0.060254484042415055, 0.060254484042415055, 0.060254484042415055, 0.060254484042415055]","[0.060254484042415055, -1.5105418427524815, 0.060254484042415055, 0.060254484042415055, 0.060254484042415055, 0.060254484042415055]",0.002,7,1
0,70,"[0.025671018287539482, -1.5454425749233742, 0.025440518056051076, 0.025355978603027296, 0.02546323649585247, 0.025470208376646042]","[0.4608039855957031, 0.4515869617462158, 0.4555737376213074, 0.4642317295074463, 0.46227240562438965, 0.4606529772281647]","[0.06111876762880499, -1.5096775591660916, 0.06111876762880499, 0.06111876762880499, 0.06111876762880499, 0.06111876762880499]","[0.06111876762880499, -1.5096775591660916, 0.06111876762880499, 0.06111876762880499, 0.06111876762880499, 0.06111876762880499]",0.002,7,1
0,71,"[0.026568977162241936, -1.5444575038603325, 0.026340786610738576, 0.026178165073059034, 0.0263538658618927, 0.02640886977314949]","[0.46700620651245117, 0.4600249230861664, 0.4629286229610443, 0.471527636051178, 0.4687522351741791, 0.46483156085014343]","[0.061982664846808304, -1.5088136619480883, 0.061982664846808304, 0.061982664846808304, 0.061982664846808304, 0.061982664846808304]","[0.061982664846808304, -1.5088136619480883, 0.061982664846808304, 0.061982664846808304, 0.061982664846808304, 0.061982664846808304]",0.002,7,1
0,72,"[0.027486570179462433, -1.5434802316925307, 0.02728444734682256, 0.02716950952496333, 0.027319494634866714, 0.027348870411515236]","[0.4757838249206543, 0.46736258268356323, 0.47281020879745483, 0.47955521941185, 0.4777994155883789, 0.4734613299369812]","[0.06284617023521256, -1.507950156559684, 0.06284617023521256, 0.06284617023521256, 0.06284617023521256, 0.06284617023521256]","[0.06284617023521256, -1.507950156559684, 0.06284617023521256, 0.06284617023521256, 0.06284617023521256, 0.06284617023521256]",0.002,7,1
0,73,"[0.028426574543118477, -1.5425467559001227, 0.028327767048970998, 0.028107448215148878, 0.028348475694656372, 0.02834450639784336]","[0.4822486937046051, 0.4734331965446472, 0.4813476800918579, 0.48528051376342773, 0.4859996736049652, 0.4824930429458618]","[0.0637092783352823, -1.5070870484596142, 0.0637092783352823, 0.0637092783352823, 0.0637092783352823, 0.0637092783352823]","[0.0637092783352823, -1.5070870484596142, 0.0637092783352823, 0.0637092783352823, 0.0637092783352823, 0.0637092783352823]",0.002,7,1
0,74,"[0.02937004342675209, -1.5415779196522017, 0.029286686574117482, 0.029126091594360304, 0.02932439185678959, 0.029333502054214478]","[0.4900067448616028, 0.48236703872680664, 0.4873065650463104, 0.4957330822944641, 0.49273681640625, 0.4905083477497101]","[0.06457198369079356, -1.506224343104103, 0.06457198369079356, 0.06457198369079356, 0.06457198369079356, 0.06457198369079356]","[0.06457198369079356, -1.506224343104103, 0.06457198369079356, 0.06457198369079356, 0.06457198369079356, 0.06457198369079356]",0.002,7,1
0,75,"[0.030370038002729416, -1.5405447420528908, 0.030295674000875294, 0.030133410091064405, 0.0303835216909647, 0.03034348227083683]","[0.4985290467739105, 0.48826220631599426, 0.4971926808357239, 0.5051064491271973, 0.5003752708435059, 0.496200293302536]","[0.06543428084806839, -1.5053620459468282, 0.06543428084806839, 0.06543428084806839, 0.06543428084806839, 0.06543428084806839]","[0.06543428084806839, -1.5053620459468282, 0.06543428084806839, 0.06543428084806839, 0.06543428084806839, 0.06543428084806839]",0.002,7,1
0,76,"[0.03135501593351364, -1.5395676598748942, 0.0313342253314417, 0.031113072032592726, 0.031406279653310776, 0.03136053681373596]","[0.5039613842964172, 0.49357476830482483, 0.5025115013122559, 0.5120080709457397, 0.5093690156936646, 0.5053259134292603]","[0.06629616435600925, -1.5045001624388874, 0.06629616435600925, 0.06629616435600925, 0.06629616435600925, 0.06629616435600925]","[0.06629616435600925, -1.5045001624388874, 0.06629616435600925, 0.06629616435600925, 0.06629616435600925, 0.06629616435600925]",0.002,7,1
0,77,"[0.03228571638464928, -1.5385113780251523, 0.03233367601503545, 0.03225962697949214, 0.03238525241613388, 0.03237206116318703]","[0.5128078460693359, 0.5032100081443787, 0.5080254673957825, 0.5192403793334961, 0.513800323009491, 0.5125300288200378]","[0.06715762876613363, -1.5036386980287628, 0.06715762876613363, 0.06715762876613363, 0.06715762876613363, 0.06715762876613363]","[0.06715762876613363, -1.5036386980287628, 0.06715762876613363, 0.06715762876613363, 0.06715762876613363, 0.06715762876613363]",0.002,7,1
0,78,"[0.03341781720519066, -1.5374357600561162, 0.033408466969625294, 0.03329257547344966, 0.03346199169754982, 0.033398911356925964]","[0.5201975703239441, 0.508719801902771, 0.5145683288574219, 0.5276693105697632, 0.5201395750045776, 0.5187791585922241]","[0.06801866863260826, -1.5027776581622883, 0.06801866863260826, 0.06801866863260826, 0.06801866863260826, 0.06801866863260826]","[0.06801866863260826, -1.5027776581622883, 0.06801866863260826, 0.06801866863260826, 0.06801866863260826, 0.06801866863260826]",0.002,7,1
0,79,"[0.034406036138534546, -1.5364371475628396, 0.0344317595111292, 0.034390493030212355, 0.034483518451452255, 0.03447189927101135]","[0.5282447934150696, 0.5152631998062134, 0.5217382311820984, 0.5319017171859741, 0.5263208150863647, 0.5240022540092468]","[0.06887927851228377, -1.5019170482826127, 0.06887927851228377, 0.06887927851228377, 0.06887927851228377, 0.06887927851228377]","[0.06887927851228377, -1.5019170482826127, 0.06887927851228377, 0.06887927851228377, 0.06887927851228377, 0.06887927851228377]",0.002,7,1
0,80,"[0.03548082709312439, -1.53536161155019, 0.03551608720888311, 0.03543917715039058, 0.03555949777364731, 0.03552422672510147]","[0.5354455709457397, 0.5246995687484741, 0.5285509824752808, 0.5388000011444092, 0.5326865911483765, 0.5308888554573059]","[0.06973945296472894, -1.5010568738301675, 0.06973945296472894, 0.06973945296472894, 0.06973945296472894, 0.06973945296472894]","[0.06973945296472894, -1.5010568738301675, 0.06973945296472894, 0.06973945296472894, 0.06973945296472894, 0.06973945296472894]",0.002,7,1
0,81,"[0.03658762574195862, -1.5342838776162644, 0.036578003560201466, 0.036551399821899366, 0.03668184205889702, 0.03661905601620674]","[0.54105144739151, 0.53287273645401, 0.535295844078064, 0.5452251434326172, 0.5389779806137085, 0.5376232862472534]","[0.07059918655226517, -1.5001971402426313, 0.07059918655226517, 0.07059918655226517, 0.07059918655226517, 0.07059918655226517]","[0.07059918655226517, -1.5001971402426313, 0.07059918655226517, 0.07059918655226517, 0.07059918655226517, 0.07059918655226517]",0.002,7,1
0,82,"[0.03765971586108208, -1.5331885454109688, 0.03765851656068975, 0.03766636430706782, 0.037749260663986206, 0.03766617178916931]","[0.5460096001625061, 0.5407266616821289, 0.5414516925811768, 0.5485705733299255, 0.5446749329566956, 0.546046257019043]","[0.07145847384000081, -1.4993378529548957, 0.07145847384000081, 0.07145847384000081, 0.07145847384000081, 0.07145847384000081]","[0.07145847384000081, -1.4993378529548957, 0.07145847384000081, 0.07145847384000081, 0.07145847384000081, 0.07145847384000081]",0.002,7,1
0,83,"[0.03886501491069794, -1.5320973520031949, 0.03883582750429326, 0.03883211194958491, 0.03882993385195732, 0.03875994682312012]","[0.553189218044281, 0.5486112236976624, 0.5494502186775208, 0.5516610145568848, 0.5500648617744446, 0.5511830449104309]","[0.07231730939586554, -1.498479017399031, 0.07231730939586554, 0.07231730939586554, 0.07231730939586554, 0.07231730939586554]","[0.07231730939586554, -1.498479017399031, 0.07231730939586554, 0.07231730939586554, 0.07231730939586554, 0.07231730939586554]",0.002,7,1
0,84,"[0.03989386558532715, -1.5309932988933106, 0.039905850087301076, 0.0400358873554687, 0.03999076038599014, 0.03984588012099266]","[0.5610306859016418, 0.5549335479736328, 0.5529076457023621, 0.5575000643730164, 0.55702143907547, 0.5572528839111328]","[0.07317568779064473, -1.497620639004252, 0.07317568779064473, 0.07317568779064473, 0.07317568779064473, 0.07317568779064473]","[0.07317568779064473, -1.497620639004252, 0.07317568779064473, 0.07317568779064473, 0.07317568779064473, 0.07317568779064473]",0.002,7,1
0,85,"[0.041017863899469376, -1.5298617345145722, 0.04108316103090459, 0.04124979555096431, 0.041072994470596313, 0.04097122699022293]","[0.5654109716415405, 0.5633270144462585, 0.5624306201934814, 0.5635940432548523, 0.563154935836792, 0.5645097494125366]","[0.07403360359801374, -1.4967627231968827, 0.07403360359801374, 0.07403360359801374, 0.07403360359801374, 0.07403360359801374]","[0.07403360359801374, -1.4967627231968827, 0.07403360359801374, 0.07403360359801374, 0.07403360359801374, 0.07403360359801374]",0.002,7,1
0,86,"[0.04214363545179367, -1.528713883166649, 0.04219085374941045, 0.04241029798474116, 0.04216831922531128, 0.04209870845079422]","[0.5692882537841797, 0.5675646066665649, 0.5697149038314819, 0.5706506371498108, 0.5660535097122192, 0.570796012878418]","[0.0748910513945722, -1.4959052754003244, 0.0748910513945722, 0.0748910513945722, 0.0748910513945722, 0.0748910513945722]","[0.0748910513945722, -1.4959052754003244, 0.0748910513945722, 0.0748910513945722, 0.0748910513945722, 0.0748910513945722]",0.002,7,1
0,87,"[0.04330698773264885, -1.5275869642249127, 0.04333478609193975, 0.04352371274914546, 0.04326891526579857, 0.04322216659784317]","[0.574137270450592, 0.5762739181518555, 0.5715988278388977, 0.5774434208869934, 0.5723810195922852, 0.5767406225204468]","[0.07574802575987832, -1.4950483010350182, 0.07574802575987832, 0.07574802575987832, 0.07574802575987832, 0.07574802575987832]","[0.07574802575987832, -1.4950483010350182, 0.07574802575987832, 0.07574802575987832, 0.07574802575987832, 0.07574802575987832]",0.002,7,1
0,88,"[0.04443168267607689, -1.5264184114388009, 0.044463459645406544, 0.044635339374206495, 0.044487375766038895, 0.04437621682882309]","[0.5790058374404907, 0.5788365602493286, 0.5775753259658813, 0.5797707438468933, 0.5779562592506409, 0.5819798707962036]","[0.07660452127648316, -1.4941918055184134, 0.07660452127648316, 0.07660452127648316, 0.07660452127648316, 0.07660452127648316]","[0.07660452127648316, -1.4941918055184134, 0.07660452127648316, 0.07660452127648316, 0.07660452127648316, 0.07660452127648316]",0.002,7,1
0,89,"[0.04565409943461418, -1.525260367696621, 0.045616928731099904, 0.045827074641845655, 0.045673176646232605, 0.045525141060352325]","[0.5828298330307007, 0.587179958820343, 0.583974301815033, 0.5789781212806702, 0.5862472653388977, 0.5878904461860657]","[0.07746053252996489, -1.4933357942649317, 0.07746053252996489, 0.07746053252996489, 0.07746053252996489, 0.07746053252996489]","[0.07746053252996489, -1.4933357942649317, 0.07746053252996489, 0.07746053252996489, 0.07746053252996489, 0.07746053252996489]",0.002,7,1
0,90,"[0.046811219304800034, -1.524031889890768, 0.04681855836977178, 0.04698257028546138, 0.046763524413108826, 0.04674537479877472]","[0.5905100703239441, 0.5953622460365295, 0.588778018951416, 0.5813624858856201, 0.5914188623428345, 0.5937617421150208]","[0.07831605410896296, -1.4924802726859336, 0.07831605410896296, 0.07831605410896296, 0.07831605410896296, 0.07831605410896296]","[0.07831605410896296, -1.4924802726859336, 0.07831605410896296, 0.07831605410896296, 0.07831605410896296, 0.07831605410896296]",0.002,7,1
0,91,"[0.04798749089241028, -1.5228493709913273, 0.048004929219381154, 0.048207445735595655, 0.0480085089802742, 0.04789537936449051]","[0.5952722430229187, 0.5999140739440918, 0.5955913066864014, 0.5877315998077393, 0.5961981415748596, 0.6004524230957031]","[0.07917108060521237, -1.4916252461896842, 0.07917108060521237, 0.07917108060521237, 0.07917108060521237, 0.07917108060521237]","[0.07917108060521237, -1.4916252461896842, 0.07917108060521237, 0.07917108060521237, 0.07917108060521237, 0.07917108060521237]",0.002,7,1
0,92,"[0.0491655059158802, -1.5216872219792386, 0.04918080965151006, 0.04938964426007075, 0.04914891719818115, 0.049090832471847534]","[0.599091649055481, 0.6008883714675903, 0.5975263714790344, 0.5929635167121887, 0.5986505150794983, 0.6043963432312012]","[0.08002560661357781, -1.4907707201813187, 0.08002560661357781, 0.08002560661357781, 0.08002560661357781, 0.08002560661357781]","[0.08002560661357781, -1.4907707201813187, 0.08002560661357781, 0.08002560661357781, 0.08002560661357781, 0.08002560661357781]",0.002,7,1
0,93,"[0.050409648567438126, -1.5204513569227238, 0.050349060689107716, 0.05052856981243892, 0.05037564039230347, 0.05034015327692032]","[0.6051718592643738, 0.6035845279693604, 0.6022031307220459, 0.6005406975746155, 0.6024248600006104, 0.6074761748313904]","[0.0808796267320879, -1.4899167000628086, 0.0808796267320879, 0.0808796267320879, 0.0808796267320879, 0.0808796267320879]","[0.0808796267320879, -1.4899167000628086, 0.0808796267320879, 0.0808796267320879, 0.0808796267320879, 0.0808796267320879]",0.002,7,1
0,94,"[0.05164026841521263, -1.5192321774414559, 0.051558796559469044, 0.05163721620526118, 0.05158909782767296, 0.05154296010732651]","[0.6067996621131897, 0.6054988503456116, 0.607228696346283, 0.6059619188308716, 0.6080400943756104, 0.612165629863739]","[0.08173313556196925, -1.4890631912329273, 0.08173313556196925, 0.08173313556196925, 0.08173313556196925, 0.08173313556196925]","[0.08173313556196925, -1.4890631912329273, 0.08173313556196925, 0.08173313556196925, 0.08173313556196925, 0.08173313556196925]",0.002,7,1
0,95,"[0.05288001894950867, -1.518034429555275, 0.05276090303529912, 0.052919073695800734, 0.05277709662914276, 0.05282324552536011]","[0.6095094084739685, 0.6089990735054016, 0.6112315654754639, 0.6076783537864685, 0.614291787147522, 0.6159530878067017]","[0.08258612770768066, -1.4882101990872159, 0.08258612770768066, 0.08258612770768066, 0.08258612770768066, 0.08258612770768066]","[0.08258612770768066, -1.4882101990872159, 0.08258612770768066, 0.08258612770768066, 0.08258612770768066, 0.08258612770768066]",0.002,7,1
0,96,"[0.054084986448287964, -1.5167665605298062, 0.0539777914630335, 0.05406288682904048, 0.05402085557579994, 0.05405822768807411]","[0.6173586249351501, 0.6136962175369263, 0.6156744360923767, 0.6124076247215271, 0.6188538074493408, 0.6198851466178894]","[0.08343859777694718, -1.4873577290179494, 0.08343859777694718, 0.08343859777694718, 0.08343859777694718, 0.08343859777694718]","[0.08343859777694718, -1.4873577290179494, 0.08343859777694718, 0.08343859777694718, 0.08343859777694718, 0.08343859777694718]",0.002,7,1
0,97,"[0.05537234619259834, -1.5155846749297162, 0.05526096025575811, 0.05517999708142085, 0.055266354233026505, 0.055340785533189774]","[0.6214876174926758, 0.6128445267677307, 0.6176400780677795, 0.6173349022865295, 0.6224714517593384, 0.620948314666748]","[0.08429054038079421, -1.4865057864141022, 0.08429054038079421, 0.08429054038079421, 0.08429054038079421, 0.08429054038079421]","[0.08429054038079421, -1.4865057864141022, 0.08429054038079421, 0.08429054038079421, 0.08429054038079421, 0.08429054038079421]",0.002,7,1
0,98,"[0.05663985759019852, -1.5143934910050412, 0.05646258989442998, 0.05645863592114253, 0.05652424693107605, 0.056604813784360886]","[0.6230047345161438, 0.6136915683746338, 0.6186113953590393, 0.6247757077217102, 0.6261179447174072, 0.6232189536094666]","[0.08514195013358164, -1.4856543766613148, 0.08514195013358164, 0.08514195013358164, 0.08514195013358164, 0.08514195013358164]","[0.08514195013358164, -1.4856543766613148, 0.08514195013358164, 0.08514195013358164, 0.08514195013358164, 0.08514195013358164]",0.002,7,1
0,99,"[0.057891786098480225, -1.513106134986021, 0.05773622194399053, 0.057704611415527296, 0.0577242486178875, 0.0578421987593174]","[0.6284136772155762, 0.6159493923187256, 0.6241792440414429, 0.6294819116592407, 0.6284480094909668, 0.625634491443634]","[0.08599282165303773, -1.4848035051418589, 0.08599282165303773, 0.08599282165303773, 0.08599282165303773, 0.08599282165303773]","[0.08599282165303773, -1.4848035051418589, 0.08599282165303773, 0.08599282165303773, 0.08599282165303773, 0.08599282165303773]",0.002,7,1
0,100,"[0.059111300855875015, -1.511817594324686, 0.05897838274110967, 0.058963461513183546, 0.05908102169632912, 0.05917026102542877]","[0.6313748359680176, 0.6182715892791748, 0.6255353093147278, 0.6343521475791931, 0.630254328250885, 0.6288430690765381]","[0.08684314956029332, -1.4839531772346033, 0.08684314956029332, 0.08684314956029332, 0.08684314956029332, 0.08684314956029332]","[0.08684314956029332, -1.4839531772346033, 0.08684314956029332, 0.08684314956029332, 0.08684314956029332, 0.08684314956029332]",0.002,7,1
0,101,"[0.06036531180143356, -1.5106285785189648, 0.06019956270326787, 0.060216112727783155, 0.06038970127701759, 0.06044640392065048]","[0.6335157752037048, 0.6203312873840332, 0.6285455226898193, 0.6361821889877319, 0.6348360776901245, 0.629733681678772]","[0.0876929284799157, -1.4831033983149808, 0.0876929284799157, 0.0876929284799157, 0.0876929284799157, 0.0876929284799157]","[0.0876929284799157, -1.4831033983149808, 0.0876929284799157, 0.0876929284799157, 0.0876929284799157, 0.0876929284799157]",0.002,7,1
0,102,"[0.06158954277634621, -1.5093899381211777, 0.06143361726869756, 0.06146232664074702, 0.06165587157011032, 0.061720866709947586]","[0.6368369460105896, 0.6235641837120056, 0.6314863562583923, 0.639522135257721, 0.6364213824272156, 0.632520318031311]","[0.08854215303994269, -1.482254173754954, 0.08854215303994269, 0.08854215303994269, 0.08854215303994269, 0.08854215303994269]","[0.08854215303994269, -1.482254173754954, 0.08854215303994269, 0.08854215303994269, 0.08854215303994269, 0.08854215303994269]",0.002,7,1
0,103,"[0.06289192289113998, -1.5081051003983994, 0.06270915666689092, 0.06280819951977534, 0.06294376403093338, 0.06301626563072205]","[0.6397708058357239, 0.6234702467918396, 0.6318464279174805, 0.6409916877746582, 0.6397783160209656, 0.6344267725944519]","[0.08939081787191647, -1.48140550892298, 0.08939081787191647, 0.08939081787191647, 0.08939081787191647, 0.08939081787191647]","[0.08939081787191647, -1.48140550892298, 0.08939081787191647, 0.08939081787191647, 0.08939081787191647, 0.08939081787191647]",0.002,7,1
0,104,"[0.06411166489124298, -1.5068546769073983, 0.06406671205629522, 0.06403927385296626, 0.06428521126508713, 0.06431230902671814]","[0.6404057145118713, 0.6235373616218567, 0.6323724985122681, 0.6417287588119507, 0.6402460932731628, 0.6365078687667847]","[0.09023891761091771, -1.4805574091839788, 0.09023891761091771, 0.09023891761091771, 0.09023891761091771, 0.09023891761091771]","[0.09023891761091771, -1.4805574091839788, 0.09023891761091771, 0.09023891761091771, 0.09023891761091771, 0.09023891761091771]",0.002,7,1
0,105,"[0.06540056318044662, -1.5054858189872284, 0.06529409090151006, 0.06536261617626948, 0.06558381766080856, 0.0655951052904129]","[0.6428208947181702, 0.6281026601791382, 0.6342160701751709, 0.6439609527587891, 0.6422539949417114, 0.6384196281433105]","[0.09108644689559922, -1.4797098798992974, 0.09108644689559922, 0.09108644689559922, 0.09108644689559922, 0.09108644689559922]","[0.09108644689559922, -1.4797098798992974, 0.09108644689559922, 0.09108644689559922, 0.09108644689559922, 0.09108644689559922]",0.002,7,1
0,106,"[0.06674378365278244, -1.5042887491038819, 0.06661588350404912, 0.06671874105419917, 0.06683501601219177, 0.06689830869436264]","[0.6444820761680603, 0.6298348307609558, 0.6347278356552124, 0.6446051001548767, 0.6439020037651062, 0.6388468146324158]","[0.09193340036822013, -1.4788629264266764, 0.09193340036822013, 0.09193340036822013, 0.09193340036822013, 0.09193340036822013]","[0.09193340036822013, -1.4788629264266764, 0.09193340036822013, 0.09193340036822013, 0.09193340036822013, 0.09193340036822013]",0.002,7,1
0,107,"[0.06806566566228867, -1.5030085307410737, 0.06788713136781865, 0.06804029523815913, 0.06816878169775009, 0.06815017759799957]","[0.6464949250221252, 0.6334244608879089, 0.6382081508636475, 0.6480093002319336, 0.6433608531951904, 0.6410072445869446]","[0.09277977267467959, -1.478016554120217, 0.09277977267467959, 0.09277977267467959, 0.09277977267467959, 0.09277977267467959]","[0.09277977267467959, -1.478016554120217, 0.09277977267467959, 0.09277977267467959, 0.09277977267467959, 0.09277977267467959]",0.002,7,1
0,108,"[0.06939644366502762, -1.5017224487713356, 0.06922895113100225, 0.0693247753330688, 0.06948268413543701, 0.06942936033010483]","[0.6465185880661011, 0.6343878507614136, 0.6418483257293701, 0.6488541960716248, 0.6428996920585632, 0.6416763663291931]","[0.09362555846455059, -1.4771707683303459, 0.09362555846455059, 0.09362555846455059, 0.09362555846455059, 0.09362555846455059]","[0.09362555846455059, -1.4771707683303459, 0.09362555846455059, 0.09362555846455059, 0.09362555846455059, 0.09362555846455059]",0.002,7,1
0,109,"[0.07070913165807724, -1.5004928645542641, 0.070533577595846, 0.07065968095745845, 0.07078728079795837, 0.07061474025249481]","[0.6494442820549011, 0.6379262804985046, 0.6437174677848816, 0.6491973400115967, 0.641880214214325, 0.6456466317176819]","[0.09447075239111392, -1.4763255744037826, 0.09447075239111392, 0.09447075239111392, 0.09447075239111392, 0.09447075239111392]","[0.09447075239111392, -1.4763255744037826, 0.09447075239111392, 0.09447075239111392, 0.09447075239111392, 0.09447075239111392]",0.002,7,1
0,110,"[0.0720430389046669, -1.4991172564080735, 0.07182437578310186, 0.07197777807202144, 0.07198500633239746, 0.07190856337547302]","[0.6489763855934143, 0.6446996331214905, 0.6451727151870728, 0.6475293040275574, 0.6447564959526062, 0.647368848323822]","[0.09531534911139185, -1.4754809776835047, 0.09531534911139185, 0.09531534911139185, 0.09531534911139185, 0.09531534911139185]","[0.09531534911139185, -1.4754809776835047, 0.09531534911139185, 0.09531534911139185, 0.09531534911139185, 0.09531534911139185]",0.002,7,1
0,111,"[0.07323775440454483, -1.4978705060533066, 0.07306558290590459, 0.07332138597454829, 0.073299340903759, 0.0731833279132843]","[0.6500255465507507, 0.6432229280471802, 0.6445122957229614, 0.6466562151908875, 0.6464916467666626, 0.6470596194267273]","[0.09615934328618193, -1.4746369835087145, 0.09615934328618193, 0.09615934328618193, 0.09615934328618193, 0.09615934328618193]","[0.09615934328618193, -1.4746369835087145, 0.09615934328618193, 0.09615934328618193, 0.09615934328618193, 0.09615934328618193]",0.002,7,1
0,112,"[0.07455305755138397, -1.4966208574226876, 0.07434255281557256, 0.07469121992077632, 0.07453444600105286, 0.0744919702410698]","[0.6463348269462585, 0.6458060145378113, 0.6443719863891602, 0.6477522253990173, 0.647987961769104, 0.6498855948448181]","[0.09700272958009082, -1.4737935972148057, 0.09700272958009082, 0.09700272958009082, 0.09700272958009082, 0.09700272958009082]","[0.09700272958009082, -1.4737935972148057, 0.09700272958009082, 0.09700272958009082, 0.09700272958009082, 0.09700272958009082]",0.002,7,1
0,113,"[0.07578890025615692, -1.495262899701931, 0.07571441331972295, 0.07602958261456294, 0.07580947130918503, 0.07576297968626022]","[0.6454594731330872, 0.6453691720962524, 0.646013617515564, 0.646847665309906, 0.6486751437187195, 0.651717483997345]","[0.09784550266156791, -1.4729508241333287, 0.09784550266156791, 0.09784550266156791, 0.09784550266156791, 0.09784550266156791]","[0.09784550266156791, -1.4729508241333287, 0.09784550266156791, 0.09784550266156791, 0.09784550266156791, 0.09784550266156791]",0.002,7,1
0,114,"[0.07714782655239105, -1.4939600986293335, 0.07695180574526006, 0.0773358780094604, 0.07716044783592224, 0.077043317258358]","[0.6456959843635559, 0.6479665637016296, 0.6454176902770996, 0.645584762096405, 0.6505389213562012, 0.6544098854064941]","[0.09868765720293912, -1.4721086695919574, 0.09868765720293912, 0.09868765720293912, 0.09868765720293912, 0.09868765720293912]","[0.09868765720293912, -1.4721086695919574, 0.09868765720293912, 0.09868765720293912, 0.09868765720293912, 0.09868765720293912]",0.002,7,1
0,115,"[0.07845915108919144, -1.4926455852440377, 0.0783012549029749, 0.07852916299786372, 0.07836713641881943, 0.07832171022891998]","[0.6487743854522705, 0.6500396132469177, 0.6509391069412231, 0.6426273584365845, 0.6509074568748474, 0.6536738872528076]","[0.09952918788044049, -1.471267138914456, 0.09952918788044049, 0.09952918788044049, 0.09952918788044049, 0.09952918788044049]","[0.09952918788044049, -1.471267138914456, 0.09952918788044049, 0.09952918788044049, 0.09952918788044049, 0.09952918788044049]",0.002,7,1
0,116,"[0.07979146391153336, -1.491395765250065, 0.0795357863055628, 0.0799063879200439, 0.0796898603439331, 0.07960487902164459]","[0.6511496305465698, 0.6499238610267639, 0.6497317552566528, 0.640765905380249, 0.6506319642066956, 0.652789831161499]","[0.10037008937425189, -1.4704262374206447, 0.10037008937425189, 0.10037008937425189, 0.10037008937425189, 0.10037008937425189]","[0.10037008937425189, -1.4704262374206447, 0.10037008937425189, 0.10037008937425189, 0.10037008937425189, 0.10037008937425189]",0.002,7,1
0,117,"[0.08099757134914398, -1.4900471431067963, 0.08084756532777959, 0.08113710462536616, 0.08091700822114944, 0.08092024177312851]","[0.6487261056900024, 0.6480073928833008, 0.6479961276054382, 0.6409482359886169, 0.6493561267852783, 0.6533132195472717]","[0.10121035636853062, -1.4695859704263659, 0.10121035636853062, 0.10121035636853062, 0.10121035636853062, 0.10121035636853062]","[0.10121035636853062, -1.4695859704263659, 0.10121035636853062, 0.10121035636853062, 0.10121035636853062, 0.10121035636853062]",0.002,7,1
0,118,"[0.08231964707374573, -1.488763728444912, 0.08214933076967412, 0.08243612825360103, 0.0822160392999649, 0.08222749829292297]","[0.6485298871994019, 0.6479548811912537, 0.6461339592933655, 0.6436432003974915, 0.6495239734649658, 0.6524776816368103]","[0.10204998355144514, -1.4687463432434513, 0.10204998355144514, 0.10204998355144514, 0.10204998355144514, 0.10204998355144514]","[0.10204998355144514, -1.4687463432434513, 0.10204998355144514, 0.10204998355144514, 0.10204998355144514, 0.10204998355144514]",0.002,7,1
0,119,"[0.08365459740161896, -1.4874264237335701, 0.08343869844545537, 0.08366946756329341, 0.08356815576553345, 0.0836549773812294]","[0.6470180749893188, 0.6473106145858765, 0.6463967561721802, 0.6435933113098145, 0.649020254611969, 0.6529649496078491]","[0.10288896561520831, -1.4679073611796882, 0.10288896561520831, 0.10288896561520831, 0.10288896561520831, 0.10288896561520831]","[0.10288896561520831, -1.4679073611796882, 0.10288896561520831, 0.10288896561520831, 0.10288896561520831, 0.10288896561520831]",0.002,7,1
0,120,"[0.08498384803533554, -1.486176536684372, 0.08471233049501592, 0.08486799776043696, 0.08489672094583511, 0.08491148799657822]","[0.6439470052719116, 0.645428478717804, 0.6483213901519775, 0.645080029964447, 0.6503915190696716, 0.649832546710968]","[0.10372729725611143, -1.4670690295387852, 0.10372729725611143, 0.10372729725611143, 0.10372729725611143, 0.10372729725611143]","[0.10372729725611143, -1.4670690295387852, 0.10372729725611143, 0.10372729725611143, 0.10372729725611143, 0.10372729725611143]",0.002,7,1
0,121,"[0.08630687743425369, -1.4848713141730805, 0.0860217253314417, 0.08607761442150874, 0.08610113710165024, 0.08622976392507553]","[0.6481840014457703, 0.6431885361671448, 0.6474809050559998, 0.6427984833717346, 0.6499170660972595, 0.6486082673072815]","[0.10456497317455739, -1.466231353620339, 0.10456497317455739, 0.10456497317455739, 0.10456497317455739, 0.10456497317455739]","[0.10456497317455739, -1.466231353620339, 0.10456497317455739, 0.10456497317455739, 0.10456497317455739, 0.10456497317455739]",0.002,7,1
0,122,"[0.08757820725440979, -1.483582892721035, 0.08726007143129522, 0.08739749967541499, 0.08743879199028015, 0.08753613382577896]","[0.6461637616157532, 0.6411406993865967, 0.6416024565696716, 0.6426258087158203, 0.6492064595222473, 0.6469048261642456]","[0.10540198807509427, -1.4653943387198023, 0.10540198807509427, 0.10540198807509427, 0.10540198807509427, 0.10540198807509427]","[0.10540198807509427, -1.4653943387198023, 0.10540198807509427, 0.10540198807509427, 0.10540198807509427, 0.10540198807509427]",0.002,7,1
0,123,"[0.08882777392864227, -1.4822920572808762, 0.08855086961855108, 0.08864395200695796, 0.08881517499685287, 0.08889691531658173]","[0.6431166529655457, 0.6398872137069702, 0.6387437582015991, 0.6452172994613647, 0.6446782350540161, 0.6408982276916504]","[0.1062383366664489, -1.4645579901284476, 0.1062383366664489, 0.1062383366664489, 0.1062383366664489, 0.1062383366664489]","[0.1062383366664489, -1.4645579901284476, 0.1062383366664489, 0.1062383366664489, 0.1062383366664489, 0.1062383366664489]",0.002,7,1
0,124,"[0.09013871848583221, -1.480980598633625, 0.08986264864076787, 0.08993784963574214, 0.09005869179964066, 0.09021902084350586]","[0.6434004306793213, 0.6343979239463806, 0.64057856798172, 0.6487279534339905, 0.6422444581985474, 0.6401920914649963]","[0.10707401366156022, -1.4637223131333363, 0.10707401366156022, 0.10707401366156022, 0.10707401366156022, 0.10707401366156022]","[0.10707401366156022, -1.4637223131333363, 0.10707401366156022, 0.10707401366156022, 0.10707401366156022, 0.10707401366156022]",0.002,7,1
0,125,"[0.09137918800115585, -1.479656570856907, 0.09122115770448858, 0.09121183931317134, 0.09140440821647644, 0.09146524965763092]","[0.6418689489364624, 0.6337663531303406, 0.6391201019287109, 0.6473369598388672, 0.6403918266296387, 0.6411920785903931]","[0.10790901377761274, -1.462887313017284, 0.10790901377761274, 0.10790901377761274, 0.10790901377761274, 0.10790901377761274]","[0.10790901377761274, -1.462887313017284, 0.10790901377761274, 0.10790901377761274, 0.10790901377761274, 0.10790901377761274]",0.002,7,1
0,126,"[0.0926130935549736, -1.4783496645144005, 0.09241754213442022, 0.09252790986981196, 0.09271329641342163, 0.09274906665086746]","[0.6424260139465332, 0.6307862997055054, 0.6375346183776855, 0.6472047567367554, 0.6382906436920166, 0.636195182800293]","[0.10874333173606994, -1.4620529950588266, 0.10874333173606994, 0.10874333173606994, 0.10874333173606994, 0.10874333173606994]","[0.10874333173606994, -1.4620529950588266, 0.10874333173606994, 0.10874333173606994, 0.10874333173606994, 0.10874333173606994]",0.002,7,1
0,127,"[0.09385484457015991, -1.4771118697575112, 0.093726936970846, 0.09376792489971919, 0.09399166703224182, 0.09409808367490768]","[0.6358770132064819, 0.6284123659133911, 0.6348103284835815, 0.6425708532333374, 0.638236403465271, 0.6351944804191589]","[0.1095769622627076, -1.461219364532189, 0.1095769622627076, 0.1095769622627076, 0.1095769622627076, 0.1095769622627076]","[0.1095769622627076, -1.461219364532189, 0.1095769622627076, 0.1095769622627076, 0.1095769622627076, 0.1095769622627076]",0.002,7,1
0,128,"[0.09514402598142624, -1.475819968884327, 0.09496814409364873, 0.09504215299572749, 0.09529998898506165, 0.0952877402305603]","[0.6334463357925415, 0.625166654586792, 0.6318678259849548, 0.6411502957344055, 0.6378188729286194, 0.6322135329246521]","[0.1104099000876472, -1.4603864267072493, 0.1104099000876472, 0.1104099000876472, 0.1104099000876472, 0.1104099000876472]","[0.1104099000876472, -1.4603864267072493, 0.1104099000876472, 0.1104099000876472, 0.1104099000876472, 0.1104099000876472]",0.002,7,1
0,129,"[0.09641510248184204, -1.474552960400917, 0.09624225298036748, 0.09632222234692378, 0.09659639000892639, 0.09658186882734299]","[0.6327338814735413, 0.6244797110557556, 0.6286213397979736, 0.6350170373916626, 0.6337509751319885, 0.6286810636520386]","[0.11124213994538917, -1.4595541868495074, 0.11124213994538917, 0.11124213994538917, 0.11124213994538917, 0.11124213994538917]","[0.11124213994538917, -1.4595541868495074, 0.11124213994538917, 0.11124213994538917, 0.11124213994538917, 0.11124213994538917]",0.002,7,1
0,130,"[0.09770897775888443, -1.4732338649085541, 0.09752399126161748, 0.09766177713360591, 0.09783834218978882, 0.09776492416858673]","[0.6321645975112915, 0.6236140727996826, 0.6249304413795471, 0.6332839727401733, 0.6302644610404968, 0.62646484375]","[0.11207367657484625, -1.4587226502200503, 0.11207367657484625, 0.11207367657484625, 0.11207367657484625, 0.11207367657484625]","[0.11207367657484625, -1.4587226502200503, 0.11207367657484625, 0.11207367657484625, 0.11207367657484625, 0.11207367657484625]",0.002,7,1
0,131,"[0.09896641969680786, -1.471998692756035, 0.09884244600404912, 0.09892372667279048, 0.09900027513504028, 0.09900719672441483]","[0.6305198669433594, 0.6218436360359192, 0.624219536781311, 0.6318976879119873, 0.6254199147224426, 0.623964786529541]","[0.11290450471937667, -1.45789182207552, 0.11290450471937667, 0.11290450471937667, 0.11290450471937667, 0.11290450471937667]","[0.11290450471937667, -1.45789182207552, 0.11290450471937667, 0.11290450471937667, 0.11290450471937667, 0.11290450471937667]",0.002,7,1
0,132,"[0.10020361840724945, -1.4707430985620995, 0.10006505647768194, 0.10022787630047603, 0.10023844987154007, 0.10025039315223694]","[0.6234357357025146, 0.6212869882583618, 0.6215577721595764, 0.6298298835754395, 0.6225032210350037, 0.6218127608299255]","[0.11373461912681745, -1.4570617076680792, 0.11373461912681745, 0.11373461912681745, 0.11373461912681745, 0.11373461912681745]","[0.11373461912681745, -1.4570617076680792, 0.11373461912681745, 0.11373461912681745, 0.11373461912681745, 0.11373461912681745]",0.002,7,1
0,133,"[0.10150127112865448, -1.4695091259530564, 0.10135299364198858, 0.10147790491070552, 0.1014852374792099, 0.10143829137086868]","[0.6207046508789062, 0.6217935085296631, 0.6222975254058838, 0.6266050934791565, 0.6179483532905579, 0.6184818744659424]","[0.11456401454951752, -1.456232312245379, 0.11456401454951752, 0.11456401454951752, 0.11456401454951752, 0.11456401454951752]","[0.11456401454951752, -1.456232312245379, 0.11456401454951752, 0.11456401454951752, 0.11456401454951752, 0.11456401454951752]",0.002,7,1
0,134,"[0.10270088911056519, -1.4682932880571862, 0.10254890123476201, 0.10282306253399653, 0.10278299450874329, 0.10267096757888794]","[0.621340274810791, 0.6200714707374573, 0.617466926574707, 0.6207254528999329, 0.6174193024635315, 0.6171621084213257]","[0.11539268574437102, -1.4554036410505256, 0.11539268574437102, 0.11539268574437102, 0.11539268574437102, 0.11539268574437102]","[0.11539268574437102, -1.4554036410505256, 0.11539268574437102, 0.11539268574437102, 0.11539268574437102, 0.11539268574437102]",0.002,7,1
0,135,"[0.1039186641573906, -1.4670384016684075, 0.103767220173971, 0.10401157915081782, 0.10394316166639328, 0.10390099138021469]","[0.61646968126297, 0.6201929450035095, 0.6161705851554871, 0.614610493183136, 0.6136307120323181, 0.6154178380966187]","[0.11622062747285028, -1.4545756993220462, 0.11622062747285028, 0.11622062747285028, 0.11622062747285028, 0.11622062747285028]","[0.11622062747285028, -1.4545756993220462, 0.11622062747285028, 0.11622062747285028, 0.11622062747285028, 0.11622062747285028]",0.002,7,1
0,136,"[0.10512494295835495, -1.4658340227654953, 0.10497886339296514, 0.10532633840527339, 0.10518525540828705, 0.10508021712303162]","[0.6128259897232056, 0.6160199046134949, 0.6107581257820129, 0.6124402284622192, 0.6107727885246277, 0.613288164138794]","[0.11704783450103912, -1.4537484922938575, 0.11704783450103912, 0.11704783450103912, 0.11704783450103912, 0.11704783450103912]","[0.11704783450103912, -1.4537484922938575, 0.11704783450103912, 0.11704783450103912, 0.11704783450103912, 0.11704783450103912]",0.002,7,1
0,137,"[0.10633712261915207, -1.4646812987378617, 0.10626393953432256, 0.10654882966961665, 0.10632594674825668, 0.10630767792463303]","[0.6073460578918457, 0.6146124005317688, 0.6088497638702393, 0.6074422597885132, 0.6074491739273071, 0.6110525131225586]","[0.11787430159966572, -1.4529220251952308, 0.11787430159966572, 0.11787430159966572, 0.11787430159966572, 0.11787430159966572]","[0.11787430159966572, -1.4529220251952308, 0.11787430159966572, 0.11787430159966572, 0.11787430159966572, 0.11787430159966572]",0.002,7,1
0,138,"[0.10753963887691498, -1.4634000745466729, 0.10745174089540654, 0.10776524126019282, 0.10759666562080383, 0.10744480788707733]","[0.6024967432022095, 0.6095198392868042, 0.6058695316314697, 0.6003440022468567, 0.6055481433868408, 0.6079873442649841]","[0.11870002354413592, -1.4520963032507606, 0.11870002354413592, 0.11870002354413592, 0.11870002354413592, 0.11870002354413592]","[0.11870002354413592, -1.4520963032507606, 0.11870002354413592, 0.11870002354413592, 0.11870002354413592, 0.11870002354413592]",0.002,7,1
0,139,"[0.10875357687473297, -1.4621548813632508, 0.10857898393739873, 0.10892538606610103, 0.10873642563819885, 0.10863986611366272]","[0.6001699566841125, 0.6085704565048218, 0.6018338203430176, 0.5948933959007263, 0.6036962270736694, 0.6059241890907288]","[0.1195249951145661, -1.4512713316803305, 0.1195249951145661, 0.1195249951145661, 0.1195249951145661, 0.1195249951145661]","[0.1195249951145661, -1.4512713316803305, 0.1195249951145661, 0.1195249951145661, 0.1195249951145661, 0.1195249951145661]",0.002,7,1
0,140,"[0.10991732776165009, -1.460967318420746, 0.10986119905580694, 0.11016873895611567, 0.10993856191635132, 0.10984284430742264]","[0.5991224050521851, 0.610265851020813, 0.6004263162612915, 0.5918468236923218, 0.6021370887756348, 0.6030032634735107]","[0.12034921109581614, -1.4504471156990804, 0.12034921109581614, 0.12034921109581614, 0.12034921109581614, 0.12034921109581614]","[0.12034921109581614, -1.4504471156990804, 0.12034921109581614, 0.12034921109581614, 0.12034921109581614, 0.12034921109581614]",0.002,7,1
0,141,"[0.11116260290145874, -1.4598544624498864, 0.11099177995790654, 0.11138670026745601, 0.11114995926618576, 0.11108487844467163]","[0.5950335264205933, 0.6057140231132507, 0.596139132976532, 0.5879800915718079, 0.5959781408309937, 0.6007040143013]","[0.12117266627752252, -1.449623660517374, 0.12117266627752252, 0.12117266627752252, 0.12117266627752252, 0.12117266627752252]","[0.12117266627752252, -1.449623660517374, 0.12117266627752252, 0.12117266627752252, 0.12117266627752252, 0.12117266627752252]",0.002,7,1
0,142,"[0.1123083084821701, -1.4586759594133873, 0.11217099825014287, 0.11252884447064204, 0.11232183873653412, 0.11230212450027466]","[0.5890748500823975, 0.5996392965316772, 0.5925695896148682, 0.5852152109146118, 0.5911452174186707, 0.5946427583694458]","[0.12199535545413111, -1.4488009713407655, 0.12199535545413111, 0.12199535545413111, 0.12199535545413111, 0.12199535545413111]","[0.12199535545413111, -1.4488009713407655, 0.12199535545413111, 0.12199535545413111, 0.12199535545413111, 0.12199535545413111]",0.002,7,1
0,143,"[0.11352451890707016, -1.457430714075901, 0.11330920854677373, 0.1136125761219482, 0.11347544193267822, 0.11345665901899338]","[0.5850533843040466, 0.5924364328384399, 0.5867484211921692, 0.5838890075683594, 0.5873703956604004, 0.59047931432724]","[0.12281727342493026, -1.4479790533699664, 0.12281727342493026, 0.12281727342493026, 0.12281727342493026, 0.12281727342493026]","[0.12281727342493026, -1.4479790533699664, 0.12281727342493026, 0.12281727342493026, 0.12281727342493026, 0.12281727342493026]",0.002,7,1
0,144,"[0.11468309164047241, -1.4562862005880852, 0.11455995241274053, 0.11469249307598872, 0.1146039068698883, 0.11465620994567871]","[0.5807344317436218, 0.5884417295455933, 0.582075297832489, 0.5774209499359131, 0.5848391056060791, 0.5873184204101562]","[0.12363841499408351, -1.447157911800813, 0.12363841499408351, 0.12363841499408351, 0.12363841499408351, 0.12363841499408351]","[0.12363841499408351, -1.447157911800813, 0.12363841499408351, 0.12363841499408351, 0.12363841499408351, 0.12363841499408351]",0.002,7,1
0,145,"[0.11585617810487747, -1.4550598126700898, 0.11572248140443975, 0.11578087388958735, 0.11581671983003616, 0.11584547162055969]","[0.5769227743148804, 0.5838649272918701, 0.5799283385276794, 0.5753416419029236, 0.582220733165741, 0.5821825861930847]","[0.1244587749706625, -1.446337551824234, 0.1244587749706625, 0.1244587749706625, 0.1244587749706625, 0.1244587749706625]","[0.1244587749706625, -1.446337551824234, 0.1244587749706625, 0.1244587749706625, 0.1244587749706625, 0.1244587749706625]",0.002,7,1
0,146,"[0.11699481308460236, -1.4539174300483246, 0.11684114137758428, 0.11694459497418208, 0.11697085946798325, 0.11699393391609192]","[0.5712103843688965, 0.5805857181549072, 0.5765887498855591, 0.5711793899536133, 0.577647864818573, 0.5764370560646057]","[0.12527834816867986, -1.4455179786262167, 0.12527834816867986, 0.12527834816867986, 0.12527834816867986, 0.12527834816867986]","[0.12527834816867986, -1.4455179786262167, 0.12527834816867986, 0.12527834816867986, 0.12527834816867986, 0.12527834816867986]",0.002,7,1
0,147,"[0.11813317239284515, -1.4528228130987664, 0.11795980135072881, 0.11800388872113032, 0.11816075444221497, 0.11818818002939224]","[0.5678881406784058, 0.573598325252533, 0.5723444223403931, 0.5690036416053772, 0.5736658573150635, 0.5706778764724731]","[0.12609712940712178, -1.4446991973877747, 0.12609712940712178, 0.12609712940712178, 0.12609712940712178, 0.12609712940712178]","[0.12609712940712178, -1.4446991973877747, 0.12609712940712178, 0.12609712940712178, 0.12609712940712178, 0.12609712940712178]",0.002,7,1
0,148,"[0.1192462146282196, -1.4516883504441758, 0.11909705797304326, 0.1191759544559936, 0.11925190687179565, 0.11933784931898117]","[0.5654577612876892, 0.5640756487846375, 0.5638338327407837, 0.5677362680435181, 0.5682945251464844, 0.566278338432312]","[0.12691511350998105, -1.4438812132849155, 0.12691511350998105, 0.12691511350998105, 0.12691511350998105, 0.12691511350998105]","[0.12691511350998105, -1.4438812132849155, 0.12691511350998105, 0.12691511350998105, 0.12691511350998105, 0.12691511350998105]",0.002,7,1
0,149,"[0.12037262320518494, -1.4505736914328118, 0.12025529543031865, 0.12032501279797359, 0.1204102635383606, 0.12044982612133026]","[0.5625607967376709, 0.559486985206604, 0.5626347064971924, 0.5664528012275696, 0.5610977411270142, 0.5625916719436646]","[0.1277322953062895, -1.443064031488607, 0.1277322953062895, 0.1277322953062895, 0.1277322953062895, 0.1277322953062895]","[0.1277322953062895, -1.443064031488607, 0.1277322953062895, 0.1277322953062895, 0.1277322953062895, 0.1277322953062895]",0.002,7,1
0,150,"[0.12153219431638718, -1.4494297814420243, 0.12131959596742803, 0.12140039979901118, 0.12151820212602615, 0.1216394454240799]","[0.5586929321289062, 0.556475043296814, 0.5556303858757019, 0.5634900331497192, 0.5577729344367981, 0.5555844306945801]","[0.12854866963015096, -1.4422476571647456, 0.12854866963015096, 0.12854866963015096, 0.12854866963015096, 0.12854866963015096]","[0.12854866963015096, -1.4422476571647456, 0.12854866963015096, 0.12854866963015096, 0.12854866963015096, 0.12854866963015096]",0.002,7,1
0,151,"[0.12262601405382156, -1.4482448187521477, 0.12247068086733037, 0.1224863964268188, 0.12269169837236404, 0.1227363720536232]","[0.5538937449455261, 0.5517376661300659, 0.5534563064575195, 0.558080792427063, 0.5516812801361084, 0.5502552390098572]","[0.12936423132077363, -1.4414320954741229, 0.12936423132077363, 0.12936423132077363, 0.12936423132077363, 0.12936423132077363]","[0.12936423132077363, -1.4414320954741229, 0.12936423132077363, 0.12936423132077363, 0.12936423132077363, 0.12936423132077363]",0.002,7,1
0,152,"[0.12366481870412827, -1.4471831333688279, 0.12348872820009404, 0.12357310831036372, 0.12377675622701645, 0.12383584678173065]","[0.548039972782135, 0.5431894063949585, 0.548267662525177, 0.5538392663002014, 0.5483794808387756, 0.545509934425354]","[0.13017897522250294, -1.4406173515723937, 0.13017897522250294, 0.13017897522250294, 0.13017897522250294, 0.13017897522250294]","[0.13017897522250294, -1.4406173515723937, 0.13017897522250294, 0.13017897522250294, 0.13017897522250294, 0.13017897522250294]",0.002,7,1
0,153,"[0.12471099197864532, -1.4460631024888535, 0.12465364137758428, 0.12461750089611812, 0.12486431747674942, 0.12492033839225769]","[0.5432276725769043, 0.538029670715332, 0.5410657525062561, 0.5481080412864685, 0.543316125869751, 0.5399717092514038]","[0.1309928961848541, -1.4398034306100425, 0.1309928961848541, 0.1309928961848541, 0.1309928961848541, 0.1309928961848541]","[0.1309928961848541, -1.4398034306100425, 0.1309928961848541, 0.1309928961848541, 0.1309928961848541, 0.1309928961848541]",0.002,7,1
0,154,"[0.12583328783512115, -1.4450448912433167, 0.12576133409609014, 0.12570778905834956, 0.1259957104921341, 0.12601777911186218]","[0.5381901860237122, 0.5333248376846313, 0.5341892242431641, 0.5436334013938904, 0.536506175994873, 0.5363520383834839]","[0.13180598906254448, -1.438990337732352, 0.13180598906254448, 0.13180598906254448, 0.13180598906254448, 0.13180598906254448]","[0.13180598906254448, -1.438990337732352, 0.13180598906254448, 0.13180598906254448, 0.13180598906254448, 0.13180598906254448]",0.002,7,1
0,155,"[0.126871719956398, -1.4438792628100892, 0.12676650682558233, 0.12681655466046138, 0.12707336246967316, 0.12706942856311798]","[0.5358445048332214, 0.5276319980621338, 0.5294399261474609, 0.5397603511810303, 0.532223105430603, 0.5313668847084045]","[0.13261824871552635, -1.4381780780793703, 0.13261824871552635, 0.13261824871552635, 0.13261824871552635, 0.13261824871552635]","[0.13261824871552635, -1.4381780780793703, 0.13261824871552635, 0.13261824871552635, 0.13261824871552635, 0.13261824871552635]",0.002,7,1
0,156,"[0.1279532015323639, -1.4428786796382447, 0.12785417238344365, 0.1278785902210693, 0.12809373438358307, 0.128073051571846]","[0.5311296582221985, 0.5260400772094727, 0.5271507501602173, 0.5325740575790405, 0.5289434790611267, 0.525176465511322]","[0.1334296700090193, -1.4373666567858772, 0.1334296700090193, 0.1334296700090193, 0.1334296700090193, 0.1334296700090193]","[0.1334296700090193, -1.4373666567858772, 0.1334296700090193, 0.1334296700090193, 0.1334296700090193, 0.1334296700090193]",0.002,7,1
0,157,"[0.12902598083019257, -1.4417563688806077, 0.12895375887026006, 0.12907056390728755, 0.1291535496711731, 0.1291709989309311]","[0.5264148712158203, 0.5203933119773865, 0.5230111479759216, 0.5273965001106262, 0.5214514136314392, 0.5190958976745605]","[0.13424024781354274, -1.4365560789813538, 0.13424024781354274, 0.13424024781354274, 0.13424024781354274, 0.13424024781354274]","[0.13424024781354274, -1.4365560789813538, 0.13424024781354274, 0.13424024781354274, 0.13424024781354274, 0.13424024781354274]",0.002,7,1
0,158,"[0.1300879418849945, -1.4408293229392548, 0.1300433317767542, 0.13011281072583003, 0.13015343248844147, 0.13015110790729523]","[0.5203742384910583, 0.5164840817451477, 0.5183934569358826, 0.5253908634185791, 0.5155799388885498, 0.5148887038230896]","[0.1350499770049481, -1.4357463497899485, 0.1350499770049481, 0.1350499770049481, 0.1350499770049481, 0.1350499770049481]","[0.1350499770049481, -1.4357463497899485, 0.1350499770049481, 0.1350499770049481, 0.1350499770049481, 0.1350499770049481]",0.002,7,1
0,159,"[0.13110610842704773, -1.4397079360536118, 0.1310203711139124, 0.13110403596844478, 0.13122868537902832, 0.13115225732326508]","[0.5130996108055115, 0.512427031993866, 0.5135316252708435, 0.5195918083190918, 0.5117214918136597, 0.5106142163276672]","[0.1358588524644516, -1.434937474330445, 0.1358588524644516, 0.1358588524644516, 0.1358588524644516, 0.1358588524644516]","[0.1358588524644516, -1.434937474330445, 0.1358588524644516, 0.1358588524644516, 0.1358588524644516, 0.1358588524644516]",0.002,7,1
