Arnibjarnst/BoxLift/logs/ur_rtde/trajectory_dur=7.5_delay=0.0_gain=100_lh=0.1_real.csv
arm_idx,step,actual_q,actual_qd,target_q,expected_q,loop_time,robot_mode,safety_mode
0,-1,"[-0.02020913759340459, -1.5908895931639613, -0.02004976011812687, -0.020176724796630907, -0.020226780568258107, -0.020237270985738576]","[0.04182196781039238, 0.04578419402241707, 0.04533997178077698, 0.04470609128475189, 0.04451877251267433, 0.045345693826675415]","[0.0, -1.5707963267948966, 0.0, 0.0, 0.0, 0.0]","[0.0, -1.5707963267948966, 0.0, 0.0, 0.0, 0.0]",0.002,7,1
0,-1,"[-0.019364658986226857, -1.5900212726988734, -0.019273238256573677, -0.019306258564331102, -0.01938945451845342, -0.019397560750142873]","[0.06002148240804672, 0.060569580644369125, 0.06007050350308418, 0.05873577669262886, 0.06127546727657318, 0.06229380890727043]","[0.0, -1.5707963267948966, 0.0, 0.0, 0.0, 0.0]","[0.0, -1.5707963267948966, 0.0, 0.0, 0.0, 0.0]",0.002,7,1
0,-1,"[-0.018818203602926076, -1.5894915066161097, -0.018771322444081306, -0.01880081117663579, -0.018873516713277638, -0.018819157277242482]","[0.06808112561702728, 0.06857059895992279, 0.06839006394147873, 0.0667000412940979, 0.07021025568246841, 0.06862936168909073]","[0.0, -1.5707963267948966, 0.0, 0.0, 0.0, 0.0]","[0.0, -1.5707963267948966, 0.0, 0.0, 0.0, 0.0]",0.002,7,1
0,-1,"[-0.018251721058980763, -1.5889727077879847, -0.018203897401690483, -0.018259601002075243, -0.018266979848043263, -0.01827699342836553]","[0.07820058614015579, 0.07660716772079468, 0.07406535744667053, 0.07599204778671265, 0.07952996343374252, 0.07796037942171097]","[0.0, -1.5707963267948966, 0.0, 0.0, 0.0, 0.0]","[0.0, -1.5707963267948966, 0.0, 0.0, 0.0, 0.0]",0.002,7,1
0,-1,"[-0.01721078554262334, -1.5879961452879847, -0.017179569229483604, -0.017186002140380907, -0.017252747212545216, -0.017242256795064748]","[0.08890961110591888, 0.08801308274269104, 0.08767944574356079, 0.08926556259393692, 0.09038018435239792, 0.09056921303272247]","[0.0, -1.5707963267948966, 0.0, 0.0, 0.0, 0.0]","[0.0, -1.5707963267948966, 0.0, 0.0, 0.0, 0.0]",0.002,7,1
0,-1,"[-0.016269985829488576, -1.587064882318014, -0.01624423637986183, -0.0163000387004395, -0.016269985829488576, -0.01628762880434209]","[0.0967099666595459, 0.09815934300422668, 0.09801147133111954, 0.0989716574549675, 0.10009380429983139, 0.1008443534374237]","[0.0, -1.5707963267948966, 0.0, 0.0, 0.0, 0.0]","[0.0, -1.5707963267948966, 0.0, 0.0, 0.0, 0.0]",0.002,7,1
0,-1,"[-0.014077011738912404, -1.5848990879454554, -0.014093699865043163, -0.014079884891845751, -0.014068428670064748, -0.013982597981588185]","[0.12096206098794937, 0.11640220135450363, 0.11915523558855057, 0.1182650774717331, 0.11892826855182648, 0.11910649389028549]","[0.0, -1.5707963267948966, 0.0, 0.0, 0.0, 0.0]","[0.0, -1.5707963267948966, 0.0, 0.0, 0.0, 0.0]",0.002,7,1
0,-1,"[-0.012535874043599904, -1.5833960972227992, -0.012594979256391525, -0.012589291935302782, -0.012588326131002248, -0.012504402791158498]","[0.13140498101711273, 0.13145659863948822, 0.13080044090747833, 0.1306605339050293, 0.13146434724330902, 0.13075095415115356]","[0.0, -1.5707963267948966, 0.0, 0.0, 0.0, 0.0]","[0.0, -1.5707963267948966, 0.0, 0.0, 0.0, 0.0]",0.002,7,1
0,-1,"[-0.01032573381532842, -1.5811721287169398, -0.010330301709473133, -0.010332779293396044, -0.010308090840474904, -0.010211769734517873]","[0.14525911211967468, 0.14653924107551575, 0.1460786610841751, 0.14723815023899078, 0.14661747217178345, 0.14603042602539062]","[0.0, -1.5707963267948966, 0.0, 0.0, 0.0, 0.0]","[0.0, -1.5707963267948966, 0.0, 0.0, 0.0, 0.0]",0.002,7,1
0,-1,"[-0.008733097706929982, -1.579583307305807, -0.008807959966361523, -0.008755163555481005, -0.008640591298238576, -0.008651558552877248]","[0.1325458437204361, 0.11148396879434586, 0.1213858500123024, 0.13029694557189941, 0.130906343460083, 0.12859302759170532]","[0.0, -1.5707963267948966, 0.0, 0.0, 0.0, 0.0]","[0.0, -1.5707963267948966, 0.0, 0.0, 0.0, 0.0]",0.002,7,1
0,-1,"[-0.007675472890035451, -1.5785204372801722, -0.0077416859567165375, -0.007778005009033251, -0.007666412984029591, -0.0076020399676721695]","[0.12475613504648209, 0.13440486788749695, 0.12697702646255493, 0.12649060785770416, 0.12337613850831985, 0.12116146832704544]","[0.0, -1.5707963267948966, 0.0, 0.0, 0.0, 0.0]","[0.0, -1.5707963267948966, 0.0, 0.0, 0.0, 0.0]",0.002,7,1
0,-1,"[-0.006325546895162404, -1.5771056614317835, -0.006385860498994589, -0.006391124134399462, -0.006227795277730763, -0.00619680086244756]","[0.11108072102069855, 0.11391147971153259, 0.11266797035932541, 0.11417379230260849, 0.11123214662075043, 0.10851214826107025]","[0.0, -1.5707963267948966, 0.0, 0.0, 0.0, 0.0]","[0.0, -1.5707963267948966, 0.0, 0.0, 0.0, 0.0]",0.002,7,1
0,-1,"[-0.0051034132586877945, -1.5758005581297816, -0.005100654903799295, -0.005059198742248583, -0.004982773457662404, -0.004888359700338185]","[0.10090639442205429, 0.09591283649206161, 0.09924736618995667, 0.10263675451278687, 0.09835489094257355, 0.09927718341350555]","[0.0, -1.5707963267948966, 0.0, 0.0, 0.0, 0.0]","[0.0, -1.5707963267948966, 0.0, 0.0, 0.0, 0.0]",0.002,7,1
0,-1,"[-0.0034244696246545914, -1.574197908441061, -0.0034529375843703747, -0.0034708541682739735, -0.003323856984273732, -0.0032528082477014664]","[0.08247426152229309, 0.08013540506362915, 0.08445067703723907, 0.08339914679527283, 0.08134187757968903, 0.07982834428548813]","[0.0, -1.5707963267948966, 0.0, 0.0, 0.0, 0.0]","[0.0, -1.5707963267948966, 0.0, 0.0, 0.0, 0.0]",0.002,7,1
0,-1,"[-0.002587620412008107, -1.5733400783934535, -0.00249387021176517, -0.002478317623474169, -0.0024221579181116226, -0.0023835341082971695]","[0.07231184840202332, 0.07122323662042618, 0.07309110462665558, 0.07339109480381012, 0.06911361962556839, 0.0701466053724289]","[0.0, -1.5707963267948966, 0.0, 0.0, 0.0, 0.0]","[0.0, -1.5707963267948966, 0.0, 0.0, 0.0, 0.0]",0.002,7,1
0,-1,"[-0.0014761129962366226, -1.572200437585348, -0.0014250731328502297, -0.0014122289470215321, -0.0012815634356897476, -0.0013335386859338882]","[0.05587335675954819, 0.05203528329730034, 0.05531424283981323, 0.054137684404850006, 0.05154987424612045, 0.05225972458720207]","[0.0, -1.5707963267948966, 0.0, 0.0, 0.0, 0.0]","[0.0, -1.5707963267948966, 0.0, 0.0, 0.0, 0.0]",0.002,7,1
0,-1,"[-0.0007351080523889664, -1.5714160404601039, -0.0006546521326527, -0.0006813567927856923, -0.0005796591388147476, -0.0006173292743127945]","[0.03722529485821724, 0.0395541675388813, 0.038103170692920685, 0.037777576595544815, 0.036673661321401596, 0.03579148277640343]","[0.0, -1.5707963267948966, 0.0, 0.0, 0.0, 0.0]","[0.0, -1.5707963267948966, 0.0, 0.0, 0.0, 0.0]",0.002,7,1
0,-1,"[-0.00043327013124638825, -1.571132322350973, -0.0003377938410267234, -0.00038512170825200087, -0.0003793875323694351, -0.0003984610186975601]","[0.030026426538825035, 0.030398260802030563, 0.031180717051029205, 0.029536306858062744, 0.02790866233408451, 0.028032252565026283]","[0.0, -1.5707963267948966, 0.0, 0.0, 0.0, 0.0]","[0.0, -1.5707963267948966, 0.0, 0.0, 0.0, 0.0]",0.002,7,1
0,-1,"[-7.325807680302887e-05, -1.5707679754617239, 4.178682436162262e-05, -0.00011332452807621962, -0.00011092821230107575, -2.175966371709137e-05]","[0.012706287205219269, 0.011707760393619537, 0.012699556536972523, 0.012785486876964569, 0.010674750432372093, 0.010162008926272392]","[0.0, -1.5707963267948966, 0.0, 0.0, 0.0, 0.0]","[0.0, -1.5707963267948966, 0.0, 0.0, 0.0, 0.0]",0.002,7,1
0,-1,"[-0.000180546437398732, -1.570796327, -1.935720501933247e-05, -8.376062426762587e-05, -8.851686586552887e-05, -9.2808400289357e-05]","[-0.002336661797016859, 0.014969602227210999, 0.00357246701605618, -0.0010267950128763914, -0.0023670108057558537, -0.001394467195495963]","[0.0, -1.5707963267948966, 0.0, 0.0, 0.0, 0.0]","[0.0, -1.5707963267948966, 0.0, 0.0, 0.0, 0.0]",0.002,7,1
0,-1,"[-5.990663637334137e-05, -1.570902486840719, -6.75508999847807e-05, -0.00010438383135991103, -8.994737734013825e-05, -3.8448964254200746e-05]","[-4.529762120952796e-10, -0.007083510514348745, -0.003448217175900936, 6.540288450196385e-05, -9.731177851790562e-05, -0.0003720973327290267]","[0.0, -1.5707963267948966, 0.0, 0.0, 0.0, 0.0]","[0.0, -1.5707963267948966, 0.0, 0.0, 0.0, 0.0]",0.002,7,1
0,-1,"[-0.0001023451434534195, -1.5708934269347132, -0.00010095083416672423, -0.00012071550402836806, -0.0001366774188440445, -4.750887026006012e-05]","[0.0003159069747198373, -0.0047654458321630955, -0.0007919920026324689, 0.0016010358231142163, -1.449030478939406e-11, -0.00017218789434991777]","[0.0, -1.5707963267948966, 0.0, 0.0, 0.0, 0.0]","[0.0, -1.5707963267948966, 0.0, 0.0, 0.0, 0.0]",0.002,7,1
0,-1,"[-1.3653432027638246e-05, -1.5709673366942347, -7.486343383789062e-05, -0.00010569513354496962, -6.977711812794496e-06, -7.325807680302887e-05]","[1.1117657142123427e-11, -0.0011575830867514014, -0.0006272958125919104, -5.2958945673253766e-08, 0.0010055169695988297, 8.472156332572922e-05]","[0.0, -1.5707963267948966, 0.0, 0.0, 0.0, 0.0]","[0.0, -1.5707963267948966, 0.0, 0.0, 0.0, 0.0]",0.002,7,1
0,-1,"[-6.467500795537262e-05, -1.5708610020079554, -8.972050636657514e-06, -5.491197619633681e-05, -5.6568776265919496e-05, -6.562868227177887e-05]","[1.5656829427302805e-28, -2.6758921194414143e-06, -0.00020334281725808978, -1.142170886415644e-18, 0.0009746160358190536, 0.0001226765161845833]","[0.0, -1.5707963267948966, 0.0, 0.0, 0.0, 0.0]","[0.0, -1.5707963267948966, 0.0, 0.0, 0.0, 0.0]",0.002,7,1
0,-1,"[-6.80128680627945e-05, -1.5708652935423792, 3.1773244039356996e-05, -5.491197619633681e-05, -3.225008119756012e-05, -9.85304461877945e-05]","[9.130566520863e-40, 0.0011521581327542663, -9.651572327129543e-06, 0.0003689886652864516, 0.001050673658028245, 0.00032771515543572605]","[0.0, -1.5707963267948966, 0.0, 0.0, 0.0, 0.0]","[0.0, -1.5707963267948966, 0.0, 0.0, 0.0, 0.0]",0.002,7,1
0,-1,"[-0.00013810793031865387, -1.570871492425436, -8.115017408272251e-05, -3.118932757573134e-05, -8.231798280888825e-05, -1.889864076787262e-05]","[0.0, 0.0004674014635384083, 4.054452801938169e-05, 0.0005506170564331114, 0.001043730415403843, 0.0005297852912917733]","[0.0, -1.5707963267948966, 0.0, 0.0, 0.0, 0.0]","[0.0, -1.5707963267948966, 0.0, 0.0, 0.0, 0.0]",0.002,7,1
0,-1,"[-7.230440248662262e-05, -1.5709072552123011, -7.938146882224828e-05, -4.752100024418837e-05, -1.3176594869435121e-05, -3.5587941304981996e-05]","[0.0, 0.00021747728169430047, 8.981983212752453e-11, 0.0005687001394107938, 0.0013249728363007307, 0.00050136330537498]","[0.0, -1.5707963267948966, 0.0, 0.0, 0.0, 0.0]","[0.0, -1.5707963267948966, 0.0, 0.0, 0.0, 0.0]",0.002,7,1
0,-1,"[-6.467500795537262e-05, -1.5708562336363734, -7.938146882224828e-05, -5.18125346680165e-05, -5.036989320927887e-05, -5.227724184209137e-05]","[0.0003687517310027033, -8.560606511309743e-05, 5.238006623279737e-22, 0.0006493418477475643, 0.0008450191235169768, 0.00048117036931216717]","[0.0, -1.5707963267948966, 0.0, 0.0, 0.0, 0.0]","[0.0, -1.5707963267948966, 0.0, 0.0, 0.0, 0.0]",0.002,7,1
0,-1,"[-9.137788881474762e-05, -1.5708934269347132, -3.910064697265625e-05, 3.771364178462022e-05, -5.9429799215138246e-05, -1.1746083394825746e-05]","[0.00030535217956639826, -7.179526437539607e-05, 3.0546372323238962e-33, 0.0006226022378541529, 0.0006009138305671513, 0.0006699096411466599]","[0.0, -1.5707963267948966, 0.0, 0.0, 0.0, 0.0]","[0.0, -1.5707963267948966, 0.0, 0.0, 0.0, 0.0]",0.002,7,1
0,-1,"[-7.802644838506012e-05, -1.5708652935423792, -5.842447353643365e-05, 2.507745709223741e-05, -2.175966371709137e-05, -3.7495289937794496e-05]","[0.000274390127742663, -3.771056071855128e-07, -0.0, 0.0004324358014855534, 0.0004237942339386791, 0.00044953537872061133]","[0.0, -1.5707963267948966, 0.0, 0.0, 0.0, 0.0]","[0.0, -1.5707963267948966, 0.0, 0.0, 0.0, 0.0]",0.002,7,1
0,-1,"[-4.5124684469044496e-05, -1.570895334283346, -3.910064697265625e-05, -4.430234942631728e-05, -2.652803529912262e-05, 4.76837158203125e-06]","[0.00041469241841696203, -7.12502004564496e-26, -0.0, 0.00026646407786756754, 0.00025359218125231564, 0.00032702836324460804]","[0.0, -1.5707963267948966, 0.0, 0.0, 0.0, 0.0]","[0.0, -1.5707963267948966, 0.0, 0.0, 0.0, 0.0]",0.002,7,1
0,-1,"[-1.985231508427887e-05, -1.57086243251943, -0.00010778653813758865, -1.604974780278212e-05, -4.560152162724762e-05, -3.701845277959137e-05]","[0.0003774101787712425, 0.00035905829281546175, -0.0, 0.00023984025756362826, 0.0002308333496330306, 0.00023786038218531758]","[0.0, -1.5707963267948966, 0.0, 0.0, 0.0, 0.0]","[0.0, -1.5707963267948966, 0.0, 0.0, 0.0, 0.0]",0.002,7,1
0,-1,"[-5.323091615849762e-05, -1.5709029636778773, -2.26165047934046e-05, -1.1758213378953997e-05, 1.1920928955078125e-05, 1.2536249414552003e-05]","[0.0005159751162864268, 0.00028969664708711207, -0.0, 0.00021526936325244606, 0.00023745055659674108, 0.00024336832575500011]","[0.0, -1.5707963267948966, 0.0, 0.0, 0.0, 0.0]","[0.0, -1.5707963267948966, 0.0, 0.0, 0.0, 0.0]",0.002,7,1
0,-1,"[-7.325807680302887e-05, -1.5708862743773402, -8.97204881766811e-06, -1.1758213378953997e-05, 5.11288053530734e-05, -5.5615101949513246e-05]","[0.000777989684138447, 0.0001912097941385582, -0.0, 0.00016905304801184684, 0.00021829020988661796, 0.00028122711228206754]","[0.0, -1.5707963267948966, 0.0, 0.0, 0.0, 0.0]","[0.0, -1.5707963267948966, 0.0, 0.0, 0.0, 0.0]",0.002,7,1
0,-1,"[-5.8476124898731996e-05, -1.570869585076803, -4.641318446374498e-05, -4.248028137254778e-06, -5.4661427633106996e-05, 2.904818393290043e-05]","[0.000701192591805011, 5.700275505660102e-05, -0.0, 0.00015266763512045145, 0.00021710859437007457, 0.0002701724006328732]","[0.0, -1.5707963267948966, 0.0, 0.0, 0.0, 0.0]","[0.0, -1.5707963267948966, 0.0, 0.0, 0.0, 0.0]",0.002,7,1
0,-1,"[-1.6514454976856996e-05, -1.5708819828429164, -7.486343383789062e-05, 8.86499371333116e-06, -2.652803529912262e-05, 4.086911212652922e-05]","[0.0012180035701021552, 3.7376248656073585e-05, -0.0, 0.00015561944746877998, 0.00018673391605261713, 0.00025187170831486583]","[0.0, -1.5707963267948966, 0.0, 0.0, 0.0, 0.0]","[0.0, -1.5707963267948966, 0.0, 0.0, 0.0, 0.0]",0.002,7,1
0,-1,"[-1.6514454976856996e-05, -1.570883413354391, -7.934497989481315e-05, 3.771364178462022e-05, -2.175966371709137e-05, 1.2554644854390062e-05]","[0.0001834100257838145, 3.09494644170627e-05, -0.0, 0.00014044289127923548, 0.0001626302837394178, 0.00021013252262491733]","[0.0, -1.5707963267948966, 0.0, 0.0, 0.0, 0.0]","[0.0, -1.5707963267948966, 0.0, 0.0, 0.0, 0.0]",0.002,7,1
0,-1,"[-2.1282826558888246e-05, -1.5709191761412562, -4.1895153117366135e-05, 1.649438824458116e-05, 6.400727215805091e-06, 1.262489786313381e-05]","[0.00016788324865046889, 7.816183642717078e-05, -0.0, 0.00012796273222193122, 0.0001440350170014426, 0.0002058089739875868]","[0.0, -1.5707963267948966, 0.0, 0.0, 0.0, 0.0]","[0.0, -1.5707963267948966, 0.0, 0.0, 0.0, 0.0]",0.002,7,1
0,-1,"[3.814697265625e-06, -1.5708581409850062, -2.5456189177930355e-05, -2.367914233403212e-05, 6.474563269875944e-05, -2.557436098271637e-05]","[0.00010763485624920577, 0.00033552650711499155, -0.0, 8.934978541219607e-05, 0.0001447541144443676, 0.00017568284238222986]","[0.0, -1.5707963267948966, 0.0, 0.0, 0.0, 0.0]","[0.0, -1.5707963267948966, 0.0, 0.0, 0.0, 0.0]",0.002,7,1
0,-1,"[-4.5124684469044496e-05, -1.5708385906615199, -6.75508999847807e-05, 1.6271557612412835e-07, -1.0792409078419496e-05, -7.788287561538709e-07]","[8.285877265734598e-05, 0.0006171453278511763, -0.0, 8.126896864268929e-05, 0.0001315342087764293, 0.0001415239821653813]","[0.0, -1.5707963267948966, 0.0, 0.0, 0.0, 0.0]","[0.0, -1.5707963267948966, 0.0, 0.0, 0.0, 0.0]",0.002,7,1
0,-1,"[-3.0199159795074593e-07, -1.570876260797018, -7.206892769318074e-05, 2.901136364741319e-05, 3.650288635981269e-05, -1.794496645146637e-05]","[6.492574902949855e-05, 0.0005263318307697773, 7.283745071617886e-05, 7.332295353990048e-05, 0.00011853848991449922, 0.00011905409337487072]","[0.0, -1.5707963267948966, 0.0, 0.0, 0.0, 0.0]","[0.0, -1.5707963267948966, 0.0, 0.0, 0.0, 0.0]",0.002,7,1
0,-1,"[-5.418459047490387e-05, -1.570871492425436, -2.2616506612394005e-05, -5.300462756352431e-05, 3.1957133614923805e-05, -3.892580141240387e-05]","[5.500529005075805e-05, 0.0004720594151876867, 6.757672235835344e-05, 6.779937393730506e-05, 9.450175275560468e-05, 0.00012476631673052907]","[0.0, -1.5707963267948966, 0.0, 0.0, 0.0, 0.0]","[0.0, -1.5707963267948966, 0.0, 0.0, 0.0, 0.0]",0.002,7,1
0,-1,"[-2.8912221090138246e-05, -1.57086243251943, -6.918406870681792e-05, -1.604974780278212e-05, -1.732503072560121e-06, -2.9865895406544496e-05]","[4.9014044634532183e-05, 0.0003739699022844434, 6.374819349730387e-05, 6.394608499249443e-05, 8.717852324480191e-05, 0.00011539011029526591]","[0.0, -1.5707963267948966, 0.0, 0.0, 0.0, 0.0]","[0.0, -1.5707963267948966, 0.0, 0.0, 0.0, 0.0]",0.002,7,1
0,-1,"[-5.8476124898731996e-05, -1.570871492425436, -9.629123087506741e-05, -2.7970676757860247e-05, 2.86102294921875e-06, -2.271333803349762e-05]","[3.936649954994209e-05, 0.0002647214278113097, 5.653971675201319e-05, 6.803427822887897e-05, 8.906499715521932e-05, 9.677776688477024e-05]","[0.0, -1.5707963267948966, 0.0, 0.0, 0.0, 0.0]","[0.0, -1.5707963267948966, 0.0, 0.0, 0.0, 0.0]",0.002,7,1
0,-1,"[-4.7032033101856996e-05, -1.5707886976054688, -4.366385837784037e-05, 1.6271557612412835e-07, -1.5083943502247621e-05, -2.9865895406544496e-05]","[3.013862260559108e-05, 0.0009876941330730915, 0.00010653812205418944, 3.281006044630885e-08, 7.236822420964018e-05, 7.736610859865323e-05]","[0.0, -1.5707963267948966, 0.0, 0.0, 0.0, 0.0]","[0.0, -1.5707963267948966, 0.0, 0.0, 0.0, 0.0]",0.002,7,1
0,-1,"[-4.655519594365387e-05, -1.5708595714964808, -1.0263920557918027e-05, -2.4990444519090715e-05, -4.1309987203419496e-05, 1.9797820641542785e-05]","[2.697684794839006e-05, 0.00045307475375011563, 0.0001121056848205626, 1.6598445722994449e-16, 7.718769484199584e-05, 7.031345012364909e-05]","[0.0, -1.5707963267948966, 0.0, 0.0, 0.0, 0.0]","[0.0, -1.5707963267948966, 0.0, 0.0, 0.0, 0.0]",0.002,7,1
0,-1,"[-4.5124684469044496e-05, -1.5707934659770508, -4.6394892706302926e-05, -8.777981140184465e-06, 2.7544750992092304e-05, 3.348422615090385e-05]","[2.4751196178840473e-05, -7.593084689651308e-13, 0.00011703298514476046, 1.286062026639267e-23, 7.190211908891797e-05, 6.521862815134227e-05]","[0.0, -1.5707963267948966, 0.0, 0.0, 0.0, 0.0]","[0.0, -1.5707963267948966, 0.0, 0.0, 0.0, 0.0]",0.002,7,1
0,-1,"[-5.418459047490387e-05, -1.5708052120604457, -4.8181893362198025e-05, -1.6168957092332903e-05, 1.8339980670134537e-05, 6.671833398286253e-05]","[2.2864798665978014e-05, -4.428044288378351e-24, 0.00010356614802731201, 9.964523612202952e-31, 1.9351640290210526e-08, 6.0811900766566396e-05]","[0.0, -1.5707963267948966, 0.0, 0.0, 0.0, 0.0]","[0.0, -1.5707963267948966, 0.0, 0.0, 0.0, 0.0]",0.002,7,1
0,-1,"[-2.8912221090138246e-05, -1.5708309612669886, -5.103081275592558e-05, 1.637517895503038e-05, -1.3176594869435121e-05, -8.885060445606996e-06]","[2.0519033569144085e-05, -6.235918296091868e-41, 0.00010304138413630426, 2.1490313248885395e-41, 4.1735883774972886e-19, 1.5249563764530016e-13]","[0.0, -1.5707963267948966, 0.0, 0.0, 0.0, 0.0]","[0.0, -1.5707963267948966, 0.0, 0.0, 0.0, 0.0]",0.002,7,1
0,-1,"[-9.361897603810121e-06, -1.5708352528014125, -3.1676834623795e-05, 7.553691528272566e-06, -2.652803529912262e-05, 7.958413334563375e-06]","[6.428100781698254e-13, 0.0, 0.0001280289434362203, 0.0, 2.1113969980317267e-27, 7.714677970601113e-22]","[0.0, -1.5707963267948966, 0.0, 0.0, 0.0, 0.0]","[0.0, -1.5707963267948966, 0.0, 0.0, 0.0, 0.0]",0.002,7,1
0,-1,"[1.1595911928452551e-05, -1.5708385906615199, -2.7179718017578125e-05, 4.534303631587022e-05, -2.652803529912262e-05, -1.255665914356996e-06]","[3.9349077449565166e-39, 0.0, 5.315646558301523e-05, 0.0, 5.695798608940095e-05, 1.9744148225997918e-38]","[0.0, -1.5707963267948966, 0.0, 0.0, 0.0, 0.0]","[0.0, -1.5707963267948966, 0.0, 0.0, 0.0, 0.0]",0.002,7,1
0,-1,"[-2.557436098271637e-05, -1.5708352528014125, 2.557436098271637e-05, 2.901136364741319e-05, 1.5605448425048962e-05, 1.2578963833220769e-05]","[0.0, 0.0, 3.609839404816739e-05, 0.0, 5.172085002413951e-05, 0.0]","[0.0, -1.5707963267948966, 0.0, 0.0, 0.0, 0.0]","[0.0, -1.5707963267948966, 0.0, 0.0, 0.0, 0.0]",0.002,7,1
0,-1,"[-3.4634266988575746e-05, -1.5707975826659144, -2.2625559722655453e-05, -5.312383685307509e-05, -6.977711812794496e-06, -5.547200338185121e-06]","[0.0, 0.0, 2.7328951546223834e-05, 0.0, 2.309038932279961e-10, 0.0]","[0.0, -1.5707963267948966, 0.0, 0.0, 0.0, 0.0]","[0.0, -1.5707963267948966, 0.0, 0.0, 0.0, 0.0]",0.002,7,1
0,-1,"[-1.3653432027638246e-05, -1.5708476505675257, -1.4790945897402707e-05, 3.34221073607921e-05, -2.175966371709137e-05, 4.54807304777205e-05]","[0.0, 0.0, 1.959438668563962e-05, 0.0, 9.050784822280165e-26, 0.0]","[0.0, -1.5707963267948966, 0.0, 0.0, 0.0, 0.0]","[0.0, -1.5707963267948966, 0.0, 0.0, 0.0, 0.0]",0.002,7,1
0,-1,"[-4.655519594365387e-05, -1.570850511590475, -6.453969399444759e-05, -1.306951556401259e-05, -1.0792409078419496e-05, -8.885060445606996e-06]","[0.0, 0.0, 1.6687843526597135e-05, 0.0, 2.9895943748280143e-35, 0.0]","[0.0, -1.5707963267948966, 0.0, 0.0, 0.0, 0.0]","[0.0, -1.5707963267948966, 0.0, 0.0, 0.0, 0.0]",0.002,7,1
0,-1,"[-9.361897603810121e-06, -1.5708095035948695, -3.908244616468437e-05, 1.2083644531202253e-05, 3.4773351217154413e-05, -2.271333803349762e-05]","[0.0, 0.0, 1.50171708810376e-05, 0.0, 2.3163463615289226e-42, 0.0]","[0.0, -1.5707963267948966, 0.0, 0.0, 0.0, 0.0]","[0.0, -1.5707963267948966, 0.0, 0.0, 0.0, 0.0]",0.002,7,1
0,1,"[-5.070363179981996e-06, -1.570843359033102, -1.1467927834019065e-06, 7.553691528272566e-06, -6.024037496388246e-06, -1.3653432027638246e-05]","[0.0, 0.0, 1.2688227798207663e-05, 0.0, 0.0, 0.0]","[0.0005850211778378632, -1.5702113056170588, 0.0005850211778378632, 0.0005850211778378632, 0.0005850211778378632, 0.0005850211778378632]","[0.0005850211778378632, -1.5702113056170588, 0.0005850211778378632, 0.0005850211778378632, 0.0005850211778378632, 0.0005850211778378632]",0.002,7,1
0,2,"[-7.931386129200746e-06, -1.5708261928954066, -7.202668348327279e-05, 3.3302898071241316e-05, 1.1126132449135184e-05, -2.080598940068512e-05]","[0.0, 0.0, 1.1548667316674255e-05, 0.0, 0.0, 0.0]","[0.0011700407124382083, -1.5696262860824584, 0.0011700407124382083, 0.0011700407124382083, 0.0011700407124382083, 0.0011700407124382083]","[0.0011700407124382083, -1.5696262860824584, 0.0011700407124382083, 0.0011700407124382083, 0.0011700407124382083, 0.0011700407124382083]",0.002,7,1
0,3,"[-2.1282826558888246e-05, -1.5708095035948695, -5.676746695826296e-06, -3.571928057866103e-05, 1.1096565685875248e-05, -2.9865895406544496e-05]","[0.0017357447650283575, 0.0010079806670546532, 0.0015770518220961094, 4.273268586985068e-06, 0.003364162053912878, 4.801809609489283e-06]","[0.0017550569605681327, -1.5690412698343283, 0.0017550569605681327, 0.0017550569605681327, 0.0017550569605681327, 0.0017550569605681327]","[0.0017550569605681327, -1.5690412698343283, 0.0017550569605681327, 0.0017550569605681327, 0.0017550569605681327, 0.0017550569605681327]",0.002,7,1
0,4,"[6.106543150963262e-05, -1.5708071194090785, -1.935720501933247e-05, 5.7025546691846785e-05, 3.926753925043158e-05, 3.319740699225804e-06]","[0.0023781752679497004, 0.003918962553143501, 0.0024223225191235542, 0.002396104158833623, 0.0030293408781290054, 0.0023821049835532904]","[0.0023400682790039656, -1.5684562585158925, 0.0023400682790039656, 0.0023400682790039656, 0.0023400682790039656, 0.0023400682790039656]","[0.0023400682790039656, -1.5684562585158925, 0.0023400682790039656, 0.0023400682790039656, 0.0023400682790039656, 0.0023400682790039656]",0.002,7,1
0,5,"[3.116803054581396e-05, -1.5707740407527417, 1.794496645146637e-05, 2.4481410644483503e-05, 4.220008850097656e-05, 5.3028819820610806e-05]","[0.002057112054899335, 0.0033496201504021883, 0.0024605379439890385, 0.0030774937476962805, 0.002759806578978896, 0.00392000749707222]","[0.0029250730245358814, -1.5678712537703607, 0.0029250730245358814, 0.0029250730245358814, 0.0029250730245358814, 0.0029250730245358814]","[0.0029250730245358814, -1.5678712537703607, 0.0029250730245358814, 0.0029250730245358814, 0.0029250730245358814, 0.0029250730245358814]",0.002,7,1
0,6,"[2.2116608306532726e-05, -1.5708157024779261, 1.732503072560121e-06, 3.34221073607921e-05, 7.539479702245444e-05, 5.581750883720815e-05]","[0.001982267014682293, 0.002676937263458967, 0.002668264787644148, 0.002588782226666808, 0.002921830862760544, 0.003916338551789522]","[0.0035100695539725195, -1.567286257240924, 0.0035100695539725195, 0.0035100695539725195, 0.0035100695539725195, 0.0035100695539725195]","[0.0035100695539725195, -1.567286257240924, 0.0035100695539725195, 0.0035100695539725195, 0.0035100695539725195, 0.0035100695539725195]",0.002,7,1
0,7,"[7.161735993577167e-06, -1.5707860988435023, 5.990663637334137e-05, -8.777981140184465e-06, 0.00012712601164821535, 5.301952478475869e-05]","[0.0021988514345139265, 0.001899457536637783, 0.0030654428992420435, 0.0022599222138524055, 0.003593659959733486, 0.003276865929365158]","[0.004095056224145594, -1.566701270570751, 0.004095056224145594, 0.004095056224145594, 0.004095056224145594, 0.004095056224145594]","[0.004095056224145594, -1.566701270570751, 0.004095056224145594, 0.004095056224145594, 0.004095056224145594, 0.004095056224145594]",0.002,7,1
0,8,"[-2.271333803349762e-05, -1.5707694471733085, -1.9329789211042225e-05, 7.335721936030382e-05, 7.079550414346159e-05, 4.395961877889931e-05]","[0.0032826445531100035, 0.002048095455393195, 0.003659006906673312, 0.0025586390402168036, 0.004551284480839968, 0.003175432328134775]","[0.004680031391914515, -1.5661162954029821, 0.004680031391914515, 0.004680031391914515, 0.004680031391914515, 0.004680031391914515]","[0.004680031391914515, -1.5661162954029821, 0.004680031391914515, 0.004680031391914515, 0.004680031391914515, 0.004680031391914515]",0.002,7,1
0,9,"[3.11228031932842e-05, -1.570771258432007, 5.5615101949513246e-05, 6.465494122309678e-05, 5.89648807363119e-05, 9.071913154912181e-06]","[0.004338340368121862, 0.0055966246873140335, 0.005228221882134676, 0.004191844258457422, 0.0051194834522902966, 0.003997412975877523]","[0.0052649934141709995, -1.5655313333807255, 0.0052649934141709995, 0.0052649934141709995, 0.0052649934141709995, 0.0052649934141709995]","[0.0052649934141709995, -1.5655313333807255, 0.0052649934141709995, 0.0052649934141709995, 0.0052649934141709995, 0.0052649934141709995]",0.002,7,1
0,10,"[1.0031511010311078e-05, -1.5707425818148586, 2.080598940068512e-05, 7.2165126464796e-05, 0.00013259744446258992, 7.509277202188969e-05]","[0.005437381565570831, 0.009341773577034473, 0.006686387583613396, 0.006979800295084715, 0.0066101085394620895, 0.006452735047787428]","[0.005849940647843686, -1.564946386147053, 0.005849940647843686, 0.005849940647843686, 0.005849940647843686, 0.005849940647843686]","[0.005849940647843686, -1.564946386147053, 0.005849940647843686, 0.005849940647843686, 0.005849940647843686, 0.005849940647843686]",0.002,7,1
0,11,"[9.270646842196584e-05, -1.5706884390277374, 8.70863543909195e-05, 9.290754284663194e-05, 1.9459486793493852e-05, 5.864189370186068e-05]","[0.006315549835562706, 0.01210873108357191, 0.009134331718087196, 0.008242170326411724, 0.008604633621871471, 0.008240734227001667]","[0.006434871449902759, -1.5643614553449938, 0.006434871449902759, 0.006434871449902759, 0.006434871449902759, 0.006434871449902759]","[0.006434871449902759, -1.5643614553449938, 0.006434871449902759, 0.006434871449902759, 0.006434871449902759, 0.006434871449902759]",0.002,7,1
0,12,"[9.727573342388496e-05, -1.570709356911113, 6.6105519429982e-05, 9.600698437495225e-05, 0.00010251998901367188, 0.00011284442734904587]","[0.006961762439459562, 0.011804565787315369, 0.010148158296942711, 0.009425248019397259, 0.009879392571747303, 0.010304789990186691]","[0.007019784177364551, -1.563776542617532, 0.007019784177364551, 0.007019784177364551, 0.007019784177364551, 0.007019784177364551]","[0.007019784177364551, -1.563776542617532, 0.007019784177364551, 0.007019784177364551, 0.007019784177364551, 0.007019784177364551]",0.002,7,1
0,13,"[8.370327850570902e-05, -1.5706735109455003, 8.994737734013825e-05, 0.00014118730511469835, 0.00010251998901367188, 0.00014433384058065712]","[0.008960994891822338, 0.013246140442788601, 0.012603530660271645, 0.01073006633669138, 0.011067986488342285, 0.011961077339947224]","[0.007604677187296164, -1.5631916496076004, 0.007604677187296164, 0.007604677187296164, 0.007604677187296164, 0.007604677187296164]","[0.007604677187296164, -1.5631916496076004, 0.007604677187296164, 0.007604677187296164, 0.007604677187296164, 0.007604677187296164]",0.002,7,1
0,14,"[8.499552495777607e-05, -1.570619410053343, 0.0001519362079065445, 0.00014857828106684678, 0.00016400546883232892, 0.00016078472253866494]","[0.01132158562541008, 0.015463524498045444, 0.014943242073059082, 0.013932131230831146, 0.013014118187129498, 0.01397793460637331]","[0.008189548836820083, -1.5626067779580766, 0.008189548836820083, 0.008189548836820083, 0.008189548836820083, 0.008189548836820083]","[0.008189548836820083, -1.5626067779580766, 0.008189548836820083, 0.008189548836820083, 0.008189548836820083, 0.008189548836820083]",0.002,7,1
0,15,"[9.8622047516983e-05, -1.570658640270569, 0.00014096895326787262, 0.000156088466308546, 0.00024957157438620925, 0.0001334238040726632]","[0.012790177948772907, 0.016938624903559685, 0.01677575707435608, 0.015621742233633995, 0.015239555388689041, 0.014197719283401966]","[0.008774397483118796, -1.5620219293117779, 0.008774397483118796, 0.008774397483118796, 0.008774397483118796, 0.008774397483118796]","[0.008774397483118796, -1.5620219293117779, 0.008774397483118796, 0.008774397483118796, 0.008774397483118796, 0.008774397483118796]",0.002,7,1
0,16,"[0.00010443556675454602, -1.5706346974078151, 0.00019103685487920075, 0.00020925580944819444, 0.0002014453348238021, 0.00022371800150722265]","[0.015402423217892647, 0.018020164221525192, 0.01917828992009163, 0.01808301731944084, 0.01728266477584839, 0.018703581765294075]","[0.0093592214834394, -1.561437105311457, 0.0093592214834394, 0.0093592214834394, 0.0093592214834394, 0.0093592214834394]","[0.0093592214834394, -1.561437105311457, 0.0093592214834394, 0.0093592214834394, 0.0093592214834394, 0.0093592214834394]",0.002,7,1
0,17,"[0.0001945676631294191, -1.5705894775495217, 0.000184361134664357, 0.0002329784580687999, 0.00026776824961416423, 0.00026845032698474824]","[0.016497831791639328, 0.020308377221226692, 0.020827842876315117, 0.019772304221987724, 0.020708393305540085, 0.02110380306839943]","[0.009944019195098217, -1.5608523075997984, 0.009944019195098217, 0.009944019195098217, 0.009944019195098217, 0.009944019195098217]","[0.009944019195098217, -1.5608523075997984, 0.009944019195098217, 0.009944019195098217, 0.009944019195098217, 0.009944019195098217]",0.002,7,1
0,18,"[0.0002065896987915039, -1.570574588728352, 0.00023919740785771637, 0.00030128538098139757, 0.0003371605998836458, 0.0003453632234595716]","[0.018905173987150192, 0.021111423149704933, 0.021780719980597496, 0.019676433876156807, 0.019664134830236435, 0.02007547952234745]","[0.010528788975485414, -1.560267537819411, 0.010528788975485414, 0.010528788975485414, 0.010528788975485414, 0.010528788975485414]","[0.010528788975485414, -1.560267537819411, 0.010528788975485414, 0.010528788975485414, 0.010528788975485414, 0.010528788975485414]",0.002,7,1
0,19,"[0.0003132829733658582, -1.5705552090115198, 0.00029021898378545075, 0.00033776342358393663, 0.0003518253215588629, 0.0003198008344043046]","[0.020077712833881378, 0.021359240636229515, 0.02296258881688118, 0.019741417840123177, 0.018273407593369484, 0.018964670598506927]","[0.01111352918206961, -1.559682797612827, 0.01111352918206961, 0.01111352918206961, 0.01111352918206961, 0.01111352918206961]","[0.01111352918206961, -1.559682797612827, 0.01111352918206961, 0.01111352918206961, 0.01111352918206961, 0.01111352918206961]",0.002,7,1
0,20,"[0.0003537783632054925, -1.5705190342599344, 0.0003469626056116226, 0.00038079797711176866, 0.0003501737955957651, 0.0003463315952103585]","[0.018992342054843903, 0.022147661074995995, 0.024441475048661232, 0.01993061602115631, 0.018155450001358986, 0.018907899037003517]","[0.011698238172402493, -1.559098088622494, 0.011698238172402493, 0.011698238172402493, 0.011698238172402493, 0.011698238172402493]","[0.011698238172402493, -1.559098088622494, 0.011698238172402493, 0.011698238172402493, 0.011698238172402493, 0.011698238172402493]",0.002,7,1
0,21,"[0.00038358892197720706, -1.5704501580369943, 0.00042373338808232575, 0.00036315500225825303, 0.0004406616499181837, 0.0004082632076460868]","[0.023183386772871017, 0.023222461342811584, 0.02544363960623741, 0.020506389439105988, 0.019370246678590775, 0.01918170042335987]","[0.012282914304123434, -1.5585134124907731, 0.012282914304123434, 0.012282914304123434, 0.012282914304123434, 0.012282914304123434]","[0.012282914304123434, -1.5585134124907731, 0.012282914304123434, 0.012282914304123434, 0.012282914304123434, 0.012282914304123434]",0.002,7,1
0,22,"[0.0004150659078732133, -1.570347850505943, 0.00046235719789677887, 0.0004245477863769054, 0.0004978189244866371, 0.00043935980647802353]","[0.02597564272582531, 0.024757983162999153, 0.026555540040135384, 0.021431995555758476, 0.02029009349644184, 0.02055082842707634]","[0.012867555934964097, -1.5579287708599325, 0.012867555934964097, 0.012867555934964097, 0.012867555934964097, 0.012867555934964097]","[0.012867555934964097, -1.5579287708599325, 0.012867555934964097, 0.012867555934964097, 0.012867555934964097, 0.012867555934964097]",0.002,7,1
0,23,"[0.0004676521348301321, -1.5703736134785977, 0.000489536915914357, 0.0005011993595580577, 0.0005038721719756722, 0.0004845479561481625]","[0.02655273862183094, 0.02734857238829136, 0.02808421291410923, 0.022504610940814018, 0.021192453801631927, 0.02210850827395916]","[0.01345216142275306, -1.5573441653721436, 0.01345216142275306, 0.01345216142275306, 0.01345216142275306, 0.01345216142275306]","[0.01345216142275306, -1.5573441653721436, 0.01345216142275306, 0.01345216142275306, 0.01345216142275306, 0.01345216142275306]",0.002,7,1
0,24,"[0.0005157177220098674, -1.5702775308494274, 0.0005181471454065445, 0.0005530554005126476, 0.0005484849098138511, 0.0005233287811279297]","[0.027689101174473763, 0.02854529395699501, 0.029246505349874496, 0.023537809029221535, 0.022979427129030228, 0.02394336462020874]","[0.01403672912542041, -1.5567595976694761, 0.01403672912542041, 0.01403672912542041, 0.01403672912542041, 0.01403672912542041]","[0.01403672912542041, -1.5567595976694761, 0.01403672912542041, 0.01403672912542041, 0.01403672912542041, 0.01403672912542041]",0.002,7,1
0,25,"[0.0006342420820146799, -1.5702625908055161, 0.0005553404437463882, 0.0005637842365722179, 0.0006013190723024309, 0.000592889788094908]","[0.028483588248491287, 0.030363205820322037, 0.03084469772875309, 0.02449771761894226, 0.024970347061753273, 0.024324851110577583]","[0.014621257401002376, -1.5561750693938943, 0.014621257401002376, 0.014621257401002376, 0.014621257401002376, 0.014621257401002376]","[0.014621257401002376, -1.5561750693938943, 0.014621257401002376, 0.014621257401002376, 0.014621257401002376, 0.014621257401002376]",0.002,7,1
0,26,"[0.0006056097918190062, -1.570153046024945, 0.0006936232196252945, 0.0006690460392455577, 0.0006571540725417435, 0.0006526422221213579]","[0.03020751103758812, 0.03261067718267441, 0.033017709851264954, 0.02610524743795395, 0.027002274990081787, 0.026634246110916138]","[0.015205744607645925, -1.5555905821872507, 0.015205744607645925, 0.015205744607645925, 0.015205744607645925, 0.015205744607645925]","[0.015205744607645925, -1.5555905821872507, 0.015205744607645925, 0.015205744607645925, 0.015205744607645925, 0.015205744607645925]",0.002,7,1
0,27,"[0.0007002719794400036, -1.5700929193738666, 0.000779453908101857, 0.0006809669682006358, 0.0007172355544753373, 0.0006508827209472656]","[0.0334104485809803, 0.03445504605770111, 0.03436228632926941, 0.02828790433704853, 0.0289298165589571, 0.02957567386329174]","[0.015790189103613395, -1.5550061376912832, 0.015790189103613395, 0.015790189103613395, 0.015790189103613395, 0.015790189103613395]","[0.015790189103613395, -1.5550061376912832, 0.015790189103613395, 0.015790189103613395, 0.015790189103613395, 0.015790189103613395]",0.002,7,1
0,28,"[0.00072718586307019, -1.5699953242768352, 0.0008485952960413101, 0.0007479625889281749, 0.0007604985730722547, 0.0007529620197601616]","[0.03517373651266098, 0.03556288778781891, 0.03723220154643059, 0.03130105882883072, 0.030513031408190727, 0.03135228529572487]","[0.016374589247287068, -1.5544217375476095, 0.016374589247287068, 0.016374589247287068, 0.016374589247287068, 0.016374589247287068]","[0.016374589247287068, -1.5544217375476095, 0.016374589247287068, 0.016374589247287068, 0.016374589247287068, 0.016374589247287068]",0.002,7,1
0,29,"[0.0008530919440090656, -1.5698948623360884, 0.000928227101461232, 0.0008695560642699718, 0.0008250594255514443, 0.0008866305579431355]","[0.036898549646139145, 0.0400150790810585, 0.039217785000801086, 0.0345817431807518, 0.032421037554740906, 0.03177616372704506]","[0.016958943397173833, -1.5538373833977228, 0.016958943397173833, 0.016958943397173833, 0.016958943397173833, 0.016958943397173833]","[0.016958943397173833, -1.5538373833977228, 0.016958943397173833, 0.016958943397173833, 0.016958943397173833, 0.016958943397173833]",0.002,7,1
0,30,"[0.0009298789664171636, -1.5698155281464388, 0.0009506384478967789, 0.0008962589451293468, 0.0008565484895370901, 0.0009513234836049378]","[0.038929857313632965, 0.043036088347435, 0.0403868742287159, 0.03495074436068535, 0.03472102805972099, 0.033594973385334015]","[0.017543249911909743, -1.5532530768829869, 0.017543249911909743, 0.017543249911909743, 0.017543249911909743, 0.017543249911909743]","[0.017543249911909743, -1.5532530768829869, 0.017543249911909743, 0.017543249911909743, 0.017543249911909743, 0.017543249911909743]",0.002,7,1
0,31,"[0.0009746551513671875, -1.56978560067758, 0.0010841528521936539, 0.0009845930286864757, 0.0009724100236780941, 0.0009222030639648438]","[0.04093048349022865, 0.042059578001499176, 0.04325774684548378, 0.03599981963634491, 0.037649571895599365, 0.03718552738428116]","[0.018127507150264666, -1.5526688196446319, 0.018127507150264666, 0.018127507150264666, 0.018127507150264666, 0.018127507150264666]","[0.018127507150264666, -1.5526688196446319, 0.018127507150264666, 0.018127507150264666, 0.018127507150264666, 0.018127507150264666]",0.002,7,1
0,32,"[0.0010886852396652102, -1.5697015886292611, 0.001138035451070607, 0.0010641056248168468, 0.001070270431227982, 0.001031637191772461]","[0.043348439037799835, 0.046048060059547424, 0.04646236449480057, 0.039233315736055374, 0.04035252705216408, 0.04022728279232979]","[0.018711713471146876, -1.5520846133237496, 0.018711713471146876, 0.018711713471146876, 0.018711713471146876, 0.018711713471146876]","[0.018711713471146876, -1.5520846133237496, 0.018711713471146876, 0.018711713471146876, 0.018711713471146876, 0.018711713471146876]",0.002,7,1
0,33,"[0.0011801186483353376, -1.5695771824433287, 0.001302067433492482, 0.001129432315490675, 0.0011258850572630763, 0.0011247110087424517]","[0.04496780410408974, 0.04891609773039818, 0.04672622308135033, 0.041160013526678085, 0.042745042592287064, 0.04263392835855484]","[0.019295867233607666, -1.551500459561289, 0.019295867233607666, 0.019295867233607666, 0.019295867233607666, 0.019295867233607666]","[0.019295867233607666, -1.551500459561289, 0.019295867233607666, 0.019295867233607666, 0.019295867233607666, 0.019295867233607666]",0.002,7,1
0,34,"[0.0012402720749378204, -1.5694554434488346, 0.0013697783099573257, 0.0012006002613524913, 0.0012504522455856204, 0.00121344777289778]","[0.047877322882413864, 0.05364566668868065, 0.049338676035404205, 0.04563668370246887, 0.04534859210252762, 0.04472504183650017]","[0.019879966796845963, -1.5509163599980507, 0.019879966796845963, 0.019879966796845963, 0.019879966796845963, 0.019879966796845963]","[0.019879966796845963, -1.5509163599980507, 0.019879966796845963, 0.019879966796845963, 0.019879966796845963, 0.019879966796845963]",0.002,7,1
0,35,"[0.0014083789428696036, -1.569340077611134, 0.0014761129962366226, 0.0013534265705565929, 0.0013513574376702309, 0.0013499051565304399]","[0.04946712404489517, 0.05293132737278938, 0.05169929191470146, 0.04785827919840813, 0.04734653979539871, 0.047893982380628586]","[0.020464010520212926, -1.5503323162746836, 0.020464010520212926, 0.020464010520212926, 0.020464010520212926, 0.020464010520212926]","[0.020464010520212926, -1.5503323162746836, 0.020464010520212926, 0.020464010520212926, 0.020464010520212926, 0.020464010520212926]",0.002,7,1
0,36,"[0.0014036628417670727, -1.5692367442282666, 0.001576725636617482, 0.0014167267033080577, 0.0014097329694777727, 0.0013914108276367188]","[0.05270904675126076, 0.055202726274728775, 0.05667626112699509, 0.04822266101837158, 0.05001652240753174, 0.05095823109149933]","[0.02104799676321656, -1.5497483300316799, 0.02104799676321656, 0.02104799676321656, 0.02104799676321656, 0.02104799676321656]","[0.02104799676321656, -1.5497483300316799, 0.02104799676321656, 0.02104799676321656, 0.02104799676321656, 0.02104799676321656]",0.002,7,1
0,37,"[0.0015597527381032705, -1.5691195387956505, 0.0016868750201624039, 0.001558228130004835, 0.001564432168379426, 0.0014920234680175781]","[0.05554512143135071, 0.05951964482665062, 0.05440784618258476, 0.05179186910390854, 0.052341070026159286, 0.05347612500190735]","[0.02163192388552632, -1.5491644029093703, 0.02163192388552632, 0.02163192388552632, 0.02163192388552632, 0.02163192388552632]","[0.02163192388552632, -1.5491644029093703, 0.02163192388552632, 0.02163192388552632, 0.02163192388552632, 0.02163192388552632]",0.002,7,1
0,38,"[0.001693221740424633, -1.5690023767859493, 0.0018261114703577164, 0.0016559797474364757, 0.0016385024646297097, 0.0016570126172155142]","[0.05749715119600296, 0.06175101920962334, 0.05883720517158508, 0.05474189296364784, 0.0559060275554657, 0.0566631443798542]","[0.022215790246977733, -1.5485805365479188, 0.022215790246977733, 0.022215790246977733, 0.022215790246977733, 0.022215790246977733]","[0.022215790246977733, -1.5485805365479188, 0.022215790246977733, 0.022215790246977733, 0.022215790246977733, 0.022215790246977733]",0.002,7,1
0,39,"[0.0018041791627183557, -1.5689411374372249, 0.0019224325763147476, 0.0018058258244018077, 0.0017027228605002165, 0.001710653305053711]","[0.05990026518702507, 0.06453283131122589, 0.06260353326797485, 0.057356126606464386, 0.05914542078971863, 0.06012268736958504]","[0.02279959420757699, -1.5479967325873196, 0.02279959420757699, 0.02279959420757699, 0.02279959420757699, 0.02279959420757699]","[0.02279959420757699, -1.5479967325873196, 0.02279959420757699, 0.02279959420757699, 0.02279959420757699, 0.02279959420757699]",0.002,7,1
0,40,"[0.0019304227316752076, -1.5687925329296668, 0.0020359198199670914, 0.001901550883911085, 0.0018561043543741107, 0.0018686249386519194]","[0.0630745142698288, 0.06669941544532776, 0.06421812623739243, 0.05964525043964386, 0.05912448838353157, 0.05978044494986534]","[0.02338333412750555, -1.547412992667391, 0.02338333412750555, 0.02338333412750555, 0.02338333412750555, 0.02338333412750555]","[0.02338333412750555, -1.547412992667391, 0.02338333412750555, 0.02338333412750555, 0.02338333412750555, 0.02338333412750555]",0.002,7,1
0,41,"[0.0020817641634494066, -1.5685869900374492, 0.0022152105914514664, 0.0020124155231933116, 0.0019794052932411432, 0.0020260149613022804]","[0.06522734463214874, 0.06917831301689148, 0.06645526736974716, 0.06365332007408142, 0.06200605630874634, 0.06263121962547302]","[0.023967008367124766, -1.5468293184277717, 0.023967008367124766, 0.023967008367124766, 0.023967008367124766, 0.023967008367124766]","[0.023967008367124766, -1.5468293184277717, 0.023967008367124766, 0.023967008367124766, 0.023967008367124766, 0.023967008367124766]",0.002,7,1
0,42,"[0.0021898397244513035, -1.5684835119503369, 0.002309624348775685, 0.0021334129520873546, 0.002186723053455353, 0.0021490477956831455]","[0.06720302253961563, 0.07111890614032745, 0.0688432902097702, 0.06540022045373917, 0.0674869567155838, 0.06852808594703674]","[0.024550615286980458, -1.546245711507916, 0.024550615286980458, 0.024550615286980458, 0.024550615286980458, 0.024550615286980458]","[0.024550615286980458, -1.546245711507916, 0.024550615286980458, 0.024550615286980458, 0.024550615286980458, 0.024550615286980458]",0.002,7,1
0,43,"[0.002345549874007702, -1.568335091262572, 0.0024974981891077164, 0.0022409397312621593, 0.0023100569378584623, 0.0022686433512717485]","[0.073210708796978, 0.0746358186006546, 0.07132574915885925, 0.06860492378473282, 0.06988522410392761, 0.06841698288917542]","[0.025134153247807548, -1.545662173547089, 0.025134153247807548, 0.025134153247807548, 0.025134153247807548, 0.025134153247807548]","[0.025134153247807548, -1.545662173547089, 0.025134153247807548, 0.025134153247807548, 0.025134153247807548, 0.025134153247807548]",0.002,7,1
0,44,"[0.0025019273161888123, -1.5681413209861894, 0.0026267210589807632, 0.0024294096180419444, 0.0023715407587587833, 0.002400727244094014]","[0.07187208533287048, 0.07633550465106964, 0.0719413235783577, 0.07169080525636673, 0.07156766206026077, 0.07165400683879852]","[0.025717620610534668, -1.5450787061843618, 0.025717620610534668, 0.025717620610534668, 0.025717620610534668, 0.025717620610534668]","[0.025717620610534668, -1.5450787061843618, 0.025717620610534668, 0.025717620610534668, 0.025717620610534668, 0.025717620610534668]",0.002,7,1
0,45,"[0.0026548628229647875, -1.5679852394717564, 0.0027497450457971695, 0.002528353328369093, 0.002628813963383436, 0.0025867843069136143]","[0.07730677723884583, 0.07790686935186386, 0.07713936269283295, 0.07458088546991348, 0.0748346745967865, 0.07457799464464188]","[0.026301015736288732, -1.544495311058608, 0.026301015736288732, 0.026301015736288732, 0.026301015736288732, 0.026301015736288732]","[0.026301015736288732, -1.544495311058608, 0.026301015736288732, 0.026301015736288732, 0.026301015736288732, 0.026301015736288732]",0.002,7,1
0,46,"[0.002818439621478319, -1.5678206496271123, 0.0029433409320276382, 0.002716942424438429, 0.002767035271972418, 0.002670617075636983]","[0.08159272372722626, 0.08309595286846161, 0.07988310605287552, 0.07807730883359909, 0.07817231118679047, 0.07789642363786697]","[0.026884336986399547, -1.543911989808497, 0.026884336986399547, 0.026884336986399547, 0.026884336986399547, 0.026884336986399547]","[0.026884336986399547, -1.543911989808497, 0.026884336986399547, 0.026884336986399547, 0.026884336986399547, 0.026884336986399547]",0.002,7,1
0,47,"[0.002990899607539177, -1.5676989623210211, 0.0030902067767542007, 0.0028435426899413585, 0.0028977280016988516, 0.002868595067411661]","[0.08211935311555862, 0.08257531374692917, 0.08298865705728531, 0.08120480924844742, 0.08239427208900452, 0.08068490028381348]","[0.027467582722404453, -1.543328744072492, 0.027467582722404453, 0.027467582722404453, 0.027467582722404453, 0.027467582722404453]","[0.027467582722404453, -1.543328744072492, 0.027467582722404453, 0.027467582722404453, 0.027467582722404453, 0.027467582722404453]",0.002,7,1
0,48,"[0.0031543616205453873, -1.5675264604254444, 0.003231827412740529, 0.003085895175598097, 0.003124702489003539, 0.003074111882597208]","[0.08658359944820404, 0.08474091440439224, 0.08364147692918777, 0.08424133062362671, 0.0856647714972496, 0.08380205929279327]","[0.028050751306052873, -1.5427455754888437, 0.028050751306052873, 0.028050751306052873, 0.028050751306052873, 0.028050751306052873]","[0.028050751306052873, -1.5427455754888437, 0.028050751306052873, 0.028050751306052873, 0.028050751306052873, 0.028050751306052873]",0.002,7,1
0,49,"[0.003326896345242858, -1.5673961330069979, 0.0034855047809045914, 0.003190918559692335, 0.0032527726143598557, 0.0032209777273237705]","[0.0898679569363594, 0.0911894142627716, 0.09030595421791077, 0.08572524785995483, 0.08543325960636139, 0.08658314496278763]","[0.02863384109931096, -1.5421624856955856, 0.02863384109931096, 0.02863384109931096, 0.02863384109931096, 0.02863384109931096]","[0.02863384109931096, -1.5421624856955856, 0.02863384109931096, 0.02863384109931096, 0.02863384109931096, 0.02863384109931096]",0.002,7,1
0,50,"[0.0034977791365236044, -1.567211639634781, 0.0035966078387659195, 0.0033995348164062023, 0.0034994278103113174, 0.0034622573293745518]","[0.09251722693443298, 0.09097873419523239, 0.08974799513816833, 0.09198180586099625, 0.0877799317240715, 0.09042699635028839]","[0.029216850464366173, -1.5415794763305304, 0.029216850464366173, 0.029216850464366173, 0.029216850464366173, 0.029216850464366173]","[0.029216850464366173, -1.5415794763305304, 0.029216850464366173, 0.029216850464366173, 0.029216850464366173, 0.029216850464366173]",0.002,7,1
0,51,"[0.0037229638546705246, -1.5669747265386214, 0.003820244465963185, 0.0035924154468993663, 0.0036086528562009335, 0.0036303424276411533]","[0.09499421715736389, 0.09435968101024628, 0.09454265236854553, 0.09314610064029694, 0.09253396093845367, 0.09361573308706284]","[0.029799777763631855, -1.5409965490312647, 0.029799777763631855, 0.029799777763631855, 0.029799777763631855, 0.029799777763631855]","[0.029799777763631855, -1.5409965490312647, 0.029799777763631855, 0.029799777763631855, 0.029799777763631855, 0.029799777763631855]",0.002,7,1
0,52,"[0.003919430077075958, -1.5668231330676754, 0.003980938588277638, 0.0038004356571654796, 0.0037722105626016855, 0.003789337584748864]","[0.09771521389484406, 0.0970468521118164, 0.09603040665388107, 0.09952014684677124, 0.0946282297372818, 0.09587513655424118]","[0.030382621359751904, -1.5404137054351446, 0.030382621359751904, 0.030382621359751904, 0.030382621359751904, 0.030382621359751904]","[0.030382621359751904, -1.5404137054351446, 0.030382621359751904, 0.030382621359751904, 0.030382621359751904, 0.030382621359751904]",0.002,7,1
0,53,"[0.004126523155719042, -1.5666099458797653, 0.004206482564107716, 0.004017277354858351, 0.004006874747574329, 0.003992886748164892]","[0.10191499441862106, 0.09965067356824875, 0.09931713342666626, 0.09908858686685562, 0.09932736307382584, 0.09891355037689209]","[0.030965379615605294, -1.5398309471792913, 0.030965379615605294, 0.030965379615605294, 0.030965379615605294, 0.030965379615605294]","[0.030965379615605294, -1.5398309471792913, 0.030965379615605294, 0.030965379615605294, 0.030965379615605294, 0.030965379615605294]",0.002,7,1
0,54,"[0.004396670497953892, -1.5664482538453122, 0.004422489796773732, 0.004225059146545362, 0.0041781263425946236, 0.004227194935083389]","[0.10359309613704681, 0.10315242409706116, 0.10052233189344406, 0.10294480621814728, 0.10292452573776245, 0.10226313769817352]","[0.031548050894310724, -1.5392482759005859, 0.031548050894310724, 0.031548050894310724, 0.031548050894310724, 0.031548050894310724]","[0.031548050894310724, -1.5392482759005859, 0.031548050894310724, 0.031548050894310724, 0.031548050894310724, 0.031548050894310724]",0.002,7,1
0,55,"[0.004583812318742275, -1.5662067260457953, 0.004579846058980763, 0.004419727916381788, 0.004480160307139158, 0.004426841624081135]","[0.10659564286470413, 0.10524918138980865, 0.10593966394662857, 0.1067577674984932, 0.10521584749221802, 0.10424039512872696]","[0.03213063355923119, -1.5386656932356653, 0.03213063355923119, 0.03213063355923119, 0.03213063355923119, 0.03213063355923119]","[0.03213063355923119, -1.5386656932356653, 0.03213063355923119, 0.03213063355923119, 0.03213063355923119, 0.03213063355923119]",0.002,7,1
0,56,"[0.004803023301064968, -1.5660101573779066, 0.004852120076314748, 0.004676623935363722, 0.004701416008174419, 0.004628737457096577]","[0.11020565778017044, 0.10887784510850906, 0.10816869884729385, 0.10933555662631989, 0.10856105387210846, 0.11098947376012802]","[0.03271312597397859, -1.538083200820918, 0.03271312597397859, 0.03271312597397859, 0.03271312597397859, 0.03271312597397859]","[0.03271312597397859, -1.538083200820918, 0.03271312597397859, 0.03271312597397859, 0.03271312597397859, 0.03271312597397859]",0.002,7,1
0,57,"[0.0050353254191577435, -1.565711620995291, 0.005047146474019826, 0.00493721544232173, 0.004863199312239885, 0.004865589085966349]","[0.1128806322813034, 0.11317383497953415, 0.11132823675870895, 0.11124565452337265, 0.11234039068222046, 0.11150488257408142]","[0.03329552650241833, -1.5375008002924782, 0.03329552650241833, 0.03329552650241833, 0.03329552650241833, 0.03329552650241833]","[0.03329552650241833, -1.5375008002924782, 0.03329552650241833, 0.03329552650241833, 0.03329552650241833, 0.03329552650241833]",0.002,7,1
0,58,"[0.0052681914530694485, -1.565549617899098, 0.005292240773336232, 0.005136414165161085, 0.005150799173861742, 0.005044164601713419]","[0.11649760603904724, 0.11296243220567703, 0.11522720754146576, 0.11552401632070541, 0.11589964479207993, 0.11663231253623962]","[0.03387783350867391, -1.5369184932862225, 0.03387783350867391, 0.03387783350867391, 0.03387783350867391, 0.03387783350867391]","[0.03387783350867391, -1.5369184932862225, 0.03387783350867391, 0.03387783350867391, 0.03387783350867391, 0.03387783350867391]",0.002,7,1
0,59,"[0.005474982783198357, -1.5653309400989492, 0.005574528370992482, 0.005384250278137159, 0.005324527621269226, 0.005317244678735733]","[0.11902152001857758, 0.11979927122592926, 0.1170409768819809, 0.11747162789106369, 0.12030065059661865, 0.11950995028018951]","[0.034460045357131514, -1.536336281437765, 0.034460045357131514, 0.034460045357131514, 0.034460045357131514, 0.034460045357131514]","[0.034460045357131514, -1.536336281437765, 0.034460045357131514, 0.034460045357131514, 0.034460045357131514, 0.034460045357131514]",0.002,7,1
0,60,"[0.0057862307876348495, -1.5651267774267872, 0.005834404622213185, 0.005595965976379347, 0.005596761591732502, 0.005627756007015705]","[0.1219877302646637, 0.12026207894086838, 0.12331416457891464, 0.12057612836360931, 0.12128955870866776, 0.12262271344661713]","[0.0350421604124446, -1.5357541663824519, 0.0350421604124446, 0.0350421604124446, 0.0350421604124446, 0.0350421604124446]","[0.0350421604124446, -1.5357541663824519, 0.0350421604124446, 0.0350421604124446, 0.0350421604124446, 0.0350421604124446]",0.002,7,1
0,61,"[0.005997230298817158, -1.564867394776531, 0.006079022084371388, 0.005877061481140089, 0.005897661671042442, 0.005830173380672932]","[0.12558536231517792, 0.12491203844547272, 0.12306313216686249, 0.12545941770076752, 0.12510082125663757, 0.1277371346950531]","[0.03562417703953853, -1.535172149755358, 0.03562417703953853, 0.03562417703953853, 0.03562417703953853, 0.03562417703953853]","[0.03562417703953853, -1.535172149755358, 0.03562417703953853, 0.03562417703953853, 0.03562417703953853, 0.03562417703953853]",0.002,7,1
0,62,"[0.006294109392911196, -1.5645521034351368, 0.006296459828512013, 0.006128235454223585, 0.006065694615244865, 0.006068941205739975]","[0.12778085470199585, 0.12714934349060059, 0.12586817145347595, 0.12692658603191376, 0.12796650826931, 0.12737491726875305]","[0.03620609360361513, -1.5345902331912815, 0.03620609360361513, 0.03620609360361513, 0.03620609360361513, 0.03620609360361513]","[0.03620609360361513, -1.5345902331912815, 0.03620609360361513, 0.03620609360361513, 0.03620609360361513, 0.03620609360361513]",0.002,7,1
0,63,"[0.006570911500602961, -1.564378456944116, 0.006570164357320607, 0.006395621890685987, 0.006384330801665783, 0.00636998051777482]","[0.13170471787452698, 0.1295972615480423, 0.1308586597442627, 0.13037221133708954, 0.13356365263462067, 0.13346673548221588]","[0.03678790847015727, -1.5340084183247393, 0.03678790847015727, 0.03678790847015727, 0.03678790847015727, 0.03678790847015727]","[0.03678790847015727, -1.5340084183247393, 0.03678790847015727, 0.03678790847015727, 0.03678790847015727, 0.03678790847015727]",0.002,7,1
0,64,"[0.006797240115702152, -1.5640272542699059, 0.006843392048970998, 0.006683750743530226, 0.006620301399379969, 0.006650014314800501]","[0.13411664962768555, 0.1343420296907425, 0.13426122069358826, 0.1342993527650833, 0.1345568597316742, 0.13592775166034698]","[0.037369620004933476, -1.5334267067899632, 0.037369620004933476, 0.037369620004933476, 0.037369620004933476, 0.037369620004933476]","[0.037369620004933476, -1.5334267067899632, 0.037369620004933476, 0.037369620004933476, 0.037369620004933476, 0.037369620004933476]",0.002,7,1
0,65,"[0.0071558901108801365, -1.5638054835474868, 0.007070366536275685, 0.006964369411132765, 0.006894860416650772, 0.00687239458784461]","[0.13983798027038574, 0.13961820304393768, 0.13549426198005676, 0.13699397444725037, 0.13695673644542694, 0.13892607390880585]","[0.03795122657400253, -1.532845100220894, 0.03795122657400253, 0.03795122657400253, 0.03795122657400253, 0.03795122657400253]","[0.03795122657400253, -1.532845100220894, 0.03795122657400253, 0.03795122657400253, 0.03795122657400253, 0.03795122657400253]",0.002,7,1
0,66,"[0.007347164675593376, -1.563520136555173, 0.007370773945943654, 0.00724284231152339, 0.00722135417163372, 0.007185283582657576]","[0.1395808756351471, 0.1374834030866623, 0.14060446619987488, 0.14024657011032104, 0.13936981558799744, 0.14337550103664398]","[0.038532726543718046, -1.5322636002511785, 0.038532726543718046, 0.038532726543718046, 0.038532726543718046, 0.038532726543718046]","[0.038532726543718046, -1.5322636002511785, 0.038532726543718046, 0.038532726543718046, 0.038532726543718046, 0.038532726543718046]",0.002,7,1
0,67,"[0.007684957701712847, -1.5632128564505656, 0.007672611867086232, 0.007609410876892042, 0.007481432985514402, 0.007468870375305414]","[0.14345590770244598, 0.14296260476112366, 0.1443893164396286, 0.14207766950130463, 0.14390864968299866, 0.14596910774707794]","[0.039114118280733065, -1.5316822085141635, 0.039114118280733065, 0.039114118280733065, 0.039114118280733065, 0.039114118280733065]","[0.039114118280733065, -1.5316822085141635, 0.039114118280733065, 0.039114118280733065, 0.039114118280733065, 0.039114118280733065]",0.002,7,1
0,68,"[0.007948841899633408, -1.5629366499236603, 0.0079425016986292, 0.0077971655079345226, 0.007736664731055498, 0.007785233203321695]","[0.14628523588180542, 0.1457473784685135, 0.14641138911247253, 0.14623162150382996, 0.150335431098938, 0.1487714797258377]","[0.039695400152004616, -1.5311009266428919, 0.039695400152004616, 0.039695400152004616, 0.039695400152004616, 0.039695400152004616]","[0.039695400152004616, -1.5311009266428919, 0.039695400152004616, 0.039695400152004616, 0.039695400152004616, 0.039695400152004616]",0.002,7,1
0,69,"[0.008312119171023369, -1.5626773753068228, 0.008275810872213185, 0.008151097888610792, 0.008084198459982872, 0.00810230616480112]","[0.1481519490480423, 0.1498740315437317, 0.1484811007976532, 0.15221086144447327, 0.15011653304100037, 0.15166252851486206]","[0.04027657052479833, -1.5305197562700983, 0.04027657052479833, 0.04027657052479833, 0.04027657052479833, 0.04027657052479833]","[0.04027657052479833, -1.5305197562700983, 0.04027657052479833, 0.04027657052479833, 0.04027657052479833, 0.04027657052479833]",0.002,7,1
0,70,"[0.008579414337873459, -1.5623609668440004, 0.008578125630513966, 0.008453531856201124, 0.00838902685791254, 0.008342907764017582]","[0.15212947130203247, 0.15337876975536346, 0.15311160683631897, 0.15300868451595306, 0.15389913320541382, 0.15547174215316772]","[0.04085762776669305, -1.5299386990282036, 0.04085762776669305, 0.04085762776669305, 0.04085762776669305, 0.04085762776669305]","[0.04085762776669305, -1.5299386990282036, 0.04085762776669305, 0.04085762776669305, 0.04085762776669305, 0.04085762776669305]",0.002,7,1
0,71,"[0.008869781158864498, -1.5620327166146417, 0.008923355733053029, 0.008790536517761183, 0.008725810796022415, 0.008722223341464996]","[0.15753822028636932, 0.15608949959278107, 0.15529108047485352, 0.15609852969646454, 0.15846839547157288, 0.1593024730682373]","[0.041438570245585345, -1.5293577565493113, 0.041438570245585345, 0.041438570245585345, 0.041438570245585345, 0.041438570245585345]","[0.041438570245585345, -1.5293577565493113, 0.041438570245585345, 0.041438570245585345, 0.041438570245585345, 0.041438570245585345]",0.002,7,1
0,72,"[0.009243940934538841, -1.5617537855035444, 0.009214703236715138, 0.00908760606732173, 0.009030675515532494, 0.009000005200505257]","[0.15854081511497498, 0.15841689705848694, 0.1570499837398529, 0.1583518534898758, 0.16274352371692657, 0.16167522966861725]","[0.04201939632969416, -1.5287769304652024, 0.04201939632969416, 0.04201939632969416, 0.04201939632969416, 0.04201939632969416]","[0.04201939632969416, -1.5287769304652024, 0.04201939632969416, 0.04201939632969416, 0.04201939632969416, 0.04201939632969416]",0.002,7,1
0,73,"[0.009563541039824486, -1.5613676880351086, 0.009563271199361623, 0.009463711375854444, 0.009336789138615131, 0.009311803616583347]","[0.1620713174343109, 0.16167108714580536, 0.161174014210701, 0.1611216515302658, 0.16419686377048492, 0.16637326776981354]","[0.04260010438756538, -1.528196222407331, 0.04260010438756538, 0.04260010438756538, 0.04260010438756538, 0.04260010438756538]","[0.04260010438756538, -1.528196222407331, 0.04260010438756538, 0.04260010438756538, 0.04260010438756538, 0.04260010438756538]",0.002,7,1
0,74,"[0.00984080508351326, -1.5611206547221919, 0.009833161030904591, 0.009753985995910597, 0.009677678346633911, 0.009668342769145966]","[0.16523338854312897, 0.16638821363449097, 0.1655493676662445, 0.1646876335144043, 0.1670544147491455, 0.16860158741474152]","[0.043180692788076395, -1.52761563400682, 0.043180692788076395, 0.043180692788076395, 0.043180692788076395, 0.043180692788076395]","[0.043180692788076395, -1.52761563400682, 0.043180692788076395, 0.043180692788076395, 0.043180692788076395, 0.043180692788076395]",0.002,7,1
0,75,"[0.01016918197274208, -1.5607562142289062, 0.010145489369527638, 0.010104103679321241, 0.010001582093536854, 0.010030615143477917]","[0.16794374585151672, 0.16828478872776031, 0.16646721959114075, 0.1673935204744339, 0.17261002957820892, 0.1729975938796997]","[0.0437611599004407, -1.527035166894456, 0.0437611599004407, 0.0437611599004407, 0.0437611599004407, 0.0437611599004407]","[0.0437611599004407, -1.527035166894456, 0.0437611599004407, 0.0437611599004407, 0.0437611599004407, 0.0437611599004407]",0.002,7,1
0,76,"[0.010588190518319607, -1.5603794979727645, 0.01049834886659795, 0.010463042850158644, 0.010399800725281239, 0.01033339649438858]","[0.1708637773990631, 0.1710260957479477, 0.16965602338314056, 0.17130011320114136, 0.17386561632156372, 0.17438837885856628]","[0.04434150409421247, -1.526454822700684, 0.04434150409421247, 0.04434150409421247, 0.04434150409421247, 0.04434150409421247]","[0.04434150409421247, -1.526454822700684, 0.04434150409421247, 0.04434150409421247, 0.04434150409421247, 0.04434150409421247]",0.002,7,1
0,77,"[0.010866590775549412, -1.5601008108681818, 0.010884586964742482, 0.010843082065246534, 0.010752569884061813, 0.01063006091862917]","[0.1764017939567566, 0.17395038902759552, 0.1720154881477356, 0.17436890304088593, 0.17509020864963531, 0.17626819014549255]","[0.04492172373929114, -1.5258746030556054, 0.04492172373929114, 0.04492172373929114, 0.04492172373929114, 0.04492172373929114]","[0.04492172373929114, -1.5258746030556054, 0.04492172373929114, 0.04492172373929114, 0.04492172373929114, 0.04492172373929114]",0.002,7,1
0,78,"[0.011264868080615997, -1.5597170016593118, 0.011215988789693654, 0.011212750072143507, 0.011029673740267754, 0.011032084003090858]","[0.1760234236717224, 0.18023139238357544, 0.17379307746887207, 0.17708595097064972, 0.17811478674411774, 0.17971844971179962]","[0.04550181720592597, -1.5252945095889705, 0.04550181720592597, 0.04550181720592597, 0.04550181720592597, 0.04550181720592597]","[0.04550181720592597, -1.5252945095889705, 0.04550181720592597, 0.04550181720592597, 0.04550181720592597, 0.04550181720592597]",0.002,7,1
0,79,"[0.011603734456002712, -1.5594260183027764, 0.011578385029928029, 0.011546416873596144, 0.01140648778527975, 0.011426618322730064]","[0.17886997759342194, 0.18463800847530365, 0.17858484387397766, 0.1798139363527298, 0.1808789074420929, 0.1834547072649002]","[0.04608178286472068, -1.524714543930176, 0.04608178286472068, 0.04608178286472068, 0.04608178286472068, 0.04608178286472068]","[0.04608178286472068, -1.524714543930176, 0.04608178286472068, 0.04608178286472068, 0.04608178286472068, 0.04608178286472068]",0.002,7,1
0,80,"[0.011980151757597923, -1.5589788661203166, 0.011929814015523732, 0.011879368419311476, 0.011834869161248207, 0.011769851669669151]","[0.18270115554332733, 0.18438373506069183, 0.18214765191078186, 0.1830417513847351, 0.1850421130657196, 0.1864383965730667]","[0.046661619086637914, -1.5241347077082585, 0.046661619086637914, 0.046661619086637914, 0.046661619086637914, 0.046661619086637914]","[0.046661619086637914, -1.5241347077082585, 0.046661619086637914, 0.046661619086637914, 0.046661619086637914, 0.046661619086637914]",0.002,7,1
0,81,"[0.012340163812041283, -1.5586023426479478, 0.01233226457704717, 0.012291832561157179, 0.012188379652798176, 0.012149247340857983]","[0.1855274736881256, 0.18758682906627655, 0.18305709958076477, 0.1844702661037445, 0.1893562227487564, 0.18984396755695343]","[0.04724132424300397, -1.5235550025518927, 0.04724132424300397, 0.04724132424300397, 0.04724132424300397, 0.04724132424300397]","[0.04724132424300397, -1.5235550025518927, 0.04724132424300397, 0.04724132424300397, 0.04724132424300397, 0.04724132424300397]",0.002,7,1
0,82,"[0.012695826590061188, -1.5582439436442037, 0.012627426777974904, 0.012654824847839308, 0.012532176449894905, 0.012537666596472263]","[0.1875169724225998, 0.19235163927078247, 0.1862444430589676, 0.18850155174732208, 0.19128604233264923, 0.1935623586177826]","[0.04782089670551321, -1.5229754300893834, 0.04782089670551321, 0.04782089670551321, 0.04782089670551321, 0.04782089670551321]","[0.04782089670551321, -1.5229754300893834, 0.04782089670551321, 0.04782089670551321, 0.04782089670551321, 0.04782089670551321]",0.002,7,1
0,83,"[0.013142344541847706, -1.557838892830052, 0.013051811848775685, 0.013060613269470167, 0.012965941801667213, 0.012941930443048477]","[0.1908334195613861, 0.19583460688591003, 0.18851332366466522, 0.18976543843746185, 0.19431281089782715, 0.1965872347354889]","[0.04840033484623275, -1.5223959919486638, 0.04840033484623275, 0.04840033484623275, 0.04840033484623275, 0.04840033484623275]","[0.04840033484623275, -1.5223959919486638, 0.04840033484623275, 0.04840033484623275, 0.04840033484623275, 0.04840033484623275]",0.002,7,1
0,84,"[0.013482647947967052, -1.5574924985742946, 0.013390366231099904, 0.013439818019531202, 0.013336637988686562, 0.013368220068514347]","[0.19388063251972198, 0.19727280735969543, 0.19080393016338348, 0.19339652359485626, 0.19814909994602203, 0.19973374903202057]","[0.04897963703760701, -1.5218166897572896, 0.04897963703760701, 0.04897963703760701, 0.04897963703760701, 0.04897963703760701]","[0.04897963703760701, -1.5218166897572896, 0.04897963703760701, 0.04897963703760701, 0.04897963703760701, 0.04897963703760701]",0.002,7,1
0,85,"[0.01392510998994112, -1.5570632296479126, 0.01382762590517217, 0.013805432910583448, 0.013725271448493004, 0.013714867644011974]","[0.1973203718662262, 0.19992154836654663, 0.19414831697940826, 0.19587884843349457, 0.20098939538002014, 0.201941579580307]","[0.04955880165246223, -1.5212375251424344, 0.04955880165246223, 0.04955880165246223, 0.04955880165246223, 0.04955880165246223]","[0.04955880165246223, -1.5212375251424344, 0.04955880165246223, 0.04955880165246223, 0.04955880165246223, 0.04955880165246223]",0.002,7,1
0,86,"[0.014250455424189568, -1.5566461414894839, 0.014237705861226857, 0.01423291742291255, 0.014147188514471054, 0.014146882109344006]","[0.20080098509788513, 0.20319248735904694, 0.19945965707302094, 0.19899776577949524, 0.20475435256958008, 0.2058667093515396]","[0.05013782706401114, -1.5206584997308854, 0.05013782706401114, 0.05013782706401114, 0.05013782706401114, 0.05013782706401114]","[0.05013782706401114, -1.5206584997308854, 0.05013782706401114, 0.05013782706401114, 0.05013782706401114, 0.05013782706401114]",0.002,7,1
0,87,"[0.014720122329890728, -1.5562639099410553, 0.014659706746236623, 0.014691277141235304, 0.014562424272298813, 0.01450493186712265]","[0.20371149480342865, 0.20728804171085358, 0.20250441133975983, 0.20249244570732117, 0.20716772973537445, 0.207490935921669]","[0.050716711645857414, -1.5200796151490392, 0.050716711645857414, 0.050716711645857414, 0.050716711645857414, 0.050716711645857414]","[0.050716711645857414, -1.5200796151490392, 0.050716711645857414, 0.050716711645857414, 0.050716711645857414, 0.050716711645857414]",0.002,7,1
0,88,"[0.015135761350393295, -1.555856012073793, 0.014964882527486623, 0.015102191562316847, 0.015012646093964577, 0.014891653321683407]","[0.2079913467168808, 0.20740394294261932, 0.20473048090934753, 0.20563344657421112, 0.20767055451869965, 0.20923934876918793]","[0.05129545377200032, -1.5195008730228963, 0.05129545377200032, 0.05129545377200032, 0.05129545377200032, 0.05129545377200032]","[0.05129545377200032, -1.5195008730228963, 0.05129545377200032, 0.05129545377200032, 0.05129545377200032, 0.05129545377200032]",0.002,7,1
0,89,"[0.015512148849666119, -1.5553941142610093, 0.015427414570943654, 0.015492482776306105, 0.015461667440831661, 0.015356280840933323]","[0.20963306725025177, 0.21056526899337769, 0.20651684701442719, 0.2070065289735794, 0.2123449593782425, 0.21191076934337616]","[0.051874051816839274, -1.5189222749780573, 0.051874051816839274, 0.051874051816839274, 0.051874051816839274, 0.051874051816839274]","[0.051874051816839274, -1.5189222749780573, 0.051874051816839274, 0.051874051816839274, 0.051874051816839274, 0.051874051816839274]",0.002,7,1
0,90,"[0.01599848084151745, -1.5549832426807662, 0.015885178242818654, 0.01589314519848628, 0.015853310003876686, 0.01577609032392502]","[0.21192075312137604, 0.2167542278766632, 0.2093784362077713, 0.21052518486976624, 0.21741700172424316, 0.21645121276378632]","[0.05245250415517839, -1.5183438226397181, 0.05245250415517839, 0.05245250415517839, 0.05245250415517839, 0.05245250415517839]","[0.05245250415517839, -1.5183438226397181, 0.05245250415517839, 0.05245250415517839, 0.05245250415517839, 0.05245250415517839]",0.002,7,1
0,91,"[0.016388466581702232, -1.5545012981495638, 0.016306225453512013, 0.016303821200988722, 0.016213327646255493, 0.016193149611353874]","[0.21491296589374542, 0.2167426198720932, 0.21340127289295197, 0.21400485932826996, 0.21958357095718384, 0.21936191618442535]","[0.053030809162231005, -1.5177655176326657, 0.053030809162231005, 0.053030809162231005, 0.053030809162231005, 0.053030809162231005]","[0.053030809162231005, -1.5177655176326657, 0.053030809162231005, 0.053030809162231005, 0.053030809162231005, 0.053030809162231005]",0.002,7,1
0,92,"[0.016823982819914818, -1.5540723235211154, 0.01669341722597295, 0.016766472453735304, 0.016670817509293556, 0.016665445640683174]","[0.2166866809129715, 0.2202247530221939, 0.2187119424343109, 0.21594230830669403, 0.22119396924972534, 0.22135305404663086]","[0.05360896521362437, -1.517187361581272, 0.05360896521362437, 0.05360896521362437, 0.05360896521362437, 0.05360896521362437]","[0.05360896521362437, -1.517187361581272, 0.05360896521362437, 0.05360896521362437, 0.05360896521362437, 0.05360896521362437]",0.002,7,1
0,93,"[0.017273569479584694, -1.5536574006876727, 0.017167393361226857, 0.017180605525634718, 0.01711219549179077, 0.01714695803821087]","[0.21977171301841736, 0.22373178601264954, 0.221506267786026, 0.21814219653606415, 0.22365562617778778, 0.22350794076919556]","[0.054186970685404054, -1.5166093561094924, 0.054186970685404054, 0.054186970685404054, 0.054186970685404054, 0.054186970685404054]","[0.054186970685404054, -1.5166093561094924, 0.054186970685404054, 0.054186970685404054, 0.054186970685404054, 0.054186970685404054]",0.002,7,1
0,94,"[0.017729545012116432, -1.5532761395773669, 0.01757699648012334, 0.01766590654339595, 0.01755622588098049, 0.017577219754457474]","[0.22275567054748535, 0.224640890955925, 0.22204793989658356, 0.22248606383800507, 0.22613351047039032, 0.2274617701768875]","[0.054764823954038644, -1.516031502840858, 0.054764823954038644, 0.054764823954038644, 0.054764823954038644, 0.054764823954038644]","[0.054764823954038644, -1.516031502840858, 0.054764823954038644, 0.054764823954038644, 0.054764823954038644, 0.054764823954038644]",0.002,7,1
0,95,"[0.0182277113199234, -1.5528293003192921, 0.01800233522524053, 0.018124623889587355, 0.018012702465057373, 0.018058694899082184]","[0.22506263852119446, 0.2275155633687973, 0.22513261437416077, 0.22562916576862335, 0.22824324667453766, 0.22946496307849884]","[0.0553425233964242, -1.5154538033984724, 0.0553425233964242, 0.0553425233964242, 0.0553425233964242, 0.0553425233964242]","[0.0553425233964242, -1.5154538033984724, 0.0553425233964242, 0.0553425233964242, 0.0553425233964242, 0.0553425233964242]",0.002,7,1
0,96,"[0.01863379217684269, -1.5522816472551604, 0.01848918596376592, 0.018533154124877882, 0.018489886075258255, 0.018493959680199623]","[0.22743062674999237, 0.22941812872886658, 0.2285429686307907, 0.2284199744462967, 0.2314767986536026, 0.23078244924545288]","[0.055920067389888854, -1.5148762594050078, 0.055920067389888854, 0.055920067389888854, 0.055920067389888854, 0.055920067389888854]","[0.055920067389888854, -1.5148762594050078, 0.055920067389888854, 0.055920067389888854, 0.055920067389888854, 0.055920067389888854]",0.002,7,1
0,97,"[0.01919563300907612, -1.5518332918039341, 0.018957440053121388, 0.018943591708801222, 0.01892276294529438, 0.018989812582731247]","[0.23150961101055145, 0.23176074028015137, 0.2314809113740921, 0.2320403903722763, 0.2353166788816452, 0.23407533764839172]","[0.05649745431219742, -1.5142988724826991, 0.05649745431219742, 0.05649745431219742, 0.05649745431219742, 0.05649745431219742]","[0.05649745431219742, -1.5142988724826991, 0.05649745431219742, 0.05649745431219742, 0.05649745431219742, 0.05649745431219742]",0.002,7,1
0,98,"[0.019571956247091293, -1.5513528038612385, 0.019414250050679982, 0.019446178073547316, 0.019386256113648415, 0.01943652704358101]","[0.2325344681739807, 0.23273982107639313, 0.2340235710144043, 0.23541012406349182, 0.2377893626689911, 0.23764078319072723]","[0.05707468254155584, -1.5137216442533408, 0.05707468254155584, 0.05707468254155584, 0.05707468254155584, 0.05707468254155584]","[0.05707468254155584, -1.5137216442533408, 0.05707468254155584, 0.05707468254155584, 0.05707468254155584, 0.05707468254155584]",0.002,7,1
0,99,"[0.020054660737514496, -1.5508532722345372, 0.019924465809957326, 0.01984815179791255, 0.019899649545550346, 0.019928283989429474]","[0.23561035096645355, 0.23636648058891296, 0.23656070232391357, 0.23848125338554382, 0.24053168296813965, 0.2405286580324173]","[0.05765175045661585, -1.5131445763382807, 0.05765175045661585, 0.05765175045661585, 0.05765175045661585, 0.05765175045661585]","[0.05765175045661585, -1.5131445763382807, 0.05765175045661585, 0.05765175045661585, 0.05765175045661585, 0.05765175045661585]",0.002,7,1
0,100,"[0.02045573480427265, -1.5504057382098217, 0.020387951527730763, 0.02036993085827632, 0.020435253158211708, 0.02038843184709549]","[0.23763230443000793, 0.2392655313014984, 0.24039316177368164, 0.2423962503671646, 0.24152620136737823, 0.2421642541885376]","[0.058228656436479447, -1.5125676703584172, 0.058228656436479447, 0.058228656436479447, 0.058228656436479447, 0.058228656436479447]","[0.058228656436479447, -1.5125676703584172, 0.058228656436479447, 0.058228656436479447, 0.058228656436479447, 0.058228656436479447]",0.002,7,1
0,101,"[0.020997818559408188, -1.5498593107661982, 0.02086526552309209, 0.020836396808288526, 0.020884161815047264, 0.020866699516773224]","[0.23923620581626892, 0.24258805811405182, 0.24406272172927856, 0.2458556741476059, 0.24561578035354614, 0.2440175712108612]","[0.0588053988607035, -1.511990927934193, 0.0588053988607035, 0.0588053988607035, 0.0588053988607035, 0.0588053988607035]","[0.0588053988607035, -1.511990927934193, 0.0588053988607035, 0.0588053988607035, 0.0588053988607035, 0.0588053988607035]",0.002,7,1
0,102,"[0.02153359353542328, -1.5494443339160462, 0.021314446126119435, 0.021303220386169386, 0.02140899933874607, 0.021412767469882965]","[0.24325841665267944, 0.24355649948120117, 0.24571841955184937, 0.24680384993553162, 0.24732272326946259, 0.2478104829788208]","[0.0593819761093043, -1.5114143506855922, 0.0593819761093043, 0.0593819761093043, 0.0593819761093043, 0.0593819761093043]","[0.0593819761093043, -1.5114143506855922, 0.0593819761093043, 0.0593819761093043, 0.0593819761093043, 0.0593819761093043]",0.002,7,1
0,103,"[0.021994508802890778, -1.5489579078606148, 0.021799389516012013, 0.021789355868957472, 0.02195149101316929, 0.021904297173023224]","[0.246369868516922, 0.24806517362594604, 0.2483670711517334, 0.24972231686115265, 0.2495863139629364, 0.24813702702522278]","[0.059958386562762055, -1.5108379402321346, 0.059958386562762055, 0.059958386562762055, 0.059958386562762055, 0.059958386562762055]","[0.059958386562762055, -1.5108379402321346, 0.059958386562762055, 0.059958386562762055, 0.059958386562762055, 0.059958386562762055]",0.002,7,1
0,104,"[0.022448044270277023, -1.5484061644277354, 0.022303406392232716, 0.022320910091064405, 0.02235923707485199, 0.02240363508462906]","[0.24707186222076416, 0.24921120703220367, 0.249038964509964, 0.2532682716846466, 0.252275288105011, 0.24962148070335388]","[0.06053462860202547, -1.5102616981928711, 0.06053462860202547, 0.06053462860202547, 0.06053462860202547, 0.06053462860202547]","[0.06053462860202547, -1.5102616981928711, 0.06053462860202547, 0.06053462860202547, 0.06053462860202547, 0.06053462860202547]",0.002,7,1
0,105,"[0.023001885041594505, -1.5479007058641692, 0.022857014332906544, 0.022826953525207472, 0.02288154326379299, 0.022966155782341957]","[0.2520504593849182, 0.24985459446907043, 0.2514796555042267, 0.2554589509963989, 0.2530422508716583, 0.25300413370132446]","[0.061110700608516366, -1.5096856261863802, 0.061110700608516366, 0.061110700608516366, 0.061110700608516366, 0.061110700608516366]","[0.061110700608516366, -1.5096856261863802, 0.061110700608516366, 0.061110700608516366, 0.061110700608516366, 0.061110700608516366]",0.002,7,1
0,106,"[0.02348841354250908, -1.5474315148643036, 0.023290459309713185, 0.02329210817303462, 0.02344280481338501, 0.02341572195291519]","[0.25371789932250977, 0.2524506449699402, 0.2557385563850403, 0.258065402507782, 0.2564191222190857, 0.2555566132068634]","[0.061686600964134086, -1.5091097258307624, 0.061686600964134086, 0.061686600964134086, 0.061686600964134086, 0.061686600964134086]","[0.061686600964134086, -1.5091097258307624, 0.061686600964134086, 0.061686600964134086, 0.061686600964134086, 0.061686600964134086]",0.002,7,1
0,107,"[0.024036437273025513, -1.5468233910254021, 0.023811165486470998, 0.0237697797962646, 0.02394251711666584, 0.02391498163342476]","[0.2563217580318451, 0.2554185390472412, 0.2544843554496765, 0.26024869084358215, 0.25815683603286743, 0.2575547397136688]","[0.06226232805126016, -1.5085339987436364, 0.06226232805126016, 0.06226232805126016, 0.06226232805126016, 0.06226232805126016]","[0.06226232805126016, -1.5085339987436364, 0.06226232805126016, 0.06226232805126016, 0.06226232805126016, 0.06226232805126016]",0.002,7,1
0,108,"[0.02453796938061714, -1.5463450954160471, 0.024328533803121388, 0.024259133929870558, 0.02446315810084343, 0.024492135271430016]","[0.25758033990859985, 0.25598207116127014, 0.25717636942863464, 0.26371946930885315, 0.25872907042503357, 0.2591201364994049]","[0.06283788025276278, -1.5079584465421338, 0.06283788025276278, 0.06283788025276278, 0.06283788025276278, 0.06283788025276278]","[0.06283788025276278, -1.5079584465421338, 0.06283788025276278, 0.06283788025276278, 0.06283788025276278, 0.06283788025276278]",0.002,7,1
0,109,"[0.025028260424733162, -1.5458381560495873, 0.024823490773336232, 0.024744196529052687, 0.024996653199195862, 0.024991430342197418]","[0.25923317670822144, 0.25855833292007446, 0.2623843252658844, 0.26675623655319214, 0.26225435733795166, 0.26125916838645935]","[0.06341325595200138, -1.5073830708428952, 0.06341325595200138, 0.06341325595200138, 0.06341325595200138, 0.06341325595200138]","[0.06341325595200138, -1.5073830708428952, 0.06341325595200138, 0.06341325595200138, 0.06341325595200138, 0.06341325595200138]",0.002,7,1
0,110,"[0.02559577487409115, -1.5452942822924634, 0.0253680388080042, 0.025328322047851515, 0.02549138478934765, 0.025518788024783134]","[0.26150479912757874, 0.26077941060066223, 0.2618216574192047, 0.2680274248123169, 0.2653920352458954, 0.26319727301597595]","[0.06398845353283117, -1.5068078732620653, 0.06398845353283117, 0.06398845353283117, 0.06398845353283117, 0.06398845353283117]","[0.06398845353283117, -1.5068078732620653, 0.06398845353283117, 0.06398845353283117, 0.06398845353283117, 0.06398845353283117]",0.002,7,1
0,111,"[0.026045775040984154, -1.5447374650141974, 0.025901142750875294, 0.02587835370983882, 0.02602553367614746, 0.02607523463666439]","[0.2642093300819397, 0.26248031854629517, 0.2649223804473877, 0.2691580355167389, 0.2668476104736328, 0.2641454339027405]","[0.06456347137960762, -1.5062328554152888, 0.06456347137960762, 0.06456347137960762, 0.06456347137960762, 0.06456347137960762]","[0.06456347137960762, -1.5062328554152888, 0.06456347137960762, 0.06456347137960762, 0.06456347137960762, 0.06456347137960762]",0.002,7,1
0,112,"[0.026567703112959862, -1.544202198540308, 0.026441399251119435, 0.026414676303527784, 0.026567211374640465, 0.026647983118891716]","[0.2667103111743927, 0.26521024107933044, 0.26870712637901306, 0.27298063039779663, 0.26798203587532043, 0.266416996717453]","[0.06513830787719112, -1.5056580189177053, 0.06513830787719112, 0.06513830787719112, 0.06513830787719112, 0.06513830787719112]","[0.06513830787719112, -1.5056580189177053, 0.06513830787719112, 0.06513830787719112, 0.06513830787719112, 0.06513830787719112]",0.002,7,1
0,113,"[0.027124322950839996, -1.5436390482685347, 0.027000252400533498, 0.026940985316894484, 0.02713620848953724, 0.02710968442261219]","[0.26831692457199097, 0.2665502727031708, 0.27144208550453186, 0.2765938639640808, 0.2710731625556946, 0.27024418115615845]","[0.06571296141095137, -1.5050833653839453, 0.06571296141095137, 0.06571296141095137, 0.06571296141095137, 0.06571296141095137]","[0.06571296141095137, -1.5050833653839453, 0.06571296141095137, 0.06571296141095137, 0.06571296141095137, 0.06571296141095137]",0.002,7,1
0,114,"[0.0276469849050045, -1.5430840098163863, 0.027553860341207326, 0.027495308513305616, 0.027638593688607216, 0.02769755944609642]","[0.27076026797294617, 0.270759254693985, 0.27236872911453247, 0.27775245904922485, 0.27107182145118713, 0.27285951375961304]","[0.06628743036677205, -1.5045088964281246, 0.06628743036677205, 0.06628743036677205, 0.06628743036677205, 0.06628743036677205]","[0.06628743036677205, -1.5045088964281246, 0.06628743036677205, 0.06628743036677205, 0.06628743036677205, 0.06628743036677205]",0.002,7,1
0,115,"[0.02813711203634739, -1.5425161377391596, 0.028093640004293263, 0.028036876315734816, 0.02824503183364868, 0.02822525054216385]","[0.2755996286869049, 0.27126699686050415, 0.27542904019355774, 0.2792508602142334, 0.2749273478984833, 0.27457699179649353]","[0.06686171313105525, -1.5039346136638414, 0.06686171313105525, 0.06686171313105525, 0.06686171313105525, 0.06686171313105525]","[0.06686171313105525, -1.5039346136638414, 0.06686171313105525, 0.06686171313105525, 0.06686171313105525, 0.06686171313105525]",0.002,7,1
0,116,"[0.028716063126921654, -1.541989892055728, 0.028632465993062794, 0.028607292766235304, 0.028771571815013885, 0.02880288101732731]","[0.2762100398540497, 0.2741594910621643, 0.27687332034111023, 0.2802850008010864, 0.2782205641269684, 0.27608421444892883]","[0.0674358080907261, -1.5033605187041705, 0.0674358080907261, 0.0674358080907261, 0.0674358080907261, 0.0674358080907261]","[0.0674358080907261, -1.5033605187041705, 0.0674358080907261, 0.0674358080907261, 0.0674358080907261, 0.0674358080907261]",0.002,7,1
0,117,"[0.029289541766047478, -1.5414049339345475, 0.029271427785054982, 0.029210014934204054, 0.0294355358928442, 0.0293667484074831]","[0.27968382835388184, 0.2756097614765167, 0.27993735671043396, 0.28400036692619324, 0.2791745662689209, 0.2785959243774414]","[0.06800971363323713, -1.5027866131616594, 0.06800971363323713, 0.06800971363323713, 0.06800971363323713, 0.06800971363323713]","[0.06800971363323713, -1.5027866131616594, 0.06800971363323713, 0.06800971363323713, 0.06800971363323713, 0.06800971363323713]",0.002,7,1
0,118,"[0.029835786670446396, -1.5409113515964528, 0.02983266512026006, 0.029701991672180128, 0.02999788522720337, 0.029958734288811684]","[0.2818669080734253, 0.27736544609069824, 0.28203997015953064, 0.28650030493736267, 0.2811123728752136, 0.27767878770828247]","[0.06858342814657303, -1.5022128986483234, 0.06858342814657303, 0.06858342814657303, 0.06858342814657303, 0.06858342814657303]","[0.06858342814657303, -1.5022128986483234, 0.06858342814657303, 0.06858342814657303, 0.06858342814657303, 0.06858342814657303]",0.002,7,1
0,119,"[0.030394069850444794, -1.5402793039432545, 0.03037435213197881, 0.030325337047241163, 0.03050176054239273, 0.03047267347574234]","[0.28489017486572266, 0.28108927607536316, 0.2838056683540344, 0.2885807752609253, 0.2809869349002838, 0.2810610830783844]","[0.06915695001925502, -1.5016393767756415, 0.06915695001925502, 0.06915695001925502, 0.06915695001925502, 0.06915695001925502]","[0.06915695001925502, -1.5016393767756415, 0.06915695001925502, 0.06915695001925502, 0.06915695001925502, 0.06915695001925502]",0.002,7,1
0,120,"[0.03090459667146206, -1.5397348937443276, 0.03095895448793584, 0.03088633596386714, 0.031081143766641617, 0.031052984297275543]","[0.28488290309906006, 0.2807255685329437, 0.2868247330188751, 0.2894352972507477, 0.2840482294559479, 0.2848356366157532]","[0.06973027764034544, -1.501066049154551, 0.06973027764034544, 0.06973027764034544, 0.06973027764034544, 0.06973027764034544]","[0.06973027764034544, -1.501066049154551, 0.06973027764034544, 0.06973027764034544, 0.06973027764034544, 0.06973027764034544]",0.002,7,1
0,121,"[0.03153322637081146, -1.539150447850563, 0.03156167665590459, 0.03147952138867183, 0.03165474534034729, 0.03161928802728653]","[0.2867260277271271, 0.2820079028606415, 0.2875021994113922, 0.2917667329311371, 0.2852725088596344, 0.285195529460907]","[0.0703034093994522, -1.5004929173954444, 0.0703034093994522, 0.0703034093994522, 0.0703034093994522, 0.0703034093994522]","[0.0703034093994522, -1.5004929173954444, 0.0703034093994522, 0.0703034093994522, 0.0703034093994522, 0.0703034093994522]",0.002,7,1
0,122,"[0.03209151327610016, -1.5385811378112813, 0.03211433092226201, 0.03204552709545894, 0.03221752494573593, 0.03221586346626282]","[0.2899545431137085, 0.2863037586212158, 0.29008856415748596, 0.2940177023410797, 0.2861408591270447, 0.28571024537086487]","[0.0708763436867334, -1.499919983108163, 0.0708763436867334, 0.0708763436867334, 0.0708763436867334, 0.0708763436867334]","[0.0708763436867334, -1.499919983108163, 0.0708763436867334, 0.0708763436867334, 0.0708763436867334, 0.0708763436867334]",0.002,7,1
0,123,"[0.032631099224090576, -1.5379698512009163, 0.03267366090883428, 0.03267054140057368, 0.032844506204128265, 0.03281299024820328]","[0.2918432652950287, 0.2848493456840515, 0.2893604636192322, 0.2951539158821106, 0.2887774109840393, 0.28649428486824036]","[0.07144907889290184, -1.4993472479019947, 0.07144907889290184, 0.07144907889290184, 0.07144907889290184, 0.07144907889290184]","[0.07144907889290184, -1.4993472479019947, 0.07144907889290184, 0.07144907889290184, 0.07144907889290184, 0.07144907889290184]",0.002,7,1
0,124,"[0.033209942281246185, -1.537381363367178, 0.03327542940248662, 0.03327171384777827, 0.03334413841366768, 0.03334672003984451]","[0.29178735613822937, 0.2880665957927704, 0.2908143103122711, 0.2958694398403168, 0.2883825898170471, 0.2899129390716553]","[0.07202161340922941, -1.498774713385667, 0.07202161340922941, 0.07202161340922941, 0.07202161340922941, 0.07202161340922941]","[0.07202161340922941, -1.498774713385667, 0.07202161340922941, 0.07202161340922941, 0.07202161340922941, 0.07202161340922941]",0.002,7,1
0,125,"[0.03382548317313194, -1.5367937211743374, 0.033873860036031544, 0.03387360155072017, 0.03399983048439026, 0.033964645117521286]","[0.2944965660572052, 0.29051297903060913, 0.2928308844566345, 0.2946953773498535, 0.2913031578063965, 0.2897707223892212]","[0.0725939456275518, -1.4982023811673448, 0.0725939456275518, 0.0725939456275518, 0.0725939456275518, 0.0725939456275518]","[0.0725939456275518, -1.4982023811673448, 0.0725939456275518, 0.0725939456275518, 0.0725939456275518, 0.0725939456275518]",0.002,7,1
0,126,"[0.03438973054289818, -1.53619875506077, 0.0345080534564417, 0.03445427000012202, 0.03461214154958725, 0.03447244316339493]","[0.2944052219390869, 0.28878164291381836, 0.29383033514022827, 0.2964634597301483, 0.29234012961387634, 0.2910652756690979]","[0.07316607394027289, -1.4976302528546237, 0.07316607394027289, 0.07316607394027289, 0.07316607394027289, 0.07316607394027289]","[0.07316607394027289, -1.4976302528546237, 0.07316607394027289, 0.07316607394027289, 0.07316607394027289, 0.07316607394027289]",0.002,7,1
0,127,"[0.03502596914768219, -1.5356677745333691, 0.035117451344625294, 0.03512994825329585, 0.03515557199716568, 0.03512836620211601]","[0.2984623908996582, 0.2951444983482361, 0.2947807013988495, 0.29777124524116516, 0.2938969135284424, 0.29287976026535034]","[0.0737379967403693, -1.4970583300545273, 0.0737379967403693, 0.0737379967403693, 0.0737379967403693, 0.0737379967403693]","[0.0737379967403693, -1.4970583300545273, 0.0737379967403693, 0.0737379967403693, 0.0737379967403693, 0.0737379967403693]",0.002,7,1
0,128,"[0.03565308451652527, -1.5350072656622906, 0.03567725816835576, 0.03576759874310298, 0.035758428275585175, 0.03575349971652031]","[0.29764270782470703, 0.2945210933685303, 0.29700785875320435, 0.2990763187408447, 0.29676902294158936, 0.29575642943382263]","[0.0743097124213949, -1.4964866143735016, 0.0743097124213949, 0.0743097124213949, 0.0743097124213949, 0.0743097124213949]","[0.0743097124213949, -1.4964866143735016, 0.0743097124213949, 0.0743097124213949, 0.0743097124213949, 0.0743097124213949]",0.002,7,1
0,129,"[0.03622342646121979, -1.5345002201250573, 0.03632957140077764, 0.036319418544433546, 0.03630637377500534, 0.036285556852817535]","[0.3017297387123108, 0.2982192933559418, 0.2973366975784302, 0.3003489077091217, 0.2970287501811981, 0.29606524109840393]","[0.07488121937748536, -1.4959151074174113, 0.07488121937748536, 0.07488121937748536, 0.07488121937748536, 0.07488121937748536]","[0.07488121937748536, -1.4959151074174113, 0.07488121937748536, 0.07488121937748536, 0.07488121937748536, 0.07488121937748536]",0.002,7,1
0,130,"[0.03681641444563866, -1.533875824218132, 0.03686887422670537, 0.03696219503369136, 0.036951906979084015, 0.03685823827981949]","[0.3010919690132141, 0.29927393794059753, 0.30096501111984253, 0.3010599911212921, 0.2965358793735504, 0.2980610132217407]","[0.07545251600336256, -1.495343810791534, 0.07545251600336256, 0.07545251600336256, 0.07545251600336256, 0.07545251600336256]","[0.07545251600336256, -1.495343810791534, 0.07545251600336256, 0.07545251600336256, 0.07545251600336256, 0.07545251600336256]",0.002,7,1
0,131,"[0.037495896220207214, -1.533264410947897, 0.037517849599019826, 0.03753332673992915, 0.037583205848932266, 0.03746575489640236]","[0.30516478419303894, 0.3009051978588104, 0.30123090744018555, 0.3017134964466095, 0.29955601692199707, 0.30255094170570374]","[0.07602360069433926, -1.4947727261005572, 0.07602360069433926, 0.07602360069433926, 0.07602360069433926, 0.07602360069433926]","[0.07602360069433926, -1.4947727261005572, 0.07602360069433926, 0.07602360069433926, 0.07602360069433926, 0.07602360069433926]",0.002,7,1
0,132,"[0.03809618577361107, -1.5327133995345612, 0.03814393678774053, 0.038155003184936476, 0.03812137246131897, 0.0380714051425457]","[0.30280327796936035, 0.30205875635147095, 0.30357909202575684, 0.3015606701374054, 0.30151963233947754, 0.301276296377182]","[0.07659447184632341, -1.4942018549485732, 0.07659447184632341, 0.07659447184632341, 0.07659447184632341, 0.07659447184632341]","[0.07659447184632341, -1.4942018549485732, 0.07659447184632341, 0.07659447184632341, 0.07659447184632341, 0.07659447184632341]",0.002,7,1
0,133,"[0.03873243182897568, -1.5320682276836415, 0.038701836262838185, 0.03879313051190181, 0.0387919582426548, 0.03866187483072281]","[0.3055899739265442, 0.30487775802612305, 0.3043527901172638, 0.30361494421958923, 0.30097049474716187, 0.3039039373397827]","[0.07716512785582286, -1.4936311989390738, 0.07716512785582286, 0.07716512785582286, 0.07716512785582286, 0.07716512785582286]","[0.07716512785582286, -1.4936311989390738, 0.07716512785582286, 0.07716512785582286, 0.07716512785582286, 0.07716512785582286]",0.002,7,1
0,134,"[0.03929373249411583, -1.531470203106739, 0.03933889070619756, 0.039418264026306105, 0.03929741680622101, 0.039311181753873825]","[0.3058989942073822, 0.3063642978668213, 0.30675458908081055, 0.30432265996932983, 0.30588895082473755, 0.3060765564441681]","[0.07773556711994968, -1.4930607596749468, 0.07773556711994968, 0.07773556711994968, 0.07773556711994968, 0.07773556711994968]","[0.07773556711994968, -1.4930607596749468, 0.07773556711994968, 0.07773556711994968, 0.07773556711994968, 0.07773556711994968]",0.002,7,1
0,135,"[0.03994498401880264, -1.5308825236609955, 0.03995353380312139, 0.04008881628002925, 0.03994588926434517, 0.039880670607089996]","[0.3081035315990448, 0.30599331855773926, 0.3047464191913605, 0.3055921196937561, 0.30788466334342957, 0.30987057089805603]","[0.07830578803642478, -1.4924905387584717, 0.07830578803642478, 0.07830578803642478, 0.07830578803642478, 0.07830578803642478]","[0.07830578803642478, -1.4924905387584717, 0.07830578803642478, 0.07830578803642478, 0.07830578803642478, 0.07830578803642478]",0.002,7,1
0,136,"[0.04053007811307907, -1.5302170042744656, 0.04059774080385381, 0.04063491403546138, 0.040603652596473694, 0.04052997753024101]","[0.31094104051589966, 0.30967286229133606, 0.3089337944984436, 0.3059253990650177, 0.3082340657711029, 0.310430645942688]","[0.0788757890035824, -1.491920537791314, 0.0788757890035824, 0.0788757890035824, 0.0788757890035824, 0.0788757890035824]","[0.0788757890035824, -1.491920537791314, 0.0788757890035824, 0.0788757890035824, 0.0788757890035824, 0.0788757890035824]",0.002,7,1
0,137,"[0.0411948561668396, -1.5296790537289162, 0.041210476552144826, 0.04135088502850337, 0.041141778230667114, 0.04112497717142105]","[0.3091168701648712, 0.3101053237915039, 0.3098474144935608, 0.30843573808670044, 0.3076621890068054, 0.31175121665000916]","[0.07944556842037453, -1.491350758374522, 0.07944556842037453, 0.07944556842037453, 0.07944556842037453, 0.07944556842037453]","[0.07944556842037453, -1.491350758374522, 0.07944556842037453, 0.07944556842037453, 0.07944556842037453, 0.07944556842037453]",0.002,7,1
0,138,"[0.0418069064617157, -1.529074889873602, 0.04183561006654912, 0.04200558244671626, 0.04183143004775047, 0.0417126789689064]","[0.31120041012763977, 0.30916497111320496, 0.31050756573677063, 0.30896440148353577, 0.3095950484275818, 0.31199097633361816]","[0.08001512468637552, -1.490781202108521, 0.08001512468637552, 0.08001512468637552, 0.08001512468637552, 0.08001512468637552]","[0.08001512468637552, -1.490781202108521, 0.08001512468637552, 0.08001512468637552, 0.08001512468637552, 0.08001512468637552]",0.002,7,1
0,139,"[0.04238327965140343, -1.5284349669567128, 0.04240113893617803, 0.04263894140209956, 0.04244229942560196, 0.042296089231967926]","[0.3115619122982025, 0.31094229221343994, 0.310415655374527, 0.31019172072410583, 0.31144365668296814, 0.3139629662036896]","[0.08058445620178649, -1.49021187059311, 0.08058445620178649, 0.08058445620178649, 0.08058445620178649, 0.08058445620178649]","[0.08058445620178649, -1.49021187059311, 0.08058445620178649, 0.08058445620178649, 0.08058445620178649, 0.08058445620178649]",0.002,7,1
0,140,"[0.04302982613444328, -1.5277900484255333, 0.0430377165423792, 0.043206854457519484, 0.043011944741010666, 0.04295579344034195]","[0.3148610591888428, 0.3135848343372345, 0.31154799461364746, 0.3103359639644623, 0.31389155983924866, 0.3150821626186371]","[0.08115356136743981, -1.4896427654274567, 0.08115356136743981, 0.08115356136743981, 0.08115356136743981, 0.08115356136743981]","[0.08115356136743981, -1.4896427654274567, 0.08115356136743981, 0.08115356136743981, 0.08115356136743981, 0.08115356136743981]",0.002,7,1
0,141,"[0.043722983449697495, -1.5272112649730225, 0.04368144670595342, 0.04385201513256831, 0.043669480830430984, 0.043551161885261536]","[0.3148704469203949, 0.31138524413108826, 0.3140987455844879, 0.3092648983001709, 0.31586122512817383, 0.3169783651828766]","[0.08172243858480373, -1.489073888210093, 0.08172243858480373, 0.08172243858480373, 0.08172243858480373, 0.08172243858480373]","[0.08172243858480373, -1.489073888210093, 0.08172243858480373, 0.08172243858480373, 0.08172243858480373, 0.08172243858480373]",0.002,7,1
0,142,"[0.04430500045418739, -1.526607171898224, 0.04430610338319951, 0.04447845994915767, 0.044265348464250565, 0.0442260317504406]","[0.31538480520248413, 0.3134128153324127, 0.3118322491645813, 0.3090762495994568, 0.3152402639389038, 0.31660833954811096]","[0.08229108625598669, -1.4885052405389099, 0.08229108625598669, 0.08229108625598669, 0.08229108625598669, 0.08229108625598669]","[0.08229108625598669, -1.4885052405389099, 0.08229108625598669, 0.08229108625598669, 0.08229108625598669, 0.08229108625598669]",0.002,7,1
0,143,"[0.0449456125497818, -1.5259688806584855, 0.04493934312929326, 0.0451475816914062, 0.04492978751659393, 0.04481618106365204]","[0.3167269229888916, 0.31500205397605896, 0.3141745626926422, 0.3105916976928711, 0.31766387820243835, 0.31884947419166565]","[0.0828595027837419, -1.4879368240111546, 0.0828595027837419, 0.0828595027837419, 0.0828595027837419, 0.0828595027837419]","[0.0828595027837419, -1.4879368240111546, 0.0828595027837419, 0.0828595027837419, 0.0828595027837419, 0.0828595027837419]",0.002,7,1
0,144,"[0.04559381678700447, -1.5253363710692902, 0.04553252855409795, 0.045756621951721144, 0.04551072046160698, 0.04547180235385895]","[0.31543785333633423, 0.31594130396842957, 0.3160051107406616, 0.3100745975971222, 0.31819266080856323, 0.3202841281890869]","[0.08342768657147188, -1.4873686402234247, 0.08342768657147188, 0.08342768657147188, 0.08342768657147188, 0.08342768657147188]","[0.08342768657147188, -1.4873686402234247, 0.08342768657147188, 0.08342768657147188, 0.08342768657147188, 0.08342768657147188]",0.002,7,1
0,145,"[0.04617733508348465, -1.5246800941279908, 0.04616386095155889, 0.04639284193005366, 0.046187400817871094, 0.04608346149325371]","[0.31980735063552856, 0.3173779547214508, 0.31555137038230896, 0.3118996322154999, 0.31806808710098267, 0.322734534740448]","[0.0839956360232328, -1.4868006907716638, 0.0839956360232328, 0.0839956360232328, 0.0839956360232328, 0.0839956360232328]","[0.0839956360232328, -1.4868006907716638, 0.0839956360232328, 0.0839956360232328, 0.0839956360232328, 0.0839956360232328]",0.002,7,1
