Arnibjarnst/BoxLift/logs/ur_rtde/trajectory_dur=7.5_delay=0.0_gain=100_lh=0.05_real.csv
arm_idx,step,actual_q,actual_qd,target_q,expected_q,loop_time,robot_mode,safety_mode
0,-1,"[-0.018041912709371388, -1.588731428185934, -0.018027624115347862, -0.018060402279235888, -0.018035236989156544, -0.01799947420229131]","[0.034459397196769714, 0.03855139762163162, 0.03426603227853775, 0.03551311045885086, 0.03581338748335838, 0.03574059158563614]","[0.0, -1.5707963267948966, 0.0, 0.0, 0.0, 0.0]","[0.0, -1.5707963267948966, 0.0, 0.0, 0.0, 0.0]",0.002,7,1
0,-1,"[-0.017377201710836232, -1.5879665813841761, -0.01737716980278492, -0.017330841427185106, -0.01736480394472295, -0.017328564320699513]","[0.04973261430859566, 0.055103518068790436, 0.050157029181718826, 0.0508965402841568, 0.05117284134030342, 0.051795609295368195]","[0.0, -1.5707963267948966, 0.0, 0.0, 0.0, 0.0]","[0.0, -1.5707963267948966, 0.0, 0.0, 0.0, 0.0]",0.002,7,1
0,-1,"[-0.01643258730043584, -1.5870424709715785, -0.016402726992964745, -0.016404704456665087, -0.016403023396627248, -0.016344372426168263]","[0.06563618034124374, 0.0684824213385582, 0.06698425114154816, 0.06947430223226547, 0.06947603821754456, 0.0694136917591095]","[0.0, -1.5707963267948966, 0.0, 0.0, 0.0, 0.0]","[0.0, -1.5707963267948966, 0.0, 0.0, 0.0, 0.0]",0.002,7,1
0,-1,"[-0.01537496248354131, -1.586008688012594, -0.015361107885837555, -0.015287951832153368, -0.015285317097799123, -0.015323940907613576]","[0.08150576800107956, 0.08044079691171646, 0.08235438168048859, 0.08425173163414001, 0.08631923049688339, 0.08376806974411011]","[0.0, -1.5707963267948966, 0.0, 0.0, 0.0, 0.0]","[0.0, -1.5707963267948966, 0.0, 0.0, 0.0, 0.0]",0.002,7,1
0,-1,"[-0.01468068758119756, -1.5852557621397914, -0.014659760519862175, -0.014559463863708544, -0.01456004778017217, -0.01452953020204717]","[0.08985649794340134, 0.08805041760206223, 0.09312152117490768, 0.08997917175292969, 0.09394923597574234, 0.09153967350721359]","[0.0, -1.5707963267948966, 0.0, 0.0, 0.0, 0.0]","[0.0, -1.5707963267948966, 0.0, 0.0, 0.0, 0.0]",0.002,7,1
0,-1,"[-0.013478581105367482, -1.5841309032835902, -0.013524163514375687, -0.013409213428833056, -0.013411347066060841, -0.013349835072652638]","[0.10211601108312607, 0.09917332231998444, 0.10155729949474335, 0.10334139317274094, 0.1027069166302681, 0.10233955830335617]","[0.0, -1.5707963267948966, 0.0, 0.0, 0.0, 0.0]","[0.0, -1.5707963267948966, 0.0, 0.0, 0.0, 0.0]",0.002,7,1
0,-1,"[-0.012349430714742482, -1.5830656490721644, -0.012453874573111534, -0.012350634937622118, -0.01232463518251592, -0.012213055287496388]","[0.11297717690467834, 0.1118958443403244, 0.11332196742296219, 0.11381429433822632, 0.11369888484477997, 0.11237720400094986]","[0.0, -1.5707963267948966, 0.0, 0.0, 0.0, 0.0]","[0.0, -1.5707963267948966, 0.0, 0.0, 0.0, 0.0]",0.002,7,1
0,-1,"[-0.010731045399801076, -1.5814234218993128, -0.010730314068496227, -0.010699228649475145, -0.010588471089498341, -0.010538880025045216]","[0.12630201876163483, 0.12573091685771942, 0.1267794817686081, 0.1293310821056366, 0.12577934563159943, 0.12508325278759003]","[0.0, -1.5707963267948966, 0.0, 0.0, 0.0, 0.0]","[0.0, -1.5707963267948966, 0.0, 0.0, 0.0, 0.0]",0.002,7,1
0,-1,"[-0.00823527971376592, -1.5790311298766078, -0.008390014991164207, -0.00827987611804204, -0.008199993764058888, -0.008145634328023732]","[0.13309265673160553, 0.09126697480678558, 0.11151355504989624, 0.12521018087863922, 0.12735141813755035, 0.12460500001907349]","[0.0, -1.5707963267948966, 0.0, 0.0, 0.0, 0.0]","[0.0, -1.5707963267948966, 0.0, 0.0, 0.0, 0.0]",0.002,7,1
0,-1,"[-0.006808106099263966, -1.5775886974730433, -0.00692236190661788, -0.006849126224853563, -0.0067589918719690445, -0.006673638020650685]","[0.11405859142541885, 0.1318017989397049, 0.12162970751523972, 0.11726323515176773, 0.11410696059465408, 0.11204379796981812]","[0.0, -1.5707963267948966, 0.0, 0.0, 0.0, 0.0]","[0.0, -1.5707963267948966, 0.0, 0.0, 0.0, 0.0]",0.002,7,1
0,-1,"[-0.004010502492086232, -1.574648996392721, -0.004053683951497078, -0.004026488666870165, -0.003853623067037404, -0.0038149992572229507]","[0.08801347017288208, 0.08754640817642212, 0.0901140421628952, 0.09073888510465622, 0.08777058124542236, 0.08834376931190491]","[0.0, -1.5707963267948966, 0.0, 0.0, 0.0, 0.0]","[0.0, -1.5707963267948966, 0.0, 0.0, 0.0, 0.0]",0.002,7,1
0,-1,"[-0.00330526033510381, -1.5740028820433558, -0.0034166118130087852, -0.003351168041564989, -0.0032308737384241226, -0.0032084623919885757]","[0.08056342601776123, 0.0783592239022255, 0.08331708610057831, 0.08368074893951416, 0.07872553914785385, 0.07862113416194916]","[0.0, -1.5707963267948966, 0.0, 0.0, 0.0, 0.0]","[0.0, -1.5707963267948966, 0.0, 0.0, 0.0, 0.0]",0.002,7,1
0,-1,"[-0.0021575132953088882, -1.5728327236571253, -0.0022185654379427433, -0.002193765049316454, -0.0020597616778772476, -0.0020778814898889664]","[0.0671602338552475, 0.06327351927757263, 0.06771031767129898, 0.06720402091741562, 0.06259988993406296, 0.0636485293507576]","[0.0, -1.5707963267948966, 0.0, 0.0, 0.0, 0.0]","[0.0, -1.5707963267948966, 0.0, 0.0, 0.0, 0.0]",0.002,7,1
0,-1,"[-0.0010626951800745132, -1.5718299351134242, -0.0010619551176205277, -0.0010625881007690907, -0.0009411017047327164, -0.0009868780719202164]","[0.047898758202791214, 0.044674064964056015, 0.048244278877973557, 0.04628722369670868, 0.04241489991545677, 0.04466395825147629]","[0.0, -1.5707963267948966, 0.0, 0.0, 0.0, 0.0]","[0.0, -1.5707963267948966, 0.0, 0.0, 0.0, 0.0]",0.002,7,1
0,-1,"[-0.0005748907672327164, -1.5713407001891078, -0.000591746240388602, -0.0005616706660767079, -0.000504795704976857, -0.0005157629596155289]","[0.034393489360809326, 0.0325019471347332, 0.036004889756441116, 0.03473276272416115, 0.03056088462471962, 0.032608501613140106]","[0.0, -1.5707963267948966, 0.0, 0.0, 0.0, 0.0]","[0.0, -1.5707963267948966, 0.0, 0.0, 0.0, 0.0]",0.002,7,1
0,-1,"[-0.00017577806581670075, -1.570869585076803, -7.411336991935968e-05, -0.00011511266741948134, -0.0001214186297815445, -0.00014907518495732575]","[0.016665805131196976, 0.016879556700587273, 0.017412232235074043, 0.01589469239115715, 0.014468700625002384, 0.014539741910994053]","[0.0, -1.5707963267948966, 0.0, 0.0, 0.0, 0.0]","[0.0, -1.5707963267948966, 0.0, 0.0, 0.0, 0.0]",0.002,7,1
0,-1,"[-0.00010949770082646637, -1.5708190403380335, -2.7171057809027843e-05, 1.0176295898389753e-05, -4.1309987203419496e-05, -4.0356312887013246e-05]","[0.009381255134940147, 0.008354551158845425, 0.008137387223541737, 0.007304120343178511, 0.0065354248508811, 0.006682638078927994]","[0.0, -1.5707963267948966, 0.0, 0.0, 0.0, 0.0]","[0.0, -1.5707963267948966, 0.0, 0.0, 0.0, 0.0]",0.002,7,1
0,-1,"[-0.00013810793031865387, -1.5708400211729945, -2.2785068722441792e-05, -8.376062426762587e-05, -8.994737734013825e-05, -4.3217335836231996e-05]","[-0.003656606888398528, 0.011421294882893562, -0.0005345880053937435, -0.0028854520060122013, -0.004288627300411463, -0.003313804045319557]","[0.0, -1.5707963267948966, 0.0, 0.0, 0.0, 0.0]","[0.0, -1.5707963267948966, 0.0, 0.0, 0.0, 0.0]",0.002,7,1
0,-1,"[-5.323091615849762e-05, -1.570843359033102, -2.2785068722441792e-05, -7.636964831547743e-05, -0.00011521974672490387, -6.086031068974762e-05]","[0.0005317801260389388, -0.005510000512003899, -0.0024506193585693836, 0.00020048776059411466, -0.00037088574026711285, -0.0003645086253527552]","[0.0, -1.5707963267948966, 0.0, 0.0, 0.0, 0.0]","[0.0, -1.5707963267948966, 0.0, 0.0, 0.0, 0.0]",0.002,7,1
0,-1,"[-5.418459047490387e-05, -1.5709392033019007, -0.00011624037870205939, -7.183969531254775e-05, -0.00012237230409795075, -9.805360902959137e-05]","[4.32578056708266e-10, -0.0016552244778722525, -0.0010038275504484773, 3.703794493326029e-10, 0.00021456291142385453, -0.00020103809947613627]","[0.0, -1.5707963267948966, 0.0, 0.0, 0.0, 0.0]","[0.0, -1.5707963267948966, 0.0, 0.0, 0.0, 0.0]",0.002,7,1
0,-1,"[-4.083315004521637e-05, -1.570949216882223, -6.611764547415078e-05, -9.270132098393447e-05, -5.3707753316700746e-05, -6.562868227177887e-05]","[2.522656712681125e-21, -0.0018978401785716414, -0.0014784865779802203, 0.00013221772678662091, 0.0007321793236769736, 9.486744966125116e-05]","[0.0, -1.5707963267948966, 0.0, 0.0, 0.0, 0.0]","[0.0, -1.5707963267948966, 0.0, 0.0, 0.0, 0.0]",0.002,7,1
0,-1,"[-7.802644838506012e-05, -1.5709840259947718, -9.872281952993944e-05, -2.248704943852431e-05, -0.000111881886617482, -1.9375477926075746e-05]","[1.4921344870799658e-07, -0.00045966909965500236, -7.64677054121421e-07, 0.0003855964750982821, 0.0006821029237471521, 0.0001268681517103687]","[0.0, -1.5707963267948966, 0.0, 0.0, 0.0, 0.0]","[0.0, -1.5707963267948966, 0.0, 0.0, 0.0, 0.0]",0.002,7,1
0,-1,"[-6.372133363896637e-05, -1.5709101162352503, -7.484590605599806e-05, -4.3110256530809465e-05, -0.00010759035219365387, -6.467500795537262e-05]","[8.701651564819223e-19, 0.0012624927330762148, -4.45935425692083e-18, 0.0004870450356975198, 0.0011036938522011042, 0.0003883556055370718]","[0.0, -1.5707963267948966, 0.0, 0.0, 0.0, 0.0]","[0.0, -1.5707963267948966, 0.0, 0.0, 0.0, 0.0]",0.002,7,1
0,-1,"[-4.846254457646637e-05, -1.5708724460997523, -4.982804966857657e-05, -8.066118273930556e-05, -7.898012270146637e-05, -4.3217335836231996e-05]","[5.074527110013902e-30, 0.000811549078207463, -2.6005534121772573e-29, 0.0005536943790502846, 0.0008758532931096852, 0.00034984597004950047]","[0.0, -1.5707963267948966, 0.0, 0.0, 0.0, 0.0]","[0.0, -1.5707963267948966, 0.0, 0.0, 0.0, 0.0]",0.002,7,1
0,-1,"[-5.5615101949513246e-05, -1.5708724460997523, -0.00010749493958428502, -2.6897793151903215e-05, -8.184114565068512e-05, -6.467500795537262e-05]","[2.2057544854259437e-39, 0.0006185739766806364, -1.130386973645211e-38, 0.000530324992723763, 0.0010307388147339225, 0.0004893098375760019]","[0.0, -1.5707963267948966, 0.0, 0.0, 0.0, 0.0]","[0.0, -1.5707963267948966, 0.0, 0.0, 0.0, 0.0]",0.002,7,1
0,-1,"[-5.418459047490387e-05, -1.570928236047262, -0.00010303000453859568, -3.130853686528212e-05, 4.291534423828125e-06, -5.6568776265919496e-05]","[0.0, 0.00042268403922207654, -0.0, 0.000553537392988801, 0.0010953181190416217, 0.0006102760671637952]","[0.0, -1.5707963267948966, 0.0, 0.0, 0.0, 0.0]","[0.0, -1.5707963267948966, 0.0, 0.0, 0.0, 0.0]",0.002,7,1
0,-1,"[-3.606477846318512e-05, -1.5709225140013636, -0.00011181093577761203, -1.9268398620653215e-05, -6.2290822164357e-05, -6.086031068974762e-05]","[0.0, 0.00010493055742699653, -0.0, 0.0008127522887662053, 0.0008351450087502599, 0.00048803933896124363]","[0.0, -1.5707963267948966, 0.0, 0.0, 0.0, 0.0]","[0.0, -1.5707963267948966, 0.0, 0.0, 0.0, 0.0]",0.002,7,1
0,-1,"[-4.5124684469044496e-05, -1.5708981953062953, -0.000140655436553061, 3.819047894282335e-05, -1.7468129293263246e-05, -5.799928774052887e-05]","[0.00030321048689074814, 1.8492201381823704e-14, -0.0, 0.0005545972962863743, 0.0007714963285252452, 0.000582354492507875]","[0.0, -1.5707963267948966, 0.0, 0.0, 0.0, 0.0]","[0.0, -1.5707963267948966, 0.0, 0.0, 0.0, 0.0]",0.002,7,1
0,-1,"[-1.985231508427887e-05, -1.570916315118307, -4.980157973477617e-05, -1.9387607910203997e-05, 3.901123272953555e-05, 4.291534423828125e-06]","[0.0003253186005167663, 2.604230386718494e-31, -0.0, 0.0003829522174783051, 0.0005244379863142967, 0.0006379030528478324]","[0.0, -1.5707963267948966, 0.0, 0.0, 0.0, 0.0]","[0.0, -1.5707963267948966, 0.0, 0.0, 0.0, 0.0]",0.002,7,1
0,-1,"[-6.181398500615387e-05, -1.57086243251943, -5.18841807206627e-06, -7.466678955125872e-06, -1.732503072560121e-06, -1.6514454976856996e-05]","[0.000278821331448853, 1.5190075353281017e-42, -0.0, 0.0003230183501727879, 0.0003312525514047593, 0.0005242822226136923]","[0.0, -1.5707963267948966, 0.0, 0.0, 0.0, 0.0]","[0.0, -1.5707963267948966, 0.0, 0.0, 0.0, 0.0]",0.002,7,1
0,-1,"[-4.5124684469044496e-05, -1.5708910427489222, -7.173180347308517e-05, -1.1758213378953997e-05, 2.411222340015229e-05, -4.593526021778871e-06]","[0.0003469374787528068, 0.0008255098946392536, -0.0, 0.00024116475833579898, 0.00030949522624723613, 0.00044191256165504456]","[0.0, -1.5707963267948966, 0.0, 0.0, 0.0, 0.0]","[0.0, -1.5707963267948966, 0.0, 0.0, 0.0, 0.0]",0.002,7,1
0,-1,"[2.0454806872294284e-05, -1.570883413354391, -7.17426446499303e-05, -7.466678955125872e-06, -2.557436098271637e-05, -2.5097523824513246e-05]","[0.0006717209471389651, 0.0005281055346131325, 8.38965643197298e-05, 0.0002189153165090829, 0.00023950038303155452, 0.0003269897133577615]","[0.0, -1.5707963267948966, 0.0, 0.0, 0.0, 0.0]","[0.0, -1.5707963267948966, 0.0, 0.0, 0.0, 0.0]",0.002,7,1
0,-1,"[-1.699129213506012e-05, -1.5708981953062953, -6.29425048828125e-05, -1.604974780278212e-05, 2.384185791015625e-06, 2.8594969990081154e-05]","[0.0007032714202068746, 0.00036670250119641423, 6.135523290140554e-05, 0.00017610737995710224, 0.00018866609025280923, 0.00021681477664969862]","[0.0, -1.5707963267948966, 0.0, 0.0, 0.0, 0.0]","[0.0, -1.5707963267948966, 0.0, 0.0, 0.0, 0.0]",0.002,7,1
0,-1,"[2.658367156982422e-05, -1.5709315739073695, -2.589889118098654e-05, -1.9387607910203997e-05, 7.640151306986809e-05, -8.885060445606996e-06]","[0.0009646540856920183, 0.0002808677381835878, 7.047688268357888e-05, 0.000171832405612804, 0.00018523557810112834, 0.00016817841969896108]","[0.0, -1.5707963267948966, 0.0, 0.0, 0.0, 0.0]","[0.0, -1.5707963267948966, 0.0, 0.0, 0.0, 0.0]",0.002,7,1
0,-1,"[2.3433089154423214e-05, -1.5709239445128382, -8.727877866476774e-05, -3.0559352417469654e-06, -1.7468129293263246e-05, 1.2356062143226154e-05]","[-7.250759495036618e-07, 0.00022759605781175196, 4.79459049529396e-05, 0.00016876059817150235, 0.00017994937661569566, 0.00013737074914388359]","[0.0, -1.5707963267948966, 0.0, 0.0, 0.0, 0.0]","[0.0, -1.5707963267948966, 0.0, 0.0, 0.0, 0.0]",0.002,7,1
0,-1,"[2.343308733543381e-05, -1.5708486042418421, -6.739827949786559e-05, -5.7534580566454e-05, 3.603315417421982e-05, -8.885060445606996e-06]","[-1.0211140197203802e-23, 0.0008988445624709129, 9.716775093693286e-05, 0.00012965315545443445, 0.00019375361443962902, 0.00010776246199384332]","[0.0, -1.5707963267948966, 0.0, 0.0, 0.0, 0.0]","[0.0, -1.5707963267948966, 0.0, 0.0, 0.0, 0.0]",0.002,7,1
0,-1,"[-6.276765932256012e-05, -1.5709120235838832, -5.418790897238068e-05, -3.238142047123915e-05, 2.384185791015625e-06, -2.843538393193512e-05]","[-5.954814461031996e-35, 0.000997946597635746, 0.00016426268848590553, 0.00010815403220476583, 0.0001847630919655785, 0.00011302527855150402]","[0.0, -1.5707963267948966, 0.0, 0.0, 0.0, 0.0]","[0.0, -1.5707963267948966, 0.0, 0.0, 0.0, 0.0]",0.002,7,1
0,-1,"[-1.3653432027638246e-05, -1.570874353448385, -4.223227733746171e-05, -1.1758213378953997e-05, 1.0987281712004915e-05, -2.080598940068512e-05]","[0.0, 0.0008127022301778197, 0.00015359932149294764, 8.891906327335164e-05, 0.00016480160411447287, 9.513906115898862e-05]","[0.0, -1.5707963267948966, 0.0, 0.0, 0.0, 0.0]","[0.0, -1.5707963267948966, 0.0, 0.0, 0.0, 0.0]",0.002,7,1
0,-1,"[1.8966198695125058e-05, -1.5708171329894007, -3.908324288204312e-05, -4.128818847703997e-06, 5.0950049626408145e-05, -1.3176594869435121e-05]","[0.0, 0.0006732087349519134, 0.00015307455032598227, 7.949423888931051e-05, 0.00014244466728996485, 8.604321192251518e-05]","[0.0, -1.5707963267948966, 0.0, 0.0, 0.0, 0.0]","[0.0, -1.5707963267948966, 0.0, 0.0, 0.0, 0.0]",0.002,7,1
0,-1,"[2.7855752705363557e-05, -1.570904394189352, -6.293378828559071e-05, 4.454249999952253e-06, 1.5362262274720706e-05, 1.2311457794567104e-05]","[0.0, 0.0004024977679364383, 0.00018392868514638394, 6.858941924292594e-05, 0.0001352673425571993, 8.77936981851235e-05]","[0.0, -1.5707963267948966, 0.0, 0.0, 0.0, 0.0]","[0.0, -1.5707963267948966, 0.0, 0.0, 0.0, 0.0]",0.002,7,1
0,-1,"[2.6226043701171875e-06, -1.570850511590475, -4.224108124617487e-05, -4.128818847703997e-06, 3.165817179251462e-05, -1.794496645146637e-05]","[0.0, 0.0002879871753975749, 0.0001765218621585518, 6.284220580710098e-05, 0.00012156421144027263, 8.101941784843802e-05]","[0.0, -1.5707963267948966, 0.0, 0.0, 0.0, 0.0]","[0.0, -1.5707963267948966, 0.0, 0.0, 0.0, 0.0]",0.002,7,1
0,-1,"[7.089495284162695e-06, -1.5708052120604457, -4.6574521547881886e-05, -4.128818847703997e-06, 1.5362262274720706e-05, -8.885060445606996e-06]","[0.0, 0.0011183455353602767, 0.0002787595731206238, 5.582589074037969e-05, 0.00010552843741606921, 7.261493010446429e-05]","[0.0, -1.5707963267948966, 0.0, 0.0, 0.0, 0.0]","[0.0, -1.5707963267948966, 0.0, 0.0, 0.0, 0.0]",0.002,7,1
0,-1,"[-9.361897603810121e-06, -1.5707815237104406, -4.659213300328702e-05, 2.507745709223741e-05, 1.0987281712004915e-05, -2.080598940068512e-05]","[0.0, 0.00048125244211405516, 0.0006303897826001048, 5.195833000470884e-05, 9.699838847154751e-05, 1.4999200459442363e-07]","[0.0, -1.5707963267948966, 0.0, 0.0, 0.0, 0.0]","[0.0, -1.5707963267948966, 0.0, 0.0, 0.0, 0.0]",0.002,7,1
0,-1,"[2.6226043701171875e-06, -1.5708066425719203, 1.0315571920216371e-05, -2.928197894291884e-05, 2.7283193048788235e-05, 5.70621486986056e-05]","[0.0, 0.00032976618967950344, 0.0005736909224651754, 4.9664624384604394e-05, 9.203871013596654e-05, 2.7260342420898365e-12]","[0.0, -1.5707963267948966, 0.0, 0.0, 0.0, 0.0]","[0.0, -1.5707963267948966, 0.0, 0.0, 0.0, 0.0]",0.002,7,1
0,-1,"[-3.4634266988575746e-05, -1.5708190403380335, -7.611789624206722e-05, 4.573459289503035e-06, 2.0623210730263963e-06, 2.413808942947071e-05]","[0.0, 0.00019028423412237316, 0.0005074187647551298, 3.848059457883801e-12, 8.548233745386824e-05, 2.1121555463295201e-19]","[0.0, -1.5707963267948966, 0.0, 0.0, 0.0, 0.0]","[0.0, -1.5707963267948966, 0.0, 0.0, 0.0, 0.0]",0.002,7,1
0,-1,"[7.089495284162695e-06, -1.5708352528014125, -3.149286931147799e-05, 4.573459289503035e-06, -2.175966371709137e-05, -8.885060445606996e-06]","[0.0, -5.3895710152573884e-05, 0.00042621971806511283, 2.9815102209075054e-19, 7.979798829182982e-05, 1.6365169079330682e-26]","[0.0, -1.5707963267948966, 0.0, 0.0, 0.0, 0.0]","[0.0, -1.5707963267948966, 0.0, 0.0, 0.0, 0.0]",0.002,7,1
0,-1,"[-9.361897603810121e-06, -1.570834299127096, -2.7179718017578125e-05, 2.0785922668409285e-05, 1.536226409371011e-05, -1.6514454976856996e-05]","[0.0, -3.982115231337957e-05, 0.00034769499325193465, 2.3100996585516288e-26, 1.2196692440735735e-11, 1.2679877564747546e-33]","[0.0, -1.5707963267948966, 0.0, 0.0, 0.0, 0.0]","[0.0, -1.5707963267948966, 0.0, 0.0, 0.0, 0.0]",0.002,7,1
0,-1,"[8.106231689453125e-06, -1.5708385906615199, -1.4746969100087881e-05, 4.454249999952253e-06, -2.209340230763246e-06, -2.080598940068512e-05]","[0.0, -3.146706512779929e-05, 0.00033907219767570496, 1.789885575062757e-33, 9.450103194620985e-19, 9.824503533381292e-41]","[0.0, -1.5707963267948966, 0.0, 0.0, 0.0, 0.0]","[0.0, -1.5707963267948966, 0.0, 0.0, 0.0, 0.0]",0.002,7,1
0,-1,"[-1.0315571920216371e-05, -1.5708686314024867, -7.194341378635727e-06, 1.637517895503038e-05, -1.7468129293263246e-05, 3.337860107421875e-06]","[0.0, -1.6608477769463492e-16, 0.0008455788483843207, 3.923635700109488e-44, 2.0381134076251926e-29, 0.0]","[0.0, -1.5707963267948966, 0.0, 0.0, 0.0, 0.0]","[0.0, -1.5707963267948966, 0.0, 0.0, 0.0, 0.0]",0.002,7,1
0,-1,"[2.6226043701171875e-06, -1.570790568533841, -3.594303416321054e-05, 1.3156528137159285e-05, 3.165817179251462e-05, -7.788287561538709e-07]","[0.0, -9.685535394097436e-28, 0.0003568821703083813, 0.0, 1.7118043871278132e-08, 0.0]","[0.0, -1.5707963267948966, 0.0, 0.0, 0.0, 0.0]","[0.0, -1.5707963267948966, 0.0, 0.0, 0.0, 0.0]",0.002,7,1
0,-1,"[-1.732503072560121e-06, -1.5708524189391078, -1.916788096423261e-05, 2.519666638178819e-05, 1.538658034405671e-05, 1.087188684323337e-05]","[0.0, 0.0, 2.2053813562638373e-24, 0.0, 4.3810129928547535e-25, 0.0]","[0.0, -1.5707963267948966, 0.0, 0.0, 0.0, 0.0]","[0.0, -1.5707963267948966, 0.0, 0.0, 0.0, 0.0]",0.002,7,1
0,-1,"[1.602327756700106e-05, -1.5708385906615199, -1.9185408746125177e-05, -2.0460491516161028e-05, 5.532503200811334e-05, 3.6003984860144556e-05]","[0.0, 0.0, 4.161856439044707e-43, 0.0, 6.169247205652345e-37, 0.0]","[0.0, -1.5707963267948966, 0.0, 0.0, 0.0, 0.0]","[0.0, -1.5707963267948966, 0.0, 0.0, 0.0, 0.0]",0.002,7,1
0,-1,"[-4.2263661519825746e-05, -1.5708095035948695, -1.846026316343341e-05, 1.637517895503038e-05, -3.0819569722950746e-05, 3.337860107421875e-06]","[0.0, 0.0, -0.0, 0.0, 4.764414778704378e-44, 0.0]","[0.0, -1.5707963267948966, 0.0, 0.0, 0.0, 0.0]","[0.0, -1.5707963267948966, 0.0, 0.0, 0.0, 0.0]",0.002,7,1
0,-1,"[-1.732503072560121e-06, -1.5708338222899378, -1.1641516721283551e-05, -2.4990444519090715e-05, 2.04450680030277e-06, 3.156661841785535e-05]","[0.0, 0.0, -0.0, 0.0, 0.0, 0.0]","[0.0, -1.5707963267948966, 0.0, 0.0, 0.0, 0.0]","[0.0, -1.5707963267948966, 0.0, 0.0, 0.0, 0.0]",0.002,7,1
0,-1,"[2.0445941117941402e-05, -1.5708142719664515, -4.0328875911654904e-05, -8.658771850633684e-06, -6.024037496388246e-06, -3.415742983037262e-05]","[0.0, 0.0, -0.0, 0.0, 0.0, 0.0]","[0.0, -1.5707963267948966, 0.0, 0.0, 0.0, 0.0]","[0.0, -1.5707963267948966, 0.0, 0.0, 0.0, 0.0]",0.002,7,1
0,-1,"[-1.8421803609669496e-05, -1.5708004436888636, 4.7032033101856996e-05, 5.7025546691846785e-05, -1.732503072560121e-06, 6.158822361612692e-05]","[0.0, 0.0, -0.0, 0.0, 0.0, 0.0]","[0.0, -1.5707963267948966, 0.0, 0.0, 0.0, 0.0]","[0.0, -1.5707963267948966, 0.0, 0.0, 0.0, 0.0]",0.002,7,1
0,1,"[-3.034273256474762e-05, -1.5708052120604457, -5.22498921782244e-05, 2.0785922668409285e-05, -1.732503072560121e-06, -1.794496645146637e-05]","[0.0, 0.0, -0.0, 0.0, 0.0, 0.0]","[0.0005850211778378632, -1.5702113056170588, 0.0005850211778378632, 0.0005850211778378632, 0.0005850211778378632, 0.0005850211778378632]","[0.0005850211778378632, -1.5702113056170588, 0.0005850211778378632, 0.0005850211778378632, 0.0005850211778378632, 0.0005850211778378632]",0.002,7,1
0,2,"[2.7855752705363557e-05, -1.5707975826659144, -2.357125049456954e-05, 1.2083644531202253e-05, -3.8448964254200746e-05, -3.8448964254200746e-05]","[0.0, 0.0, -0.0, 0.0, 0.0, 0.0]","[0.0011700407124382083, -1.5696262860824584, 0.0011700407124382083, 0.0011700407124382083, 0.0011700407124382083, 0.0011700407124382083]","[0.0011700407124382083, -1.5696262860824584, 0.0011700407124382083, 0.0011700407124382083, 0.0011700407124382083, 0.0011700407124382083]",0.002,7,1
0,3,"[-3.4634266988575746e-05, -1.5707467126888623, -7.27328688299167e-06, 2.0785922668409285e-05, 2.7307509299134836e-05, 7.821430699550547e-06]","[0.0, 0.0, -0.0, 0.0, 0.0, 0.0]","[0.0017550569605681327, -1.5690412698343283, 0.0017550569605681327, 0.0017550569605681327, 0.0017550569605681327, 0.0017550569605681327]","[0.0017550569605681327, -1.5690412698343283, 0.0017550569605681327, 0.0017550569605681327, 0.0017550569605681327, 0.0017550569605681327]",0.002,7,1
0,4,"[-3.034273256474762e-05, -1.570796327, -2.3562532078358345e-05, 3.771364178462022e-05, -6.024037496388246e-06, 1.5249973330355715e-05]","[0.0, 0.00016743868764024228, -0.0, 0.0, 0.0, 4.388092293083901e-06]","[0.0023400682790039656, -1.5684562585158925, 0.0023400682790039656, 0.0023400682790039656, 0.0023400682790039656, 0.0023400682790039656]","[0.0023400682790039656, -1.5684562585158925, 0.0023400682790039656, 0.0023400682790039656, 0.0023400682790039656, 0.0023400682790039656]",0.002,7,1
0,5,"[-6.024037496388246e-06, -1.5708095035948695, 5.3707753316700746e-05, 1.2083644531202253e-05, 2.384185791015625e-06, 2.8559596103150398e-05]","[0.0, 0.0014723323984071612, 0.0007899157935753465, 2.2280601115198806e-06, 8.841080853017047e-05, 1.2214423916745432e-09]","[0.0029250730245358814, -1.5678712537703607, 0.0029250730245358814, 0.0029250730245358814, 0.0029250730245358814, 0.0029250730245358814]","[0.0029250730245358814, -1.5678712537703607, 0.0029250730245358814, 0.0029250730245358814, 0.0029250730245358814, 0.0029250730245358814]",0.002,7,1
0,6,"[-9.361897603810121e-06, -1.5707740107121317, 1.255665914356996e-06, 4.0813083312940535e-05, 8.396859630011022e-05, 1.9660692487377673e-05]","[0.0027060615830123425, 0.006814030930399895, 0.005373325198888779, 0.001635842490941286, 0.005518204532563686, 0.004893697798252106]","[0.0035100695539725195, -1.567286257240924, 0.0035100695539725195, 0.0035100695539725195, 0.0035100695539725195, 0.0035100695539725195]","[0.0035100695539725195, -1.567286257240924, 0.0035100695539725195, 0.0035100695539725195, 0.0035100695539725195, 0.0035100695539725195]",0.002,7,1
0,7,"[-1.8421803609669496e-05, -1.5707994900145472, 4.6078358785450746e-05, 2.901136364741319e-05, 4.105949483346194e-05, 0.00010168104199692607]","[0.0042874934151768684, 0.006551585625857115, 0.005123802926391363, 0.004837213549762964, 0.00535516208037734, 0.005230874288827181]","[0.004095056224145594, -1.566701270570751, 0.004095056224145594, 0.004095056224145594, 0.004095056224145594, 0.004095056224145594]","[0.004095056224145594, -1.566701270570751, 0.004095056224145594, 0.004095056224145594, 0.004095056224145594, 0.004095056224145594]",0.002,7,1
0,8,"[2.613693368402892e-06, -1.570769459609739, 3.701845277959137e-05, 1.6271557612412835e-07, 3.7746514863101766e-05, 4.383464329293929e-05]","[0.004319325089454651, 0.00627888785675168, 0.005451170727610588, 0.004868832416832447, 0.005862274207174778, 0.005312761291861534]","[0.004680031391914515, -1.5661162954029821, 0.004680031391914515, 0.004680031391914515, 0.004680031391914515, 0.004680031391914515]","[0.004680031391914515, -1.5661162954029821, 0.004680031391914515, 0.004680031391914515, 0.004680031391914515, 0.004680031391914515]",0.002,7,1
0,9,"[-1.8421803609669496e-05, -1.5707546037486573, 5.704561342412262e-05, 1.5779132507276472e-05, 5.8830861235037446e-05, 6.458043935708702e-05]","[0.004428757820278406, 0.006176387425512075, 0.005424987990409136, 0.004523710813373327, 0.006434701383113861, 0.005561404395848513]","[0.0052649934141709995, -1.5655313333807255, 0.0052649934141709995, 0.0052649934141709995, 0.0052649934141709995, 0.0052649934141709995]","[0.0052649934141709995, -1.5655313333807255, 0.0052649934141709995, 0.0052649934141709995, 0.0052649934141709995, 0.0052649934141709995]",0.002,7,1
0,10,"[2.2149084543343633e-05, -1.5707683295080024, 4.941621889287262e-05, 0.00010578214611811632, 6.628036499023438e-05, 7.511940930271521e-05]","[0.006548347882926464, 0.006449614651501179, 0.007275415118783712, 0.00576209370046854, 0.007735353894531727, 0.006504233460873365]","[0.005849940647843686, -1.564946386147053, 0.005849940647843686, 0.005849940647843686, 0.005849940647843686, 0.005849940647843686]","[0.005849940647843686, -1.564946386147053, 0.005849940647843686, 0.005849940647843686, 0.005849940647843686, 0.005849940647843686]",0.002,7,1
0,11,"[2.2149086362333037e-05, -1.5707184923779387, 0.00013143221010381012, 6.894647564692491e-05, 0.00014404079411178827, 4.9869420763570815e-05]","[0.007960693910717964, 0.009598017670214176, 0.009797287173569202, 0.008245796896517277, 0.009372765198349953, 0.008061262778937817]","[0.006434871449902759, -1.5643614553449938, 0.006434871449902759, 0.006434871449902759, 0.006434871449902759, 0.006434871449902759]","[0.006434871449902759, -1.5643614553449938, 0.006434871449902759, 0.006434871449902759, 0.006434871449902759, 0.006434871449902759]",0.002,7,1
0,12,"[1.3235569895186927e-05, -1.5707065624049683, 0.00011855760683232575, 0.0001059013554076671, 0.00011444964911788702, 7.950358121888712e-05]","[0.007813195697963238, 0.012340687215328217, 0.011307979933917522, 0.010801272466778755, 0.010578797198832035, 0.010407418012619019]","[0.007019784177364551, -1.563776542617532, 0.007019784177364551, 0.007019784177364551, 0.007019784177364551, 0.007019784177364551]","[0.007019784177364551, -1.563776542617532, 0.007019784177364551, 0.007019784177364551, 0.007019784177364551, 0.007019784177364551]",0.002,7,1
0,13,"[0.0001074995961971581, -1.5707202428642013, 0.00010139146913701325, 0.00010149061169428819, 0.00013071918510831892, 0.00013182163820602]","[0.009096706286072731, 0.013073522597551346, 0.013316725380718708, 0.011978795751929283, 0.013002581894397736, 0.013465563766658306]","[0.007604677187296164, -1.5631916496076004, 0.007604677187296164, 0.007604677187296164, 0.007604677187296164, 0.007604677187296164]","[0.007604677187296164, -1.5631916496076004, 0.007604677187296164, 0.007604677187296164, 0.007604677187296164, 0.007604677187296164]",0.002,7,1
0,14,"[0.00012401866842992604, -1.5707247728172042, 0.00011283556093388825, 0.0001497703739623546, 0.0001802676561055705, 0.00015148535021580756]","[0.011644605547189713, 0.016583982855081558, 0.015814289450645447, 0.014437587931752205, 0.014852399937808514, 0.015615572221577168]","[0.008189548836820083, -1.5626067779580766, 0.008189548836820083, 0.008189548836820083, 0.008189548836820083, 0.008189548836820083]","[0.008189548836820083, -1.5626067779580766, 0.008189548836820083, 0.008189548836820083, 0.008189548836820083, 0.008189548836820083]",0.002,7,1
0,15,"[0.000126984654343687, -1.570642034017812, 0.00019056001772099762, 0.00025181352581782335, 0.00014069181634113193, 0.00019644359417725354]","[0.013535109348595142, 0.018299754709005356, 0.01909908466041088, 0.016726229339838028, 0.017180440947413445, 0.015865782275795937]","[0.008774397483118796, -1.5620219293117779, 0.008774397483118796, 0.008774397483118796, 0.008774397483118796, 0.008774397483118796]","[0.008774397483118796, -1.5620219293117779, 0.008774397483118796, 0.008774397483118796, 0.008774397483118796, 0.008774397483118796]",0.002,7,1
0,16,"[0.00015866756439208984, -1.5706030523036425, 0.00023061433901006012, 0.00021354734387202257, 0.00024348318402189761, 0.00021135807037353516]","[0.01615861989557743, 0.020449621602892876, 0.021805426105856895, 0.0196237713098526, 0.018980516120791435, 0.020332301035523415]","[0.0093592214834394, -1.561437105311457, 0.0093592214834394, 0.0093592214834394, 0.0093592214834394, 0.0093592214834394]","[0.0093592214834394, -1.561437105311457, 0.0093592214834394, 0.0093592214834394, 0.0093592214834394, 0.0093592214834394]",0.002,7,1
0,17,"[0.00019008533854503185, -1.5705581468394776, 0.00022536913026982575, 0.0002979475208739757, 0.00024675444001331925, 0.00028782367007806897]","[0.0171055868268013, 0.021371450275182724, 0.022286802530288696, 0.021214934065937996, 0.0197928324341774, 0.02149098552763462]","[0.009944019195098217, -1.5608523075997984, 0.009944019195098217, 0.009944019195098217, 0.009944019195098217, 0.009944019195098217]","[0.009944019195098217, -1.5608523075997984, 0.009944019195098217, 0.009944019195098217, 0.009944019195098217, 0.009944019195098217]",0.002,7,1
0,18,"[0.00024569357628934085, -1.5705385965159913, 0.0003507773028772476, 0.0003182131000976085, 0.00031460836180485785, 0.000324048480251804]","[0.019689297303557396, 0.02208123728632927, 0.023080948740243912, 0.020682400092482567, 0.019479408860206604, 0.020045477896928787]","[0.010528788975485414, -1.560267537819411, 0.010528788975485414, 0.010528788975485414, 0.010528788975485414, 0.010528788975485414]","[0.010528788975485414, -1.560267537819411, 0.010528788975485414, 0.010528788975485414, 0.010528788975485414, 0.010528788975485414]",0.002,7,1
0,19,"[0.00031594562460668385, -1.5705007904947088, 0.0003793875323694351, 0.0003200012394408702, 0.0003384796727914363, 0.00036761045339517295]","[0.020984860137104988, 0.022517211735248566, 0.024842094630002975, 0.02035733498632908, 0.017701711505651474, 0.0192559901624918]","[0.01111352918206961, -1.559682797612827, 0.01111352918206961, 0.01111352918206961, 0.01111352918206961, 0.01111352918206961]","[0.01111352918206961, -1.559682797612827, 0.01111352918206961, 0.01111352918206961, 0.01111352918206961, 0.01111352918206961]",0.002,7,1
0,20,"[0.0003069521044380963, -1.5704832094819103, 0.00039750734438115387, 0.0003689962574462413, 0.00042060232954099774, 0.00043328164611011744]","[0.019981849938631058, 0.024197233840823174, 0.02611205354332924, 0.020577387884259224, 0.019155090674757957, 0.019268585368990898]","[0.011698238172402493, -1.559098088622494, 0.011698238172402493, 0.011698238172402493, 0.011698238172402493, 0.011698238172402493]","[0.011698238172402493, -1.559098088622494, 0.011698238172402493, 0.011698238172402493, 0.011698238172402493, 0.011698238172402493]",0.002,7,1
0,21,"[0.00039550039218738675, -1.5704139322081865, 0.00045472780336552887, 0.00043348848309321397, 0.0004908127593807876, 0.0003902912139892578]","[0.023629944771528244, 0.025804614648222923, 0.027305901050567627, 0.020499486476182938, 0.020065538585186005, 0.0197064857929945]","[0.012282914304123434, -1.5585134124907731, 0.012282914304123434, 0.012282914304123434, 0.012282914304123434, 0.012282914304123434]","[0.012282914304123434, -1.5585134124907731, 0.012282914304123434, 0.012282914304123434, 0.012282914304123434, 0.012282914304123434]",0.002,7,1
0,22,"[0.0004480830975808203, -1.570330081424192, 0.000527683888570607, 0.00046603261914057725, 0.0005214728298597038, 0.00047969818115234375]","[0.02637903206050396, 0.02726597525179386, 0.028700102120637894, 0.02169209159910679, 0.02130567841231823, 0.021527791395783424]","[0.012867555934964097, -1.5579287708599325, 0.012867555934964097, 0.012867555934964097, 0.012867555934964097, 0.012867555934964097]","[0.012867555934964097, -1.5579287708599325, 0.012867555934964097, 0.012867555934964097, 0.012867555934964097, 0.012867555934964097]",0.002,7,1
0,23,"[0.00046603704686276615, -1.570263747799192, 0.0006158987628381851, 0.0004935699650268077, 0.0005199979641474783, 0.0005320927011780441]","[0.026993179693818092, 0.028628354892134666, 0.030391553416848183, 0.02380603551864624, 0.023031501099467278, 0.02380387857556343]","[0.01345216142275306, -1.5573441653721436, 0.01345216142275306, 0.01345216142275306, 0.01345216142275306, 0.01345216142275306]","[0.01345216142275306, -1.5573441653721436, 0.01345216142275306, 0.01345216142275306, 0.01345216142275306, 0.01345216142275306]",0.002,7,1
0,24,"[0.0005395380430854857, -1.570232495698594, 0.0006139914142053726, 0.0005280214497069835, 0.0005813445895910263, 0.0005636591231450438]","[0.028755636885762215, 0.03012808784842491, 0.03225899860262871, 0.025990961119532585, 0.024681411683559418, 0.02566765621304512]","[0.01403672912542041, -1.5567595976694761, 0.01403672912542041, 0.01403672912542041, 0.01403672912542041, 0.01403672912542041]","[0.01403672912542041, -1.5567595976694761, 0.01403672912542041, 0.01403672912542041, 0.01403672912542041, 0.01403672912542041]",0.002,7,1
0,25,"[0.0005996131803840399, -1.5701769350310606, 0.0006817022906702164, 0.0006458002277831554, 0.0006581911584362388, 0.0005954416119493544]","[0.030015457421541214, 0.03250601887702942, 0.0340399444103241, 0.027243850752711296, 0.026973837986588478, 0.02682613395154476]","[0.014621257401002376, -1.5561750693938943, 0.014621257401002376, 0.014621257401002376, 0.014621257401002376, 0.014621257401002376]","[0.014621257401002376, -1.5561750693938943, 0.014621257401002376, 0.014621257401002376, 0.014621257401002376, 0.014621257401002376]",0.002,7,1
0,26,"[0.0006727333529852331, -1.5700644196225149, 0.0007460753070276382, 0.000685258502624464, 0.0006894170073792338, 0.0007372784893959761]","[0.03242228180170059, 0.035163406282663345, 0.03450070321559906, 0.029059072956442833, 0.028692150488495827, 0.02962537482380867]","[0.015205744607645925, -1.5555905821872507, 0.015205744607645925, 0.015205744607645925, 0.015205744607645925, 0.015205744607645925]","[0.015205744607645925, -1.5555905821872507, 0.015205744607645925, 0.015205744607645925, 0.015205744607645925, 0.015205744607645925]",0.002,7,1
0,27,"[0.0007360391318798065, -1.569983275814895, 0.0008638540851038101, 0.0007121998020629405, 0.0007365152705460787, 0.0007228851318359375]","[0.03520311042666435, 0.03613943234086037, 0.037991978228092194, 0.03168601542711258, 0.03085377812385559, 0.032242752611637115]","[0.015790189103613395, -1.5550061376912832, 0.015790189103613395, 0.015790189103613395, 0.015790189103613395, 0.015790189103613395]","[0.015790189103613395, -1.5550061376912832, 0.015790189103613395, 0.015790189103613395, 0.015790189103613395, 0.015790189103613395]",0.002,7,1
0,28,"[0.0008244983619078994, -1.5699205249878396, 0.0009353796588342789, 0.0008137661167602062, 0.000838001724332571, 0.0008034202619455755]","[0.037735842168331146, 0.040057480335235596, 0.040719885379076004, 0.03523365408182144, 0.03318998962640762, 0.03339742496609688]","[0.016374589247287068, -1.5544217375476095, 0.016374589247287068, 0.016374589247287068, 0.016374589247287068, 0.016374589247287068]","[0.016374589247287068, -1.5544217375476095, 0.016374589247287068, 0.016374589247287068, 0.016374589247287068, 0.016374589247287068]",0.002,7,1
0,29,"[0.0009263110114261508, -1.569860386345983, 0.0010026136981409195, 0.0008637148090819835, 0.0008971175993792713, 0.0009010677458718419]","[0.03935185819864273, 0.04407893121242523, 0.04138268157839775, 0.03660086914896965, 0.035720713436603546, 0.03430221229791641]","[0.016958943397173833, -1.5538373833977228, 0.016958943397173833, 0.016958943397173833, 0.016958943397173833, 0.016958943397173833]","[0.016958943397173833, -1.5538373833977228, 0.016958943397173833, 0.016958943397173833, 0.016958943397173833, 0.016958943397173833]",0.002,7,1
0,30,"[0.0009189932025037706, -1.5697552747190748, 0.0011451880084436539, 0.0009402471729735851, 0.0010064415400847793, 0.0008862328832037747]","[0.042086437344551086, 0.04385001212358475, 0.04558044672012329, 0.036903418600559235, 0.03880812227725983, 0.03810619190335274]","[0.017543249911909743, -1.5532530768829869, 0.017543249911909743, 0.017543249911909743, 0.017543249911909743, 0.017543249911909743]","[0.017543249911909743, -1.5532530768829869, 0.017543249911909743, 0.017543249911909743, 0.017543249911909743, 0.017543249911909743]",0.002,7,1
0,31,"[0.0010316543048247695, -1.5697226089290162, 0.0012362639056604507, 0.001053615207336378, 0.0010743922321125865, 0.001016457797959447]","[0.04475929215550423, 0.04675246402621269, 0.048890113830566406, 0.04044070467352867, 0.041083477437496185, 0.04199375584721565]","[0.018127507150264666, -1.5526688196446319, 0.018127507150264666, 0.018127507150264666, 0.018127507150264666, 0.018127507150264666]","[0.018127507150264666, -1.5526688196446319, 0.018127507150264666, 0.018127507150264666, 0.018127507150264666, 0.018127507150264666]",0.002,7,1
0,32,"[0.0011904039420187473, -1.5695512903951858, 0.0012996832477014664, 0.0011380153843383312, 0.001088345772586763, 0.001119821099564433]","[0.04702061414718628, 0.050331152975559235, 0.048500414937734604, 0.04325870797038078, 0.044302020221948624, 0.04430283233523369]","[0.018711713471146876, -1.5520846133237496, 0.018711713471146876, 0.018711713471146876, 0.018711713471146876, 0.018711713471146876]","[0.018711713471146876, -1.5520846133237496, 0.018711713471146876, 0.018711713471146876, 0.018711713471146876, 0.018711713471146876]",0.002,7,1
0,33,"[0.0012294873595237732, -1.5694554171389719, 0.0013678709613245132, 0.0012006002613524913, 0.0012677619233727455, 0.0012323816772550344]","[0.04975942149758339, 0.05575093254446983, 0.052011359483003616, 0.04771479219198227, 0.0471375547349453, 0.04657372459769249]","[0.019295867233607666, -1.551500459561289, 0.019295867233607666, 0.019295867233607666, 0.019295867233607666, 0.019295867233607666]","[0.019295867233607666, -1.551500459561289, 0.019295867233607666, 0.019295867233607666, 0.019295867233607666, 0.019295867233607666]",0.002,7,1
0,34,"[0.0013359751319512725, -1.5693610484343772, 0.0014756361590784195, 0.0013459163853148937, 0.001380487228743732, 0.0013086486142128706]","[0.05232109874486923, 0.05535190925002098, 0.05584416538476944, 0.05040112882852554, 0.0501423180103302, 0.05056397616863251]","[0.019879966796845963, -1.5509163599980507, 0.019879966796845963, 0.019879966796845963, 0.019879966796845963, 0.019879966796845963]","[0.019879966796845963, -1.5509163599980507, 0.019879966796845963, 0.019879966796845963, 0.019879966796845963, 0.019879966796845963]",0.002,7,1
0,35,"[0.001448409748263657, -1.569198924149834, 0.0016363302813928726, 0.001412196750305128, 0.001409570686519146, 0.0014078750973567367]","[0.05545803904533386, 0.05791210010647774, 0.058786503970623016, 0.05075730383396149, 0.05316919460892677, 0.053701404482126236]","[0.020464010520212926, -1.5503323162746836, 0.020464010520212926, 0.020464010520212926, 0.020464010520212926, 0.020464010520212926]","[0.020464010520212926, -1.5503323162746836, 0.020464010520212926, 0.020464010520212926, 0.020464010520212926, 0.020464010520212926]",0.002,7,1
0,36,"[0.0015596234006807208, -1.5690924519770597, 0.0017202536212366226, 0.0015451151081542491, 0.0015802150592207909, 0.0014994848752394319]","[0.05878821015357971, 0.0632145032286644, 0.05811038985848427, 0.054520975798368454, 0.055974025279283524, 0.05648639053106308]","[0.02104799676321656, -1.5497483300316799, 0.02104799676321656, 0.02104799676321656, 0.02104799676321656, 0.02104799676321656]","[0.02104799676321656, -1.5497483300316799, 0.02104799676321656, 0.02104799676321656, 0.02104799676321656, 0.02104799676321656]",0.002,7,1
0,37,"[0.001700475113466382, -1.5690085467980062, 0.0018480459796350601, 0.0016948419758300304, 0.0016871652333065867, 0.0016684222500771284]","[0.06122056394815445, 0.06548237800598145, 0.06432531028985977, 0.0580863431096077, 0.059365056455135345, 0.06070903688669205]","[0.02163192388552632, -1.5491644029093703, 0.02163192388552632, 0.02163192388552632, 0.02163192388552632, 0.02163192388552632]","[0.02163192388552632, -1.5491644029093703, 0.02163192388552632, 0.02163192388552632, 0.02163192388552632, 0.02163192388552632]",0.002,7,1
0,38,"[0.0018414537189528346, -1.568864587261789, 0.001976792012349904, 0.001784964198730421, 0.0017787854885682464, 0.0017768406542018056]","[0.06413079053163528, 0.06767983734607697, 0.0661936029791832, 0.06160253658890724, 0.06343499571084976, 0.06374695897102356]","[0.022215790246977733, -1.5485805365479188, 0.022215790246977733, 0.022215790246977733, 0.022215790246977733, 0.022215790246977733]","[0.022215790246977733, -1.5485805365479188, 0.022215790246977733, 0.022215790246977733, 0.022215790246977733, 0.022215790246977733]",0.002,7,1
0,39,"[0.0019734185189008713, -1.5686738177067419, 0.0021584669696252945, 0.0019209819981078624, 0.0019321568543091416, 0.0018800755497068167]","[0.06763091683387756, 0.07137385755777359, 0.06879179924726486, 0.06560379266738892, 0.06387905776500702, 0.06472091376781464]","[0.02279959420757699, -1.5479967325873196, 0.02279959420757699, 0.02279959420757699, 0.02279959420757699, 0.02279959420757699]","[0.02279959420757699, -1.5479967325873196, 0.02279959420757699, 0.02279959420757699, 0.02279959420757699, 0.02279959420757699]",0.002,7,1
0,40,"[0.002101130783557892, -1.5686261956910421, 0.0022195021258752945, 0.0021349626728515148, 0.002018401864916086, 0.0021073080133646727]","[0.06996861845254898, 0.07320118695497513, 0.07209484279155731, 0.06870229542255402, 0.06661347299814224, 0.06842127442359924]","[0.02338333412750555, -1.547412992667391, 0.02338333412750555, 0.02338333412750555, 0.02338333412750555, 0.02338333412750555]","[0.02338333412750555, -1.547412992667391, 0.02338333412750555, 0.02338333412750555, 0.02338333412750555, 0.02338333412750555]",0.002,7,1
0,41,"[0.0022988112177699804, -1.568465758148097, 0.00238973299135381, 0.0021645265766601085, 0.0021680877543985844, 0.002233294304460287]","[0.07408414036035538, 0.07711929082870483, 0.07466213405132294, 0.07083407044410706, 0.07289698719978333, 0.07293733954429626]","[0.023967008367124766, -1.5468293184277717, 0.023967008367124766, 0.023967008367124766, 0.023967008367124766, 0.023967008367124766]","[0.023967008367124766, -1.5468293184277717, 0.023967008367124766, 0.023967008367124766, 0.023967008367124766, 0.023967008367124766]",0.002,7,1
0,42,"[0.002400983590632677, -1.5682583730998267, 0.0025861899005334976, 0.0023367840000609874, 0.002353000920265913, 0.0023250046651810408]","[0.07695947587490082, 0.08093289285898209, 0.07681453227996826, 0.07448939234018326, 0.07486193627119064, 0.07372234016656876]","[0.024550615286980458, -1.546245711507916, 0.024550615286980458, 0.024550615286980458, 0.024550615286980458, 0.024550615286980458]","[0.024550615286980458, -1.546245711507916, 0.024550615286980458, 0.024550615286980458, 0.024550615286980458, 0.024550615286980458]",0.002,7,1
0,43,"[0.0025241600815206766, -1.568052820428722, 0.002816502247945607, 0.0025264459797362804, 0.0024642127100378275, 0.0025169053114950657]","[0.07855021953582764, 0.08319569379091263, 0.08139918744564056, 0.07732120156288147, 0.07840538769960403, 0.07790688425302505]","[0.025134153247807548, -1.545662173547089, 0.025134153247807548, 0.025134153247807548, 0.025134153247807548, 0.025134153247807548]","[0.025134153247807548, -1.545662173547089, 0.025134153247807548, 0.025134153247807548, 0.025134153247807548, 0.025134153247807548]",0.002,7,1
0,44,"[0.002738315612077713, -1.5679221349167456, 0.002907578145162404, 0.002685351962707472, 0.0026893937028944492, 0.002665423322468996]","[0.08672239631414413, 0.08553239703178406, 0.08456046879291534, 0.08145006000995636, 0.08267533779144287, 0.08148649334907532]","[0.025717620610534668, -1.5450787061843618, 0.025717620610534668, 0.025717620610534668, 0.025717620610534668, 0.025717620610534668]","[0.025717620610534668, -1.5450787061843618, 0.025717620610534668, 0.025717620610534668, 0.025717620610534668, 0.025717620610534668]",0.002,7,1
0,45,"[0.002921400824561715, -1.5677545210677017, 0.0030787626849573257, 0.002829118365905714, 0.002843017689883709, 0.002795808482915163]","[0.08599042147397995, 0.08976386487483978, 0.08871757984161377, 0.08546341955661774, 0.08587898313999176, 0.08504093438386917]","[0.026301015736288732, -1.544495311058608, 0.026301015736288732, 0.026301015736288732, 0.026301015736288732, 0.026301015736288732]","[0.026301015736288732, -1.544495311058608, 0.026301015736288732, 0.026301015736288732, 0.026301015736288732, 0.026301015736288732]",0.002,7,1
0,46,"[0.0031059004832059145, -1.5675624388134857, 0.0032222906695764664, 0.002967520351074171, 0.00303383800201118, 0.0030208383686840534]","[0.09054487943649292, 0.09028732031583786, 0.08940023183822632, 0.08884977549314499, 0.08905459940433502, 0.08866747468709946]","[0.026884336986399547, -1.543911989808497, 0.026884336986399547, 0.026884336986399547, 0.026884336986399547, 0.026884336986399547]","[0.026884336986399547, -1.543911989808497, 0.026884336986399547, 0.026884336986399547, 0.026884336986399547, 0.026884336986399547]",0.002,7,1
0,47,"[0.003311130916699767, -1.5674035777668287, 0.0034602324115198257, 0.003197594279907179, 0.003252678317949176, 0.0032096984796226025]","[0.09564061462879181, 0.09809958934783936, 0.09567105025053024, 0.09099584817886353, 0.09312096983194351, 0.09204906970262527]","[0.027467582722404453, -1.543328744072492, 0.027467582722404453, 0.027467582722404453, 0.027467582722404453, 0.027467582722404453]","[0.027467582722404453, -1.543328744072492, 0.027467582722404453, 0.027467582722404453, 0.027467582722404453, 0.027467582722404453]",0.002,7,1
0,48,"[0.0034946983214467764, -1.5672399676735331, 0.0036109129535120132, 0.0033480364033202648, 0.0033662274945527315, 0.003392550628632307]","[0.09865667670965195, 0.09813885390758514, 0.09702157229185104, 0.09806548058986664, 0.09360820800065994, 0.09620847553014755]","[0.028050751306052873, -1.5427455754888437, 0.028050751306052873, 0.028050751306052873, 0.028050751306052873, 0.028050751306052873]","[0.028050751306052873, -1.5427455754888437, 0.028050751306052873, 0.028050751306052873, 0.028050751306052873, 0.028050751306052873]",0.002,7,1
0,49,"[0.003752141958102584, -1.5669865564307948, 0.0038369337665002945, 0.003585024470947218, 0.003653787774965167, 0.003563542850315571]","[0.1020573228597641, 0.10211272537708282, 0.10156475752592087, 0.0992731973528862, 0.10051185637712479, 0.10050604492425919]","[0.02863384109931096, -1.5421624856955856, 0.02863384109931096, 0.02863384109931096, 0.02863384109931096, 0.02863384109931096]","[0.02863384109931096, -1.5421624856955856, 0.02863384109931096, 0.02863384109931096, 0.02863384109931096, 0.02863384109931096]",0.002,7,1
0,50,"[0.003975668456405401, -1.5667520764148612, 0.004059616719381154, 0.003781123752258253, 0.0037837291602045298, 0.0038513299077749252]","[0.10522104054689407, 0.10539316385984421, 0.103873610496521, 0.10674405843019485, 0.10226817429065704, 0.10324312746524811]","[0.029216850464366173, -1.5415794763305304, 0.029216850464366173, 0.029216850464366173, 0.029216850464366173, 0.029216850464366173]","[0.029216850464366173, -1.5415794763305304, 0.029216850464366173, 0.029216850464366173, 0.029216850464366173, 0.029216850464366173]",0.002,7,1
0,51,"[0.00419926643371582, -1.5666070862538, 0.004244152699605763, 0.003984494800231886, 0.004004292655736208, 0.004025039728730917]","[0.10981614887714386, 0.10845981538295746, 0.10685984790325165, 0.10783761739730835, 0.10765491425991058, 0.10661784559488297]","[0.029799777763631855, -1.5409965490312647, 0.029799777763631855, 0.029799777763631855, 0.029799777763631855, 0.029799777763631855]","[0.029799777763631855, -1.5409965490312647, 0.029799777763631855, 0.029799777763631855, 0.029799777763631855, 0.029799777763631855]",0.002,7,1
0,52,"[0.004394666291773319, -1.5663791580921789, 0.004521671925679982, 0.004289909000060987, 0.004286364186555147, 0.00421700207516551]","[0.11239828169345856, 0.11257948726415634, 0.11088623106479645, 0.11207406967878342, 0.1117144301533699, 0.11061715334653854]","[0.030382621359751904, -1.5404137054351446, 0.030382621359751904, 0.030382621359751904, 0.030382621359751904, 0.030382621359751904]","[0.030382621359751904, -1.5404137054351446, 0.030382621359751904, 0.030382621359751904, 0.030382621359751904, 0.030382621359751904]",0.002,7,1
0,53,"[0.004597012884914875, -1.5661541533521195, 0.0047257582293909195, 0.004492207164428663, 0.004502786323428154, 0.004506217315793037]","[0.11784360557794571, 0.11520106345415115, 0.11532457917928696, 0.11606729030609131, 0.11476646363735199, 0.11434435844421387]","[0.030965379615605294, -1.5398309471792913, 0.030965379615605294, 0.030965379615605294, 0.030965379615605294, 0.030965379615605294]","[0.030965379615605294, -1.5398309471792913, 0.030965379615605294, 0.030965379615605294, 0.030965379615605294, 0.030965379615605294]",0.002,7,1
0,54,"[0.004899814259260893, -1.5658839375576754, 0.004954163228170216, 0.0046877103992919444, 0.004706074483692646, 0.004672938026487827]","[0.1198430210351944, 0.11738857626914978, 0.11811895668506622, 0.12013771384954453, 0.11916309595108032, 0.12024226784706116]","[0.031548050894310724, -1.5392482759005859, 0.031548050894310724, 0.031548050894310724, 0.031548050894310724, 0.031548050894310724]","[0.031548050894310724, -1.5392482759005859, 0.031548050894310724, 0.031548050894310724, 0.031548050894310724, 0.031548050894310724]",0.002,7,1
0,55,"[0.005105478689074516, -1.5656741636670013, 0.005164925252095998, 0.0049922901340941905, 0.004955406300723553, 0.0049744099378585815]","[0.12542413175106049, 0.12406058609485626, 0.12284974008798599, 0.12542922794818878, 0.1238449215888977, 0.12492656707763672]","[0.03213063355923119, -1.5386656932356653, 0.03213063355923119, 0.03213063355923119, 0.03213063355923119, 0.03213063355923119]","[0.03213063355923119, -1.5386656932356653, 0.03213063355923119, 0.03213063355923119, 0.03213063355923119, 0.03213063355923119]",0.002,7,1
0,56,"[0.005387315526604652, -1.565462691043951, 0.005483452473775685, 0.005271955127380323, 0.0052273995243012905, 0.005233257543295622]","[0.12905551493167877, 0.12467270344495773, 0.12531158328056335, 0.1275702565908432, 0.1285308599472046, 0.12910456955432892]","[0.03271312597397859, -1.538083200820918, 0.03271312597397859, 0.03271312597397859, 0.03271312597397859, 0.03271312597397859]","[0.03271312597397859, -1.538083200820918, 0.03271312597397859, 0.03271312597397859, 0.03271312597397859, 0.03271312597397859]",0.002,7,1
0,57,"[0.005667856894433498, -1.565185280782618, 0.00573903719057256, 0.005528374309204054, 0.005496213678270578, 0.005501861684024334]","[0.1319405883550644, 0.13019749522209167, 0.13285788893699646, 0.13249439001083374, 0.13188201189041138, 0.13232365250587463]","[0.03329552650241833, -1.5375008002924782, 0.03329552650241833, 0.03329552650241833, 0.03329552650241833, 0.03329552650241833]","[0.03329552650241833, -1.5375008002924782, 0.03329552650241833, 0.03329552650241833, 0.03329552650241833, 0.03329552650241833]",0.002,7,1
0,58,"[0.005911095999181271, -1.5648970574005325, 0.006003204976217091, 0.005819721812866163, 0.005748863331973553, 0.005728309042751789]","[0.13510707020759583, 0.13436345756053925, 0.13345490396022797, 0.13504129648208618, 0.1341557800769806, 0.13594646751880646]","[0.03387783350867391, -1.5369184932862225, 0.03387783350867391, 0.03387783350867391, 0.03387783350867391, 0.03387783350867391]","[0.03387783350867391, -1.5369184932862225, 0.03387783350867391, 0.03387783350867391, 0.03387783350867391, 0.03387783350867391]",0.002,7,1
0,59,"[0.006203604396432638, -1.5646030849641939, 0.006307903920308888, 0.006050391788146925, 0.0060460977256298065, 0.006012341007590294]","[0.13920509815216064, 0.13782548904418945, 0.13661135733127594, 0.13886447250843048, 0.13946329057216644, 0.13869425654411316]","[0.034460045357131514, -1.536336281437765, 0.034460045357131514, 0.034460045357131514, 0.034460045357131514, 0.034460045357131514]","[0.034460045357131514, -1.536336281437765, 0.034460045357131514, 0.034460045357131514, 0.034460045357131514, 0.034460045357131514]",0.002,7,1
0,60,"[0.006552958395332098, -1.5643784844181319, 0.006576840077535451, 0.006383343333862257, 0.00635140435770154, 0.0062910267151892185]","[0.14237025380134583, 0.14239755272865295, 0.14220784604549408, 0.1415225714445114, 0.14389470219612122, 0.14473438262939453]","[0.0350421604124446, -1.5357541663824519, 0.0350421604124446, 0.0350421604124446, 0.0350421604124446, 0.0350421604124446]","[0.0350421604124446, -1.5357541663824519, 0.0350421604124446, 0.0350421604124446, 0.0350421604124446, 0.0350421604124446]",0.002,7,1
0,61,"[0.006817225366830826, -1.564097639904805, 0.006832424794332326, 0.006696506137512159, 0.006663573440164328, 0.006587314419448376]","[0.14643357694149017, 0.14685489237308502, 0.1468731015920639, 0.14644953608512878, 0.14736194908618927, 0.14742068946361542]","[0.03562417703953853, -1.535172149755358, 0.03562417703953853, 0.03562417703953853, 0.03562417703953853, 0.03562417703953853]","[0.03562417703953853, -1.535172149755358, 0.03562417703953853, 0.03562417703953853, 0.03562417703953853, 0.03562417703953853]",0.002,7,1
0,62,"[0.007157507352530956, -1.5637769361822684, 0.007174317036763966, 0.006964250201843214, 0.006887872237712145, 0.0068670716136693954]","[0.15360526740550995, 0.1526271104812622, 0.14913006126880646, 0.1508587747812271, 0.1501564234495163, 0.1515408158302307]","[0.03620609360361513, -1.5345902331912815, 0.03620609360361513, 0.03620609360361513, 0.03620609360361513, 0.03620609360361513]","[0.03620609360361513, -1.5345902331912815, 0.03620609360361513, 0.03620609360361513, 0.03620609360361513, 0.03620609360361513]",0.002,7,1
0,63,"[0.007399229798465967, -1.5635234255208452, 0.007477585469381154, 0.007279677981994581, 0.007203575223684311, 0.007206816226243973]","[0.1548682302236557, 0.1535642147064209, 0.1540999710559845, 0.1550772786140442, 0.15286463499069214, 0.1572062075138092]","[0.03678790847015727, -1.5340084183247393, 0.03678790847015727, 0.03678790847015727, 0.03678790847015727, 0.03678790847015727]","[0.03678790847015727, -1.5340084183247393, 0.03678790847015727, 0.03678790847015727, 0.03678790847015727, 0.03678790847015727]",0.002,7,1
0,64,"[0.007760624401271343, -1.5631526771797617, 0.00779134431947881, 0.007679863567016554, 0.007528555113822222, 0.007527574431151152]","[0.15906020998954773, 0.15886686742305756, 0.16063767671585083, 0.1593054234981537, 0.15803588926792145, 0.16048333048820496]","[0.037369620004933476, -1.5334267067899632, 0.037369620004933476, 0.037369620004933476, 0.037369620004933476, 0.037369620004933476]","[0.037369620004933476, -1.5334267067899632, 0.037369620004933476, 0.037369620004933476, 0.037369620004933476, 0.037369620004933476]",0.002,7,1
0,65,"[0.00810574647039175, -1.562795833019056, 0.008147541676656544, 0.007976694697997999, 0.007922759279608727, 0.00788881815969944]","[0.16302314400672913, 0.16196806728839874, 0.16284216940402985, 0.16050899028778076, 0.16505461931228638, 0.16421391069889069]","[0.03795122657400253, -1.532845100220894, 0.03795122657400253, 0.03795122657400253, 0.03795122657400253, 0.03795122657400253]","[0.03795122657400253, -1.532845100220894, 0.03795122657400253, 0.03795122657400253, 0.03795122657400253, 0.03795122657400253]",0.002,7,1
0,66,"[0.008401078172028065, -1.5625241056880732, 0.008446518574849904, 0.008315368289611769, 0.008250550366938114, 0.008228551596403122]","[0.16935625672340393, 0.1678321361541748, 0.16637194156646729, 0.16596700251102448, 0.16742511093616486, 0.16877475380897522]","[0.038532726543718046, -1.5322636002511785, 0.038532726543718046, 0.038532726543718046, 0.038532726543718046, 0.038532726543718046]","[0.038532726543718046, -1.5322636002511785, 0.038532726543718046, 0.038532726543718046, 0.038532726543718046, 0.038532726543718046]",0.002,7,1
0,67,"[0.008741679601371288, -1.5622215823135157, 0.008824650441304982, 0.008618040675781202, 0.00855864305049181, 0.008527379482984543]","[0.1704201102256775, 0.17153717577457428, 0.1715105026960373, 0.16958321630954742, 0.17225795984268188, 0.1733698695898056]","[0.039114118280733065, -1.5316822085141635, 0.039114118280733065, 0.039114118280733065, 0.039114118280733065, 0.039114118280733065]","[0.039114118280733065, -1.5316822085141635, 0.039114118280733065, 0.039114118280733065, 0.039114118280733065, 0.039114118280733065]",0.002,7,1
0,68,"[0.009101646952331066, -1.56181916714225, 0.009165112172262013, 0.008985682124755812, 0.00890001654624939, 0.008896119892597198]","[0.17488640546798706, 0.17596524953842163, 0.17446334660053253, 0.17315086722373962, 0.17654770612716675, 0.17765378952026367]","[0.039695400152004616, -1.5311009266428919, 0.039695400152004616, 0.039695400152004616, 0.039695400152004616, 0.039695400152004616]","[0.039695400152004616, -1.5311009266428919, 0.039695400152004616, 0.039695400152004616, 0.039695400152004616, 0.039695400152004616]",0.002,7,1
0,69,"[0.00947805866599083, -1.5614590722000976, 0.009504620228902638, 0.009367747897766066, 0.00934251956641674, 0.009273492731153965]","[0.17970795929431915, 0.18195542693138123, 0.17860627174377441, 0.17896516621112823, 0.18140634894371033, 0.18474909663200378]","[0.04027657052479833, -1.5305197562700983, 0.04027657052479833, 0.04027657052479833, 0.04027657052479833, 0.04027657052479833]","[0.04027657052479833, -1.5305197562700983, 0.04027657052479833, 0.04027657052479833, 0.04027657052479833, 0.04027657052479833]",0.002,7,1
0,70,"[0.009812827222049236, -1.561106808749475, 0.009810749684469044, 0.00977115213360591, 0.009673135355114937, 0.0095951734110713]","[0.18395288288593292, 0.18454718589782715, 0.1846449226140976, 0.18410243093967438, 0.18469855189323425, 0.1871384084224701]","[0.04085762776669305, -1.5299386990282036, 0.04085762776669305, 0.04085762776669305, 0.04085762776669305, 0.04085762776669305]","[0.04085762776669305, -1.5299386990282036, 0.04085762776669305, 0.04085762776669305, 0.04085762776669305, 0.04085762776669305]",0.002,7,1
0,71,"[0.010214794427156448, -1.5607349214008828, 0.010298554097310841, 0.010116978282592726, 0.010120004415512085, 0.01000042725354433]","[0.1879085898399353, 0.18772754073143005, 0.18605366349220276, 0.18673576414585114, 0.1911044865846634, 0.1925036609172821]","[0.041438570245585345, -1.5293577565493113, 0.041438570245585345, 0.041438570245585345, 0.041438570245585345, 0.041438570245585345]","[0.041438570245585345, -1.5293577565493113, 0.041438570245585345, 0.041438570245585345, 0.041438570245585345, 0.041438570245585345]",0.002,7,1
0,72,"[0.010601585730910301, -1.560386949484684, 0.010618511830465138, 0.010547562236450148, 0.010434117168188095, 0.010343551635742188]","[0.1919276863336563, 0.19130481779575348, 0.19009512662887573, 0.19192646443843842, 0.19467711448669434, 0.1959129124879837]","[0.04201939632969416, -1.5287769304652024, 0.04201939632969416, 0.04201939632969416, 0.04201939632969416, 0.04201939632969416]","[0.04201939632969416, -1.5287769304652024, 0.04201939632969416, 0.04201939632969416, 0.04201939632969416, 0.04201939632969416]",0.002,7,1
0,73,"[0.010949576273560524, -1.5599578938311716, 0.0109942595111292, 0.011020346278808546, 0.01083871629089117, 0.010800831951200962]","[0.1973610371351242, 0.1950850784778595, 0.19316862523555756, 0.19625785946846008, 0.19694167375564575, 0.19834066927433014]","[0.04260010438756538, -1.528196222407331, 0.04260010438756538, 0.04260010438756538, 0.04260010438756538, 0.04260010438756538]","[0.04260010438756538, -1.528196222407331, 0.04260010438756538, 0.04260010438756538, 0.04260010438756538, 0.04260010438756538]",0.002,7,1
0,74,"[0.011374130845069885, -1.5595853368616481, 0.011349503193990529, 0.011348648662231398, 0.011231962591409683, 0.011217311955988407]","[0.2012554258108139, 0.198431596159935, 0.19960975646972656, 0.20035502314567566, 0.2006898820400238, 0.20386461913585663]","[0.043180692788076395, -1.52761563400682, 0.043180692788076395, 0.043180692788076395, 0.043180692788076395, 0.043180692788076395]","[0.043180692788076395, -1.52761563400682, 0.043180692788076395, 0.043180692788076395, 0.043180692788076395, 0.043180692788076395]",0.002,7,1
0,75,"[0.011782228946685791, -1.5591447747177263, 0.011803452168599904, 0.011759682292602491, 0.011610712856054306, 0.011597135104238987]","[0.2037910670042038, 0.20476597547531128, 0.20152318477630615, 0.2041633576154709, 0.20711009204387665, 0.20779812335968018]","[0.0437611599004407, -1.527035166894456, 0.0437611599004407, 0.0437611599004407, 0.0437611599004407, 0.0437611599004407]","[0.0437611599004407, -1.527035166894456, 0.0437611599004407, 0.0437611599004407, 0.0437611599004407, 0.0437611599004407]",0.002,7,1
0,76,"[0.012241648510098457, -1.5588106115213414, 0.012162033711568654, 0.012124581927917433, 0.012042449787259102, 0.012017945758998394]","[0.2085590362548828, 0.20902399718761444, 0.2059471607208252, 0.2080409675836563, 0.21350282430648804, 0.21240738034248352]","[0.04434150409421247, -1.526454822700684, 0.04434150409421247, 0.04434150409421247, 0.04434150409421247, 0.04434150409421247]","[0.04434150409421247, -1.526454822700684, 0.04434150409421247, 0.04434150409421247, 0.04434150409421247, 0.04434150409421247]",0.002,7,1
0,77,"[0.012655587866902351, -1.5583287116936226, 0.012592140828267873, 0.012631698245666456, 0.012356803752481937, 0.012436510063707829]","[0.2143801897764206, 0.2141353189945221, 0.21029162406921387, 0.2116551548242569, 0.21497903764247894, 0.2174311727285385]","[0.04492172373929114, -1.5258746030556054, 0.04492172373929114, 0.04492172373929114, 0.04492172373929114, 0.04492172373929114]","[0.04492172373929114, -1.5258746030556054, 0.04492172373929114, 0.04492172373929114, 0.04492172373929114, 0.04492172373929114]",0.002,7,1
0,78,"[0.013079570606350899, -1.5579253521612664, 0.01306182542909795, 0.013086481685302687, 0.012884408235549927, 0.012889044359326363]","[0.21644312143325806, 0.21908240020275116, 0.21359851956367493, 0.21510620415210724, 0.21888965368270874, 0.22180071473121643]","[0.04550181720592597, -1.5252945095889705, 0.04550181720592597, 0.04550181720592597, 0.04550181720592597, 0.04550181720592597]","[0.04550181720592597, -1.5252945095889705, 0.04550181720592597, 0.04550181720592597, 0.04550181720592597, 0.04550181720592597]",0.002,7,1
0,79,"[0.013495412655174732, -1.5574436106583853, 0.013497654591695607, 0.013501210803649855, 0.013361925259232521, 0.013321041129529476]","[0.21914342045783997, 0.22330023348331451, 0.2168591022491455, 0.2184014767408371, 0.2230362892150879, 0.22601139545440674]","[0.04608178286472068, -1.524714543930176, 0.04608178286472068, 0.04608178286472068, 0.04608178286472068, 0.04608178286472068]","[0.04608178286472068, -1.524714543930176, 0.04608178286472068, 0.04608178286472068, 0.04608178286472068, 0.04608178286472068]",0.002,7,1
0,80,"[0.013942372053861618, -1.5570676944083353, 0.01394206682314092, 0.013934536571166944, 0.013798285275697708, 0.013760282658040524]","[0.22368663549423218, 0.22780966758728027, 0.22153249382972717, 0.22114308178424835, 0.2263927310705185, 0.22844333946704865]","[0.046661619086637914, -1.5241347077082585, 0.046661619086637914, 0.046661619086637914, 0.046661619086637914, 0.046661619086637914]","[0.046661619086637914, -1.5241347077082585, 0.046661619086637914, 0.046661619086637914, 0.046661619086637914, 0.046661619086637914]",0.002,7,1
0,81,"[0.014441687613725662, -1.5565860814279695, 0.01434642473329717, 0.014408631915710401, 0.014208515174686909, 0.01423321757465601]","[0.22804874181747437, 0.23124995827674866, 0.22690178453922272, 0.22439272701740265, 0.23089170455932617, 0.23261916637420654]","[0.04724132424300397, -1.5235550025518927, 0.04724132424300397, 0.04724132424300397, 0.04724132424300397, 0.04724132424300397]","[0.04724132424300397, -1.5235550025518927, 0.04724132424300397, 0.04724132424300397, 0.04724132424300397, 0.04724132424300397]",0.002,7,1
0,82,"[0.014854147098958492, -1.556154186171927, 0.014860455189840138, 0.014819069499633741, 0.01473018154501915, 0.014671845361590385]","[0.2318972945213318, 0.2356214076280594, 0.23060955107212067, 0.22858570516109467, 0.23425602912902832, 0.23519578576087952]","[0.04782089670551321, -1.5229754300893834, 0.04782089670551321, 0.04782089670551321, 0.04782089670551321, 0.04782089670551321]","[0.04782089670551321, -1.5229754300893834, 0.04782089670551321, 0.04782089670551321, 0.04782089670551321, 0.04782089670551321]",0.002,7,1
0,83,"[0.015343451872467995, -1.5556650983965774, 0.015308205281392873, 0.015275760287902784, 0.015193977393209934, 0.015126471407711506]","[0.2337367981672287, 0.24081139266490936, 0.23258358240127563, 0.23269647359848022, 0.2377752810716629, 0.2375112622976303]","[0.04840033484623275, -1.5223959919486638, 0.04840033484623275, 0.04840033484623275, 0.04840033484623275, 0.04840033484623275]","[0.04840033484623275, -1.5223959919486638, 0.04840033484623275, 0.04840033484623275, 0.04840033484623275, 0.04840033484623275]",0.002,7,1
0,84,"[0.015902431681752205, -1.5551399377039452, 0.015814129506246388, 0.01581208288159175, 0.01567847840487957, 0.01570591703057289]","[0.23882053792476654, 0.24533198773860931, 0.23634693026542664, 0.23852594196796417, 0.24221129715442657, 0.24378365278244019]","[0.04897963703760701, -1.5218166897572896, 0.04897963703760701, 0.04897963703760701, 0.04897963703760701, 0.04897963703760701]","[0.04897963703760701, -1.5218166897572896, 0.04897963703760701, 0.04897963703760701, 0.04897963703760701, 0.04897963703760701]",0.002,7,1
0,85,"[0.01635723188519478, -1.554693167363741, 0.016322914754049123, 0.01631872236218257, 0.01614246889948845, 0.016127556562423706]","[0.24500904977321625, 0.24600204825401306, 0.24127908051013947, 0.24361923336982727, 0.2478388249874115, 0.2484770268201828]","[0.04955880165246223, -1.5212375251424344, 0.04955880165246223, 0.04955880165246223, 0.04955880165246223, 0.04955880165246223]","[0.04955880165246223, -1.5212375251424344, 0.04955880165246223, 0.04955880165246223, 0.04955880165246223, 0.04955880165246223]",0.002,7,1
0,86,"[0.016848299652338028, -1.5542012539557, 0.016779247914449513, 0.01672617971386714, 0.016651403158903122, 0.01666403003036976]","[0.24796172976493835, 0.250032901763916, 0.24741795659065247, 0.2465972900390625, 0.25123855471611023, 0.2514052391052246]","[0.05013782706401114, -1.5206584997308854, 0.05013782706401114, 0.05013782706401114, 0.05013782706401114, 0.05013782706401114]","[0.05013782706401114, -1.5206584997308854, 0.05013782706401114, 0.05013782706401114, 0.05013782706401114, 0.05013782706401114]",0.002,7,1
0,87,"[0.017344169318675995, -1.5536778059652825, 0.01727611223329717, 0.01727835714306636, 0.01722584292292595, 0.017131131142377853]","[0.2518475353717804, 0.2556697726249695, 0.24931827187538147, 0.24921567738056183, 0.25468558073043823, 0.2550024390220642]","[0.050716711645857414, -1.5200796151490392, 0.050716711645857414, 0.050716711645857414, 0.050716711645857414, 0.050716711645857414]","[0.050716711645857414, -1.5200796151490392, 0.050716711645857414, 0.050716711645857414, 0.050716711645857414, 0.050716711645857414]",0.002,7,1
0,88,"[0.017894625663757324, -1.5531525996378441, 0.017785374318258107, 0.017764731044433546, 0.01768926903605461, 0.017650334164500237]","[0.2565865218639374, 0.25828757882118225, 0.2534218728542328, 0.2527444064617157, 0.2579995393753052, 0.26035061478614807]","[0.05129545377200032, -1.5195008730228963, 0.05129545377200032, 0.05129545377200032, 0.05129545377200032, 0.05129545377200032]","[0.05129545377200032, -1.5195008730228963, 0.05129545377200032, 0.05129545377200032, 0.05129545377200032, 0.05129545377200032]",0.002,7,1
0,89,"[0.018359826877713203, -1.5526366972229262, 0.018314186726705373, 0.01823072015728755, 0.01817576214671135, 0.018179329112172127]","[0.25798287987709045, 0.26173627376556396, 0.2599870562553406, 0.2586343288421631, 0.26262471079826355, 0.26346415281295776]","[0.051874051816839274, -1.5189222749780573, 0.051874051816839274, 0.051874051816839274, 0.051874051816839274, 0.051874051816839274]","[0.051874051816839274, -1.5189222749780573, 0.051874051816839274, 0.051874051816839274, 0.051874051816839274, 0.051874051816839274]",0.002,7,1
0,90,"[0.018950065597891808, -1.5521060314825554, 0.018735710774556935, 0.018773480052612257, 0.018763480708003044, 0.018773119896650314]","[0.26385223865509033, 0.2682790160179138, 0.2615227699279785, 0.2634175717830658, 0.2674260139465332, 0.2675764560699463]","[0.05245250415517839, -1.5183438226397181, 0.05245250415517839, 0.05245250415517839, 0.05245250415517839, 0.05245250415517839]","[0.05245250415517839, -1.5183438226397181, 0.05245250415517839, 0.05245250415517839, 0.05245250415517839, 0.05245250415517839]",0.002,7,1
0,91,"[0.01945481076836586, -1.5515266128680487, 0.019342724476949513, 0.019270701999328566, 0.01926988922059536, 0.01931237243115902]","[0.26894935965538025, 0.2703109383583069, 0.26886892318725586, 0.26768526434898376, 0.27110716700553894, 0.27186912298202515]","[0.053030809162231005, -1.5177655176326657, 0.053030809162231005, 0.053030809162231005, 0.053030809162231005, 0.053030809162231005]","[0.053030809162231005, -1.5177655176326657, 0.053030809162231005, 0.053030809162231005, 0.053030809162231005, 0.053030809162231005]",0.002,7,1
0,92,"[0.019990429282188416, -1.5510289308479805, 0.01984101930727178, 0.019828839893005323, 0.019838839769363403, 0.019875502213835716]","[0.2711758315563202, 0.27367523312568665, 0.27351632714271545, 0.2710265517234802, 0.2738931477069855, 0.27620020508766174]","[0.05360896521362437, -1.517187361581272, 0.05360896521362437, 0.05360896521362437, 0.05360896521362437, 0.05360896521362437]","[0.05360896521362437, -1.517187361581272, 0.05360896521362437, 0.05360896521362437, 0.05360896521362437, 0.05360896521362437]",0.002,7,1
0,93,"[0.02058328315615654, -1.5504511159709473, 0.020450894032613576, 0.020372315044067335, 0.02035789005458355, 0.020394979044795036]","[0.27352067828178406, 0.27685633301734924, 0.27717751264572144, 0.2767338752746582, 0.27791133522987366, 0.279511034488678]","[0.054186970685404054, -1.5166093561094924, 0.054186970685404054, 0.054186970685404054, 0.054186970685404054, 0.054186970685404054]","[0.054186970685404054, -1.5166093561094924, 0.054186970685404054, 0.054186970685404054, 0.054186970685404054, 0.054186970685404054]",0.002,7,1
0,94,"[0.021071407943964005, -1.54988017611716, 0.020969216023580373, 0.02094213544812007, 0.020959699526429176, 0.020982732996344566]","[0.2770937979221344, 0.28114885091781616, 0.2811921238899231, 0.28219324350357056, 0.2822705805301666, 0.28312331438064575]","[0.054764823954038644, -1.516031502840858, 0.054764823954038644, 0.054764823954038644, 0.054764823954038644, 0.054764823954038644]","[0.054764823954038644, -1.516031502840858, 0.054764823954038644, 0.054764823954038644, 0.054764823954038644, 0.054764823954038644]",0.002,7,1
0,95,"[0.021680478006601334, -1.5492335104248305, 0.02153331438173467, 0.021475716228149366, 0.021532544866204262, 0.021576140075922012]","[0.28189393877983093, 0.28310760855674744, 0.2860572040081024, 0.2870837152004242, 0.28520655632019043, 0.2855665981769562]","[0.0553425233964242, -1.5154538033984724, 0.0553425233964242, 0.0553425233964242, 0.0553425233964242, 0.0553425233964242]","[0.0553425233964242, -1.5154538033984724, 0.0553425233964242, 0.0553425233964242, 0.0553425233964242, 0.0553425233964242]",0.002,7,1
0,96,"[0.022264277562499046, -1.5487238143435498, 0.02212220827211553, 0.022021694774291944, 0.02207168936729431, 0.022159023210406303]","[0.28534722328186035, 0.2842884957790375, 0.28760048747062683, 0.29288676381111145, 0.287964403629303, 0.28785744309425354]","[0.055920067389888854, -1.5148762594050078, 0.055920067389888854, 0.055920067389888854, 0.055920067389888854, 0.055920067389888854]","[0.055920067389888854, -1.5148762594050078, 0.055920067389888854, 0.055920067389888854, 0.055920067389888854, 0.055920067389888854]",0.002,7,1
0,97,"[0.02281426452100277, -1.548119270508625, 0.02266580263246709, 0.022603555316589308, 0.022671358659863472, 0.022702515125274658]","[0.28945043683052063, 0.28871381282806396, 0.29011282324790955, 0.29524603486061096, 0.2929885685443878, 0.29116290807724]","[0.05649745431219742, -1.5142988724826991, 0.05649745431219742, 0.05649745431219742, 0.05649745431219742, 0.05649745431219742]","[0.05649745431219742, -1.5142988724826991, 0.05649745431219742, 0.05649745431219742, 0.05649745431219742, 0.05649745431219742]",0.002,7,1
0,98,"[0.023453956469893456, -1.547505810191371, 0.023237530385152638, 0.023156686420104933, 0.023318637162446976, 0.023331962525844574]","[0.29228997230529785, 0.29173919558525085, 0.2954179346561432, 0.2975255250930786, 0.297004371881485, 0.29492107033729553]","[0.05707468254155584, -1.5137216442533408, 0.05707468254155584, 0.05707468254155584, 0.05707468254155584, 0.05707468254155584]","[0.05707468254155584, -1.5137216442533408, 0.05707468254155584, 0.05707468254155584, 0.05707468254155584, 0.05707468254155584]",0.002,7,1
0,99,"[0.02398722618818283, -1.5469568160227318, 0.023845974599019826, 0.02378336965527339, 0.02385580725967884, 0.023912040516734123]","[0.2969586253166199, 0.2972811758518219, 0.2944946885108948, 0.3007510304450989, 0.301424115896225, 0.2985953986644745]","[0.05765175045661585, -1.5131445763382807, 0.05765175045661585, 0.05765175045661585, 0.05765175045661585, 0.05765175045661585]","[0.05765175045661585, -1.5131445763382807, 0.05765175045661585, 0.05765175045661585, 0.05765175045661585, 0.05765175045661585]",0.002,7,1
0,100,"[0.024635350331664085, -1.54639493234966, 0.02444154420961553, 0.024340911502502394, 0.024507073685526848, 0.024490026757121086]","[0.2995634377002716, 0.29945412278175354, 0.29894745349884033, 0.30544933676719666, 0.30230242013931274, 0.30122822523117065]","[0.058228656436479447, -1.5125676703584172, 0.058228656436479447, 0.058228656436479447, 0.058228656436479447, 0.058228656436479447]","[0.058228656436479447, -1.5125676703584172, 0.058228656436479447, 0.058228656436479447, 0.058228656436479447, 0.058228656436479447]",0.002,7,1
0,101,"[0.025187304243445396, -1.545674667959549, 0.025017563496724904, 0.024905486697814894, 0.025123804807662964, 0.025150476023554802]","[0.30327996611595154, 0.3029736876487732, 0.30368301272392273, 0.3098171055316925, 0.3068145215511322, 0.3056429922580719]","[0.0588053988607035, -1.511990927934193, 0.0588053988607035, 0.0588053988607035, 0.0588053988607035, 0.0588053988607035]","[0.0588053988607035, -1.511990927934193, 0.0588053988607035, 0.0588053988607035, 0.0588053988607035, 0.0588053988607035]",0.002,7,1
0,102,"[0.02583165280520916, -1.5450522129288693, 0.025643173848287404, 0.025520129794738722, 0.02571367658674717, 0.025761758908629417]","[0.30644649267196655, 0.3067758083343506, 0.3056054413318634, 0.31367525458335876, 0.31103235483169556, 0.3063924312591553]","[0.0593819761093043, -1.5114143506855922, 0.0593819761093043, 0.0593819761093043, 0.0593819761093043, 0.0593819761093043]","[0.0593819761093043, -1.5114143506855922, 0.0593819761093043, 0.0593819761093043, 0.0593819761093043, 0.0593819761093043]",0.002,7,1
0,103,"[0.026458634063601494, -1.5444023360363026, 0.026307408009664357, 0.026222868556640577, 0.026359038427472115, 0.02635989338159561]","[0.30987170338630676, 0.30854302644729614, 0.310726523399353, 0.3174923062324524, 0.31477218866348267, 0.3095526695251465]","[0.059958386562762055, -1.5108379402321346, 0.059958386562762055, 0.059958386562762055, 0.059958386562762055, 0.059958386562762055]","[0.059958386562762055, -1.5108379402321346, 0.059958386562762055, 0.059958386562762055, 0.059958386562762055, 0.059958386562762055]",0.002,7,1
0,104,"[0.02702789008617401, -1.543799466719367, 0.02692729631532842, 0.02680294095959468, 0.027020953595638275, 0.02704259194433689]","[0.31388604640960693, 0.31199949979782104, 0.3162033259868622, 0.3204585611820221, 0.3183382749557495, 0.31395795941352844]","[0.06053462860202547, -1.5102616981928711, 0.06053462860202547, 0.06053462860202547, 0.06053462860202547, 0.06053462860202547]","[0.06053462860202547, -1.5102616981928711, 0.06053462860202547, 0.06053462860202547, 0.06053462860202547, 0.06053462860202547]",0.002,7,1
0,105,"[0.02763897366821766, -1.5430973519435902, 0.027543369923726857, 0.027452870006225538, 0.0276811346411705, 0.027701376006007195]","[0.3166198432445526, 0.316303014755249, 0.318301260471344, 0.3242914080619812, 0.31903892755508423, 0.3190511465072632]","[0.061110700608516366, -1.5096856261863802, 0.061110700608516366, 0.061110700608516366, 0.061110700608516366, 0.061110700608516366]","[0.061110700608516366, -1.5096856261863802, 0.061110700608516366, 0.061110700608516366, 0.061110700608516366, 0.061110700608516366]",0.002,7,1
0,106,"[0.028245344758033752, -1.5424701434424897, 0.028210941945211232, 0.028089805240295362, 0.028259247541427612, 0.02835768647491932]","[0.3211301565170288, 0.31858643889427185, 0.32532432675361633, 0.32730409502983093, 0.32362550497055054, 0.32238152623176575]","[0.061686600964134086, -1.5091097258307624, 0.061686600964134086, 0.061686600964134086, 0.061686600964134086, 0.061686600964134086]","[0.061686600964134086, -1.5091097258307624, 0.061686600964134086, 0.061686600964134086, 0.061686600964134086, 0.061686600964134086]",0.002,7,1
0,107,"[0.028852621093392372, -1.5418197580477973, 0.028879467641012013, 0.028719349498413038, 0.02891477942466736, 0.02900596149265766]","[0.32560616731643677, 0.32290494441986084, 0.32607030868530273, 0.3314434587955475, 0.32780584692955017, 0.32450515031814575]","[0.06226232805126016, -1.5085339987436364, 0.06226232805126016, 0.06226232805126016, 0.06226232805126016, 0.06226232805126016]","[0.06226232805126016, -1.5085339987436364, 0.06226232805126016, 0.06226232805126016, 0.06226232805126016, 0.06226232805126016]",0.002,7,1
0,108,"[0.02955568954348564, -1.5411265839687367, 0.02953511873354131, 0.02941696226086421, 0.02968294359743595, 0.02963782101869583]","[0.3305480480194092, 0.325335294008255, 0.330245703458786, 0.3349686563014984, 0.33114004135131836, 0.32823264598846436]","[0.06283788025276278, -1.5079584465421338, 0.06283788025276278, 0.06283788025276278, 0.06283788025276278, 0.06283788025276278]","[0.06283788025276278, -1.5079584465421338, 0.06283788025276278, 0.06283788025276278, 0.06283788025276278, 0.06283788025276278]",0.002,7,1
0,109,"[0.03016630932688713, -1.5404957451722403, 0.030248943959371388, 0.030037088985107374, 0.03023984096944332, 0.030271900817751884]","[0.33340024948120117, 0.3283601999282837, 0.3324551582336426, 0.3372139036655426, 0.3325463831424713, 0.3305090367794037]","[0.06341325595200138, -1.5073830708428952, 0.06341325595200138, 0.06341325595200138, 0.06341325595200138, 0.06341325595200138]","[0.06341325595200138, -1.5073830708428952, 0.06341325595200138, 0.06341325595200138, 0.06341325595200138, 0.06341325595200138]",0.002,7,1
0,110,"[0.030841393396258354, -1.5397747487625857, 0.03090078035463506, 0.03072313844647212, 0.03098836913704872, 0.03097185119986534]","[0.3353241980075836, 0.33195656538009644, 0.3365805745124817, 0.3405177891254425, 0.33667582273483276, 0.33462339639663696]","[0.06398845353283117, -1.5068078732620653, 0.06398845353283117, 0.06398845353283117, 0.06398845353283117, 0.06398845353283117]","[0.06398845353283117, -1.5068078732620653, 0.06398845353283117, 0.06398845353283117, 0.06398845353283117, 0.06398845353283117]",0.002,7,1
0,111,"[0.031568899750709534, -1.5391316425851365, 0.03155976930727178, 0.0314902502247314, 0.03170301765203476, 0.031669121235609055]","[0.3387144207954407, 0.33387356996536255, 0.33836475014686584, 0.3440847098827362, 0.3388192653656006, 0.3377916216850281]","[0.06456347137960762, -1.5062328554152888, 0.06456347137960762, 0.06456347137960762, 0.06456347137960762, 0.06456347137960762]","[0.06456347137960762, -1.5062328554152888, 0.06456347137960762, 0.06456347137960762, 0.06456347137960762, 0.06456347137960762]",0.002,7,1
0,112,"[0.03221135586500168, -1.5384274584105988, 0.032252136860982716, 0.03214232503857417, 0.032333362847566605, 0.03237607702612877]","[0.34514594078063965, 0.33777010440826416, 0.3412513732910156, 0.3483961522579193, 0.34013253450393677, 0.33883142471313477]","[0.06513830787719112, -1.5056580189177053, 0.06513830787719112, 0.06513830787719112, 0.06513830787719112, 0.06513830787719112]","[0.06513830787719112, -1.5056580189177053, 0.06513830787719112, 0.06513830787719112, 0.06513830787719112, 0.06513830787719112]",0.002,7,1
0,113,"[0.03287465497851372, -1.5377186362496396, 0.03306705156435186, 0.03287510454144282, 0.03303840383887291, 0.03304772078990936]","[0.34468740224838257, 0.33766767382621765, 0.34312283992767334, 0.35256171226501465, 0.34490397572517395, 0.3418634533882141]","[0.06571296141095137, -1.5050833653839453, 0.06571296141095137, 0.06571296141095137, 0.06571296141095137, 0.06571296141095137]","[0.06571296141095137, -1.5050833653839453, 0.06571296141095137, 0.06571296141095137, 0.06571296141095137, 0.06571296141095137]",0.002,7,1
0,114,"[0.033540915697813034, -1.537044097935297, 0.033706013356344044, 0.0335506635853271, 0.033756040036678314, 0.033699315041303635]","[0.34725284576416016, 0.3433346748352051, 0.3468526005744934, 0.3522225320339203, 0.3454156219959259, 0.344743937253952]","[0.06628743036677205, -1.5045088964281246, 0.06628743036677205, 0.06628743036677205, 0.06628743036677205, 0.06628743036677205]","[0.06628743036677205, -1.5045088964281246, 0.06628743036677205, 0.06628743036677205, 0.06628743036677205, 0.06628743036677205]",0.002,7,1
0,115,"[0.034271396696567535, -1.536377177839615, 0.03432828584779912, 0.03432588159527583, 0.034402504563331604, 0.03442736342549324]","[0.34924569725990295, 0.3432741165161133, 0.34976351261138916, 0.3523295521736145, 0.34832412004470825, 0.34643471240997314]","[0.06686171313105525, -1.5039346136638414, 0.06686171313105525, 0.06686171313105525, 0.06686171313105525, 0.06686171313105525]","[0.06686171313105525, -1.5039346136638414, 0.06686171313105525, 0.06686171313105525, 0.06686171313105525, 0.06686171313105525]",0.002,7,1
0,116,"[0.034983549267053604, -1.535650410955288, 0.03505117097963506, 0.0350380378910522, 0.035184282809495926, 0.03509528189897537]","[0.35349342226982117, 0.3500020205974579, 0.34959301352500916, 0.3559763729572296, 0.3496294915676117, 0.3493292033672333]","[0.0674358080907261, -1.5033605187041705, 0.0674358080907261, 0.0674358080907261, 0.0674358080907261, 0.0674358080907261]","[0.0674358080907261, -1.5033605187041705, 0.0674358080907261, 0.0674358080907261, 0.0674358080907261, 0.0674358080907261]",0.002,7,1
0,117,"[0.035717085003852844, -1.5348895613900204, 0.03581744829286748, 0.035754843349121046, 0.035894062370061874, 0.03580281510949135]","[0.35448145866394043, 0.35252809524536133, 0.35273900628089905, 0.35646960139274597, 0.3547368049621582, 0.35326287150382996]","[0.06800971363323713, -1.5027866131616594, 0.06800971363323713, 0.06800971363323713, 0.06800971363323713, 0.06800971363323713]","[0.06800971363323713, -1.5027866131616594, 0.06800971363323713, 0.06800971363323713, 0.06800971363323713, 0.06800971363323713]",0.002,7,1
0,118,"[0.03648354485630989, -1.5342080009034653, 0.03656131425966436, 0.03647391378369136, 0.036526329815387726, 0.036460991948843]","[0.3607499897480011, 0.35619232058525085, 0.3557989001274109, 0.3575001060962677, 0.3576027750968933, 0.3546482026576996]","[0.06858342814657303, -1.5022128986483234, 0.06858342814657303, 0.06858342814657303, 0.06858342814657303, 0.06858342814657303]","[0.06858342814657303, -1.5022128986483234, 0.06858342814657303, 0.06858342814657303, 0.06858342814657303, 0.06858342814657303]",0.002,7,1
0,119,"[0.03717886283993721, -1.5335082796267052, 0.037239853535787404, 0.03726152955975337, 0.03727629408240318, 0.03722282499074936]","[0.3595345616340637, 0.3585663139820099, 0.35861897468566895, 0.36093199253082275, 0.35871025919914246, 0.35747024416923523]","[0.06915695001925502, -1.5016393767756415, 0.06915695001925502, 0.06915695001925502, 0.06915695001925502, 0.06915695001925502]","[0.06915695001925502, -1.5016393767756415, 0.06915695001925502, 0.06915695001925502, 0.06915695001925502, 0.06915695001925502]",0.002,7,1
0,120,"[0.03788856416940689, -1.5327977289310475, 0.03799277940859014, 0.03803519784893794, 0.03801504522562027, 0.03795391321182251]","[0.364288866519928, 0.359473317861557, 0.36173346638679504, 0.36232686042785645, 0.359923779964447, 0.361288458108902]","[0.06973027764034544, -1.501066049154551, 0.06973027764034544, 0.06973027764034544, 0.06973027764034544, 0.06973027764034544]","[0.06973027764034544, -1.501066049154551, 0.06973027764034544, 0.06973027764034544, 0.06973027764034544, 0.06973027764034544]",0.002,7,1
0,121,"[0.03865597024559975, -1.532069233512022, 0.03870851198305303, 0.03878311693157954, 0.03870080038905144, 0.03866629675030708]","[0.36637216806411743, 0.36494022607803345, 0.36592555046081543, 0.36604347825050354, 0.3612397313117981, 0.3629574775695801]","[0.0703034093994522, -1.5004929173954444, 0.0703034093994522, 0.0703034093994522, 0.0703034093994522, 0.0703034093994522]","[0.0703034093994522, -1.5004929173954444, 0.0703034093994522, 0.0703034093994522, 0.0703034093994522, 0.0703034093994522]",0.002,7,1
0,122,"[0.03936224430799484, -1.5313169111362477, 0.03937703767885381, 0.0395391422459106, 0.03941801190376282, 0.039328683167696]","[0.36805543303489685, 0.3670869469642639, 0.368449330329895, 0.36858272552490234, 0.36447882652282715, 0.3669504225254059]","[0.0708763436867334, -1.499919983108163, 0.0708763436867334, 0.0708763436867334, 0.0708763436867334, 0.0708763436867334]","[0.0708763436867334, -1.499919983108163, 0.0708763436867334, 0.0708763436867334, 0.0708763436867334, 0.0708763436867334]",0.002,7,1
0,123,"[0.04009483382105827, -1.5306217235377808, 0.040198628102437794, 0.04031281053509517, 0.04022514075040817, 0.04012209549546242]","[0.36959344148635864, 0.3699205219745636, 0.3688517212867737, 0.36882439255714417, 0.3685770332813263, 0.36999303102493286]","[0.07144907889290184, -1.4993472479019947, 0.07144907889290184, 0.07144907889290184, 0.07144907889290184, 0.07144907889290184]","[0.07144907889290184, -1.4993472479019947, 0.07144907889290184, 0.07144907889290184, 0.07144907889290184, 0.07144907889290184]",0.002,7,1
0,124,"[0.040830694139003754, -1.5298789975098153, 0.04089862505067998, 0.041046424502990675, 0.041012126952409744, 0.040787775069475174]","[0.3713168501853943, 0.37207290530204773, 0.3703647255897522, 0.36861899495124817, 0.37103554606437683, 0.3728373050689697]","[0.07202161340922941, -1.498774713385667, 0.07202161340922941, 0.07202161340922941, 0.07202161340922941, 0.07202161340922941]","[0.07202161340922941, -1.498774713385667, 0.07202161340922941, 0.07202161340922941, 0.07202161340922941, 0.07202161340922941]",0.002,7,1
0,125,"[0.04161789268255234, -1.5292046976140519, 0.04167825380434209, 0.04175512372937007, 0.04168851301074028, 0.04157586768269539]","[0.3736036717891693, 0.37503060698509216, 0.37339797616004944, 0.3689209818840027, 0.3730657994747162, 0.3763415217399597]","[0.0725939456275518, -1.4982023811673448, 0.0725939456275518, 0.0725939456275518, 0.0725939456275518, 0.0725939456275518]","[0.0725939456275518, -1.4982023811673448, 0.0725939456275518, 0.0725939456275518, 0.0725939456275518, 0.0725939456275518]",0.002,7,1
0,126,"[0.042323652654886246, -1.5284241189113636, 0.042426888142721, 0.04254381238903804, 0.04237573593854904, 0.04225059598684311]","[0.37584906816482544, 0.37560826539993286, 0.37338417768478394, 0.3720446527004242, 0.37597575783729553, 0.377947062253952]","[0.07316607394027289, -1.4976302528546237, 0.07316607394027289, 0.07316607394027289, 0.07316607394027289, 0.07316607394027289]","[0.07316607394027289, -1.4976302528546237, 0.07316607394027289, 0.07316607394027289, 0.07316607394027289, 0.07316607394027289]",0.002,7,1
0,127,"[0.0431237518787384, -1.5276925166002293, 0.0431750456439417, 0.04334621011700435, 0.04314424842596054, 0.04306061193346977]","[0.37921300530433655, 0.3798176646232605, 0.37636086344718933, 0.37665247917175293, 0.3789784610271454, 0.381676584482193]","[0.0737379967403693, -1.4970583300545273, 0.0737379967403693, 0.0737379967403693, 0.0737379967403693, 0.0737379967403693]","[0.0737379967403693, -1.4970583300545273, 0.0737379967403693, 0.0737379967403693, 0.0737379967403693, 0.0737379967403693]",0.002,7,1
0,128,"[0.043885551393032074, -1.526948382412531, 0.04397041002382451, 0.04411308347668452, 0.04389778524637222, 0.04383208602666855]","[0.3796899616718292, 0.3792899549007416, 0.3801049590110779, 0.379361629486084, 0.3798641562461853, 0.3841545879840851]","[0.0743097124213949, -1.4964866143735016, 0.0743097124213949, 0.0743097124213949, 0.0743097124213949, 0.0743097124213949]","[0.0743097124213949, -1.4964866143735016, 0.0743097124213949, 0.0743097124213949, 0.0743097124213949, 0.0743097124213949]",0.002,7,1
0,129,"[0.0446433387696743, -1.5261931170574208, 0.04464847246278936, 0.044902129764221144, 0.04463736712932587, 0.04460053890943527]","[0.38526925444602966, 0.3812839090824127, 0.38194912672042847, 0.37886354327201843, 0.3827490508556366, 0.385561466217041]","[0.07488121937748536, -1.4959151074174113, 0.07488121937748536, 0.07488121937748536, 0.07488121937748536, 0.07488121937748536]","[0.07488121937748536, -1.4959151074174113, 0.07488121937748536, 0.07488121937748536, 0.07488121937748536, 0.07488121937748536]",0.002,7,1
0,130,"[0.04549555480480194, -1.5254211922040959, 0.045429531727926076, 0.04560963689770503, 0.04533075541257858, 0.045306164771318436]","[0.383680135011673, 0.38290974497795105, 0.3845564126968384, 0.379751592874527, 0.3855293095111847, 0.3888683617115021]","[0.07545251600336256, -1.495343810791534, 0.07545251600336256, 0.07545251600336256, 0.07545251600336256, 0.07545251600336256]","[0.07545251600336256, -1.495343810791534, 0.07545251600336256, 0.07545251600336256, 0.07545251600336256, 0.07545251600336256]",0.002,7,1
0,131,"[0.04618808999657631, -1.5246988286129017, 0.046152893696920216, 0.04641525327648921, 0.04619493708014488, 0.04609514772891998]","[0.3866766691207886, 0.3864800035953522, 0.3828086853027344, 0.3796634376049042, 0.3861362338066101, 0.390533447265625]","[0.07602360069433926, -1.4947727261005572, 0.07602360069433926, 0.07602360069433926, 0.07602360069433926, 0.07602360069433926]","[0.07602360069433926, -1.4947727261005572, 0.07602360069433926, 0.07602360069433926, 0.07602360069433926, 0.07602360069433926]",0.002,7,1
0,132,"[0.046937502920627594, -1.523922373806574, 0.046994988118306935, 0.04713205873455806, 0.04694202542304993, 0.04685017466545105]","[0.389048308134079, 0.3884817957878113, 0.38338232040405273, 0.3810492753982544, 0.3888806402683258, 0.39177051186561584]","[0.07659447184632341, -1.4942018549485732, 0.07659447184632341, 0.07659447184632341, 0.07659447184632341, 0.07659447184632341]","[0.07659447184632341, -1.4942018549485732, 0.07659447184632341, 0.07659447184632341, 0.07659447184632341, 0.07659447184632341]",0.002,7,1
0,133,"[0.047724638134241104, -1.523122363989689, 0.04770213762392217, 0.04787246763195796, 0.04767776280641556, 0.047653939574956894]","[0.3903740346431732, 0.38816070556640625, 0.38913199305534363, 0.3826562166213989, 0.3913672864437103, 0.39379262924194336]","[0.07716512785582286, -1.4936311989390738, 0.07716512785582286, 0.07716512785582286, 0.07716512785582286, 0.07716512785582286]","[0.07716512785582286, -1.4936311989390738, 0.07716512785582286, 0.07716512785582286, 0.07716512785582286, 0.07716512785582286]",0.002,7,1
0,134,"[0.048553284257650375, -1.5223500330797215, 0.04850751558412725, 0.04865078508343501, 0.048520732671022415, 0.04848947003483772]","[0.39089369773864746, 0.38913586735725403, 0.3894573748111725, 0.38455721735954285, 0.3927285671234131, 0.396499365568161]","[0.07773556711994968, -1.4930607596749468, 0.07773556711994968, 0.07773556711994968, 0.07773556711994968, 0.07773556711994968]","[0.07773556711994968, -1.4930607596749468, 0.07773556711994968, 0.07773556711994968, 0.07773556711994968, 0.07773556711994968]",0.002,7,1
0,135,"[0.04927601292729378, -1.5215992976776143, 0.04924613634218389, 0.04941944658245845, 0.04925503209233284, 0.04923670366406441]","[0.39434683322906494, 0.38916438817977905, 0.39115992188453674, 0.38629189133644104, 0.39406105875968933, 0.3960358202457428]","[0.07830578803642478, -1.4924905387584717, 0.07830578803642478, 0.07830578803642478, 0.07830578803642478, 0.07830578803642478]","[0.07830578803642478, -1.4924905387584717, 0.07830578803642478, 0.07830578803642478, 0.07830578803642478, 0.07830578803642478]",0.002,7,1
0,136,"[0.050171226263046265, -1.5208216656795521, 0.05000526109804326, 0.050166769618652296, 0.050084736198186874, 0.05002887547016144]","[0.3971920907497406, 0.39145785570144653, 0.3950853645801544, 0.3903626501560211, 0.39660337567329407, 0.3985271155834198]","[0.0788757890035824, -1.491920537791314, 0.0788757890035824, 0.0788757890035824, 0.0788757890035824, 0.0788757890035824]","[0.0788757890035824, -1.491920537791314, 0.0788757890035824, 0.0788757890035824, 0.0788757890035824, 0.0788757890035824]",0.002,7,1
0,137,"[0.05091080814599991, -1.5200240214220067, 0.05080300966371709, 0.05098061143841548, 0.050822801887989044, 0.050829555839300156]","[0.3983825445175171, 0.39177167415618896, 0.3931158781051636, 0.3934464454650879, 0.39795005321502686, 0.3997850716114044]","[0.07944556842037453, -1.491350758374522, 0.07944556842037453, 0.07944556842037453, 0.07944556842037453, 0.07944556842037453]","[0.07944556842037453, -1.491350758374522, 0.07944556842037453, 0.07944556842037453, 0.07944556842037453, 0.07944556842037453]",0.002,7,1
0,138,"[0.051811330020427704, -1.5192304712584992, 0.05152923265566045, 0.05174533903088374, 0.051660701632499695, 0.051710840314626694]","[0.3998783528804779, 0.3941430151462555, 0.3962440490722656, 0.39558571577072144, 0.4003724455833435, 0.4028483033180237]","[0.08001512468637552, -1.490781202108521, 0.08001512468637552, 0.08001512468637552, 0.08001512468637552, 0.08001512468637552]","[0.08001512468637552, -1.490781202108521, 0.08001512468637552, 0.08001512468637552, 0.08001512468637552, 0.08001512468637552]",0.002,7,1
0,139,"[0.05251104012131691, -1.518417866235115, 0.05237418809999639, 0.05246572076763911, 0.05245693027973175, 0.0524347759783268]","[0.3995445668697357, 0.3945010006427765, 0.39718177914619446, 0.3978351056575775, 0.4006325304508209, 0.40320008993148804]","[0.08058445620178649, -1.49021187059311, 0.08058445620178649, 0.08058445620178649, 0.08058445620178649, 0.08058445620178649]","[0.08058445620178649, -1.49021187059311, 0.08058445620178649, 0.08058445620178649, 0.08058445620178649, 0.08058445620178649]",0.002,7,1
0,140,"[0.05335027351975441, -1.5176305447569867, 0.05318624178041631, 0.05328814565624995, 0.05325944349169731, 0.053270064294338226]","[0.4018738269805908, 0.3973131477832794, 0.3990388512611389, 0.4015403687953949, 0.4031004309654236, 0.4041210114955902]","[0.08115356136743981, -1.4896427654274567, 0.08115356136743981, 0.08115356136743981, 0.08115356136743981, 0.08115356136743981]","[0.08115356136743981, -1.4896427654274567, 0.08115356136743981, 0.08115356136743981, 0.08115356136743981, 0.08115356136743981]",0.002,7,1
0,141,"[0.05415261536836624, -1.516906016772129, 0.05400401750673467, 0.05407361566510005, 0.054100051522254944, 0.054130919277668]","[0.4029898941516876, 0.3962358236312866, 0.39966443181037903, 0.4021233320236206, 0.4045482575893402, 0.4039165675640106]","[0.08172243858480373, -1.489073888210093, 0.08172243858480373, 0.08172243858480373, 0.08172243858480373, 0.08172243858480373]","[0.08172243858480373, -1.489073888210093, 0.08172243858480373, 0.08172243858480373, 0.08172243858480373, 0.08172243858480373]",0.002,7,1
0,142,"[0.05495956912636757, -1.5160109263709565, 0.05475455919374639, 0.05480186521496577, 0.05489607900381088, 0.05492084473371506]","[0.40372583270072937, 0.3949090838432312, 0.4008672833442688, 0.4027821123600006, 0.40569278597831726, 0.4039751887321472]","[0.08229108625598669, -1.4885052405389099, 0.08229108625598669, 0.08229108625598669, 0.08229108625598669, 0.08229108625598669]","[0.08229108625598669, -1.4885052405389099, 0.08229108625598669, 0.08229108625598669, 0.08229108625598669, 0.08229108625598669]",0.002,7,1
0,143,"[0.055818479508161545, -1.51521638900552, 0.05555135408510381, 0.05559293806042476, 0.05567246675491333, 0.055737145245075226]","[0.4050537347793579, 0.3964517414569855, 0.401022344827652, 0.4076199233531952, 0.4069974422454834, 0.40462249517440796]","[0.0828595027837419, -1.4879368240111546, 0.0828595027837419, 0.0828595027837419, 0.0828595027837419, 0.0828595027837419]","[0.0828595027837419, -1.4879368240111546, 0.0828595027837419, 0.0828595027837419, 0.0828595027837419, 0.0828595027837419]",0.002,7,1
0,144,"[0.05660320818424225, -1.5144507896951218, 0.05638438860048467, 0.056450052852294874, 0.05652601644396782, 0.05658043548464775]","[0.4091794490814209, 0.3988223373889923, 0.4019395112991333, 0.40977323055267334, 0.40694019198417664, 0.4047606885433197]","[0.08342768657147188, -1.4873686402234247, 0.08342768657147188, 0.08342768657147188, 0.08342768657147188, 0.08342768657147188]","[0.08342768657147188, -1.4873686402234247, 0.08342768657147188, 0.08342768657147188, 0.08342768657147188, 0.08342768657147188]",0.002,7,1
0,145,"[0.0574498176574707, -1.5136923988214512, 0.05719167390932256, 0.05719701826062007, 0.057383302599191666, 0.05741671100258827]","[0.4087013304233551, 0.39876940846443176, 0.40305832028388977, 0.41123971343040466, 0.4092414081096649, 0.40540415048599243]","[0.0839956360232328, -1.4868006907716638, 0.0839956360232328, 0.0839956360232328, 0.0839956360232328, 0.0839956360232328]","[0.0839956360232328, -1.4868006907716638, 0.0839956360232328, 0.0839956360232328, 0.0839956360232328, 0.0839956360232328]",0.002,7,1
0,146,"[0.05824783444404602, -1.512810268705227, 0.057949368153707326, 0.05801014482464595, 0.05814956873655319, 0.058293141424655914]","[0.40878307819366455, 0.40188243985176086, 0.4064256548881531, 0.4122134745121002, 0.408887654542923, 0.40886154770851135]","[0.08456334954373909, -1.4862329772511575, 0.08456334954373909, 0.08456334954373909, 0.08456334954373909, 0.08456334954373909]","[0.08456334954373909, -1.4862329772511575, 0.08456334954373909, 0.08456334954373909, 0.08456334954373909, 0.08456334954373909]",0.002,7,1
0,147,"[0.0590924471616745, -1.5119997461191197, 0.058811489735738576, 0.05886308729138179, 0.059006255120038986, 0.05911172181367874]","[0.4104698598384857, 0.40374982357025146, 0.4059106707572937, 0.41211602091789246, 0.4103661775588989, 0.40755367279052734]","[0.08513082553836789, -1.4856655012565287, 0.08513082553836789, 0.08513082553836789, 0.08513082553836789, 0.08513082553836789]","[0.08513082553836789, -1.4856655012565287, 0.08513082553836789, 0.08513082553836789, 0.08513082553836789, 0.08513082553836789]",0.002,7,1
