Arnibjarnst/BoxLift/logs/ur_rtde/trajectory_dur=7.5_delay=0.2_gain=100_lh=0.05_real.csv
arm_idx,step,actual_q,actual_qd,target_q,expected_q,applied_torque,loop_time,robot_mode,safety_mode
0,-1,"[0.0007974465843290091, -1.5699396467865263, 0.0007432142840784195, 0.0009204584309081554, 0.0008794100140221417, 0.000805480929557234]","[-0.03857554867863655, -0.03592093288898468, -0.03836404159665108, -0.034280743449926376, -0.0338328592479229, -0.034464769065380096]","[0.0, -1.5707963267948966, 0.0, 0.0, 0.0, 0.0]","[0.0, -1.5707963267948966, 0.0, 0.0, 0.0, 0.0]","[-1.296168910634396, -8.35083391874409, -5.707900826325259, -2.1027275043420346, 0.3574745037888536, -0.23268236771306045]",0.002,7,1
0,-1,"[0.00027563321054913104, -1.5704241669194126, 0.0002206007586877945, 0.00033180295910639757, 0.0003788293106481433, 0.0003509609086904675]","[-0.030824879184365273, -4.002363493782468e-05, -0.02002531848847866, -0.02535957098007202, -0.02342281863093376, -0.023002516478300095]","[0.0, -1.5707963267948966, 0.0, 0.0, 0.0, 0.0]","[0.0, -1.5707963267948966, 0.0, 0.0, 0.0, 0.0]","[1.2971156239993509, 4.592166036488007, 2.0078360797599775, -1.550369610876138, 0.7651061763969959, 0.23268976552713594]",0.002,7,1
0,-1,"[3.962544724345207e-05, -1.5706268972902144, -9.059906005859375e-06, 0.00015024721112055772, 0.00019860267639160156, 0.0001621198171051219]","[-0.016121193766593933, -0.03927113860845566, -0.025752553716301918, -0.018275368958711624, -0.018979385495185852, -0.01823793351650238]","[0.0, -1.5707963267948966, 0.0, 0.0, 0.0, 0.0]","[0.0, -1.5707963267948966, 0.0, 0.0, 0.0, 0.0]","[1.296775689755464, 4.606705360077857, 2.0143444165455655, -1.5505057902515622, 0.7651559323400238, 0.2326870430727966]",0.002,7,1
0,-1,"[1.6239999240497127e-05, -1.5707774557598277, -0.00011567510955501348, 4.3793315551710066e-05, 6.920970918145031e-05, 4.687309410655871e-05]","[-0.01052047498524189, -0.017077555879950523, -0.014348139055073261, -0.013351095840334892, -0.010535313747823238, -0.010917440056800842]","[0.0, -1.5707963267948966, 0.0, 0.0, 0.0, 0.0]","[0.0, -1.5707963267948966, 0.0, 0.0, 0.0, 0.0]","[1.2964704979213806, 4.6259496695494144, 2.022772485374007, -1.5505517724834978, 0.7651780720782007, 0.2326851606981086]",0.002,7,1
0,-1,"[-1.9375477926075746e-05, -1.570918699304098, -0.00017294407007284462, 4.832326855463975e-05, 6.31921284366399e-05, 7.640209514647722e-05]","[0.006241367198526859, 0.0072866398841142654, 0.005778348073363304, 0.005984744988381863, 0.009161131456494331, 0.006707141175866127]","[0.0, -1.5707963267948966, 0.0, 0.0, 0.0, 0.0]","[0.0, -1.5707963267948966, 0.0, 0.0, 0.0, 0.0]","[0.4200146275685398, 0.27099667233688357, -0.5757852007871803, -1.7374245349086377, 0.6274536312722283, 0.07538902352258435]",0.002,7,1
0,-1,"[2.8115957320551388e-05, -1.5708710155882777, -0.00014124040899332613, 7.502614941401475e-05, 0.0001114935876103118, 6.318092346191406e-05]","[0.004281480330973864, -0.0071971723809838295, -0.0025407420471310616, 0.0012045592302456498, 0.0007654429064132273, 0.001230426598340273]","[0.0, -1.5707963267948966, 0.0, 0.0, 0.0, 0.0]","[0.0, -1.5707963267948966, 0.0, 0.0, 0.0, 0.0]","[2.2989970351414666e-19, -1.8248583269443996, -1.8255413631287833, -1.826974665952731, 0.5614385150007901, 0.0]",0.002,7,1
0,-1,"[2.3585951566928998e-05, -1.5707337983879661, -3.909150109393522e-05, 5.571424450678819e-05, 9.520060120848939e-05, 5.879717355128378e-05]","[0.00025991606526076794, 0.003307442646473646, 0.003916630987077951, -1.8061830360238673e-06, -0.0002335676981601864, 0.00042045817826874554]","[0.0, -1.5707963267948966, 0.0, 0.0, 0.0, 0.0]","[0.0, -1.5707963267948966, 0.0, 0.0, 0.0, 0.0]","[4.566652196873299e-20, -1.8260608883506617, -1.8255624384209033, -1.8269746662795245, 0.5614385150328753, 0.0]",0.002,7,1
0,-1,"[1.1595696378208231e-05, -1.5706268972902144, 6.024037496388246e-06, 6.477415051264757e-05, 3.6588193324860185e-05, 5.880594108020887e-05]","[-0.00012072180106770247, 0.002759967464953661, 0.0010053192963823676, 5.92710875935154e-07, -0.0005437174695543945, -8.993039227789268e-05]","[0.0, -1.5707963267948966, 0.0, 0.0, 0.0, 0.0]","[0.0, -1.5707963267948966, 0.0, 0.0, 0.0, 0.0]","[1.3163183581497752e-20, -1.833131785508302, -1.8284700364152553, -1.8269746571574554, 0.5614385110543283, 0.0]",0.002,7,1
0,-1,"[-5.132356752568512e-05, -1.57060625970583, -1.1972360880463384e-05, 5.11842915038585e-05, 6.18815392954275e-05, 1.8300417650607415e-05]","[-1.8952958313889212e-08, 0.0014562822179868817, 0.0005250201793387532, 1.0772239870948663e-11, -0.0007639747345820069, -0.0001499667123425752]","[0.0, -1.5707963267948966, 0.0, 0.0, 0.0, 0.0]","[0.0, -1.5707963267948966, 0.0, 0.0, 0.0, 0.0]","[-2.31233635649465e-19, -1.8401318654108256, -1.8312270619556497, -1.8269745898367882, 0.5614384820208049, 0.0]",0.002,7,1
0,-1,"[-9.361897603810121e-06, -1.5706749058557143, -1.935720501933247e-05, 2.2812480590772566e-05, 8.699893805896863e-05, 3.058910442632623e-05]","[-1.1052757618130292e-19, 1.8082876351854793e-07, 0.0002221451431978494, -0.00039647906669415534, -0.0007375740678980947, -0.0004258076078258455]","[0.0, -1.5707963267948966, 0.0, 0.0, 0.0, 0.0]","[0.0, -1.5707963267948966, 0.0, 0.0, 0.0, 0.0]","[-3.216331545668766e-20, -1.8357412201778749, -1.8295486175189277, -1.8269746413909163, 0.5614385067467287, 0.0]",0.002,7,1
0,-1,"[2.658367156982422e-05, -1.5707272116672648, -1.0224674042547122e-05, 1.828252758784288e-05, 5.7306766393594444e-05, 6.3189712818712e-05]","[-6.445615445332788e-31, -0.0017014017794281244, 0.00012437452096492052, -0.0004148018197156489, -0.0006747118313796818, -0.00039071383071132004]","[0.0, -1.5707963267948966, 0.0, 0.0, 0.0, 0.0]","[0.0, -1.5707963267948966, 0.0, 0.0, 0.0, 0.0]","[1.5438209439475315e-19, -1.8311293717355819, -1.8279098140667192, -1.8269746652873542, 0.5614385139800805, 0.0]",0.002,7,1
0,-1,"[3.8504600524902344e-05, -1.5707425636104126, -7.408859346469399e-06, 2.4481410644483503e-05, 4.220008850097656e-05, -1.8421803609669496e-05]","[0.0005637535359710455, -0.001566986902616918, 4.171330510871485e-05, -0.0007251090137287974, -0.0006760747055523098, -0.0004616182704921812]","[0.0, -1.5707963267948966, 0.0, 0.0, 0.0, 0.0]","[0.0, -1.5707963267948966, 0.0, 0.0, 0.0, 0.0]","[-1.4169138603938803e-19, -1.8281406507125768, -1.827045930471573, -1.8269746643963993, 0.5614385127391789, 0.0]",0.002,7,1
0,-1,"[-3.6541615621388246e-05, -1.5707294231727538, -3.1743129511596635e-05, 1.9951457641553816e-05, 5.8846235333476216e-05, 3.496408317005262e-05]","[0.00028882440528832376, -0.0004139632801525295, 6.395082891685888e-05, -0.0005155129474587739, -0.0010403896449133754, -0.00045800828956998885]","[0.0, -1.5707963267948966, 0.0, 0.0, 0.0, 0.0]","[0.0, -1.5707963267948966, 0.0, 0.0, 0.0, 0.0]","[-7.537512725888126e-20, -1.8334307576823752, -1.8292201850142107, -1.8269746492206576, 0.561438511013213, 0.0]",0.002,7,1
0,-1,"[1.4543533325195312e-05, -1.570719675572338, 2.271333803349762e-05, 3.640233959956163e-05, 3.468106297077611e-05, 2.6257956051267684e-05]","[0.00020851517911069095, 0.0016144441906362772, 0.00010406623187009245, -0.00047391137923114, -0.0006675322656519711, -0.0004980990197509527]","[0.0, -1.5707963267948966, 0.0, 0.0, 0.0, 0.0]","[0.0, -1.5707963267948966, 0.0, 0.0, 0.0, 0.0]","[2.520697982917929e-19, -1.833535485854697, -1.8286522697738508, -1.826974660194699, 0.5614385136304706, 0.0]",0.002,7,1
0,-1,"[-2.557436098271637e-05, -1.5706717618634976, -2.3950793547555804e-05, 1.2083644531202253e-05, 6.002833106322214e-05, 5.5655687901889905e-05]","[0.00013052241411060095, 0.0015952283283695579, 0.00013871327973902225, -0.0006215776083990932, -0.0005625683115795255, -0.0005521218990907073]","[0.0, -1.5707963267948966, 0.0, 0.0, 0.0, 0.0]","[0.0, -1.5707963267948966, 0.0, 0.0, 0.0, 0.0]","[4.9804213809572775e-19, -1.8381872857598955, -1.8308156806939166, -1.8269746029038114, 0.5614384975151504, 0.0]",0.002,7,1
0,-1,"[2.6226043701171875e-06, -1.5705810717375535, 2.557436098271637e-05, 2.785319946241316e-06, -6.500874654591371e-06, -7.788287561538709e-07]","[0.00010720160935306922, 0.0006398918339982629, 0.0003781812556553632, -0.0004461136122699827, -0.0005095454398542643, -0.000533676240593195]","[0.0, -1.5707963267948966, 0.0, 0.0, 0.0, 0.0]","[0.0, -1.5707963267948966, 0.0, 0.0, 0.0, 0.0]","[-1.1536625964731136e-19, -1.8364121536705662, -1.8293657789629971, -1.8269746393318271, 0.5614385062597234, 0.0]",0.002,7,1
0,-1,"[3.559896140359342e-05, -1.5707022112658997, -4.8233268898911774e-05, 1.9951457641553816e-05, 3.0279159545898438e-05, 2.855873026419431e-05]","[2.4533785108360462e-05, -0.002218117704614997, 0.00013954457244835794, -0.00026764831272885203, -0.00035755711724050343, -0.00042388500878587365]","[0.0, -1.5707963267948966, 0.0, 0.0, 0.0, 0.0]","[0.0, -1.5707963267948966, 0.0, 0.0, 0.0, 0.0]","[4.933574006965337e-20, -1.8326001221257866, -1.828346573166618, -1.8269746539032445, 0.5614385124377894, 0.0]",0.002,7,1
0,-1,"[-1.0792409078419496e-05, -1.570741535310237, -5.732893987442367e-05, 2.4481410644483503e-05, 2.588033748907037e-05, 5.701398913515732e-05]","[4.2165997001575306e-05, -0.003459249623119831, -0.00015808691387064755, -0.00027271482395008206, -0.0002672264236025512, -0.00031321041751652956]","[0.0, -1.5707963267948966, 0.0, 0.0, 0.0, 0.0]","[0.0, -1.5707963267948966, 0.0, 0.0, 0.0, 0.0]","[3.618656685978073e-21, -1.827557994473309, -1.8263296076808777, -1.8269746636091606, 0.5614385154906262, 0.0]",0.002,7,1
0,-1,"[-2.271333803349762e-05, -1.5707754091075294, -2.7197836971026845e-05, 2.9249782226514753e-05, 1.3959408533992246e-05, 3.3468274978076806e-06]","[3.4826825867639855e-05, -0.0003090806712862104, -0.00010352832759963349, -0.00023866016999818385, -0.00018353594350628555, -0.00018586365331429988]","[0.0, -1.5707963267948966, 0.0, 0.0, 0.0, 0.0]","[0.0, -1.5707963267948966, 0.0, 0.0, 0.0, 0.0]","[7.894146477111535e-21, -1.8268888590673653, -1.8263328516638266, -1.8269746659606552, 0.5614385162328632, 0.0]",0.002,7,1
0,-1,"[-1.3653432027638246e-05, -1.5707184833339234, 4.7985707418263246e-05, -4.2037372924852434e-05, 3.177504549967125e-05, 3.5953522456111386e-05]","[1.5681229342590086e-05, 0.001385970739647746, -3.1041702186485054e-06, -0.00020569900516420603, -0.00016519763448741287, -0.00016763736493885517]","[0.0, -1.5707963267948966, 0.0, 0.0, 0.0, 0.0]","[0.0, -1.5707963267948966, 0.0, 0.0, 0.0, 0.0]","[-3.1974873373390423e-19, -1.832852535922805, -1.828599751323628, -1.8269746546327759, 0.5614385118546972, 0.0]",0.002,7,1
0,-1,"[-4.7032033101856996e-05, -1.570707619194156, -3.169491174048744e-05, 1.2083644531202253e-05, 6.4548967202426866e-06, 3.154596561216749e-05]","[1.4132246178633068e-05, 0.0015188560355454683, -1.005714541052298e-13, -0.0001819354947656393, -0.00017170925275422633, -0.00014911872858647257]","[0.0, -1.5707963267948966, 0.0, 0.0, 0.0, 0.0]","[0.0, -1.5707963267948966, 0.0, 0.0, 0.0, 0.0]","[-2.212828079768169e-19, -1.8304895089002102, -1.8278123570322362, -1.826974664386625, 0.5614385148333138, 0.0]",0.002,7,1
0,-1,"[3.565325096133165e-05, -1.5706630543903266, -2.259529719594866e-05, -1.6288166381883684e-05, -6.024037496388246e-06, -7.788287561538709e-07]","[1.329707356489962e-05, 0.0008812348241917789, -3.2583959012493965e-21, -0.00018618773901835084, -0.00015483450260944664, -0.00015627784887328744]","[0.0, -1.5707963267948966, 0.0, 0.0, 0.0, 0.0]","[0.0, -1.5707963267948966, 0.0, 0.0, 0.0, 0.0]","[2.2230623718969816e-19, -1.8357936724561412, -1.829601069797194, -1.8269746276600267, 0.5614385050305177, 0.0]",0.002,7,1
0,-1,"[2.658737003002898e-06, -1.570658657747419, 4.369417299443512e-05, -2.558649096684462e-05, 1.1015635209332686e-05, 4.485506360651925e-05]","[1.2214326488901861e-05, 0.00029712053947150707, -1.900193230259951e-32, -0.00016133284952957183, -0.00015421236457768828, -0.00013632462651003152]","[0.0, -1.5707963267948966, 0.0, 0.0, 0.0, 0.0]","[0.0, -1.5707963267948966, 0.0, 0.0, 0.0, 0.0]","[7.147512576705858e-21, -1.832392096021926, -1.8287232042152912, -1.826974652477846, 0.5614385119741745, 0.0]",0.002,7,1
0,-1,"[5.203211185289547e-05, -1.5707228368012984, -2.8471589757828042e-05, -1.6288166381883684e-05, 2.735583075264003e-05, 1.5223439731926192e-05]","[2.1272815502015874e-05, -0.0012014682870358229, -1.1070257868166055e-43, -0.0001422127679688856, -0.00013665093865711242, -0.0001291412190767005]","[0.0, -1.5707963267948966, 0.0, 0.0, 0.0, 0.0]","[0.0, -1.5707963267948966, 0.0, 0.0, 0.0, 0.0]","[-7.943508480165637e-20, -1.8330771751661792, -1.8288210947911638, -1.826974659022307, 0.5614385130483457, 0.0]",0.002,7,1
0,-1,"[3.563509744708426e-05, -1.5707623046694899, -5.685915311914869e-06, 3.819047894282335e-05, 2.7313917598803528e-05, -3.8448964254200746e-05]","[2.1007501345593482e-05, -0.0009819394908845425, -0.0, -0.00012714236800093204, -0.0001284934114664793, -0.00012368113675620407]","[0.0, -1.5707963267948966, 0.0, 0.0, 0.0, 0.0]","[0.0, -1.5707963267948966, 0.0, 0.0, 0.0, 0.0]","[-2.547395754175961e-19, -1.8289048254737998, -1.8274976912908647, -1.8269746629723134, 0.5614385148434522, 0.0]",0.002,7,1
0,-1,"[7.188935342128389e-06, -1.570767751578689, -9.767651499714702e-05, -2.546728167729384e-05, 1.3959408533992246e-05, 2.0463467080844566e-06]","[2.66303061380313e-07, -0.0005197361460886896, -0.0, -0.00011496358638396487, -0.00010971544543281198, -0.00011212586832698435]","[0.0, -1.5707963267948966, 0.0, 0.0, 0.0, 0.0]","[0.0, -1.5707963267948966, 0.0, 0.0, 0.0, 0.0]","[8.32474568473367e-20, -1.8313104687136355, -1.8281816556224648, -1.826974659938747, 0.5614385145615511, 0.0]",0.002,7,1
0,-1,"[-1.8421803609669496e-05, -1.5707556767959723, -5.553960727411322e-05, -1.6288166381883684e-05, 3.0279159545898438e-05, 2.719718213484157e-05]","[1.5529947905310508e-18, 0.0002609802468214184, -0.0, -0.00010491107968846336, -9.57117008510977e-05, -0.00010254322842229158]","[0.0, -1.5707963267948966, 0.0, 0.0, 0.0, 0.0]","[0.0, -1.5707963267948966, 0.0, 0.0, 0.0, 0.0]","[-5.475335949156942e-20, -1.8292275860843505, -1.8273644195313525, -1.8269746658977668, 0.5614385155020136, 0.0]",0.002,7,1
0,-1,"[-6.024037496388246e-06, -1.5706934219673094, 2.271333803349762e-05, -3.7269001342821184e-05, -6.024037496388246e-06, 7.830258255125955e-06]","[9.056568954441375e-30, 0.0006820284179411829, -0.0, -9.64778519119136e-05, -8.48805793793872e-05, -7.785831985529512e-05]","[0.0, -1.5707963267948966, 0.0, 0.0, 0.0, 0.0]","[0.0, -1.5707963267948966, 0.0, 0.0, 0.0, 0.0]","[2.0716986595574344e-19, -1.831987054082827, -1.8282744541254878, -1.8269746596383731, 0.5614385144399636, 0.0]",0.002,7,1
0,-1,"[1.452537708246382e-05, -1.5707196240585581, 1.3653432027638246e-05, 3.366052593989366e-05, 2.2748274204786867e-05, 7.800340426911134e-06]","[0.0, 0.000214985033380799, -0.0, -8.609411452198401e-05, -7.256142271216959e-05, -6.736725481459871e-05]","[0.0, -1.5707963267948966, 0.0, 0.0, 0.0, 0.0]","[0.0, -1.5707963267948966, 0.0, 0.0, 0.0, 0.0]","[-2.358027228592665e-19, -1.8324124781318554, -1.8288816381659567, -1.8269746605828876, 0.5614385134065663, 0.0]",0.002,7,1
0,-1,"[-1.732503072560121e-06, -1.5707338333780463, -7.839156751288101e-05, -2.546728167729384e-05, -3.415742983037262e-05, -5.070363179981996e-06]","[0.0, -0.0008006893331184983, -0.0, -8.033077756408602e-05, -6.616052269237116e-05, -6.181486241985112e-05]","[0.0, -1.5707963267948966, 0.0, 0.0, 0.0, 0.0]","[0.0, -1.5707963267948966, 0.0, 0.0, 0.0, 0.0]","[-1.5618736438286185e-19, -1.8291568371623301, -1.8276117361507038, -1.8269746571956818, 0.5614385136512577, 0.0]",0.002,7,1
0,-1,"[2.6407606128486805e-06, -1.5707458578366023, -3.9091570215532556e-05, -1.6288166381883684e-05, 3.173065124428831e-05, -7.788287561538709e-07]","[0.0, -0.0007697854307480156, -0.0, -2.6241836259327175e-14, -5.842963219038211e-05, -5.501402847585268e-05]","[0.0, -1.5707963267948966, 0.0, 0.0, 0.0, 0.0]","[0.0, -1.5707963267948966, 0.0, 0.0, 0.0, 0.0]","[-1.7649604428832236e-20, -1.8255516561506164, -1.825978310344114, -1.826974663696816, 0.561438515611065, 0.0]",0.002,7,1
0,-1,"[3.11228031932842e-05, -1.5707294766655941, -5.640380550175905e-06, -2.367914233403212e-05, -1.732503072560121e-06, -8.885060445606996e-06]","[0.0, -0.00041112551116384566, -0.0, -2.0332404398624942e-21, -5.420609886641614e-05, -5.1254082791274413e-05]","[0.0, -1.5707963267948966, 0.0, 0.0, 0.0, 0.0]","[0.0, -1.5707963267948966, 0.0, 0.0, 0.0, 0.0]","[-1.8353069841020302e-19, -1.8309673038670962, -1.8288799439071421, -1.8269746606434525, 0.5614385138897915, 0.0]",0.002,7,1
0,-1,"[-6.024037496388246e-06, -1.5707228541617333, -2.86102294921875e-06, -2.558649096684462e-05, 4.804162381333299e-05, 4.0436814742861316e-05]","[0.0, -1.2886600120332048e-10, -0.0, -4.385110264460731e-32, -8.294346116599627e-07, -1.946332418151231e-12]","[0.0, -1.5707963267948966, 0.0, 0.0, 0.0, 0.0]","[0.0, -1.5707963267948966, 0.0, 0.0, 0.0, 0.0]","[-1.3067851015901016e-20, -1.8295636574407517, -1.8277004908877537, -1.8269746588438462, 0.5614385142727871, 0.0]",0.002,7,1
0,-1,"[-3.9402638570606996e-05, -1.5707927891401887, 1.794496645146637e-05, 9.222621581983503e-06, 2.738301918725483e-05, -1.794496645146637e-05]","[0.0, -5.601440279775505e-20, -0.0, -5.203665234812249e-38, -9.842626930503529e-13, -2.309648122901429e-18]","[0.0, -1.5707963267948966, 0.0, 0.0, 0.0, 0.0]","[0.0, -1.5707963267948966, 0.0, 0.0, 0.0, 0.0]","[1.0302358753467792e-19, -1.8288856396449182, -1.8271600001126431, -1.8269746660259791, 0.5614385154313093, 0.0]",0.002,7,1
0,-1,"[-2.557436098271637e-05, -1.5707097946036193, -5.2745104767382145e-05, -4.2037372924852434e-05, -1.0792409078419496e-05, 3.157541141263209e-05]","[0.0, -7.888425181934775e-37, -0.0, -0.0, -2.122768686825472e-23, -4.981242360976714e-29]","[0.0, -1.5707963267948966, 0.0, 0.0, 0.0, 0.0]","[0.0, -1.5707963267948966, 0.0, 0.0, 0.0, 0.0]","[-3.688982547681566e-20, -1.8316630261734501, -1.8284434685045874, -1.8269746594262068, 0.5614385143009998, 0.0]",0.002,7,1
0,-1,"[2.3552893253508955e-05, -1.5707338270115834, -2.2616506612394005e-05, -9.016399719286028e-06, -4.3217335836231996e-05, 1.2262820746400394e-05]","[0.0, 4.946797344018705e-05, -0.0, -0.0, -3.8580308090575315e-28, -9.05316984354866e-34]","[0.0, -1.5707963267948966, 0.0, 0.0, 0.0, 0.0]","[0.0, -1.5707963267948966, 0.0, 0.0, 0.0, 0.0]","[-5.703203528399988e-20, -1.8287502786710585, -1.8270235536874044, -1.8269746651582814, 0.5614385160559682, 0.0]",0.002,7,1
0,-1,"[7.315051334444433e-05, -1.5707697972450951, 6.024037496388246e-06, 3.377973522944444e-05, -6.024037496388246e-06, -2.5097523824513246e-05]","[0.0, 3.870350375585096e-18, -0.0, -0.0, -1.9517582759013752e-36, -4.579443381413502e-42]","[0.0, -1.5707963267948966, 0.0, 0.0, 0.0, 0.0]","[0.0, -1.5707963267948966, 0.0, 0.0, 0.0, 0.0]","[-2.0691736907376163e-19, -1.8303137252572992, -1.8280453713205647, -1.8269746630353774, 0.5614385148467691, 0.0]",0.002,7,1
0,-1,"[1.902580333990045e-05, -1.570774133215611, -3.62609644071199e-05, -5.3719883300829e-05, -3.511110414677887e-05, -2.5097523824513246e-05]","[0.0, 5.450557231065486e-35, -0.0, -0.0, -0.0, -0.0]","[0.0, -1.5707963267948966, 0.0, 0.0, 0.0, 0.0]","[0.0, -1.5707963267948966, 0.0, 0.0, 0.0, 0.0]","[-1.9385184450333342e-20, -1.8282167939616794, -1.8271692994321644, -1.8269746659951058, 0.5614385162931342, 0.0]",0.002,7,1
0,-1,"[4.0120125049725175e-05, -1.57081999401235, -2.7179718017578125e-05, 4.692668579053816e-06, -1.5083943502247621e-05, -1.794496645146637e-05]","[0.0, -0.00010024559014709666, -0.0, -0.0, -0.0, -0.0]","[0.0, -1.5707963267948966, 0.0, 0.0, 0.0, 0.0]","[0.0, -1.5707963267948966, 0.0, 0.0, 0.0, 0.0]","[4.433946577225651e-20, -1.828155217798797, -1.8269755867920228, -1.826974665860307, 0.5614385162384525, 0.0]",0.002,7,1
0,-1,"[-6.024037496388246e-06, -1.5707337390816356, -2.86102294921875e-06, -1.6288166381883684e-05, 2.878235864045564e-05, -1.3176594869435121e-05]","[0.0, -3.731653850991279e-05, -0.0, -0.0, -0.0, -0.0]","[0.0, -1.5707963267948966, 0.0, 0.0, 0.0, 0.0]","[0.0, -1.5707963267948966, 0.0, 0.0, 0.0, 0.0]","[1.615731890499829e-20, -1.82614299221993, -1.826313264422525, -1.826974665497909, 0.5614385161547288, 0.0]",0.002,7,1
0,-1,"[4.7513960453215986e-05, -1.5707021148303575, -7.4242361733922735e-06, -1.6288166381883684e-05, -1.5083943502247621e-05, 3.730869138962589e-05]","[0.0, -5.855675044585951e-05, -0.0, -0.0, -0.0, -0.0]","[0.0, -1.5707963267948966, 0.0, 0.0, 0.0, 0.0]","[0.0, -1.5707963267948966, 0.0, 0.0, 0.0, 0.0]","[-3.7568837362145126e-20, -1.830493677376149, -1.8279075394175235, -1.8269746563001457, 0.5614385135250661, 0.0]",0.002,7,1
0,-1,"[2.357685661991127e-05, -1.5707589983979524, -1.1826750778709538e-06, -4.367237426805559e-06, -8.885060445606996e-06, -8.885060445606996e-06]","[0.0, -7.474952144548297e-05, -0.0, -0.0, -0.0, -0.0]","[0.0, -1.5707963267948966, 0.0, 0.0, 0.0, 0.0]","[0.0, -1.5707963267948966, 0.0, 0.0, 0.0, 0.0]","[6.145176469444727e-21, -1.829085492194306, -1.8274950158844412, -1.8269746658623367, 0.5614385161693152, 0.0]",0.002,7,1
0,-1,"[-3.163014547169496e-06, -1.5707535828408545, 4.655519594365387e-05, 2.114355053706163e-05, 7.152557373046875e-06, -2.5097523824513246e-05]","[0.0, -0.00016059416520874947, -0.0, -0.0, -0.0, -0.0]","[0.0, -1.5707963267948966, 0.0, 0.0, 0.0, 0.0]","[0.0, -1.5707963267948966, 0.0, 0.0, 0.0, 0.0]","[-9.775837614062476e-20, -1.8300801657975867, -1.8274915800814044, -1.8269746650313183, 0.5614385158109091, 0.0]",0.002,7,1
0,-1,"[7.161735084082466e-06, -1.5707873106042207, -6.010281867929734e-05, 4.692668579053816e-06, 2.4256705728475936e-05, -2.9865895406544496e-05]","[0.0, -0.00023098633391782641, -0.0, -0.0, -0.0, -0.0]","[0.0, -1.5707963267948966, 0.0, 0.0, 0.0, 0.0]","[0.0, -1.5707963267948966, 0.0, 0.0, 0.0, 0.0]","[-3.2977571372169546e-20, -1.826581287588606, -1.826390505609951, -1.826974666009283, 0.5614385162276501, 0.0]",0.002,7,1
0,1,"[-2.271333803349762e-05, -1.5707754156431584, 6.324449648076325e-05, -1.1758213378953997e-05, 1.1024474588339217e-05, -2.9865895406544496e-05]","[0.0, -7.587119762320071e-05, -0.0, -0.0, -0.0, -0.0]","[0.05879002119914294, -1.5120063055957536, 0.05879002119914294, 0.05879002119914294, 0.05879002119914294, 0.05879002119914294]","[0.05879002119914294, -1.5120063055957536, 0.05879002119914294, 0.05879002119914294, 0.05879002119914294, 0.05879002119914294]","[-7.083354380444714e-21, -1.8274505002950332, -1.8267169575306175, -1.8269746660397246, 0.5614385161352791, 0.0]",0.002,7,1
0,2,"[3.260093944845721e-05, -1.5706041745036892, 6.6105519429982e-05, 7.121145214838975e-05, 6.325135473161936e-05, 6.457106064772233e-05]","[0.025902004912495613, 0.11672306060791016, 0.08223555982112885, 0.04360533133149147, 0.036503538489341736, 0.037854112684726715]","[0.05936660287344685, -1.5114297239214498, 0.05936660287344685, 0.05936660287344685, 0.05936660287344685, 0.05936660287344685]","[0.05936660287344685, -1.5114297239214498, 0.05936660287344685, 0.05936660287344685, 0.05936660287344685, 0.05936660287344685]","[7.388506702755997, 34.927712417147674, 20.09908598198669, -0.2515077486084627, 1.722364153820659, 1.3259691813383838]",0.002,7,1
0,3,"[8.057102240854874e-05, -1.5704555810701386, 0.00017577806581670075, 0.0001625257679442882, 0.00012636184692382812, 0.00021713510795962065]","[0.036649446934461594, 0.139926940202713, 0.10037297755479813, 0.06452083587646484, 0.05679181590676308, 0.06075892969965935]","[0.05994301779578886, -1.5108533089991076, 0.05994301779578886, 0.05994301779578886, 0.05994301779578886, 0.05994301779578886]","[0.05994301779578886, -1.5108533089991076, 0.05994301779578886, 0.05994301779578886, 0.05994301779578886, 0.05994301779578886]","[7.306752322689989, 34.50268666738712, 19.84820939689655, -0.2689052580756641, 1.709233471684466, 1.3111059925639816]",0.002,7,1
0,4,"[0.00022618865477852523, -1.5703292345609334, 0.0003622213946741226, 0.000270529384277296, 0.0003799287951551378, 0.0002833278849720955]","[0.0414528027176857, 0.13323527574539185, 0.09871722012758255, 0.06819187849760056, 0.06465515494346619, 0.06426990777254105]","[0.06051926434710513, -1.5102770624477915, 0.06051926434710513, 0.06051926434710513, 0.06051926434710513, 0.06051926434710513]","[0.06051926434710513, -1.5102770624477915, 0.06051926434710513, 0.06051926434710513, 0.06051926434710513, 0.06051926434710513]","[7.297823357000384, 34.43983794442181, 19.812869157214315, -0.2707195319280642, 1.7074961779223303, 1.3092901108505588]",0.002,7,1
0,5,"[0.0003779554390348494, -1.5701077978922804, 0.0005615393268030289, 0.00036637365307612413, 0.0004043788940180093, 0.000436203001299873]","[0.05718160420656204, 0.12772692739963531, 0.10041572898626328, 0.06897886097431183, 0.07072525471448898, 0.07020748406648636]","[0.06109534090880478, -1.5097009858860917, 0.06109534090880478, 0.06109534090880478, 0.06109534090880478, 0.06109534090880478]","[0.06109534090880478, -1.5097009858860917, 0.06109534090880478, 0.06109534090880478, 0.06109534090880478, 0.06109534090880478]","[7.286242497839684, 34.36260412345331, 19.768118433654056, -0.2730250942497039, 1.705283012781293, 1.3069717659586086]",0.002,7,1
0,6,"[0.0005218526348471642, -1.5698262970875767, 0.0008185545550745132, 0.0005270677753905773, 0.0005661557079292834, 0.0005932372878305614]","[0.07203561067581177, 0.12991943955421448, 0.10928185284137726, 0.07719093561172485, 0.07606177777051926, 0.07552655786275864]","[0.061671245862774365, -1.5091250809321222, 0.061671245862774365, 0.061671245862774365, 0.061671245862774365, 0.061671245862774365]","[0.061671245862774365, -1.5091250809321222, 0.061671245862774365, 0.061671245862774365, 0.061671245862774365, 0.061671245862774365]","[7.272292415743767, 34.26505697846184, 19.7128758430808, -0.27588233754723324, 1.7025908724572405, 1.3041446818760243]",0.002,7,1
0,7,"[0.000682164216414094, -1.5695872326944773, 0.0010469595538538101, 0.0007352071949462413, 0.0006731839384883642, 0.0007450641714967787]","[0.08967181295156479, 0.13454824686050415, 0.1150871217250824, 0.088177889585495, 0.08462824672460556, 0.08612232655286789]","[0.06224697759138249, -1.508549349203514, 0.06224697759138249, 0.06224697759138249, 0.06224697759138249, 0.06224697759138249]","[0.06224697759138249, -1.508549349203514, 0.06224697759138249, 0.06224697759138249, 0.06224697759138249, 0.06224697759138249]","[7.255955815956346, 34.14870930095499, 19.647133370749394, -0.2792674590906066, 1.699441096140009, 1.3008256512411236]",0.002,7,1
0,8,"[0.0008502942509949207, -1.5693234114772459, 0.001275364552633107, 0.0008985239216308116, 0.000895703153219074, 0.0009533019037917256]","[0.10350493341684341, 0.12032357603311539, 0.10588590055704117, 0.09958024322986603, 0.09690400213003159, 0.09638635814189911]","[0.06282253447748433, -1.5079737923174121, 0.06282253447748433, 0.06282253447748433, 0.06282253447748433, 0.06282253447748433]","[0.06282253447748433, -1.5079737923174121, 0.06282253447748433, 0.06282253447748433, 0.06282253447748433, 0.06282253447748433]","[7.236956184399656, 34.02142165296568, 19.574391248162534, -0.28321097178500376, 1.6958464801043158, 1.2970153376321332]",0.002,7,1
0,9,"[0.0011205013142898679, -1.5691238011098285, 0.0014866034137170914, 0.0011690097996215343, 0.001029575476422906, 0.0011344068916514516]","[0.11937561631202698, 0.08889937400817871, 0.09633957594633102, 0.10516172647476196, 0.10822763293981552, 0.10567102581262589]","[0.06339791490442616, -1.5073984118904704, 0.06339791490442616, 0.06339791490442616, 0.06339791490442616, 0.06339791490442616]","[0.06339791490442616, -1.5073984118904704, 0.06339791490442616, 0.06339791490442616, 0.06339791490442616, 0.06339791490442616]","[7.215447426759011, 33.87929199488748, 19.493310659033426, -0.2875478396278346, 1.6917751808966774, 1.2927250237619132]",0.002,7,1
0,10,"[0.0013634251663461328, -1.568968930896819, 0.0016744772540491226, 0.001425309772155714, 0.0013086836552247405, 0.0013875140575692058]","[0.12848982214927673, 0.08723346143960953, 0.11660345643758774, 0.11977217346429825, 0.11983771622180939, 0.11766810715198517]","[0.06397311725604987, -1.5068232095388467, 0.06397311725604987, 0.06397311725604987, 0.06397311725604987, 0.06397311725604987]","[0.06397311725604987, -1.5068232095388467, 0.06397311725604987, 0.06397311725604987, 0.06397311725604987, 0.06397311725604987]","[7.191335835965996, 33.72742308483433, 19.405478789641645, -0.2925111858489129, 1.6872920227039965, 1.2879553428885229]",0.002,7,1
0,11,"[0.0016574255423620343, -1.5688162301997473, 0.001973930989400685, 0.0016571718403319835, 0.0015445641474798322, 0.0015977234579622746]","[0.13628216087818146, 0.12188053876161575, 0.1359352320432663, 0.13034161925315857, 0.13038359582424164, 0.12840931117534637]","[0.0645481399166976, -1.506248186878199, 0.0645481399166976, 0.0645481399166976, 0.0645481399166976, 0.0645481399166976]","[0.0645481399166976, -1.506248186878199, 0.0645481399166976, 0.0645481399166976, 0.0645481399166976, 0.0645481399166976]","[7.164593774132425, 33.56562979127485, 19.31119222810095, -0.29788422243079693, 1.6823578034717102, 1.2827195947682035]",0.002,7,1
0,12,"[0.0018599794711917639, -1.5685391114423801, 0.002145115529195607, 0.0019447046467284679, 0.001801159349270165, 0.0019274200312793255]","[0.14477382600307465, 0.13523997366428375, 0.14087481796741486, 0.14023856818675995, 0.1432926207780838, 0.13976740837097168]","[0.06512298127121614, -1.5056733455236804, 0.06512298127121614, 0.06512298127121614, 0.06512298127121614, 0.06512298127121614]","[0.06512298127121614, -1.5056733455236804, 0.06512298127121614, 0.06512298127121614, 0.06512298127121614, 0.06512298127121614]","[7.135571774471435, 33.38869304274973, 19.207150708580137, -0.3037370357888236, 1.6769839107654587, 1.2770191454990647]",0.002,7,1
0,13,"[0.0021240729838609695, -1.5682872226792206, 0.002385441456929982, 0.002167029971740675, 0.002090080641210079, 0.002207377692684531]","[0.15269038081169128, 0.13773636519908905, 0.14224973320960999, 0.14806129038333893, 0.15015380084514618, 0.15141120553016663]","[0.06569763970496163, -1.505098687089935, 0.06569763970496163, 0.06569763970496163, 0.06569763970496163, 0.06569763970496163]","[0.06569763970496163, -1.505098687089935, 0.06569763970496163, 0.06569763970496163, 0.06569763970496163, 0.06569763970496163]","[7.1043144131656915, 33.19384636544041, 19.095513766680497, -0.3100430219425274, 1.6711761014254805, 1.2708626696478014]",0.002,7,1
0,14,"[0.0025351461954414845, -1.5679648642292996, 0.002713982258931935, 0.002535863513610792, 0.002501271665096283, 0.0024878091644495726]","[0.1623142510652542, 0.14479084312915802, 0.15162545442581177, 0.15534083545207977, 0.16274181008338928, 0.15906985104084015]","[0.06627211360380393, -1.5045242131910925, 0.06627211360380393, 0.06627211360380393, 0.06627211360380393, 0.06627211360380393]","[0.06627211360380393, -1.5045242131910925, 0.06627211360380393, 0.06627211360380393, 0.06627211360380393, 0.06627211360380393]","[7.070715334360322, 32.98668744114389, 18.975708357617428, -0.3167416782569925, 1.66492809126233, 1.264257451761214]",0.002,7,1
0,15,"[0.002940192585811019, -1.5676523119075974, 0.0030930677997034195, 0.00280563413586421, 0.0028126025572419167, 0.0028118204791098833]","[0.1787845343351364, 0.15819957852363586, 0.16592860221862793, 0.16598305106163025, 0.17594239115715027, 0.1702798753976822]","[0.06684640135413125, -1.5039499254407653, 0.06684640135413125, 0.06684640135413125, 0.06684640135413125, 0.06684640135413125]","[0.06684640135413125, -1.5039499254407653, 0.06684640135413125, 0.06684640135413125, 0.06684640135413125, 0.06684640135413125]","[7.035154390040589, 32.76072223152057, 18.84535785305288, -0.3240068799230855, 1.6582944352069118, 1.2572130199928535]",0.002,7,1
0,16,"[0.003294178284704685, -1.5673618889744212, 0.0034487883197229507, 0.003245397205017042, 0.0031161585357040167, 0.003167239250615239]","[0.18909913301467896, 0.16709178686141968, 0.1787349432706833, 0.17822153866291046, 0.1888299435377121, 0.18187202513217926]","[0.06742050134285471, -1.503375825452042, 0.06742050134285471, 0.06742050134285471, 0.06742050134285471, 0.06742050134285471]","[0.06742050134285471, -1.503375825452042, 0.06742050134285471, 0.06742050134285471, 0.06742050134285471, 0.06742050134285471]","[6.997363090109089, 32.52226489473524, 18.70712632277794, -0.33164869789987694, 1.651227221782288, 1.2497304328578471]",0.002,7,1
0,17,"[0.0037397202104330063, -1.5670786334997793, 0.003858391438619435, 0.0035939651676635265, 0.003518970450386405, 0.0036134261172264814]","[0.2020542174577713, 0.17786768078804016, 0.1922052651643753, 0.19401535391807556, 0.19548466801643372, 0.19405879080295563]","[0.06799441195741276, -1.5028019148374838, 0.06799441195741276, 0.06799441195741276, 0.06799441195741276, 0.06799441195741276]","[0.06799441195741276, -1.5028019148374838, 0.06799441195741276, 0.06799441195741276, 0.06799441195741276, 0.06799441195741276]","[6.957330549829369, 32.27296929911026, 18.56224656757719, -0.33989250941390514, 1.6438032674722969, 1.2418195333248851]",0.002,7,1
0,18,"[0.0041913785971701145, -1.566665150491037, 0.004238430653707326, 0.0040936905094604015, 0.003948464524000883, 0.004005030263215303]","[0.21144899725914001, 0.18614399433135986, 0.20033471286296844, 0.21003660559654236, 0.20375126600265503, 0.20539377629756927]","[0.06856813158577582, -1.5022281952091208, 0.06856813158577582, 0.06856813158577582, 0.06856813158577582, 0.06856813158577582]","[0.06856813158577582, -1.5022281952091208, 0.06856813158577582, 0.06856813158577582, 0.06856813158577582, 0.06856813158577582]","[6.915123030987154, 32.01156097034557, 18.409739569827693, -0.34844635544936886, 1.6359544656204181, 1.2334905641297236]",0.002,7,1
0,19,"[0.004654855001717806, -1.5663261066986998, 0.004569832478658498, 0.004518790835998487, 0.004394966643303633, 0.0044204602017998695]","[0.22045345604419708, 0.19466634094715118, 0.20869934558868408, 0.2213679999113083, 0.21672247350215912, 0.21393194794654846]","[0.06914165861645073, -1.5016546681784457, 0.06914165861645073, 0.06914165861645073, 0.06914165861645073, 0.06914165861645073]","[0.06914165861645073, -1.5016546681784457, 0.06914165861645073, 0.06914165861645073, 0.06914165861645073, 0.06914165861645073]","[6.871147733748826, 31.730860185012567, 18.248225633791584, -0.3575261327808259, 1.6277409025788545, 1.2247490042099947]",0.002,7,1
0,20,"[0.005064507480710745, -1.5659614189392705, 0.004998032246724904, 0.004947705859802198, 0.00492367148399353, 0.00486852927133441]","[0.22931404411792755, 0.20504850149154663, 0.21531902253627777, 0.22727245092391968, 0.23076483607292175, 0.22744199633598328]","[0.06971499143848532, -1.5010813353564112, 0.06971499143848532, 0.06971499143848532, 0.06971499143848532, 0.06971499143848532]","[0.06971499143848532, -1.5010813353564112, 0.06971499143848532, 0.06971499143848532, 0.06971499143848532, 0.06971499143848532]","[6.824766926773603, 31.44441013543603, 18.08239759956136, -0.36693234773666616, 1.619127734364072, 1.2156021458107351]",0.002,7,1
0,21,"[0.005607465747743845, -1.5655298165841778, 0.005522076283590138, 0.00532488405194087, 0.005466115195304155, 0.005446764174848795]","[0.24083632230758667, 0.21509532630443573, 0.22730056941509247, 0.23449648916721344, 0.24716708064079285, 0.24087855219841003]","[0.07028812844147295, -1.5005081983534236, 0.07028812844147295, 0.07028812844147295, 0.07028812844147295, 0.07028812844147295]","[0.07028812844147295, -1.5005081983534236, 0.07028812844147295, 0.07028812844147295, 0.07028812844147295, 0.07028812844147295]","[6.776538835262144, 31.14334654717822, 17.907712388651127, -0.37673374717957353, 1.6101362167718185, 1.2060592937396015]",0.002,7,1
0,22,"[0.006132913287729025, -1.5650682051530858, 0.006022278462545216, 0.005881353015563917, 0.005975243169814348, 0.00590137206017971]","[0.25035011768341064, 0.22782482206821442, 0.2365950047969818, 0.2433694750070572, 0.2575555443763733, 0.25311708450317383]","[0.07086106801555694, -1.4999352587793395, 0.07086106801555694, 0.07086106801555694, 0.07086106801555694, 0.07086106801555694]","[0.07086106801555694, -1.4999352587793395, 0.07086106801555694, 0.07086106801555694, 0.07086106801555694, 0.07086106801555694]","[6.726627321731752, 30.82553589171409, 17.723626925263623, -0.38688073838671055, 1.6007578473931012, 1.196126361423728]",0.002,7,1
0,23,"[0.006668407935649157, -1.5646078472821792, 0.006510082875387013, 0.0064359146305541515, 0.0064370231702923775, 0.006456425879150629]","[0.26093143224716187, 0.23809410631656647, 0.2511921226978302, 0.2549200654029846, 0.2657259404659271, 0.2627246677875519]","[0.07143380855143525, -1.4993625182434613, 0.07143380855143525, 0.07143380855143525, 0.07143380855143525, 0.07143380855143525]","[0.07143380855143525, -1.4993625182434613, 0.07143380855143525, 0.07143380855143525, 0.07143380855143525, 0.07143380855143525]","[6.674884247418873, 30.495052611974163, 17.532699637007024, -0.39758304691747925, 1.591062156551608, 1.1858099652852743]",0.002,7,1
0,24,"[0.007187255658209324, -1.5641281691244622, 0.007098023091451466, 0.007012053126953077, 0.0070455060340464115, 0.006970630493015051]","[0.2724449336528778, 0.2498185932636261, 0.26181405782699585, 0.2728177011013031, 0.2723565697669983, 0.271981805562973]","[0.07200634844036483, -1.4987899783545318, 0.07200634844036483, 0.07200634844036483, 0.07200634844036483, 0.07200634844036483]","[0.07200634844036483, -1.4987899783545318, 0.07200634844036483, 0.07200634844036483, 0.07200634844036483, 0.07200634844036483]","[6.621209375337521, 30.15431349797845, 17.33577778579145, -0.4086675796376482, 1.5810131856924685, 1.1751176801869712]",0.002,7,1
0,25,"[0.007722841110080481, -1.5636075900732358, 0.007588211690084279, 0.007669849986694288, 0.00763337966054678, 0.0075353169813752174]","[0.28341037034988403, 0.2617764472961426, 0.2756691873073578, 0.2883087694644928, 0.2791292667388916, 0.2837924063205719]","[0.07257868607416625, -1.4982176407207304, 0.07257868607416625, 0.07257868607416625, 0.07257868607416625, 0.07257868607416625]","[0.07257868607416625, -1.4982176407207304, 0.07257868607416625, 0.07257868607416625, 0.07257868607416625, 0.07257868607416625]","[6.56586806533639, 29.8001760742265, 17.130593420786486, -0.42011422599661574, 1.5706170491583253, 1.1640622094773836]",0.002,7,1
0,26,"[0.008344009518623352, -1.5630709778382261, 0.008261982594625294, 0.008284493083618116, 0.00819680280983448, 0.008115389384329319]","[0.29124316573143005, 0.27150991559028625, 0.28407764434814453, 0.2993714213371277, 0.28838419914245605, 0.29397404193878174]","[0.07315081984522818, -1.4976455069496684, 0.07315081984522818, 0.07315081984522818, 0.07315081984522818, 0.07315081984522818]","[0.07315081984522818, -1.4976455069496684, 0.07315081984522818, 0.07315081984522818, 0.07315081984522818, 0.07315081984522818]","[6.508701326167154, 29.435211187574453, 16.920361374301063, -0.43197261418464517, 1.5598963210917178, 1.1526474171889314]",0.002,7,1
0,27,"[0.008861635811626911, -1.56250771441076, 0.008779827748433888, 0.00877193986859126, 0.008769441395998001, 0.008715548552572727]","[0.3019932210445404, 0.2836647927761078, 0.2950446605682373, 0.30255061388015747, 0.3013015687465668, 0.3042799234390259]","[0.07372274814651193, -1.4970735786483846, 0.07372274814651193, 0.07372274814651193, 0.07372274814651193, 0.07372274814651193]","[0.07372274814651193, -1.4970735786483846, 0.07372274814651193, 0.07372274814651193, 0.07372274814651193, 0.07372274814651193]","[6.450102584018399, 29.055849870502215, 16.700662798436966, -0.4441809777033343, 1.548837261620378, 1.1408813134083218]",0.002,7,1
0,28,"[0.009524470195174217, -1.5619354632547875, 0.009384934102193654, 0.009391112918518019, 0.00942277442663908, 0.0093800388276577]","[0.3096027076244354, 0.2971733510494232, 0.30254557728767395, 0.30569738149642944, 0.3140222430229187, 0.31530964374542236]","[0.0742944693715559, -1.4965018574233406, 0.0742944693715559, 0.0742944693715559, 0.0742944693715559, 0.0742944693715559]","[0.0742944693715559, -1.4965018574233406, 0.0742944693715559, 0.0742944693715559, 0.0742944693715559, 0.0742944693715559]","[6.389545148182492, 28.668790734080083, 16.477947731899654, -0.45657870431382785, 1.5374175018427223, 1.1287728535049533]",0.002,7,1
0,29,"[0.010122927837073803, -1.5613148233718057, 0.00999766985048467, 0.010042114848754835, 0.010067678987979889, 0.009985401295125484]","[0.3185200095176697, 0.30444055795669556, 0.3103581964969635, 0.3131163418292999, 0.3224135637283325, 0.3247663974761963]","[0.07486598191448017, -1.4959303448804164, 0.07486598191448017, 0.07486598191448017, 0.07486598191448017, 0.07486598191448017]","[0.07486598191448017, -1.4959303448804164, 0.07486598191448017, 0.07486598191448017, 0.07486598191448017, 0.07486598191448017]","[6.327508128585716, 28.269749791325495, 16.247702804144392, -0.4694254262662736, 1.525711629829741, 1.1163318217340459]",0.002,7,1
0,30,"[0.010746988467872143, -1.5606490972316642, 0.010625187550679982, 0.01073269426312251, 0.010700829327106476, 0.010644742287695408]","[0.3267569839954376, 0.3148881793022156, 0.3203798532485962, 0.3258060812950134, 0.332597941160202, 0.3339330852031708]","[0.07543728416999097, -1.4953590426249055, 0.07543728416999097, 0.07543728416999097, 0.07543728416999097, 0.07543728416999097]","[0.07543728416999097, -1.4953590426249055, 0.07543728416999097, 0.07543728416999097, 0.07543728416999097, 0.07543728416999097]","[6.264017292215577, 27.858412141859155, 16.010963835255847, -0.4826221305767717, 1.5137016712091063, 1.103564387365511]",0.002,7,1
0,31,"[0.011465717107057571, -1.5599640498733898, 0.011379067097799123, 0.011482282275817823, 0.011380805633962154, 0.011325561441481113]","[0.33843737840652466, 0.32581159472465515, 0.33097782731056213, 0.3388878107070923, 0.3370450437068939, 0.3423880636692047]","[0.07600837453338521, -1.4947879522615113, 0.07600837453338521, 0.07600837453338521, 0.07600837453338521, 0.07600837453338521]","[0.07600837453338521, -1.4947879522615113, 0.07600837453338521, 0.07600837453338521, 0.07600837453338521, 0.07600837453338521]","[6.199128156652218, 27.43504721432445, 15.767784920433897, -0.4961691840801079, 1.5013978865943574, 1.0904787793036852]",0.002,7,1
0,32,"[0.012187309563159943, -1.5593175257420917, 0.011991326008931935, 0.01215021192517085, 0.012003841809928417, 0.011979629285633564]","[0.3468247354030609, 0.33604201674461365, 0.34058693051338196, 0.35067442059516907, 0.34842613339424133, 0.35250362753868103]","[0.07657925140055495, -1.4942170753943416, 0.07657925140055495, 0.07657925140055495, 0.07657925140055495, 0.07657925140055495]","[0.07657925140055495, -1.4942170753943416, 0.07657925140055495, 0.07657925140055495, 0.07657925140055495, 0.07657925140055495]","[6.133000014055902, 26.999192937842942, 15.516705880873031, -0.5100823908626958, 1.488813582351327, 1.0770845888884324]",0.002,7,1
0,33,"[0.012882775627076626, -1.5585966429537912, 0.012725655232564748, 0.012863917941711378, 0.012728550471365452, 0.012753990478813648]","[0.3552019000053406, 0.34685036540031433, 0.35057544708251953, 0.3586093783378601, 0.3580310642719269, 0.36042144894599915]","[0.07714991316799193, -1.4936464136269045, 0.07714991316799193, 0.07714991316799193, 0.07714991316799193, 0.07714991316799193]","[0.07714991316799193, -1.4936464136269045, 0.07714991316799193, 0.07714991316799193, 0.07714991316799193, 0.07714991316799193]","[6.064937996613312, 26.56025969524753, 15.264112505356248, -0.5242274941748337, 1.4759323248682095, 1.063387991731076]",0.002,7,1
0,34,"[0.01363165583461523, -1.5578349440223356, 0.013511482869283498, 0.013647242183349562, 0.01345041859894991, 0.013449563644826412]","[0.3640414774417877, 0.3595176935195923, 0.35872235894203186, 0.362884521484375, 0.3678045868873596, 0.3715986907482147]","[0.0777203582327921, -1.4930759685621044, 0.0777203582327921, 0.0777203582327921, 0.0777203582327921, 0.0777203582327921]","[0.0777203582327921, -1.4930759685621044, 0.0777203582327921, 0.0777203582327921, 0.0777203582327921, 0.0777203582327921]","[5.9959137686178465, 26.10618715776893, 15.003025101349953, -0.5386860946388146, 1.4627752782192334, 1.0494006809377845]",0.002,7,1
0,35,"[0.01438314188271761, -1.5571276715821405, 0.014172379170553029, 0.014378829593322706, 0.014223207719624043, 0.014168215915560722]","[0.3727216422557831, 0.37032216787338257, 0.37143808603286743, 0.3708496391773224, 0.3766603469848633, 0.3794766366481781]","[0.07829058499266005, -1.4925057418022365, 0.07829058499266005, 0.07829058499266005, 0.07829058499266005, 0.07829058499266005]","[0.07829058499266005, -1.4925057418022365, 0.07829058499266005, 0.07829058499266005, 0.07829058499266005, 0.07829058499266005]","[5.925749516647721, 25.640500624891562, 14.735423346045614, -0.5534876486919571, 1.4493627744618602, 1.035128881799915]",0.002,7,1
0,36,"[0.015101514756679535, -1.5563559981859107, 0.014922444020406544, 0.01514844476666255, 0.015019183978438377, 0.014916456304490566]","[0.3830687403678894, 0.38182157278060913, 0.3800106942653656, 0.3794202506542206, 0.38395240902900696, 0.38677752017974854]","[0.07886059184591358, -1.491935734948983, 0.07886059184591358, 0.07886059184591358, 0.07886059184591358, 0.07886059184591358]","[0.07886059184591358, -1.491935734948983, 0.07886059184591358, 0.07886059184591358, 0.07886059184591358, 0.07886059184591358]","[5.853725363192613, 25.173098457371335, 14.466720835451792, -0.5685075981091824, 1.435682044329686, 1.0205821430808233]",0.002,7,1
0,37,"[0.015892185270786285, -1.5555435179597517, 0.015724960957662404, 0.015910430545471144, 0.01578797772526741, 0.015712328255176544]","[0.39010369777679443, 0.3919089436531067, 0.3862511217594147, 0.38717350363731384, 0.3934439420700073, 0.3948805332183838]","[0.07943037719148822, -1.4913659496034084, 0.07943037719148822, 0.07943037719148822, 0.07943037719148822, 0.07943037719148822]","[0.07943037719148822, -1.4913659496034084, 0.07943037719148822, 0.07943037719148822, 0.07943037719148822, 0.07943037719148822]","[5.7807992793605845, 24.692501196324528, 14.190724678677658, -0.5838237016940651, 1.4217520961719692, 1.0057683339634311]",0.002,7,1
0,38,"[0.016680190339684486, -1.5547689751586695, 0.0164874235736292, 0.016692205066345167, 0.016573110595345497, 0.016527948901057243]","[0.39964911341667175, 0.40177157521247864, 0.39603564143180847, 0.3946380913257599, 0.4017428457736969, 0.40437349677085876]","[0.07999993942894161, -1.4907963873659549, 0.07999993942894161, 0.07999993942894161, 0.07999993942894161, 0.07999993942894161]","[0.07999993942894161, -1.4907963873659549, 0.07999993942894161, 0.07999993942894161, 0.07999993942894161, 0.07999993942894161]","[5.706853420771047, 24.201186343989725, 13.908746275966433, -0.5994022614190384, 1.4075765428166167, 0.9906950191908843]",0.002,7,1
0,39,"[0.017561977729201317, -1.553935020496585, 0.017247502003804982, 0.017504020328185987, 0.017398733645677567, 0.01739673689007759]","[0.4062723219394684, 0.4116036891937256, 0.40494322776794434, 0.4036099314689636, 0.4101359248161316, 0.41340371966362]","[0.08056927695845807, -1.4902270498364385, 0.08056927695845807, 0.08056927695845807, 0.08056927695845807, 0.08056927695845807]","[0.08056927695845807, -1.4902270498364385, 0.08056927695845807, 0.08056927695845807, 0.08056927695845807, 0.08056927695845807]","[5.631418987600612, 23.705975167321675, 13.624080809415593, -0.6152507008764536, 1.3931742199309591, 0.9753715716858393]",0.002,7,1
0,40,"[0.018365880474448204, -1.553099387591221, 0.018148724232808888, 0.01834957181896968, 0.01816832832992077, 0.018176570534706116]","[0.41360968351364136, 0.41802361607551575, 0.4141043722629547, 0.4146806299686432, 0.41687262058258057, 0.42179787158966064]","[0.08113838818085317, -1.4896579386140434, 0.08113838818085317, 0.08113838818085317, 0.08113838818085317, 0.08113838818085317]","[0.08113838818085317, -1.4896579386140434, 0.08113838818085317, 0.08113838818085317, 0.08113838818085317, 0.08113838818085317]","[5.5550181750624645, 23.200495282955075, 13.334374820537395, -0.6313475313060459, 1.3785442628374867, 0.9598069273485621]",0.002,7,1
0,41,"[0.01917935162782669, -1.5521942258677264, 0.018992249165670216, 0.019199057216308546, 0.019037507474422455, 0.019048217684030533]","[0.4230020344257355, 0.42957955598831177, 0.4225708544254303, 0.4251304566860199, 0.42552217841148376, 0.4292666018009186]","[0.08170727149757809, -1.4890890552973184, 0.08170727149757809, 0.08170727149757809, 0.08170727149757809, 0.08170727149757809]","[0.08170727149757809, -1.4890890552973184, 0.08170727149757809, 0.08170727149757809, 0.08170727149757809, 0.08170727149757809]","[5.477763806967121, 22.685476488662264, 13.038124586204294, -0.6477343864452053, 1.3637070869894359, 0.9440079462161404]",0.002,7,1
0,42,"[0.020078925415873528, -1.5513023150018235, 0.019797627125875294, 0.020005746478698683, 0.019895130768418312, 0.019977644085884094]","[0.43330246210098267, 0.43694648146629333, 0.43369168043136597, 0.433755487203598, 0.434095174074173, 0.4385186731815338]","[0.08227592531072411, -1.4885204014841724, 0.08227592531072411, 0.08227592531072411, 0.08227592531072411, 0.08227592531072411]","[0.08227592531072411, -1.4885204014841724, 0.08227592531072411, 0.08227592531072411, 0.08227592531072411, 0.08227592531072411]","[5.399554222683869, 22.16130476051867, 12.738035650304615, -0.6643118945305647, 1.3486486818678718, 0.9279858546920162]",0.002,7,1
0,43,"[0.020968470722436905, -1.550406103288271, 0.020737950001851857, 0.02080170690502925, 0.020846808329224586, 0.020870575681328773]","[0.4404692053794861, 0.44623860716819763, 0.4411567151546478, 0.4409593939781189, 0.44040703773498535, 0.4454127848148346]","[0.08284434802302726, -1.4879519787718694, 0.08284434802302726, 0.08284434802302726, 0.08284434802302726, 0.08284434802302726]","[0.08284434802302726, -1.4879519787718694, 0.08284434802302726, 0.08284434802302726, 0.08284434802302726, 0.08284434802302726]","[5.320106728076274, 21.632831987632585, 12.43542920342966, -0.6810860731961557, 1.3333851497673126, 0.9117473296038683]",0.002,7,1
0,44,"[0.021794453263282776, -1.5495062352022906, 0.021558586751119435, 0.02165762960400386, 0.021760832518339157, 0.0217568539083004]","[0.44640904664993286, 0.45368632674217224, 0.4501687288284302, 0.4485401511192322, 0.4503230154514313, 0.4523167014122009]","[0.08341253803787262, -1.487383788757024, 0.08341253803787262, 0.08341253803787262, 0.08341253803787262, 0.08341253803787262]","[0.08341253803787262, -1.487383788757024, 0.08341253803787262, 0.08341253803787262, 0.08341253803787262, 0.08341253803787262]","[5.239905105240291, 21.095744770146514, 12.126919614391028, -0.6980630027254863, 1.3179213317428964, 0.8953025564225003]",0.002,7,1
0,45,"[0.022738944739103317, -1.5484969553402443, 0.0224688688861292, 0.022588296527526808, 0.022646402940154076, 0.02265196479856968]","[0.4526522755622864, 0.46124476194381714, 0.4561103582382202, 0.4562276601791382, 0.45924505591392517, 0.45830237865448]","[0.0839804937592989, -1.4868158330355976, 0.0839804937592989, 0.0839804937592989, 0.0839804937592989, 0.0839804937592989]","[0.0839804937592989, -1.4868158330355976, 0.0839804937592989, 0.0839804937592989, 0.0839804937592989, 0.0839804937592989]","[5.158465266897677, 20.55523607666506, 11.817221499920501, -0.7152845794322811, 1.3022877288183392, 0.8786580411605406]",0.002,7,1
0,46,"[0.023688118904829025, -1.5475828510573884, 0.023432556782857716, 0.0235333877750854, 0.023625448346138, 0.023566970601677895]","[0.46243494749069214, 0.466698557138443, 0.4622109532356262, 0.46524128317832947, 0.4670335054397583, 0.4638490676879883]","[0.08454821359200293, -1.4862481132028935, 0.08454821359200293, 0.08454821359200293, 0.08454821359200293, 0.08454821359200293]","[0.08454821359200293, -1.4862481132028935, 0.08454821359200293, 0.08454821359200293, 0.08454821359200293, 0.08454821359200293]","[5.076781876769006, 20.000921392809513, 11.500639917487488, -0.7327390270721279, 1.2864810917116147, 0.8618224894520682]",0.002,7,1
0,47,"[0.024604056030511856, -1.5466669884375115, 0.024412457142965138, 0.02435116350140376, 0.024525955319404602, 0.024547899141907692]","[0.4696943163871765, 0.4706646800041199, 0.4674011766910553, 0.4729593098163605, 0.4747133255004883, 0.47018903493881226]","[0.08511569594134409, -1.4856806308535524, 0.08511569594134409, 0.08511569594134409, 0.08511569594134409, 0.08511569594134409]","[0.08511569594134409, -1.4856806308535524, 0.08511569594134409, 0.08511569594134409, 0.08511569594134409, 0.08511569594134409]","[4.99382461413208, 19.446336039732934, 11.181912855997185, -0.7503995543059048, 1.270512551946543, 0.8448062326846818]",0.002,7,1
0,48,"[0.02553228847682476, -1.5456465680948277, 0.025313679371969044, 0.025317235583923292, 0.02544430084526539, 0.025519775226712227]","[0.4774070978164673, 0.4783310890197754, 0.4755822420120239, 0.48087412118911743, 0.4811781048774719, 0.4753910005092621]","[0.08568293921334884, -1.4851133875815477, 0.08568293921334884, 0.08568293921334884, 0.08568293921334884, 0.08568293921334884]","[0.08568293921334884, -1.4851133875815477, 0.08568293921334884, 0.08568293921334884, 0.08568293921334884, 0.08568293921334884]","[4.909987606074682, 18.886805487515126, 10.860187915095699, -0.7681831639658699, 1.254371881904384, 0.8276154213336105]",0.002,7,1
0,49,"[0.026501374319195747, -1.544661470954754, 0.026325050984517873, 0.026239438647888136, 0.026507513597607613, 0.02647041343152523]","[0.4849633276462555, 0.48533207178115845, 0.4823516309261322, 0.4897195100784302, 0.48654061555862427, 0.47863471508026123]","[0.08624994181471513, -1.4845463849801814, 0.08624994181471513, 0.08624994181471513, 0.08624994181471513, 0.08624994181471513]","[0.08624994181471513, -1.4845463849801814, 0.08624994181471513, 0.08624994181471513, 0.08624994181471513, 0.08624994181471513]","[4.825644081629381, 18.31780865147874, 10.535150736246614, -0.7861952930064899, 1.2380924866296383, 0.8102598792703479]",0.002,7,1
0,50,"[0.027448179200291634, -1.5436291501722117, 0.027230564747945607, 0.027293487186096144, 0.027508549392223358, 0.02748674713075161]","[0.49271976947784424, 0.48886168003082275, 0.49179786443710327, 0.49808526039123535, 0.49322471022605896, 0.48734286427497864]","[0.08681670215281696, -1.4839796246420796, 0.08681670215281696, 0.08681670215281696, 0.08681670215281696, 0.08681670215281696]","[0.08681670215281696, -1.4839796246420796, 0.08681670215281696, 0.08681670215281696, 0.08681670215281696, 0.08681670215281696]","[4.7405252587313065, 17.744670491305186, 10.206339219088747, -0.8043387813339982, 1.2216566188409672, 0.7927496602109485]",0.002,7,1
0,51,"[0.02842247113585472, -1.542593254973628, 0.028231445943013966, 0.028285785312316847, 0.028507839888334274, 0.028494056314229965]","[0.4985620081424713, 0.4970932900905609, 0.4993153214454651, 0.5023162961006165, 0.49707964062690735, 0.49595877528190613]","[0.0873832186357088, -1.4834131081591877, 0.0873832186357088, 0.0873832186357088, 0.0873832186357088, 0.0873832186357088]","[0.0873832186357088, -1.4834131081591877, 0.0873832186357088, 0.0873832186357088, 0.0873832186357088, 0.0873832186357088]","[4.654633454745362, 17.166565918429352, 9.876064443487685, -0.8227051920973367, 1.2051065119619844, 0.7750906186704987]",0.002,7,1
0,52,"[0.029368607327342033, -1.54157365419481, 0.029300991688863576, 0.029275937671325636, 0.029521634802222252, 0.029539426788687706]","[0.5039307475090027, 0.5030401349067688, 0.5045701861381531, 0.5093812346458435, 0.5046183466911316, 0.5049241185188293]","[0.08794948967213004, -1.4828468371227665, 0.08794948967213004, 0.08794948967213004, 0.08794948967213004, 0.08794948967213004]","[0.08794948967213004, -1.4828468371227665, 0.08794948967213004, 0.08794948967213004, 0.08794948967213004, 0.08794948967213004]","[4.568206993590068, 16.582702587201545, 9.541820347788935, -0.8411901635546933, 1.188420463597459, 0.7572920000066007]",0.002,7,1
0,53,"[0.03035503625869751, -1.5406120058945199, 0.0302966276751917, 0.030269427890441847, 0.030558375641703606, 0.030566545203328133]","[0.5118533372879028, 0.5075047016143799, 0.5108801126480103, 0.5169174075126648, 0.5130897164344788, 0.5113567113876343]","[0.08851551367150956, -1.482280813123387, 0.08851551367150956, 0.08851551367150956, 0.08851551367150956, 0.08851551367150956]","[0.08851551367150956, -1.482280813123387, 0.08851551367150956, 0.08851551367150956, 0.08851551367150956, 0.08851551367150956]","[4.481127593262963, 15.99496310995394, 9.204547145880696, -0.8598178467683849, 1.171615971655978, 0.7393624158237795]",0.002,7,1
0,54,"[0.03145052120089531, -1.5394901533475895, 0.031345669423238576, 0.03132156908001704, 0.03166617080569267, 0.03155273571610451]","[0.5166064500808716, 0.510675847530365, 0.5163649320602417, 0.5243651866912842, 0.5214692950248718, 0.5186460614204407]","[0.08908128904397009, -1.4817150377509265, 0.08908128904397009, 0.08908128904397009, 0.08908128904397009, 0.08908128904397009]","[0.08908128904397009, -1.4817150377509265, 0.08908128904397009, 0.08908128904397009, 0.08908128904397009, 0.08908128904397009]","[4.392871032910298, 15.40899610762958, 8.867781907415345, -0.8785919472143495, 1.1547097797380772, 0.7213103907658446]",0.002,7,1
0,55,"[0.03248487412929535, -1.5384753581932564, 0.03239280382265264, 0.03246407091107173, 0.0326804518699646, 0.03268614038825035]","[0.525888979434967, 0.5197578072547913, 0.5230741500854492, 0.5319221615791321, 0.5276546478271484, 0.5242536664009094]","[0.08964681420033266, -1.481149512594564, 0.08964681420033266, 0.08964681420033266, 0.08964681420033266, 0.08964681420033266]","[0.08964681420033266, -1.481149512594564, 0.08964681420033266, 0.08964681420033266, 0.08964681420033266, 0.08964681420033266]","[4.304909523301297, 14.80921721740779, 8.525241187274315, -0.8974679646470909, 1.13768492365811, 0.7031445972097161]",0.002,7,1
0,56,"[0.033538948744535446, -1.5373952586999913, 0.03351432481874639, 0.033600254649780226, 0.033730398863554, 0.03369687497615814]","[0.5325269103050232, 0.5246542096138, 0.528447687625885, 0.5376536846160889, 0.532010018825531, 0.5301182270050049]","[0.09021208755212123, -1.4805842392427753, 0.09021208755212123, 0.09021208755212123, 0.09021208755212123, 0.09021208755212123]","[0.09021208755212123, -1.4805842392427753, 0.09021208755212123, 0.09021208755212123, 0.09021208755212123, 0.09021208755212123]","[4.215769225666554, 14.213001842916121, 8.182951866792001, -0.9165365741881965, 1.1205952446544032, 0.6848718924364702]",0.002,7,1
0,57,"[0.034632597118616104, -1.536385243093111, 0.03456336656679326, 0.034711166019103956, 0.034835707396268845, 0.03478175029158592]","[0.5366365313529968, 0.5291876196861267, 0.5334385633468628, 0.5421134829521179, 0.536821722984314, 0.5325703620910645]","[0.09077710751156703, -1.4800192192833295, 0.09077710751156703, 0.09077710751156703, 0.09077710751156703, 0.09077710751156703]","[0.09077710751156703, -1.4800192192833295, 0.09077710751156703, 0.09077710751156703, 0.09077710751156703, 0.09077710751156703]","[4.12653990752687, 13.6088660362949, 7.836605823894391, -0.9356839413207565, 1.1034065979352992, 0.6665017501522918]",0.002,7,1
0,58,"[0.03568781539797783, -1.5352818605354805, 0.03571015993227178, 0.03579477846112056, 0.035869050770998, 0.03579920902848244]","[0.5406866669654846, 0.535225510597229, 0.5358048677444458, 0.5468878746032715, 0.5394672155380249, 0.5374053716659546]","[0.09134187249161291, -1.4794544543032837, 0.09134187249161291, 0.09134187249161291, 0.09134187249161291, 0.09134187249161291]","[0.09134187249161291, -1.4794544543032837, 0.09134187249161291, 0.09134187249161291, 0.09134187249161291, 0.09134187249161291]","[4.03617437272543, 13.008246700110504, 7.491570302529986, -0.9549338039067083, 1.086144160702154, 0.6480426299015463]",0.002,7,1
0,59,"[0.03683490678668022, -1.534163487409689, 0.036711994801656544, 0.03688005983319087, 0.03703247010707855, 0.036949772387742996]","[0.5454672574996948, 0.5411102175712585, 0.5441851615905762, 0.5504763126373291, 0.5440458059310913, 0.5427502393722534]","[0.091906380905918, -1.4788899458889786, 0.091906380905918, 0.091906380905918, 0.091906380905918, 0.091906380905918]","[0.091906380905918, -1.4788899458889786, 0.091906380905918, 0.091906380905918, 0.091906380905918, 0.091906380905918]","[3.9459981144213363, 12.397980917417238, 7.141789462301286, -0.9742439915437481, 1.0688018520356513, 0.6295016204551386]",0.002,7,1
0,60,"[0.03791119158267975, -1.5331086565605183, 0.03789884248842412, 0.038040681476257276, 0.03811143711209297, 0.03796771168708801]","[0.5491130352020264, 0.5459071397781372, 0.5483489632606506, 0.5513532161712646, 0.5506515502929688, 0.5492962598800659]","[0.09247063116886214, -1.4783256956260344, 0.09247063116886214, 0.09247063116886214, 0.09247063116886214, 0.09247063116886214]","[0.09247063116886214, -1.4783256956260344, 0.09247063116886214, 0.09247063116886214, 0.09247063116886214, 0.09247063116886214]","[3.855021829987188, 11.788017110846013, 6.793338011178765, -0.9936294930263145, 1.0513927432949015, 0.6108884621451474]",0.002,7,1
0,61,"[0.0390816368162632, -1.531989538376667, 0.039019409810201466, 0.03916410982098384, 0.03919486701488495, 0.03905415162444115]","[0.5568463802337646, 0.5544840693473816, 0.5555095672607422, 0.5530248880386353, 0.5557302236557007, 0.5542634725570679]","[0.09303462169555024, -1.4777617050993463, 0.09303462169555024, 0.09303462169555024, 0.09303462169555024, 0.09303462169555024]","[0.09303462169555024, -1.4777617050993463, 0.09303462169555024, 0.09303462169555024, 0.09303462169555024, 0.09303462169555024]","[3.7636752121440358, 11.176455604048602, 6.441636563524922, -1.0131295255527548, 1.0339418379236722, 0.5922096159068608]",0.002,7,1
0,62,"[0.04018840566277504, -1.530866065328457, 0.040062729512349904, 0.04036502420391841, 0.04029208794236183, 0.040150854736566544]","[0.5635675191879272, 0.5615016222000122, 0.5587067008018494, 0.5572991967201233, 0.562828540802002, 0.5616056323051453]","[0.09359835090181669, -1.4771979758930798, 0.09359835090181669, 0.09359835090181669, 0.09359835090181669, 0.09359835090181669]","[0.09359835090181669, -1.4771979758930798, 0.09359835090181669, 0.09359835090181669, 0.09359835090181669, 0.09359835090181669]","[3.672046335058396, 10.56108390105299, 6.0891786549496425, -1.0326707715112176, 1.0164380353508728, 0.5734738716897508]",0.002,7,1
0,63,"[0.04125937074422836, -1.5298040707460423, 0.041275803242818654, 0.0414779621311645, 0.041400324553251266, 0.04128580912947655]","[0.5666878819465637, 0.5671377182006836, 0.565177857875824, 0.564432680606842, 0.5650663375854492, 0.5677629709243774]","[0.09416181720422998, -1.4766345095906666, 0.09416181720422998, 0.09416181720422998, 0.09416181720422998, 0.09416181720422998]","[0.09416181720422998, -1.4766345095906666, 0.09416181720422998, 0.09416181720422998, 0.09416181720422998, 0.09416181720422998]","[3.5798212496750867, 9.945837387674642, 5.737322205210823, -1.0522966883692477, 0.998903521507854, 0.5546892581328997]",0.002,7,1
0,64,"[0.04242561012506485, -1.5286400590888043, 0.04240399995912725, 0.04272691785778804, 0.042533766478300095, 0.042408715933561325]","[0.571525514125824, 0.5683978796005249, 0.5707060098648071, 0.5725365877151489, 0.5687729120254517, 0.5740218758583069]","[0.09472501902009701, -1.4760713077747996, 0.09472501902009701, 0.09472501902009701, 0.09472501902009701, 0.09472501902009701]","[0.09472501902009701, -1.4760713077747996, 0.09472501902009701, 0.09472501902009701, 0.09472501902009701, 0.09472501902009701]","[3.487252856407837, 9.330140574263154, 5.383024949071192, -1.0719519719193984, 0.9813308405222914, 0.5358636806669647]",0.002,7,1
0,65,"[0.04351062700152397, -1.527476017629244, 0.04356557527651006, 0.04391448080029292, 0.043604083359241486, 0.043520648032426834]","[0.5747997760772705, 0.5756081938743591, 0.5745899677276611, 0.5782771110534668, 0.5728728175163269, 0.5803449749946594]","[0.09528795476746764, -1.475508372027429, 0.09528795476746764, 0.09528795476746764, 0.09528795476746764, 0.09528795476746764]","[0.09528795476746764, -1.475508372027429, 0.09528795476746764, 0.09528795476746764, 0.09528795476746764, 0.09528795476746764]","[3.3946626091942522, 8.709214690474445, 5.027893366910022, -1.0916595501439348, 0.9637330017686112, 0.5170049976505007]",0.002,7,1
0,66,"[0.04474678635597229, -1.5263676543584843, 0.04468280473817998, 0.0450407701679687, 0.04483408108353615, 0.044694285839796066]","[0.5794528722763062, 0.5782469511032104, 0.5775784850120544, 0.5802740454673767, 0.5781075954437256, 0.5834025144577026]","[0.09585062286513904, -1.4749457039297575, 0.09585062286513904, 0.09585062286513904, 0.09585062286513904, 0.09585062286513904]","[0.09585062286513904, -1.4749457039297575, 0.09585062286513904, 0.09585062286513904, 0.09585062286513904, 0.09585062286513904]","[3.3017923241650067, 8.087264287233264, 4.671903622488285, -1.111387105033403, 0.9461201394805867, 0.498120767708055]",0.002,7,1
0,67,"[0.04593281447887421, -1.5251821291497727, 0.045803372059957326, 0.04616336404766841, 0.0459618866443634, 0.04582429677248001]","[0.5818592309951782, 0.5832986235618591, 0.5817084908485413, 0.5778409242630005, 0.5846779346466064, 0.5874336957931519]","[0.09641302173266018, -1.4743833050622364, 0.09641302173266018, 0.09641302173266018, 0.09641302173266018, 0.09641302173266018]","[0.09641302173266018, -1.4743833050622364, 0.09641302173266018, 0.09641302173266018, 0.09641302173266018, 0.09641302173266018]","[3.2081593570135527, 7.469528134284003, 4.3176761249728255, -1.1311439637020835, 0.9284925580160999, 0.4792195857411239]",0.002,7,1
0,68,"[0.047047317028045654, -1.5240052987686177, 0.04694873491396123, 0.047318025226257276, 0.04706829786300659, 0.04700351879000664]","[0.5886986255645752, 0.5907688736915588, 0.5832986831665039, 0.5801548957824707, 0.5885965824127197, 0.5925050973892212]","[0.0969751497903362, -1.4738211770045604, 0.0969751497903362, 0.0969751497903362, 0.0969751497903362, 0.0969751497903362]","[0.0969751497903362, -1.4738211770045604, 0.0969751497903362, 0.0969751497903362, 0.0969751497903362, 0.0969751497903362]","[3.114657423725777, 6.8470583263417195, 3.961914448439779, -1.1509061761428878, 0.9108651580019692, 0.4603081186862771]",0.002,7,1
0,69,"[0.04828735068440437, -1.5228189316442986, 0.048113648091451466, 0.048460765475891066, 0.04830767214298248, 0.04822351410984993]","[0.5936078429222107, 0.5947800278663635, 0.589817225933075, 0.5831254720687866, 0.5930754542350769, 0.5971807241439819]","[0.09753700545923298, -1.4732593213356635, 0.09753700545923298, 0.09753700545923298, 0.09753700545923298, 0.09753700545923298]","[0.09753700545923298, -1.4732593213356635, 0.09753700545923298, 0.09753700545923298, 0.09753700545923298, 0.09753700545923298]","[3.0208864029758207, 6.224841455755625, 3.6059465774246484, -1.1706882155115776, 0.8932476123854818, 0.4413943105164015]",0.002,7,1
0,70,"[0.04941143840551376, -1.521688801502325, 0.04931861559023076, 0.04969315111126704, 0.0494629368185997, 0.0494520477950573]","[0.5956048965454102, 0.5958926677703857, 0.592746913433075, 0.5883703231811523, 0.5958473086357117, 0.6007517576217651]","[0.09809858716118151, -1.472697739633715, 0.09809858716118151, 0.09809858716118151, 0.09809858716118151, 0.09809858716118151]","[0.09809858716118151, -1.472697739633715, 0.09809858716118151, 0.09809858716118151, 0.09809858716118151, 0.09809858716118151]","[2.9269496423876853, 5.602186314718897, 3.249707140472098, -1.1904649534472815, 0.8756301687623989, 0.422485981934268]",0.002,7,1
0,71,"[0.05061132088303566, -1.5204527725330372, 0.05049497285951787, 0.050905151958129835, 0.05070318654179573, 0.0506601557135582]","[0.5991693735122681, 0.5987434387207031, 0.5967053771018982, 0.5950005650520325, 0.5987919569015503, 0.6031141877174377]","[0.09865989331878224, -1.4721364334761142, 0.09865989331878224, 0.09865989331878224, 0.09865989331878224, 0.09865989331878224]","[0.09865989331878224, -1.4721364334761142, 0.09865989331878224, 0.09865989331878224, 0.09865989331878224, 0.09865989331878224]","[2.832569621129684, 4.982733107024565, 2.8940859428520374, -1.2102636622360303, 0.8580467206579683, 0.40359014905217905]",0.002,7,1
0,72,"[0.05181096866726875, -1.5192948889783402, 0.05168515840639287, 0.051950498218200636, 0.05188000202178955, 0.05184202641248703]","[0.6016952395439148, 0.601274311542511, 0.5995964407920837, 0.5977284908294678, 0.6048828959465027, 0.6076660752296448]","[0.0992209223554096, -1.4715754044394869, 0.0992209223554096, 0.0992209223554096, 0.0992209223554096, 0.0992209223554096]","[0.0992209223554096, -1.4715754044394869, 0.0992209223554096, 0.0992209223554096, 0.0992209223554096, 0.0992209223554096]","[2.7384863493440377, 4.358392837161081, 2.5375293967905455, -1.230019508067079, 0.8404727975336036, 0.384714418454902]",0.002,7,1
0,73,"[0.05303982272744179, -1.5180960905602952, 0.052852932606832326, 0.0530896621891479, 0.05301263928413391, 0.05308672413229942]","[0.6051118969917297, 0.6044581532478333, 0.6045651435852051, 0.6028321981430054, 0.6076830625534058, 0.611930787563324]","[0.09978167269521644, -1.47101465409968, 0.09978167269521644, 0.09978167269521644, 0.09978167269521644, 0.09978167269521644]","[0.09978167269521644, -1.47101465409968, 0.09978167269521644, 0.09978167269521644, 0.09978167269521644, 0.09978167269521644]","[2.6438155601049598, 3.7397256271633372, 2.1828241160789097, -1.2497735303905257, 0.8229484823649943, 0.36586615565414843]",0.002,7,1
0,74,"[0.054292768239974976, -1.5168736849776288, 0.05407315889467412, 0.05422668039288325, 0.0542687252163887, 0.05429619923233986]","[0.6102964282035828, 0.6079114079475403, 0.6085682511329651, 0.6065107583999634, 0.6117972731590271, 0.611653745174408]","[0.10034214276313845, -1.4704541840317582, 0.10034214276313845, 0.10034214276313845, 0.10034214276313845, 0.10034214276313845]","[0.10034214276313845, -1.4704541840317582, 0.10034214276313845, 0.10034214276313845, 0.10034214276313845, 0.10034214276313845]","[2.549153654377293, 3.120273849636442, 1.8284476490091452, -1.269503973998427, 0.8054682393859578, 0.3470524505813671]",0.002,7,1
0,75,"[0.05553345009684563, -1.5155633476427575, 0.05525428453554326, 0.05552677690472407, 0.05551605671644211, 0.05559267848730087]","[0.6141680479049683, 0.6064674258232117, 0.6103019118309021, 0.610823392868042, 0.6141605973243713, 0.6127462387084961]","[0.10090233098489851, -1.4698939958099981, 0.10090233098489851, 0.10090233098489851, 0.10090233098489851, 0.10090233098489851]","[0.10090233098489851, -1.4698939958099981, 0.10090233098489851, 0.10090233098489851, 0.10090233098489851, 0.10090233098489851]","[2.454597945531306, 2.499897963723872, 1.4735390726474515, -1.289186684214555, 0.7880192023089702, 0.3282803774554276]",0.002,7,1
0,76,"[0.05682659521698952, -1.5144267839244385, 0.05654460588564092, 0.056703611011169386, 0.05674139782786369, 0.056815359741449356]","[0.6164527535438538, 0.6079832911491394, 0.6081408858299255, 0.618393063545227, 0.6164957284927368, 0.6136826872825623]","[0.10146223578701119, -1.4693340910078854, 0.10146223578701119, 0.10146223578701119, 0.10146223578701119, 0.10146223578701119]","[0.10146223578701119, -1.4693340910078854, 0.10146223578701119, 0.10146223578701119, 0.10146223578701119, 0.10146223578701119]","[2.3603029214425084, 1.8766190049304345, 1.1186278337695514, -1.3088103785129648, 0.7706162014375177, 0.3095568966537298]",0.002,7,1
0,77,"[0.057963572442531586, -1.5131425571492692, 0.05780679384340459, 0.05788628637280269, 0.058037254959344864, 0.0581304095685482]","[0.6186966300010681, 0.6096442937850952, 0.6143320798873901, 0.6220635771751404, 0.6189090013504028, 0.6160898208618164]","[0.1020218555967871, -1.4687744711981094, 0.1020218555967871, 0.1020218555967871, 0.1020218555967871, 0.1020218555967871]","[0.1020218555967871, -1.4687744711981094, 0.1020218555967871, 0.1020218555967871, 0.1020218555967871, 0.1020218555967871]","[2.2652244065202267, 1.2636870247441832, 0.7660670170772708, -1.3284217225191453, 0.7532910823636512, 0.29088929202460473]",0.002,7,1
0,78,"[0.05927389860153198, -1.5118998673609276, 0.058971707020894826, 0.059095903033874464, 0.059279635548591614, 0.059320852160453796]","[0.6226685643196106, 0.6120569705963135, 0.6157175302505493, 0.6244465708732605, 0.6221346855163574, 0.616222083568573]","[0.10258118884233744, -1.4682151379525592, 0.10258118884233744, 0.10258118884233744, 0.10258118884233744, 0.10258118884233744]","[0.10258118884233744, -1.4682151379525592, 0.10258118884233744, 0.10258118884233744, 0.10258118884233744, 0.10258118884233744]","[2.1707922327802676, 0.6445059638904649, 0.41247743948975146, -1.347938360908474, 0.7360120422672438, 0.2722840389673651]",0.002,7,1
0,79,"[0.06049110367894173, -1.5106593531421204, 0.06023151079286748, 0.06040708600964351, 0.060522615909576416, 0.06063750386238098]","[0.6259521842002869, 0.6135944724082947, 0.6194830536842346, 0.6265342235565186, 0.6218132376670837, 0.6189156174659729]","[0.10314023395257824, -1.4676560928423183, 0.10314023395257824, 0.10314023395257824, 0.10314023395257824, 0.10314023395257824]","[0.10314023395257824, -1.4676560928423183, 0.10314023395257824, 0.10314023395257824, 0.10314023395257824, 0.10314023395257824]","[2.0758597211351497, 0.03208055504563179, 0.06270716475206317, -1.3674301678888934, 0.7188258031490631, 0.253748336944189]",0.002,7,1
0,80,"[0.06163761764764786, -1.509469737564661, 0.06146127382387334, 0.061632080669067335, 0.06186340004205704, 0.06188543140888214]","[0.627557635307312, 0.615889847278595, 0.6235359311103821, 0.6285310983657837, 0.6244502067565918, 0.620582640171051]","[0.1036989893572349, -1.4670973374376617, 0.1036989893572349, 0.1036989893572349, 0.1036989893572349, 0.1036989893572349]","[0.1036989893572349, -1.4670973374376617, 0.1036989893572349, 0.1036989893572349, 0.1036989893572349, 0.1036989893572349]","[1.9810923706812904, -0.5796131478310218, -0.2873265374324063, -1.3868217514420031, 0.7017071958047265, 0.2352885450135451]",0.002,7,1
0,81,"[0.0629369467496872, -1.5081871387413521, 0.06271201768984014, 0.06294982015576167, 0.06307459622621536, 0.06320491433143616]","[0.6265543103218079, 0.6174394488334656, 0.6235134601593018, 0.6299432516098022, 0.6280609965324402, 0.622999906539917]","[0.10425745348684658, -1.46653887330805, 0.10425745348684658, 0.10425745348684658, 0.10425745348684658, 0.10425745348684658]","[0.10425745348684658, -1.46653887330805, 0.10425745348684658, 0.10425745348684658, 0.10425745348684658, 0.10425745348684658]","[1.8859840680528153, -1.1848849356687279, -0.634338337906923, -1.4061746582107928, 0.6846787851034436, 0.216911194347923]",0.002,7,1
0,82,"[0.06417494267225266, -1.5068948578885575, 0.06393319765199834, 0.06421773015942378, 0.06436450034379959, 0.06442831456661224]","[0.6288314461708069, 0.6158670783042908, 0.6241932511329651, 0.6343364715576172, 0.6281857490539551, 0.6260901093482971]","[0.10481562477277054, -1.465980702022126, 0.10481562477277054, 0.10481562477277054, 0.10481562477277054, 0.10481562477277054]","[0.10481562477277054, -1.465980702022126, 0.10481562477277054, 0.10481562477277054, 0.10481562477277054, 0.10481562477277054]","[1.791408806343599, -1.7933491204823722, -0.9818185358692553, -1.4253893795882862, 0.6677363006448096, 0.19862325932144198]",0.002,7,1
0,83,"[0.06550587713718414, -1.5056521159461518, 0.06527311006654912, 0.06548409044232173, 0.06571590900421143, 0.06569473445415497]","[0.62995445728302, 0.6192063689231873, 0.6255279183387756, 0.6330297589302063, 0.6292216181755066, 0.6247740387916565]","[0.10537350164718662, -1.46542282514771, 0.10537350164718662, 0.10537350164718662, 0.10537350164718662, 0.10537350164718662]","[0.10537350164718662, -1.46542282514771, 0.10537350164718662, 0.10537350164718662, 0.10537350164718662, 0.10537350164718662]","[1.6968480602928837, -2.3987258367842004, -1.327200042073101, -1.4445280948204329, 0.6508888937455293, 0.1804306142527571]",0.002,7,1
0,84,"[0.06677338480949402, -1.5043442782810708, 0.06655294099916631, 0.06681720792736812, 0.06689240783452988, 0.06688385456800461]","[0.6323418021202087, 0.6236475110054016, 0.6275841593742371, 0.6320910453796387, 0.6300159692764282, 0.6244885325431824]","[0.1059310825431016, -1.4648652442517949, 0.1059310825431016, 0.1059310825431016, 0.1059310825431016, 0.1059310825431016]","[0.1059310825431016, -1.4648652442517949, 0.1059310825431016, 0.1059310825431016, 0.1059310825431016, 0.1059310825431016]","[1.6023397259892835, -3.0001906921123034, -1.6719518858720075, -1.4635566427168372, 0.6341334452312881, 0.16233943114582108]",0.002,7,1
0,85,"[0.06802094727754593, -1.5031139266541977, 0.06786710420717412, 0.06808702527966304, 0.06821858882904053, 0.06812474876642227]","[0.6334929466247559, 0.6256312727928162, 0.6268247961997986, 0.6336804628372192, 0.629895031452179, 0.6259392499923706]","[0.10648836589435366, -1.464307960900543, 0.10648836589435366, 0.10648836589435366, 0.10648836589435366, 0.10648836589435366]","[0.10648836589435366, -1.464307960900543, 0.10648836589435366, 0.10648836589435366, 0.10648836589435366, 0.10648836589435366]","[1.5080912012250247, -3.6009946059627183, -2.0148700778666937, -1.4824499934601476, 0.6174968421810574, 0.14435703708548273]",0.002,7,1
0,86,"[0.06934454292058945, -1.5018307131579895, 0.06907636324037725, 0.069416804904602, 0.06942260265350342, 0.06936229765415192]","[0.6323678493499756, 0.6285486221313477, 0.6313734650611877, 0.6334508061408997, 0.6288781762123108, 0.6266124248504639]","[0.1070453501356167, -1.4637509766592798, 0.1070453501356167, 0.1070453501356167, 0.1070453501356167, 0.1070453501356167]","[0.1070453501356167, -1.4637509766592798, 0.1070453501356167, 0.1070453501356167, 0.1070453501356167, 0.1070453501356167]","[1.4136286914916498, -4.1941725843571955, -2.3549294509010985, -1.5012712081657045, 0.6009715092371662, 0.12648809560033125]",0.002,7,1
0,87,"[0.07056078314781189, -1.500560739343502, 0.07037097612489873, 0.07066278039898677, 0.07074186205863953, 0.07059378176927567]","[0.6337425112724304, 0.6323862075805664, 0.6336915493011475, 0.6337404847145081, 0.6290604472160339, 0.6306390762329102]","[0.1076020337024048, -1.4631942930924917, 0.1076020337024048, 0.1076020337024048, 0.1076020337024048, 0.1076020337024048]","[0.1076020337024048, -1.4631942930924917, 0.1076020337024048, 0.1076020337024048, 0.1076020337024048, 0.1076020337024048]","[1.319320505933374, -4.784723780312963, -2.6919258722034956, -1.5199650672227287, 0.5845778368936027, 0.10873991972346667]",0.002,7,1
0,88,"[0.0719204694032669, -1.4992986109903832, 0.07168513933290654, 0.07197539388623042, 0.07199101150035858, 0.07186887413263321]","[0.635490357875824, 0.6342747807502747, 0.6370591521263123, 0.6325703859329224, 0.6318132281303406, 0.6341192126274109]","[0.10815841503107655, -1.46263791176382, 0.10815841503107655, 0.10815841503107655, 0.10815841503107655, 0.10815841503107655]","[0.10815841503107655, -1.46263791176382, 0.10815841503107655, 0.10815841503107655, 0.10815841503107655, 0.10815841503107655]","[1.2252667871170804, -5.372225485668472, -3.0279792309477718, -1.5385414798499595, 0.5682982322225147, 0.09111706520342637]",0.002,7,1
0,89,"[0.073112852871418, -1.4980101969889184, 0.072913948689596, 0.07328800737347407, 0.07324947416782379, 0.07314556837081909]","[0.6365833878517151, 0.6389793753623962, 0.635455846786499, 0.631359875202179, 0.6337600350379944, 0.6343547701835632]","[0.10871449255883957, -1.462081834236057, 0.10871449255883957, 0.10871449255883957, 0.10871449255883957, 0.10871449255883957]","[0.10871449255883957, -1.462081834236057, 0.10871449255883957, 0.10871449255883957, 0.10871449255883957, 0.10871449255883957]","[1.1313650021189345, -5.955528784094773, -3.3618799182551946, -1.5569588906200649, 0.5521483496619811, 0.07362631474902281]",0.002,7,1
0,90,"[0.0742969885468483, -1.4967281234315415, 0.0741952101336878, 0.07458655416455073, 0.07443664968013763, 0.07432503998279572]","[0.6333211660385132, 0.6406373977661133, 0.637201189994812, 0.6320460438728333, 0.6327649354934692, 0.6366966962814331]","[0.10927026472375466, -1.4615260620711419, 0.10927026472375466, 0.10927026472375466, 0.10927026472375466, 0.10927026472375466]","[0.10927026472375466, -1.4615260620711419, 0.10927026472375466, 0.10927026472375466, 0.10927026472375466, 0.10927026472375466]","[1.0376028723811401, -6.534505984539702, -3.692309028332542, -1.5752581616194348, 0.5361397598174844, 0.05627298044731325]",0.002,7,1
0,91,"[0.07559867203235626, -1.495370329623558, 0.075507942830221, 0.07585470258679194, 0.07568635791540146, 0.07558206468820572]","[0.6333593130111694, 0.6408050656318665, 0.6358233690261841, 0.6328689455986023, 0.6342272758483887, 0.6382027864456177]","[0.1098257299647405, -1.460970596830156, 0.1098257299647405, 0.1098257299647405, 0.1098257299647405, 0.1098257299647405]","[0.1098257299647405, -1.460970596830156, 0.1098257299647405, 0.1098257299647405, 0.1098257299647405, 0.1098257299647405]","[0.9441134839615027, -7.10971428058278, -4.0210303902492415, -1.5933935826998369, 0.5202744083163743, 0.039063102730661506]",0.002,7,1
0,92,"[0.0768965631723404, -1.4941409167698403, 0.07676822343935186, 0.07716302453961177, 0.07702948153018951, 0.07683762907981873]","[0.632485032081604, 0.6424453258514404, 0.6356780529022217, 0.6323621869087219, 0.6355482935905457, 0.6394385099411011]","[0.11038088672157781, -1.4604154400733187, 0.11038088672157781, 0.11038088672157781, 0.11038088672157781, 0.11038088672157781]","[0.11038088672157781, -1.4604154400733187, 0.11038088672157781, 0.11038088672157781, 0.11038088672157781, 0.11038088672157781]","[0.851242202239759, -7.685573160623253, -4.349107495668059, -1.6113531348935897, 0.504537991777815, 0.022001137827571116]",0.002,7,1
0,93,"[0.07818532735109329, -1.4927874741009255, 0.07805282274355108, 0.07842950403179927, 0.07823402434587479, 0.0781002789735794]","[0.634373128414154, 0.6435437202453613, 0.6376283168792725, 0.632095217704773, 0.6347427368164062, 0.6399711966514587]","[0.11093573343491375, -1.4598605933599829, 0.11093573343491375, 0.11093573343491375, 0.11093573343491375, 0.11093573343491375]","[0.11093573343491375, -1.4598605933599829, 0.11093573343491375, 0.11093573343491375, 0.11093573343491375, 0.11093573343491375]","[0.7579594610628599, -8.247939086243987, -4.671187416526381, -1.6292235289406813, 0.48896170264338606, 0.005092316356174158]",0.002,7,1
0,94,"[0.07950123399496078, -1.4915640142611046, 0.07928353944887334, 0.079640193576477, 0.07951442152261734, 0.07939701527357101]","[0.6347625851631165, 0.6459171772003174, 0.6391072869300842, 0.630171537399292, 0.6367291212081909, 0.6409389972686768]","[0.11149026854626641, -1.4593060582486301, 0.11149026854626641, 0.11149026854626641, 0.11149026854626641, 0.11149026854626641]","[0.11149026854626641, -1.4593060582486301, 0.11149026854626641, 0.11149026854626641, 0.11149026854626641, 0.11149026854626641]","[0.6655201007962632, -8.813436699340036, -4.993198318664298, -1.6468719270763001, 0.4735387120923657, -0.011656578189610948]",0.002,7,1
0,95,"[0.08072405308485031, -1.4902280134013672, 0.0805442968951624, 0.08093373357739253, 0.08071324229240417, 0.0806727260351181]","[0.634428858757019, 0.6458373069763184, 0.638647198677063, 0.6281378269195557, 0.6367630958557129, 0.6388418078422546]","[0.11204449049802913, -1.4587518362968674, 0.11204449049802913, 0.11204449049802913, 0.11204449049802913, 0.11204449049802913]","[0.11204449049802913, -1.4587518362968674, 0.11204449049802913, 0.11204449049802913, 0.11204449049802913, 0.11204449049802913]","[0.5727506362840518, -9.36508932653882, -5.309035684825676, -1.6644596704985042, 0.45830004702307536, -0.028241799168351237]",0.002,7,1
0,96,"[0.08195824176073074, -1.4890026983669777, 0.08185273805727178, 0.0821412044712524, 0.08208461105823517, 0.08197245001792908]","[0.6357238292694092, 0.6431114077568054, 0.6356574892997742, 0.6283013820648193, 0.6354708671569824, 0.6395737528800964]","[0.11259839773347476, -1.4581979290614218, 0.11259839773347476, 0.11259839773347476, 0.11259839773347476, 0.11259839773347476]","[0.11259839773347476, -1.4581979290614218, 0.11259839773347476, 0.11259839773347476, 0.11259839773347476, 0.11259839773347476]","[0.480797775260462, -9.918956120357798, -5.624481233882927, -1.68177176945286, 0.4432025856580448, -0.044657507890986325]",0.002,7,1
0,97,"[0.08326444774866104, -1.4876508650234719, 0.08318120638002569, 0.08338086187329097, 0.08330049365758896, 0.08332648128271103]","[0.6338545083999634, 0.6437364816665649, 0.6366831064224243, 0.6299684643745422, 0.6357679963111877, 0.6393042206764221]","[0.11315198869676027, -1.4576443380981363, 0.11315198869676027, 0.11315198869676027, 0.11315198869676027, 0.11315198869676027]","[0.11315198869676027, -1.4576443380981363, 0.11315198869676027, 0.11315198869676027, 0.11315198869676027, 0.11315198869676027]","[0.38884104708719425, -10.46187378522928, -5.935784687941431, -1.6989923615380045, 0.42827750573693335, -0.06090068926478769]",0.002,7,1
0,98,"[0.0845542848110199, -1.4863725465587159, 0.08440000215639287, 0.08456842481579585, 0.08465084433555603, 0.08457338064908981]","[0.6321932077407837, 0.6437973976135254, 0.6382169723510742, 0.6300978064537048, 0.6353228688240051, 0.6376478672027588]","[0.11370526183293096, -1.4570910649619655, 0.11370526183293096, 0.11370526183293096, 0.11370526183293096, 0.11370526183293096]","[0.11370526183293096, -1.4570910649619655, 0.11370526183293096, 0.11370526183293096, 0.11370526183293096, 0.11370526183293096]","[0.29775396974561386, -11.007395414021735, -6.246624190216565, -1.7159311712555705, 0.41351435716947027, -0.0769640232804221]",0.002,7,1
0,99,"[0.08576948195695877, -1.4850438472679635, 0.08569509187807256, 0.08577756463970942, 0.08582904934883118, 0.08591891080141068]","[0.6342951059341431, 0.6384332776069641, 0.6370956301689148, 0.6306580901145935, 0.6361162066459656, 0.6358413100242615]","[0.11425821558792479, -1.4565381112069717, 0.11425821558792479, 0.11425821558792479, 0.11425821558792479, 0.11425821558792479]","[0.11425821558792479, -1.4565381112069717, 0.11425821558792479, 0.11425821558792479, 0.11425821558792479, 0.11425821558792479]","[0.2066215744741432, -11.540940108758585, -6.55105988144128, -1.732805303908599, 0.3989484824857406, -0.09284510193808859]",0.002,7,1
0,100,"[0.08710889518260956, -1.4838361379555245, 0.08690768877138311, 0.08699636041607661, 0.08708654344081879, 0.08717700839042664]","[0.6328355073928833, 0.6373138427734375, 0.6321619153022766, 0.6314534544944763, 0.6352815628051758, 0.6339365243911743]","[0.11481084840857694, -1.4559854783863195, 0.11481084840857694, 0.11481084840857694, 0.11481084840857694, 0.11481084840857694]","[0.11481084840857694, -1.4559854783863195, 0.11481084840857694, 0.11481084840857694, 0.11481084840857694, 0.11481084840857694]","[0.11618182808139976, -12.073310991926915, -6.854479170484796, -1.7493935172134483, 0.38455760425798075, -0.10853691079128695]",0.002,7,1
0,101,"[0.08835387974977493, -1.4825365406325837, 0.08819085756410772, 0.08824197828259273, 0.08834758400917053, 0.08847630023956299]","[0.6304777264595032, 0.6339064240455627, 0.6306184530258179, 0.6336203217506409, 0.631630539894104, 0.6302139163017273]","[0.11536315874262389, -1.4554331680522727, 0.11536315874262389, 0.11536315874262389, 0.11536315874262389, 0.11536315874262389]","[0.11536315874262389, -1.4554331680522727, 0.11536315874262389, 0.11536315874262389, 0.11536315874262389, 0.11536315874262389]","[0.02564249640074978, -12.591079457167332, -7.150925601503775, -1.7658799378574712, 0.37037040199416205, -0.12403709983552766]",0.002,7,1
0,102,"[0.08960876613855362, -1.4812579539469262, 0.08949071565736944, 0.08946828424420161, 0.08965443074703217, 0.08974181860685349]","[0.6320593953132629, 0.6307761073112488, 0.6317877769470215, 0.6361108422279358, 0.6304547786712646, 0.6276025176048279]","[0.11591514503870809, -1.4548811817561884, 0.11591514503870809, 0.11591514503870809, 0.11591514503870809, 0.11591514503870809]","[0.11591514503870809, -1.4548811817561884, 0.11591514503870809, 0.11591514503870809, 0.11591514503870809, 0.11591514503870809]","[-0.06402078093335972, -13.109861088511277, -7.446897362122716, -1.7820753517807675, 0.35634232726601794, -0.13934106333456006]",0.002,7,1
0,103,"[0.09082506597042084, -1.4799740028432389, 0.09067422548402959, 0.09076063215222163, 0.09097501635551453, 0.0910293459892273]","[0.6322168707847595, 0.6288202404975891, 0.6294240951538086, 0.6354299187660217, 0.62818443775177, 0.6272798776626587]","[0.11646680574638203, -1.4543295210485145, 0.11646680574638203, 0.11646680574638203, 0.11646680574638203, 0.11646680574638203]","[0.11646680574638203, -1.4543295210485145, 0.11646680574638203, 0.11646680574638203, 0.11646680574638203, 0.11646680574638203]","[-0.15324511959650167, -13.621750943684363, -7.739351382622579, -1.7980797566654092, 0.3425041522225186, -0.15444488045946259]",0.002,7,1
0,104,"[0.09210756421089172, -1.4786881443909188, 0.0919716993915003, 0.09199170648541255, 0.09224969148635864, 0.0922522321343422]","[0.6308098435401917, 0.6256663799285889, 0.6268541812896729, 0.6350315809249878, 0.6283699870109558, 0.6252834796905518]","[0.11701813931611282, -1.4537781874787838, 0.11701813931611282, 0.11701813931611282, 0.11701813931611282, 0.11701813931611282]","[0.11701813931611282, -1.4537781874787838, 0.11701813931611282, 0.11701813931611282, 0.11701813931611282, 0.11701813931611282]","[-0.24209308888662617, -14.125645998610308, -8.026303597463892, -1.8138875516728288, 0.3288635749180404, -0.16934418964418577]",0.002,7,1
0,105,"[0.0932716652750969, -1.4774486658028145, 0.09321958223451787, 0.09328715383496089, 0.09352163970470428, 0.09354431182146072]","[0.628492534160614, 0.6232062578201294, 0.6283822655677795, 0.6306214332580566, 0.627325177192688, 0.6223582029342651]","[0.11756914419928645, -1.45322718259561, 0.11756914419928645, 0.11756914419928645, 0.11756914419928645, 0.11756914419928645]","[0.11756914419928645, -1.45322718259561, 0.11756914419928645, 0.11756914419928645, 0.11756914419928645, 0.11756914419928645]","[-0.33025738173625396, -14.625669181260253, -8.311749183630177, -1.8294449132909252, 0.31541718592921575, -0.1840345477886449]",0.002,7,1
0,106,"[0.09455729275941849, -1.4761838850430031, 0.09452802339662725, 0.09453610956158442, 0.0947193056344986, 0.09481093287467957]","[0.6247848868370056, 0.6207060813903809, 0.6231257319450378, 0.6284655928611755, 0.6248174905776978, 0.621435284614563]","[0.11811981884821209, -1.4526765079466846, 0.11811981884821209, 0.11811981884821209, 0.11811981884821209, 0.11811981884821209]","[0.11811981884821209, -1.4526765079466846, 0.11811981884821209, 0.11811981884821209, 0.11811981884821209, 0.11811981884821209]","[-0.4180628895310976, -15.115625912092018, -8.59179262784715, -1.8447822816494426, 0.3021727794803034, -0.19851253051660825]",0.002,7,1
0,107,"[0.09581543505191803, -1.474917010670044, 0.09572059312929326, 0.09580044328656001, 0.09603656828403473, 0.09600544720888138]","[0.6244598031044006, 0.6149956583976746, 0.6210799217224121, 0.6288875937461853, 0.621351420879364, 0.6214705109596252]","[0.11867016171612652, -1.45212616507877, 0.11867016171612652, 0.11867016171612652, 0.11867016171612652, 0.11867016171612652]","[0.11867016171612652, -1.45212616507877, 0.11867016171612652, 0.11867016171612652, 0.11867016171612652, 0.11867016171612652]","[-0.5051405585040343, -15.601890045780282, -8.86967995681024, -1.859859433827591, 0.28913312030020943, -0.21277374962948936]",0.002,7,1
0,108,"[0.09708750993013382, -1.4736773309162636, 0.09693462053407842, 0.09707836687054439, 0.0972982868552208, 0.09729399532079697]","[0.6233936548233032, 0.6146846413612366, 0.6200591921806335, 0.6254816055297852, 0.6203128099441528, 0.6163573265075684]","[0.11922017125719844, -1.451576155537698, 0.11922017125719844, 0.11922017125719844, 0.11922017125719844, 0.11922017125719844]","[0.11922017125719844, -1.451576155537698, 0.11922017125719844, 0.11922017125719844, 0.11922017125719844, 0.11922017125719844]","[-0.5917097996407814, -16.079683705612062, -9.141849579722125, -1.8747745937887266, 0.27630361658239266, -0.22681667810356287]",0.002,7,1
0,109,"[0.09829581528902054, -1.4724574473551293, 0.09822255769838506, 0.09837035715069575, 0.09846512973308563, 0.09843972325325012]","[0.6216061115264893, 0.6122469902038574, 0.6146302223205566, 0.6233730316162109, 0.6178605556488037, 0.6131216287612915]","[0.11976984592653282, -1.4510264808683637, 0.11976984592653282, 0.11976984592653282, 0.11976984592653282, 0.11976984592653282]","[0.11976984592653282, -1.4510264808683637, 0.11976984592653282, 0.11976984592653282, 0.11976984592653282, 0.11976984592653282]","[-0.6776880556336338, -16.54966011923218, -9.41007087140162, -1.8894312437835477, 0.2636847365332797, -0.2406360615839848]",0.002,7,1
0,110,"[0.09958450496196747, -1.4711768266609688, 0.09947282472719365, 0.09974877416577144, 0.0996449664235115, 0.09968073666095734]","[0.6198964715003967, 0.6102978587150574, 0.6162719130516052, 0.6212114691734314, 0.6139371395111084, 0.6126468181610107]","[0.12031918418017519, -1.4504771426147214, 0.12031918418017519, 0.12031918418017519, 0.12031918418017519, 0.12031918418017519]","[0.12031918418017519, -1.4504771426147214, 0.12031918418017519, 0.12031918418017519, 0.12031918418017519, 0.12031918418017519]","[-0.7629867253664593, -17.013128189446302, -9.675325297019297, -1.9037819863354546, 0.2512719830461004, -0.2542281862226408]",0.002,7,1
0,111,"[0.10080189257860184, -1.4699860972217103, 0.10074931779970342, 0.1009325224110107, 0.10088331997394562, 0.1008496880531311]","[0.6143568158149719, 0.6089697480201721, 0.6136993765830994, 0.6171776056289673, 0.6098543405532837, 0.6090306639671326]","[0.12086818447511613, -1.4499281423197805, 0.12086818447511613, 0.12086818447511613, 0.12086818447511613, 0.12086818447511613]","[0.12086818447511613, -1.4499281423197805, 0.12086818447511613, 0.12086818447511613, 0.12086818447511613, 0.12086818447511613]","[-0.8475032229859238, -17.472733801559038, -9.93704065399324, -1.917814836152152, 0.23904896375026335, -0.2675911433104991]",0.002,7,1
0,112,"[0.10209020972251892, -1.468778559272625, 0.10194474855531865, 0.10216860353436275, 0.10212673246860504, 0.10203767567873001]","[0.6128888726234436, 0.6117985248565674, 0.6131014823913574, 0.6124663949012756, 0.6094821691513062, 0.6096672415733337]","[0.12141684526929539, -1.4493794815256011, 0.12141684526929539, 0.12141684526929539, 0.12141684526929539, 0.12141684526929539]","[0.12141684526929539, -1.4493794815256011, 0.12141684526929539, 0.12141684526929539, 0.12141684526929539, 0.12141684526929539]","[-0.9314338993963696, -17.92088462204415, -10.193829869067413, -1.9317725656502833, 0.22708725767531784, -0.2807220793984733]",0.002,7,1
0,113,"[0.10331854969263077, -1.4675519180348893, 0.10316402116884404, 0.1033974128910522, 0.10330651700496674, 0.10325610637664795]","[0.6099352836608887, 0.6118441224098206, 0.6095601916313171, 0.6074549555778503, 0.609312117099762, 0.6084339618682861]","[0.12196516502160637, -1.44883116177329, 0.12196516502160637, 0.12196516502160637, 0.12196516502160637, 0.12196516502160637]","[0.12196516502160637, -1.44883116177329, 0.12196516502160637, 0.12196516502160637, 0.12196516502160637, 0.12196516502160637]","[-1.0146401732548944, -18.361637690612124, -10.44547384100418, -1.9454759441681007, 0.2153428581314345, -0.2936176954384595]",0.002,7,1
0,114,"[0.10445567220449448, -1.466347375219204, 0.104408089314596, 0.10464589178051753, 0.10449989885091782, 0.1044013723731041]","[0.6080455183982849, 0.6093217730522156, 0.6085940599441528, 0.6012157201766968, 0.6053274273872375, 0.6080741286277771]","[0.12251314219190039, -1.4482831846029962, 0.12251314219190039, 0.12251314219190039, 0.12251314219190039, 0.12251314219190039]","[0.12251314219190039, -1.4482831846029962, 0.12251314219190039, 0.12251314219190039, 0.12251314219190039, 0.12251314219190039]","[-1.0970178788833902, -18.797033304753423, -10.693828262103843, -1.9588869489939678, 0.20381831793667732, -0.3062744137805362]",0.002,7,1
0,115,"[0.10568500310182571, -1.4650828552297135, 0.10559636751283819, 0.10588054239239497, 0.10566447675228119, 0.10559345036745071]","[0.6037362813949585, 0.6105995178222656, 0.6021608710289001, 0.5991322994232178, 0.6042327880859375, 0.6078662872314453]","[0.12306077524099104, -1.4477355515539054, 0.12306077524099104, 0.12306077524099104, 0.12306077524099104, 0.12306077524099104]","[0.12306077524099104, -1.4477355515539054, 0.12306077524099104, 0.12306077524099104, 0.12306077524099104, 0.12306077524099104]","[-1.1786204404306029, -19.22453838337618, -10.938117062438716, -1.9720181112938406, 0.19250829902769373, -0.3186904634054187]",0.002,7,1
0,116,"[0.10682965815067291, -1.4639276054552575, 0.10682040849794561, 0.10711137830700679, 0.1069076657295227, 0.10681856423616409]","[0.5985468626022339, 0.603485107421875, 0.6015187501907349, 0.5960736274719238, 0.5997146368026733, 0.603816568851471]","[0.12360806263065853, -1.447188264164238, 0.12360806263065853, 0.12360806263065853, 0.12360806263065853, 0.12360806263065853]","[0.12360806263065853, -1.447188264164238, 0.12360806263065853, 0.12360806263065853, 0.12360806263065853, 0.12360806263065853]","[-1.2593298977082188, -19.647580692064636, -11.178411294373735, -1.984887586175438, 0.18142838787488835, -0.33086275061867937]",0.002,7,1
0,117,"[0.1080407127737999, -1.4627411377481003, 0.10809070268739873, 0.10827188074078364, 0.10807135701179504, 0.10799755901098251]","[0.5942428708076477, 0.5975822806358337, 0.5990978479385376, 0.5918002128601074, 0.5998213887214661, 0.6024186015129089]","[0.12415500282365388, -1.4466413239712428, 0.12415500282365388, 0.12415500282365388, 0.12415500282365388, 0.12415500282365388]","[0.12415500282365388, -1.4466413239712428, 0.12415500282365388, 0.12415500282365388, 0.12415500282365388, 0.12415500282365388]","[-1.3393219422316882, -20.057642308824605, -11.413226513223103, -1.9975417270257505, 0.17057774250504276, -0.34279009996679605]",0.002,7,1
0,118,"[0.10930296778678894, -1.4615538281253357, 0.10930520692934209, 0.10949139177288814, 0.10924822837114334, 0.10919343680143356]","[0.5936131477355957, 0.5945006608963013, 0.5955848097801208, 0.5888651013374329, 0.5964681506156921, 0.5996898412704468]","[0.12470159428370346, -1.446094732511193, 0.12470159428370346, 0.12470159428370346, 0.12470159428370346, 0.12470159428370346]","[0.12470159428370346, -1.446094732511193, 0.12470159428370346, 0.12470159428370346, 0.12470159428370346, 0.12470159428370346]","[-1.418358214023891, -20.463313073430697, -11.645267203805759, -2.0099145579967828, 0.1599647796494078, -0.3544683492881071]",0.002,7,1
0,119,"[0.11039519309997559, -1.460378573541977, 0.11039477983583623, 0.11071257173504634, 0.110426165163517, 0.11040312796831131]","[0.5919030904769897, 0.5947445631027222, 0.5965542197227478, 0.5852421522140503, 0.5932861566543579, 0.5974490642547607]","[0.1252478354755131, -1.4455484913193835, 0.1252478354755131, 0.1252478354755131, 0.1252478354755131, 0.1252478354755131]","[0.1252478354755131, -1.4455484913193835, 0.1252478354755131, 0.1252478354755131, 0.1252478354755131, 0.1252478354755131]","[-1.4965157980610433, -20.860728718647383, -11.872077406806012, -2.021998650388179, 0.14957435974008781, -0.36589644758202927]",0.002,7,1
0,120,"[0.1115335151553154, -1.4592346262982865, 0.11158162752260381, 0.11181191980328364, 0.11164195090532303, 0.11157850921154022]","[0.5882363319396973, 0.5920963883399963, 0.591954231262207, 0.5835009217262268, 0.5878310799598694, 0.593477189540863]","[0.1257937248647725, -1.445002601930124, 0.1257937248647725, 0.1257937248647725, 0.1257937248647725, 0.1257937248647725]","[0.1257937248647725, -1.445002601930124, 0.1257937248647725, 0.1257937248647725, 0.1257937248647725, 0.1257937248647725]","[-1.5737767350172447, -21.247917794402884, -12.09226653703346, -2.0338852507071588, 0.1394386033701535, -0.3770720693259588]",0.002,7,1
