Arnibjarnst/BoxLift/logs/ur_rtde/trajectory_dur=5.0_delay=0.2_gain=200_lh=0.03_real.csv
arm_idx,step,actual_q,actual_qd,target_q,expected_q,loop_time,robot_mode,safety_mode
0,-1,"[0.04916626587510109, -1.5217160929790516, 0.049103562031881154, 0.04915062963452144, 0.04929700121283531, 0.04922588914632797]","[-0.04804503545165062, -0.049441318958997726, -0.048096686601638794, -0.047220561653375626, -0.045727577060461044, -0.04569394513964653]","[0.0, -1.5707963267948966, 0.0, 0.0, 0.0, 0.0]","[0.0, -1.5707963267948966, 0.0, 0.0, 0.0, 0.0]",0.002,7,1
0,-1,"[0.048247236758470535, -1.5226361875287076, 0.04834205309023076, 0.04837576925244136, 0.04848823696374893, 0.04834584519267082]","[-0.06238042563199997, -0.062926284968853, -0.06044066324830055, -0.06327170133590698, -0.0630059689283371, -0.06243610009551048]","[0.0, -1.5707963267948966, 0.0, 0.0, 0.0, 0.0]","[0.0, -1.5707963267948966, 0.0, 0.0, 0.0, 0.0]",0.002,7,1
0,-1,"[0.04778173565864563, -1.5231845837882538, 0.04778463045229131, 0.0478476720997314, 0.04792717099189758, 0.04780828580260277]","[-0.07140269130468369, -0.07065284252166748, -0.06957953423261642, -0.07053122669458389, -0.07077395915985107, -0.07189776748418808]","[0.0, -1.5707963267948966, 0.0, 0.0, 0.0, 0.0]","[0.0, -1.5707963267948966, 0.0, 0.0, 0.0, 0.0]",0.002,7,1
0,-1,"[0.046900078654289246, -1.5239071522704144, 0.04704505601991826, 0.04711834966625972, 0.04711568355560303, 0.0470900796353817]","[-0.08044122159481049, -0.08108293265104294, -0.08175535500049591, -0.0806647539138794, -0.08054490387439728, -0.08043670654296875]","[0.0, -1.5707963267948966, 0.0, 0.0, 0.0, 0.0]","[0.0, -1.5707963267948966, 0.0, 0.0, 0.0, 0.0]",0.002,7,1
0,-1,"[0.046078018844127655, -1.5247920726290722, 0.04615527788271123, 0.04614703237499995, 0.0463007353246212, 0.04616495221853256]","[-0.09356582909822464, -0.08900893479585648, -0.09068945795297623, -0.09186040610074997, -0.09367252886295319, -0.09062155336141586]","[0.0, -1.5707963267948966, 0.0, 0.0, 0.0, 0.0]","[0.0, -1.5707963267948966, 0.0, 0.0, 0.0, 0.0]",0.002,7,1
0,-1,"[0.04506338760256767, -1.5256904301098366, 0.04514915147890264, 0.04523746549572749, 0.045238375663757324, 0.045241497457027435]","[-0.10107458382844925, -0.10006106644868851, -0.10117732733488083, -0.10006250441074371, -0.10387950390577316, -0.10147765278816223]","[0.0, -1.5707963267948966, 0.0, 0.0, 0.0, 0.0]","[0.0, -1.5707963267948966, 0.0, 0.0, 0.0, 0.0]",0.002,7,1
0,-1,"[0.043037932366132736, -1.5275965866497536, 0.04318601289858037, 0.04317621767010493, 0.043264783918857574, 0.043263569474220276]","[-0.11769425868988037, -0.11903272569179535, -0.11770615726709366, -0.11716842651367188, -0.11928778141736984, -0.12062706053256989]","[0.0, -1.5707963267948966, 0.0, 0.0, 0.0, 0.0]","[0.0, -1.5707963267948966, 0.0, 0.0, 0.0, 0.0]",0.002,7,1
0,-1,"[0.04205603152513504, -1.528576386427023, 0.042304817830221, 0.042172356242797804, 0.04227876290678978, 0.04224291816353798]","[-0.12622956931591034, -0.12468543648719788, -0.12721315026283264, -0.12478582561016083, -0.12891049683094025, -0.12883566319942474]","[0.0, -1.5707963267948966, 0.0, 0.0, 0.0, 0.0]","[0.0, -1.5707963267948966, 0.0, 0.0, 0.0, 0.0]",0.002,7,1
0,-1,"[0.04049191251397133, -1.5302003410509606, 0.04061729112734014, 0.04046885549511714, 0.04066893458366394, 0.04062960296869278]","[-0.1386869102716446, -0.13713566958904266, -0.1375299096107483, -0.13670659065246582, -0.14144465327262878, -0.14047589898109436]","[0.0, -1.5707963267948966, 0.0, 0.0, 0.0, 0.0]","[0.0, -1.5707963267948966, 0.0, 0.0, 0.0, 0.0]",0.002,7,1
0,-1,"[0.03879158943891525, -1.5318735514632245, 0.038889710103170216, 0.038708849544189405, 0.03892362490296364, 0.03892313688993454]","[-0.1486978977918625, -0.15058015286922455, -0.15243451297283173, -0.1490977704524994, -0.1540868729352951, -0.1517370641231537]","[0.0, -1.5707963267948966, 0.0, 0.0, 0.0, 0.0]","[0.0, -1.5707963267948966, 0.0, 0.0, 0.0, 0.0]",0.002,7,1
0,-1,"[0.035866472870111465, -1.5347881142846127, 0.035923306141988576, 0.035806580180786085, 0.03597637638449669, 0.03606420010328293]","[-0.16581875085830688, -0.16887643933296204, -0.17024272680282593, -0.16253162920475006, -0.17105542123317719, -0.17069624364376068]","[0.0, -1.5707963267948966, 0.0, 0.0, 0.0, 0.0]","[0.0, -1.5707963267948966, 0.0, 0.0, 0.0, 0.0]",0.002,7,1
0,-1,"[0.03376804664731026, -1.5368698363057156, 0.03383189836610967, 0.0337408024021606, 0.033814456313848495, 0.03388757258653641]","[-0.179912731051445, -0.18165305256843567, -0.18043872714042664, -0.17719705402851105, -0.18128515779972076, -0.18225890398025513]","[0.0, -1.5707963267948966, 0.0, 0.0, 0.0, 0.0]","[0.0, -1.5707963267948966, 0.0, 0.0, 0.0, 0.0]",0.002,7,1
0,-1,"[0.03151913359761238, -1.5390645426562806, 0.031550232564107716, 0.0314977604099731, 0.03159046918153763, 0.03168974071741104]","[-0.19215011596679688, -0.19395069777965546, -0.19034934043884277, -0.18699167668819427, -0.1930098533630371, -0.19365687668323517]","[0.0, -1.5707963267948966, 0.0, 0.0, 0.0, 0.0]","[0.0, -1.5707963267948966, 0.0, 0.0, 0.0, 0.0]",0.002,7,1
0,-1,"[0.027943570166826248, -1.5427759208581229, 0.027924362813131154, 0.02791385232891841, 0.02794478088617325, 0.027950944378972054]","[-0.21018511056900024, -0.211652472615242, -0.2095908671617508, -0.20619772374629974, -0.20973898470401764, -0.20946578681468964]","[0.0, -1.5707963267948966, 0.0, 0.0, 0.0, 0.0]","[0.0, -1.5707963267948966, 0.0, 0.0, 0.0, 0.0]",0.002,7,1
0,-1,"[0.025432156398892403, -1.5454727218351145, 0.025345627461568654, 0.02541296064343257, 0.02519618347287178, 0.025400320068001747]","[-0.22341598570346832, -0.22143656015396118, -0.2218891978263855, -0.2218744456768036, -0.21991819143295288, -0.22292223572731018]","[0.0, -1.5707963267948966, 0.0, 0.0, 0.0, 0.0]","[0.0, -1.5707963267948966, 0.0, 0.0, 0.0, 0.0]",0.002,7,1
0,-1,"[0.021560873836278915, -1.5493245919099827, 0.021523777638570607, 0.021678491229675245, 0.021388478577136993, 0.02149925008416176]","[-0.20689846575260162, -0.20517560839653015, -0.2069394737482071, -0.20769664645195007, -0.20650774240493774, -0.2051665037870407]","[0.0, -1.5707963267948966, 0.0, 0.0, 0.0, 0.0]","[0.0, -1.5707963267948966, 0.0, 0.0, 0.0, 0.0]",0.002,7,1
0,-1,"[0.018421625718474388, -1.5525743582150717, 0.018403355275289357, 0.018494053477905226, 0.01830979622900486, 0.018346168100833893]","[-0.19009245932102203, -0.1929110735654831, -0.19198080897331238, -0.1956896036863327, -0.19079050421714783, -0.18868151307106018]","[0.0, -1.5707963267948966, 0.0, 0.0, 0.0, 0.0]","[0.0, -1.5707963267948966, 0.0, 0.0, 0.0, 0.0]",0.002,7,1
0,-1,"[0.01683485135436058, -1.5540294472924252, 0.016831223164693654, 0.016954227084777784, 0.016812369227409363, 0.016816819086670876]","[-0.18534983694553375, -0.1834855079650879, -0.18345999717712402, -0.18994858860969543, -0.18288779258728027, -0.1812272071838379]","[0.0, -1.5707963267948966, 0.0, 0.0, 0.0, 0.0]","[0.0, -1.5707963267948966, 0.0, 0.0, 0.0, 0.0]",0.002,7,1
0,-1,"[0.013998358510434628, -1.5568131816438218, 0.014126125966207326, 0.014118953342102003, 0.014002127572894096, 0.014054106548428535]","[-0.1681116819381714, -0.16642293334007263, -0.16672272980213165, -0.17132696509361267, -0.17045749723911285, -0.16825351119041443]","[0.0, -1.5707963267948966, 0.0, 0.0, 0.0, 0.0]","[0.0, -1.5707963267948966, 0.0, 0.0, 0.0, 0.0]",0.002,7,1
0,-1,"[0.012691393494606018, -1.558061148305871, 0.012854401265279591, 0.012714310283325148, 0.012706581503152847, 0.012764343060553074]","[-0.16054680943489075, -0.15787221491336823, -0.16107115149497986, -0.1633143275976181, -0.15882928669452667, -0.1599949151277542]","[0.0, -1.5707963267948966, 0.0, 0.0, 0.0, 0.0]","[0.0, -1.5707963267948966, 0.0, 0.0, 0.0, 0.0]",0.002,7,1
0,-1,"[0.009787466377019882, -1.5609275757199903, 0.009801212941304982, 0.00967661916699214, 0.009789494797587395, 0.009811490774154663]","[-0.14014874398708344, -0.13860933482646942, -0.14098533987998962, -0.13991990685462952, -0.13959349691867828, -0.14360208809375763]","[0.0, -1.5707963267948966, 0.0, 0.0, 0.0, 0.0]","[0.0, -1.5707963267948966, 0.0, 0.0, 0.0, 0.0]",0.002,7,1
0,-1,"[0.008117882534861565, -1.5624908705106755, 0.008167568837301076, 0.008075042361877394, 0.00820040050894022, 0.008207181468605995]","[-0.1267816722393036, -0.12864984571933746, -0.1270710527896881, -0.12841328978538513, -0.13045020401477814, -0.13016103208065033]","[0.0, -1.5707963267948966, 0.0, 0.0, 0.0, 0.0]","[0.0, -1.5707963267948966, 0.0, 0.0, 0.0, 0.0]",0.002,7,1
0,-1,"[0.0060117593966424465, -1.564595955224224, 0.006077114735738576, 0.0059094864078979015, 0.006070328410714865, 0.00610564649105072]","[-0.10960826277732849, -0.11295276135206223, -0.11233767122030258, -0.1089186891913414, -0.10953859984874725, -0.11120286583900452]","[0.0, -1.5707963267948966, 0.0, 0.0, 0.0, 0.0]","[0.0, -1.5707963267948966, 0.0, 0.0, 0.0, 0.0]",0.002,7,1
0,-1,"[0.00419080862775445, -1.5664732570624729, 0.004169289265767873, 0.004129214877746534, 0.004148770123720169, 0.004245235119014978]","[-0.09428099542856216, -0.09496466815471649, -0.09455126523971558, -0.08973631262779236, -0.09573137015104294, -0.09403112530708313]","[0.0, -1.5707963267948966, 0.0, 0.0, 0.0, 0.0]","[0.0, -1.5707963267948966, 0.0, 0.0, 0.0, 0.0]",0.002,7,1
0,-1,"[0.002561575034633279, -1.568185765096434, 0.002545181904928029, 0.0025273996540526866, 0.0025884932838380337, 0.002587022725492716]","[-0.07093871384859085, -0.07478366792201996, -0.07299076020717621, -0.07038471847772598, -0.07215311378240585, -0.07267028838396072]","[0.0, -1.5707963267948966, 0.0, 0.0, 0.0, 0.0]","[0.0, -1.5707963267948966, 0.0, 0.0, 0.0, 0.0]",0.002,7,1
0,-1,"[0.0014305728254839778, -1.569207899421901, 0.0015242735492151382, 0.0015787321278075694, 0.0015961575554683805, 0.0015850021736696362]","[-0.05596759542822838, -0.059696998447179794, -0.057307496666908264, -0.054484475404024124, -0.05713113397359848, -0.05532282590866089]","[0.0, -1.5707963267948966, 0.0, 0.0, 0.0, 0.0]","[0.0, -1.5707963267948966, 0.0, 0.0, 0.0, 0.0]",0.002,7,1
0,-1,"[0.0008710136171430349, -1.5698524387883772, 0.0008876959430139664, 0.0009743410297851085, 0.0009996016742661595, 0.000977921998128295]","[-0.043974559754133224, -0.04803786054253578, -0.04525855928659439, -0.04480817914009094, -0.04574999585747719, -0.04467005655169487]","[0.0, -1.5707963267948966, 0.0, 0.0, 0.0, 0.0]","[0.0, -1.5707963267948966, 0.0, 0.0, 0.0, 0.0]",0.002,7,1
0,-1,"[0.00029654783429577947, -1.5705266755870362, 0.000272099171773732, 0.00031988203015131944, 0.0003165676898788661, 0.0003509164962451905]","[-0.026258839294314384, -0.030206182971596718, -0.026941627264022827, -0.026034913957118988, -0.02551127038896084, -0.02665315940976143]","[0.0, -1.5707963267948966, 0.0, 0.0, 0.0, 0.0]","[0.0, -1.5707963267948966, 0.0, 0.0, 0.0, 0.0]",0.002,7,1
0,-1,"[0.00013458728790283203, -1.5708519421019496, 4.178682436162262e-05, 7.955610241694444e-05, 7.765188638586551e-05, 0.00012302398681640625]","[-0.013203699141740799, -0.018536433577537537, -0.01566951349377632, -0.01441622618585825, -0.014062338508665562, -0.013660251162946224]","[0.0, -1.5707963267948966, 0.0, 0.0, 0.0, 0.0]","[0.0, -1.5707963267948966, 0.0, 0.0, 0.0, 0.0]",0.002,7,1
0,-1,"[0.00010915171878878027, -1.5708848438658656, -4.64982986159157e-05, 7.490694012446397e-05, 7.504558743676171e-05, 3.793954965658486e-05]","[0.008177847601473331, 0.007157414685934782, 0.007374953478574753, 0.008045370690524578, 0.007978667505085468, 0.0037435623817145824]","[0.0, -1.5707963267948966, 0.0, 0.0, 0.0, 0.0]","[0.0, -1.5707963267948966, 0.0, 0.0, 0.0, 0.0]",0.002,7,1
0,-1,"[6.561565533047542e-05, -1.5709988079466761, 1.0315571920216371e-05, 6.024419750971788e-05, 0.00011255550634814426, 7.062400982249528e-05]","[0.0024899737909436226, -0.0051979972049593925, 0.0018118243897333741, 2.3609997867879429e-07, 0.0007467854302376509, 0.0009706257260404527]","[0.0, -1.5707963267948966, 0.0, 0.0, 0.0, 0.0]","[0.0, -1.5707963267948966, 0.0, 0.0, 0.0, 0.0]",0.002,7,1
0,-1,"[8.654594421386719e-05, -1.5708548031248988, 8.885060445606996e-06, 3.926336254878038e-05, 8.322716894326732e-06, 7.511980220442638e-05]","[0.00016696569218765944, 0.003460989100858569, 0.0027697656769305468, -1.1835835067586231e-07, 2.4674255882928264e-07, 0.00046637741615995765]","[0.0, -1.5707963267948966, 0.0, 0.0, 0.0, 0.0]","[0.0, -1.5707963267948966, 0.0, 0.0, 0.0, 0.0]",0.002,7,1
0,-1,"[-3.163014547169496e-06, -1.570786248327142, 2.366701234990387e-05, 5.738317456049913e-05, -1.0792409078419496e-05, 0.00011686539801303297]","[1.9139960883568508e-12, 0.0027899877168238163, 0.001478645484894514, 2.571154254837893e-05, -0.0012077655410394073, 0.00017510363250039518]","[0.0, -1.5707963267948966, 0.0, 0.0, 0.0, 0.0]","[0.0, -1.5707963267948966, 0.0, 0.0, 0.0, 0.0]",0.002,7,1
0,-1,"[7.919692870927975e-05, -1.5707698322097094, 6.133714784795075e-05, 9.31459614257335e-05, 5.253791641735006e-06, 5.877919466001913e-05]","[8.73295211735041e-37, 0.00015113252447918057, 0.00032412016298621893, -0.00040075459401123226, -0.0010923651279881597, -0.00013643052079714835]","[0.0, -1.5707963267948966, 0.0, 0.0, 0.0, 0.0]","[0.0, -1.5707963267948966, 0.0, 0.0, 0.0, 0.0]",0.002,7,1
0,-1,"[0.00011216735583730042, -1.5708099804320277, 2.9865895406544496e-05, 9.103412292432722e-06, 5.0020218623103574e-05, 8.389949653064832e-05]","[0.0, 1.3030244661038637e-09, 0.0002492945350240916, -0.00047792328405193985, -0.000636858050711453, -0.0005090885679237545]","[0.0, -1.5707963267948966, 0.0, 0.0, 0.0, 0.0]","[0.0, -1.5707963267948966, 0.0, 0.0, 0.0, 0.0]",0.002,7,1
0,-1,"[8.957672253018245e-05, -1.5708023510374964, 4.6078358785450746e-05, 5.285322155756944e-05, 3.7774087104480714e-05, 5.8826070016948506e-05]","[0.0, 1.3677632264662173e-24, 0.00015171218547038734, -0.000621815852355212, -0.0008880291716195643, -0.0004359200829640031]","[0.0, -1.5707963267948966, 0.0, 0.0, 0.0, 0.0]","[0.0, -1.5707963267948966, 0.0, 0.0, 0.0, 0.0]",0.002,7,1
0,-1,"[9.102821059059352e-05, -1.5707698429872217, 8.231798280888825e-05, 3.640233959956163e-05, 5.0878523325081915e-05, 1.9383442122489214e-06]","[0.0, 1.9262248690608935e-41, 0.00013967340055387467, -0.0015624472871422768, -0.0006308809970505536, -0.0009929434163495898]","[0.0, -1.5707963267948966, 0.0, 0.0, 0.0, 0.0]","[0.0, -1.5707963267948966, 0.0, 0.0, 0.0, 0.0]",0.002,7,1
0,-1,"[8.367920236196369e-05, -1.570815225640768, 6.276765932256012e-05, 4.0932292602491316e-05, 6.314222264336422e-05, -3.415742983037262e-05]","[0.0, 8.578770939493552e-05, 0.0001265773898921907, -0.0007916534086689353, -0.0006420270074158907, -0.0007070107385516167]","[0.0, -1.5707963267948966, 0.0, 0.0, 0.0, 0.0]","[0.0, -1.5707963267948966, 0.0, 0.0, 0.0, 0.0]",0.002,7,1
0,-1,"[6.246566772460938e-05, -1.570827146569723, 4.178682436162262e-05, -1.8195515014696184e-05, 3.4618376957951114e-05, 3.492243558866903e-05]","[-3.93755835830234e-05, 7.222691783681512e-05, 0.00011572676157811657, -0.0004809298843611032, -0.0009534764685668051, -0.0006036648992449045]","[0.0, -1.5707963267948966, 0.0, 0.0, 0.0, 0.0]","[0.0, -1.5707963267948966, 0.0, 0.0, 0.0, 0.0]",0.002,7,1
0,-1,"[2.492332350811921e-05, -1.5707458907021028, 8.885060445606996e-06, 1.661359753413194e-05, 2.1513940737349913e-05, -1.794496645146637e-05]","[-3.480670056887902e-05, 5.821149534313008e-05, 0.00010254168591927737, -0.0007947995327413082, -0.0005408526048995554, -0.0007017225143499672]","[0.0, -1.5707963267948966, 0.0, 0.0, 0.0, 0.0]","[0.0, -1.5707963267948966, 0.0, 0.0, 0.0, 0.0]",0.002,7,1
0,-1,"[0.00012873459490947425, -1.570799013177389, -2.5073386495932937e-05, -1.1758213378953997e-05, -1.0315571920216371e-05, -4.593526021778871e-06]","[-4.760717274621129e-05, 2.5054960133275017e-05, 9.364993456983939e-05, -0.0006433320231735706, -0.0003783315187320113, -0.0009054825641214848]","[0.0, -1.5707963267948966, 0.0, 0.0, 0.0, 0.0]","[0.0, -1.5707963267948966, 0.0, 0.0, 0.0, 0.0]",0.002,7,1
0,-1,"[0.00011216735583730042, -1.5708099804320277, -1.4781951904296875e-05, -3.4646396972704e-05, -6.024037496388246e-06, -1.3176594869435121e-05]","[-5.630991290672682e-05, 1.6691833090662705e-17, 8.351204451173544e-05, -0.00038576737279072404, -0.0003040400624740869, -0.0004511608858592808]","[0.0, -1.5707963267948966, 0.0, 0.0, 0.0, 0.0]","[0.0, -1.5707963267948966, 0.0, 0.0, 0.0, 0.0]",0.002,7,1
0,-1,"[0.00011216735583730042, -1.5708428821959437, 1.3176594869435121e-05, -5.3719883300829e-05, -1.9375477926075746e-05, 2.8640060918405652e-05]","[-5.163959212950431e-05, 9.734139847362694e-29, 6.368405593093485e-05, -0.0003200843639206141, -0.00024279092031065375, -0.0003004517639055848]","[0.0, -1.5707963267948966, 0.0, 0.0, 0.0, 0.0]","[0.0, -1.5707963267948966, 0.0, 0.0, 0.0, 0.0]",0.002,7,1
0,-1,"[0.00011216735583730042, -1.5707536360826744, 2.843538393193512e-05, -2.081811938481337e-05, 2.7216836315346882e-05, 0.0]","[-0.00017571593343745917, -4.7432902647415176e-05, 5.648932346957736e-05, -0.00021963281324133277, -0.00012844341108575463, -0.00020018387294840068]","[0.0, -1.5707963267948966, 0.0, 0.0, 0.0, 0.0]","[0.0, -1.5707963267948966, 0.0, 0.0, 0.0, 0.0]",0.002,7,1
0,-1,"[0.00011216735583730042, -1.5707710144564153, 3.2726918355763246e-05, 3.366052593989366e-05, -1.0315571920216371e-05, 6.454443791881204e-05]","[-0.0005036670481786132, -2.7661351141180753e-16, 6.303916597971693e-05, -0.000181635856279172, -0.0001315939298365265, -0.00016375577251892537]","[0.0, -1.5707963267948966, 0.0, 0.0, 0.0, 0.0]","[0.0, -1.5707963267948966, 0.0, 0.0, 0.0, 0.0]",0.002,7,1
0,-1,"[5.5071832321118563e-05, -1.5707513572309217, 4.6078358785450746e-05, 2.9249782226514753e-05, -2.7958546773731996e-05, 3.600120544433594e-05]","[-0.0003621368668973446, 0.00041861034696921706, 1.929759086902183e-12, -0.00014421316154766828, -0.00010792307875817642, -0.00015008203627076]","[0.0, -1.5707963267948966, 0.0, 0.0, 0.0, 0.0]","[0.0, -1.5707963267948966, 0.0, 0.0, 0.0, 0.0]",0.002,7,1
0,-1,"[6.246566772460938e-05, -1.5708066425719203, -2.373363713559229e-05, 2.4481410644483503e-05, -1.732503072560121e-06, 3.159046173095703e-05]","[-0.0003418981214053929, 0.00016144481196533889, 1.1253735846006436e-23, -0.00012679754581768066, -9.636711183702573e-05, -0.0001313134707743302]","[0.0, -1.5707963267948966, 0.0, 0.0, 0.0, 0.0]","[0.0, -1.5707963267948966, 0.0, 0.0, 0.0, 0.0]",0.002,7,1
0,-1,"[5.5071832321118563e-05, -1.5707980595030726, 5.418459047490387e-05, 4.692668579053816e-06, 1.528029861219693e-05, -4.593526021778871e-06]","[-0.0002625132619868964, -0.0001784679916454479, 1.5848405371820816e-40, -0.00012268757564015687, -8.303124195663258e-05, -0.0001105710762203671]","[0.0, -1.5707963267948966, 0.0, 0.0, 0.0, 0.0]","[0.0, -1.5707963267948966, 0.0, 0.0, 0.0, 0.0]",0.002,7,1
0,-1,"[2.4923325327108614e-05, -1.5707654876717534, 4.941621889287262e-05, 1.3752574584913191e-05, 2.086162112391321e-06, 3.3030031772796065e-05]","[-0.00027598923770710826, -0.00017193939129356295, -0.0, -0.00011130746133858338, -7.60180046199821e-05, -0.00010003650822909549]","[0.0, -1.5707963267948966, 0.0, 0.0, 0.0, 0.0]","[0.0, -1.5707963267948966, 0.0, 0.0, 0.0, 0.0]",0.002,7,1
0,-1,"[3.110470061074011e-05, -1.5708066425719203, 3.2726918355763246e-05, -2.6983073730946217e-06, 4.0287970477947965e-05, 1.6710280760889873e-05]","[-0.0005188817158341408, -0.00010235345689579844, -0.0, -5.5604024964850396e-05, -6.7469896748662e-05, -8.752803114475682e-05]","[0.0, -1.5707963267948966, 0.0, 0.0, 0.0, 0.0]","[0.0, -1.5707963267948966, 0.0, 0.0, 0.0, 0.0]",0.002,7,1
0,-1,"[-1.732503072560121e-06, -1.570786274396898, 3.415742983037262e-05, 1.6271557612412835e-07, 1.9699989934451878e-05, 1.9657611119328067e-05]","[-0.0006097753066569567, -4.96024513267912e-05, -0.0, -7.39063491740803e-19, -4.2423775603595004e-09, -7.327533239731565e-05]","[0.0, -1.5707963267948966, 0.0, 0.0, 0.0, 0.0]","[0.0, -1.5707963267948966, 0.0, 0.0, 0.0, 0.0]",0.002,7,1
0,-1,"[1.902580333990045e-05, -1.5708228550352992, -7.345817266468657e-06, -1.1758213378953997e-05, -1.732503072560121e-06, -4.593526021778871e-06]","[0.00010025912342825904, -7.716395339230075e-05, -0.0, -1.5939455132743325e-29, -9.149579172298579e-20, -3.23373022803608e-10]","[0.0, -1.5707963267948966, 0.0, 0.0, 0.0, 0.0]","[0.0, -1.5707963267948966, 0.0, 0.0, 0.0, 0.0]",0.002,7,1
0,-1,"[-3.9402638570606996e-05, -1.5707698691442893, -1.6217469237744808e-05, -9.135609008836809e-06, 1.099384553526761e-05, 3.337860107421875e-06]","[2.3179328248468245e-11, -7.158692460507154e-05, -0.0, -1.891481904505115e-35, -1.0857503092746533e-25, -3.837360477153848e-16]","[0.0, -1.5707963267948966, 0.0, 0.0, 0.0, 0.0]","[0.0, -1.5707963267948966, 0.0, 0.0, 0.0, 0.0]",0.002,7,1
0,-1,"[-1.8421803609669496e-05, -1.5708605251707972, 2.9865895406544496e-05, -2.6983073730946217e-06, -1.732503072560121e-06, -1.3176594869435121e-05]","[1.3517448417501574e-22, -4.797023211722262e-05, -0.0, -1.4657581936837587e-42, -8.412488504481057e-33, -2.9732205383103386e-23]","[0.0, -1.5707963267948966, 0.0, 0.0, 0.0, 0.0]","[0.0, -1.5707963267948966, 0.0, 0.0, 0.0, 0.0]",0.002,7,1
0,-1,"[-6.024037496388246e-06, -1.570815225640768, -2.373363713559229e-05, 6.668149914546007e-05, 2.723455327213742e-05, -1.3176594869435121e-05]","[7.88294685020584e-34, 2.3905697162263095e-05, -0.0, -0.0, -6.51806974188367e-40, -2.3036772169335835e-30]","[0.0, -1.5707963267948966, 0.0, 0.0, 0.0, 0.0]","[0.0, -1.5707963267948966, 0.0, 0.0, 0.0, 0.0]",0.002,7,1
0,-1,"[3.8504600524902344e-05, -1.5707710264963062, 4.5124684469044496e-05, 4.0932292602491316e-05, -6.024037496388246e-06, -2.5097523824513246e-05]","[4.203895392974451e-45, 4.1245220927521586e-05, -0.0, -0.0, -0.0, -1.784909412023716e-37]","[0.0, -1.5707963267948966, 0.0, 0.0, 0.0, 0.0]","[0.0, -1.5707963267948966, 0.0, 0.0, 0.0, 0.0]",0.002,7,1
0,-1,"[-1.4130269185841371e-05, -1.570745881920022, 2.843538393193512e-05, -7.228260376024309e-06, -1.5083943502247621e-05, -8.885060445606996e-06]","[0.0, 3.419427230255678e-05, -0.0, -0.0, -0.0, -0.0]","[0.0, -1.5707963267948966, 0.0, 0.0, 0.0, 0.0]","[0.0, -1.5707963267948966, 0.0, 0.0, 0.0, 0.0]",0.002,7,1
0,-1,"[-6.024037496388246e-06, -1.5708099804320277, -2.0684359697042964e-05, -2.820909533696181e-05, -4.7985707418263246e-05, -2.9865895406544496e-05]","[0.0, 2.716238567401774e-09, -0.0, -0.0, -0.0, -0.0]","[0.0, -1.5707963267948966, 0.0, 0.0, 0.0, 0.0]","[0.0, -1.5707963267948966, 0.0, 0.0, 0.0, 0.0]",0.002,7,1
0,-1,"[-9.361897603810121e-06, -1.570831914941305, 2.080598940068512e-05, -2.558649096684462e-05, 2.723455327213742e-05, -8.885060445606996e-06]","[0.0, 5.132047671003028e-28, -0.0, -0.0, -0.0, -0.0]","[0.0, -1.5707963267948966, 0.0, 0.0, 0.0, 0.0]","[0.0, -1.5707963267948966, 0.0, 0.0, 0.0, 0.0]",0.002,7,1
0,-1,"[-5.609193910771637e-05, -1.5708228550352992, 7.454548970997621e-06, 1.661359753413194e-05, 1.5313624317059293e-05, -2.5097523824513246e-05]","[0.0, 2.9928470172556216e-39, -0.0, -0.0, -0.0, -0.0]","[0.0, -1.5707963267948966, 0.0, 0.0, 0.0, 0.0]","[0.0, -1.5707963267948966, 0.0, 0.0, 0.0, 0.0]",0.002,7,1
0,-1,"[2.658367156982422e-05, -1.5707698147274023, -2.3751452317810617e-05, 7.315272949171003e-06, -1.9375477926075746e-05, 1.6710280760889873e-05]","[0.0, 0.0, -0.0, -0.0, -0.0, -0.0]","[0.0, -1.5707963267948966, 0.0, 0.0, 0.0, 0.0]","[0.0, -1.5707963267948966, 0.0, 0.0, 0.0, 0.0]",0.002,7,1
0,-1,"[2.6565694497548975e-05, -1.5707785822981641, 2.843538393193512e-05, 1.6271557612412835e-07, 6.4373016357421875e-06, -2.9865895406544496e-05]","[0.0, 0.0, -0.0, -0.0, -3.480146233414416e-07, -0.0]","[0.0, -1.5707963267948966, 0.0, 0.0, 0.0, 0.0]","[0.0, -1.5707963267948966, 0.0, 0.0, 0.0, 0.0]",0.002,7,1
0,-1,"[-6.024037496388246e-06, -1.570815225640768, 0.0, -2.820909533696181e-05, -1.9375477926075746e-05, -1.794496645146637e-05]","[0.0, 0.0, -0.0, -0.0, -6.324999985568569e-12, -0.0]","[0.0, -1.5707963267948966, 0.0, 0.0, 0.0, 0.0]","[0.0, -1.5707963267948966, 0.0, 0.0, 0.0, 0.0]",0.002,7,1
0,-1,"[-2.271333803349762e-05, -1.5708066425719203, 3.2726918355763246e-05, 2.114355053706163e-05, 4.350662129581906e-05, 7.82465940574184e-06]","[0.0, 0.0, -0.0, -0.0, -7.505668133461212e-18, -0.0]","[0.0, -1.5707963267948966, 0.0, 0.0, 0.0, 0.0]","[0.0, -1.5707963267948966, 0.0, 0.0, 0.0, 0.0]",0.002,7,1
0,-1,"[6.407215551007539e-05, -1.570848127404684, -3.709008524310775e-05, -1.7446330566883717e-06, -2.652803529912262e-05, 1.2311457794567104e-05]","[0.0, 0.0, -0.0, -0.0, -5.815456955309879e-25, -0.0]","[0.0, -1.5707963267948966, 0.0, 0.0, 0.0, 0.0]","[0.0, -1.5707963267948966, 0.0, 0.0, 0.0, 0.0]",0.002,7,1
0,-1,"[1.0016441592597403e-05, -1.5707980595030726, 6.6105519429982e-05, 3.377973522944444e-05, -2.175966371709137e-05, 5.711030826205388e-05]","[0.0, 0.0, -0.0, -0.0, -2.9420092614807742e-33, -0.0]","[0.0, -1.5707963267948966, 0.0, 0.0, 0.0, 0.0]","[0.0, -1.5707963267948966, 0.0, 0.0, 0.0, 0.0]",0.002,7,1
0,1,"[9.968252925318666e-06, -1.5704620551008084, 0.00024873415102177887, 0.00018505632366938585, 0.00015275878831744194, 0.00020631265942938626]","[0.06238170340657234, 0.27899155020713806, 0.20201104879379272, 0.10931003093719482, 0.08650694787502289, 0.09420348703861237]","[0.08765894793109064, -1.4831373788638058, 0.08765894793109064, 0.08765894793109064, 0.08765894793109064, 0.08765894793109064]","[0.08765894793109064, -1.4831373788638058, 0.08765894793109064, 0.08765894793109064, 0.08765894793109064, 0.08765894793109064]",0.002,7,1
0,2,"[9.968252925318666e-06, -1.5704620551008084, 0.00024873415102177887, 0.00018505632366938585, 0.00015275878831744194, 0.00020631265942938626]","[0.06238170340657234, 0.27899155020713806, 0.20201104879379272, 0.10931003093719482, 0.08650694787502289, 0.09420348703861237]","[0.08850819476859928, -1.4822881320262973, 0.08850819476859928, 0.08850819476859928, 0.08850819476859928, 0.08850819476859928]","[0.08850819476859928, -1.4822881320262973, 0.08850819476859928, 0.08850819476859928, 0.08850819476859928, 0.08850819476859928]",0.002,7,1
0,3,"[0.00019785994663834572, -1.5700321922525582, 0.0005524794207971695, 0.0004148918339232921, 0.0005256664589978755, 0.0004717373813036829]","[0.08726488053798676, 0.3770813047885895, 0.24643133580684662, 0.17258356511592865, 0.1456597000360489, 0.15623842179775238]","[0.08935688209272531, -1.4814394447021713, 0.08935688209272531, 0.08935688209272531, 0.08935688209272531, 0.08935688209272531]","[0.08935688209272531, -1.4814394447021713, 0.08935688209272531, 0.08935688209272531, 0.08935688209272531, 0.08935688209272531]",0.002,7,1
0,4,"[0.00034928417881019413, -1.5693279110458498, 0.0009864012347620132, 0.0006592708775023937, 0.000821635709144175, 0.0008699846221134067]","[0.11248048394918442, 0.4279489815235138, 0.2544623911380768, 0.19393306970596313, 0.17453517019748688, 0.18623703718185425]","[0.09020500453840717, -1.4805913222564895, 0.09020500453840717, 0.09020500453840717, 0.09020500453840717, 0.09020500453840717]","[0.09020500453840717, -1.4805913222564895, 0.09020500453840717, 0.09020500453840717, 0.09020500453840717, 0.09020500453840717]",0.002,7,1
0,5,"[0.0007619815296493471, -1.5683994300528248, 0.0015290419207971695, 0.0009066301533202648, 0.001255971030332148, 0.0012453437084332108]","[0.14875632524490356, 0.4535273611545563, 0.26616063714027405, 0.19925320148468018, 0.20034925639629364, 0.20508089661598206]","[0.09105255674415423, -1.4797437700507423, 0.09105255674415423, 0.09105255674415423, 0.09105255674415423, 0.09105255674415423]","[0.09105255674415423, -1.4797437700507423, 0.09105255674415423, 0.09105255674415423, 0.09105255674415423, 0.09105255674415423]",0.002,7,1
0,6,"[0.001396368956193328, -1.5676062896712502, 0.0022648016559045914, 0.0014409261890868663, 0.0016483452636748552, 0.0016901135677471757]","[0.1940835863351822, 0.45906147360801697, 0.30245769023895264, 0.22069095075130463, 0.23050345480442047, 0.23096863925457]","[0.09189953335208066, -1.4788967934428159, 0.09189953335208066, 0.09189953335208066, 0.09189953335208066, 0.09189953335208066]","[0.09189953335208066, -1.4788967934428159, 0.09189953335208066, 0.09189953335208066, 0.09189953335208066, 0.09189953335208066]",0.002,7,1
0,7,"[0.002123950980603695, -1.5670257872300972, 0.003098789845601857, 0.0023508506962279796, 0.0019585599657148123, 0.002232780447229743]","[0.24671928584575653, 0.44605782628059387, 0.3410894572734833, 0.26000675559043884, 0.25937703251838684, 0.26029494404792786]","[0.0927459290079393, -1.4780503977869572, 0.0927459290079393, 0.0927459290079393, 0.0927459290079393, 0.0927459290079393]","[0.0927459290079393, -1.4780503977869572, 0.0927459290079393, 0.0927459290079393, 0.0927459290079393, 0.0927459290079393]",0.002,7,1
0,8,"[0.002748368540778756, -1.5664012011005362, 0.0036929289447229507, 0.003303809756896925, 0.0025323068257421255, 0.002726356266066432]","[0.3045508563518524, 0.39626866579055786, 0.3552761375904083, 0.3129926025867462, 0.2839367389678955, 0.2916029989719391]","[0.09359173836115567, -1.4772045884337408, 0.09359173836115567, 0.09359173836115567, 0.09359173836115567, 0.09359173836115567]","[0.09359173836115567, -1.4772045884337408, 0.09359173836115567, 0.09359173836115567, 0.09359173836115567, 0.09359173836115567]",0.002,7,1
0,9,"[0.003361593233421445, -1.565775058032461, 0.004201714192525685, 0.0038561063953856944, 0.003078254871070385, 0.0034200167283415794]","[0.3577970862388611, 0.3378598392009735, 0.3291372060775757, 0.35846856236457825, 0.31435632705688477, 0.32427749037742615]","[0.09443695606486147, -1.476359370730035, 0.09443695606486147, 0.09443695606486147, 0.09443695606486147, 0.09443695606486147]","[0.09443695606486147, -1.476359370730035, 0.09443695606486147, 0.09443695606486147, 0.09443695606486147, 0.09443695606486147]",0.002,7,1
0,10,"[0.0041270991787314415, -1.565255912286677, 0.004750076924459279, 0.004445119495056105, 0.003923270385712385, 0.004163520410656929]","[0.37672916054725647, 0.31472018361091614, 0.3062478303909302, 0.3745507001876831, 0.34188249707221985, 0.35308048129081726]","[0.09528157677592872, -1.4755147500189678, 0.09528157677592872, 0.09528157677592872, 0.09528157677592872, 0.09528157677592872]","[0.09528157677592872, -1.4755147500189678, 0.09528157677592872, 0.09528157677592872, 0.09528157677592872, 0.09528157677592872]",0.002,7,1
0,11,"[0.004927140660583973, -1.5647224875031789, 0.005244080220357716, 0.00489453851666255, 0.004842731636017561, 0.004927563481032848]","[0.3972921073436737, 0.30489885807037354, 0.3570176064968109, 0.3815465569496155, 0.3868686258792877, 0.3849877715110779]","[0.09612559515500335, -1.4746707316398933, 0.09612559515500335, 0.09612559515500335, 0.09612559515500335, 0.09612559515500335]","[0.09612559515500335, -1.4746707316398933, 0.09612559515500335, 0.09612559515500335, 0.09612559515500335, 0.09612559515500335]",0.002,7,1
0,12,"[0.005721296649426222, -1.5641342939673741, 0.005952183400289357, 0.005393071765563917, 0.005771268624812365, 0.005796926096081734]","[0.4259970188140869, 0.3125704824924469, 0.3892662525177002, 0.38758647441864014, 0.43391188979148865, 0.41742366552352905]","[0.09696900586653895, -1.4738273209283577, 0.09696900586653895, 0.09696900586653895, 0.09696900586653895, 0.09696900586653895]","[0.09696900586653895, -1.4738273209283577, 0.09696900586653895, 0.09696900586653895, 0.09696900586653895, 0.09696900586653895]",0.002,7,1
0,13,"[0.006472148001194, -1.5634778824499627, 0.006893459950582326, 0.006447120303771925, 0.006676377262920141, 0.006685411557555199]","[0.45364463329315186, 0.38524129986763, 0.4116085171699524, 0.4019201695919037, 0.467372864484787, 0.44519683718681335]","[0.09781180357883058, -1.4729845232160659, 0.09781180357883058, 0.09781180357883058, 0.09781180357883058, 0.09781180357883058]","[0.09781180357883058, -1.4729845232160659, 0.09781180357883058, 0.09781180357883058, 0.09781180357883058, 0.09781180357883058]",0.002,7,1
0,14,"[0.0074889082461595535, -1.5626465392163773, 0.007839981709615529, 0.007421298617980909, 0.007623566314578056, 0.007604308892041445]","[0.48080185055732727, 0.4166429340839386, 0.4492231607437134, 0.449609637260437, 0.49339377880096436, 0.4780081808567047]","[0.09865398296404841, -1.472142343830848, 0.09865398296404841, 0.09865398296404841, 0.09865398296404841, 0.09865398296404841]","[0.09865398296404841, -1.472142343830848, 0.09865398296404841, 0.09865398296404841, 0.09865398296404841, 0.09865398296404841]",0.002,7,1
0,15,"[0.00860179215669632, -1.5616933463937421, 0.008806530629293263, 0.008653207416198683, 0.00848434492945671, 0.008612794801592827]","[0.5115436315536499, 0.43747979402542114, 0.48807084560394287, 0.5017320513725281, 0.5116446614265442, 0.507580578327179]","[0.0994955386982715, -1.4713007880966251, 0.0994955386982715, 0.0994955386982715, 0.0994955386982715, 0.0994955386982715]","[0.0994955386982715, -1.4713007880966251, 0.0994955386982715, 0.0994955386982715, 0.0994955386982715, 0.0994955386982715]",0.002,7,1
0,16,"[0.009830216877162457, -1.5607592894560476, 0.010001484547750294, 0.010013146991393995, 0.009556544944643974, 0.009656859561800957]","[0.5459008812904358, 0.4728098213672638, 0.5178197622299194, 0.552561342716217, 0.5312967300415039, 0.5389382243156433]","[0.10033646546152125, -1.4704598613333753, 0.10033646546152125, 0.10033646546152125, 0.10033646546152125, 0.10033646546152125]","[0.10033646546152125, -1.4704598613333753, 0.10033646546152125, 0.10033646546152125, 0.10033646546152125, 0.10033646546152125]",0.002,7,1
0,17,"[0.011065163649618626, -1.5597308057225128, 0.011099163685933888, 0.011020703906677198, 0.01064051128923893, 0.010799361392855644]","[0.5824609398841858, 0.5032644867897034, 0.5515113472938538, 0.5911670923233032, 0.5645084381103516, 0.569899320602417]","[0.10117675793779526, -1.4696195688571012, 0.10117675793779526, 0.10117675793779526, 0.10117675793779526, 0.10117675793779526]","[0.10117675793779526, -1.4696195688571012, 0.10117675793779526, 0.10117675793779526, 0.10117675793779526, 0.10117675793779526]",0.002,7,1
0,18,"[0.012175427749752998, -1.5586510461619874, 0.012178723012105763, 0.01207844793286128, 0.01194560807198286, 0.012018225155770779]","[0.6148837804794312, 0.5343602895736694, 0.5822092294692993, 0.6055688858032227, 0.5936529040336609, 0.5967474579811096]","[0.10201641081510086, -1.4687799159797956, 0.10201641081510086, 0.10201641081510086, 0.10201641081510086, 0.10201641081510086]","[0.10201641081510086, -1.4687799159797956, 0.10201641081510086, 0.10201641081510086, 0.10201641081510086, 0.10201641081510086]",0.002,7,1
0,19,"[0.013300498016178608, -1.5575665973922987, 0.013381306325094044, 0.013371749515197706, 0.013246112503111362, 0.013262770138680935]","[0.6373189687728882, 0.5679637789726257, 0.6028974056243896, 0.615494966506958, 0.6309322118759155, 0.6231356263160706]","[0.10285541878548858, -1.467940908009408, 0.10285541878548858, 0.10285541878548858, 0.10285541878548858, 0.10285541878548858]","[0.10285541878548858, -1.467940908009408, 0.10285541878548858, 0.10285541878548858, 0.10285541878548858, 0.10285541878548858]",0.002,7,1
0,20,"[0.01458792109042406, -1.5563560484773298, 0.014502350484029591, 0.014614863986633253, 0.014562093652784824, 0.014520356431603432]","[0.6521950364112854, 0.5967464447021484, 0.6302199363708496, 0.6325376629829407, 0.6611355543136597, 0.6507200598716736]","[0.10369377654508585, -1.4671025502498107, 0.10369377654508585, 0.10369377654508585, 0.10369377654508585, 0.10369377654508585]","[0.10369377654508585, -1.4671025502498107, 0.10369377654508585, 0.10369377654508585, 0.10369377654508585, 0.10369377654508585]",0.002,7,1
0,21,"[0.015999455004930496, -1.555096137603261, 0.015795532857076466, 0.016040011043212843, 0.015929920598864555, 0.015897275879979134]","[0.6752424240112305, 0.6230600476264954, 0.6520896553993225, 0.6607255935668945, 0.6823351979255676, 0.6775058507919312]","[0.10453147879413045, -1.466264848000766, 0.10453147879413045, 0.10453147879413045, 0.10453147879413045, 0.10453147879413045]","[0.10453147879413045, -1.466264848000766, 0.10453147879413045, 0.10453147879413045, 0.10453147879413045, 0.10453147879413045]",0.002,7,1
0,22,"[0.01754792034626007, -1.5538328525475045, 0.01722127596010381, 0.017425461406372023, 0.017282038927078247, 0.017265327274799347]","[0.7078600525856018, 0.6485415697097778, 0.6777812838554382, 0.6967297792434692, 0.706407904624939, 0.7078890800476074]","[0.10536852023700408, -1.4654278065578925, 0.10536852023700408, 0.10536852023700408, 0.10536852023700408, 0.10536852023700408]","[0.10536852023700408, -1.4654278065578925, 0.10536852023700408, 0.10536852023700408, 0.10536852023700408, 0.10536852023700408]",0.002,7,1
0,23,"[0.01905878446996212, -1.5523720023087044, 0.018716160451070607, 0.01884703218426509, 0.01878279075026512, 0.0187461506575346]","[0.7384823560714722, 0.6809712052345276, 0.7102811932563782, 0.7281904816627502, 0.7326743006706238, 0.7368203401565552]","[0.1062048955822657, -1.464591431212631, 0.1062048955822657, 0.1062048955822657, 0.1062048955822657, 0.1062048955822657]","[0.1062048955822657, -1.464591431212631, 0.1062048955822657, 0.1062048955822657, 0.1062048955822657, 0.1062048955822657]",0.002,7,1
0,24,"[0.02055271528661251, -1.5508985605886956, 0.02024394670595342, 0.02041582643475337, 0.020156586542725563, 0.02025315724313259]","[0.7671593427658081, 0.715753436088562, 0.7443411946296692, 0.7580702304840088, 0.7567330002784729, 0.7611401081085205]","[0.10704059954268516, -1.4637557272522115, 0.10704059954268516, 0.10704059954268516, 0.10704059954268516, 0.10704059954268516]","[0.10704059954268516, -1.4637557272522115, 0.10704059954268516, 0.10704059954268516, 0.10704059954268516, 0.10704059954268516]",0.002,7,1
0,25,"[0.021956028416752815, -1.5493453436395903, 0.02185517946352178, 0.021981044406555128, 0.021751003339886665, 0.021830057725310326]","[0.7906635403633118, 0.7428198456764221, 0.7725460529327393, 0.7852135300636292, 0.7792906165122986, 0.7849011421203613]","[0.10787562683527654, -1.46292069995962, 0.10787562683527654, 0.10787562683527654, 0.10787562683527654, 0.10787562683527654]","[0.10787562683527654, -1.46292069995962, 0.10787562683527654, 0.10787562683527654, 0.10787562683527654, 0.10787562683527654]",0.002,7,1
0,26,"[0.023601466789841652, -1.54775280811403, 0.023431126271383107, 0.023497744197509718, 0.023327158764004707, 0.023495201021432877]","[0.8086346387863159, 0.7644371390342712, 0.7984278202056885, 0.810538649559021, 0.8048335313796997, 0.8073379993438721]","[0.1087099721813315, -1.462086354613565, 0.1087099721813315, 0.1087099721813315, 0.1087099721813315, 0.1087099721813315]","[0.1087099721813315, -1.462086354613565, 0.1087099721813315, 0.1087099721813315, 0.1087099721813315, 0.1087099721813315]",0.002,7,1
0,27,"[0.02524726279079914, -1.5460839302143832, 0.024918381367818654, 0.024998350734374952, 0.02503163181245327, 0.025142500177025795]","[0.8316562175750732, 0.7928783893585205, 0.8133653402328491, 0.8285815715789795, 0.8304994106292725, 0.8319018483161926]","[0.10954363030645263, -1.461252696488444, 0.10954363030645263, 0.10954363030645263, 0.10954363030645263, 0.10954363030645263]","[0.10954363030645263, -1.461252696488444, 0.10954363030645263, 0.10954363030645263, 0.10954363030645263, 0.10954363030645263]",0.002,7,1
0,28,"[0.026930509135127068, -1.5443800271353503, 0.02661163011659795, 0.02658049642529292, 0.026854578405618668, 0.026884572580456734]","[0.8543108701705933, 0.8215904831886292, 0.8344272375106812, 0.845874011516571, 0.8575190901756287, 0.8507866263389587]","[0.11037659594058698, -1.4604197308543097, 0.11037659594058698, 0.11037659594058698, 0.11037659594058698, 0.11037659594058698]","[0.11037659594058698, -1.4604197308543097, 0.11037659594058698, 0.11037659594058698, 0.11037659594058698, 0.11037659594058698]",0.002,7,1
0,29,"[0.0286213681101799, -1.5425539960018178, 0.028370205556051076, 0.028253598804138136, 0.028682881966233253, 0.028649041429162025]","[0.8777304291725159, 0.849265456199646, 0.8621106147766113, 0.8658233284950256, 0.8803146481513977, 0.8739598393440247]","[0.11120886381805924, -1.4595874629768373, 0.11120886381805924, 0.11120886381805924, 0.11120886381805924, 0.11120886381805924]","[0.11120886381805924, -1.4595874629768373, 0.11120886381805924, 0.11120886381805924, 0.11120886381805924, 0.11120886381805924]",0.002,7,1
0,30,"[0.030344555154442787, -1.5407116592726489, 0.030196968709127248, 0.030156536693237257, 0.0304819755256176, 0.030486516654491425]","[0.9025675058364868, 0.8726069331169128, 0.8863829970359802, 0.8912290930747986, 0.9012259244918823, 0.895639181137085]","[0.11204042867760493, -1.4587558981172917, 0.11204042867760493, 0.11204042867760493, 0.11204042867760493, 0.11204042867760493]","[0.11204042867760493, -1.4587558981172917, 0.11204042867760493, 0.11204042867760493, 0.11204042867760493, 0.11204042867760493]",0.002,7,1
0,31,"[0.0321553610265255, -1.5388611641577263, 0.032035175954000294, 0.032104654903076124, 0.03228529542684555, 0.03229597583413124]","[0.9199031591415405, 0.8976418375968933, 0.9109998941421509, 0.9223805069923401, 0.9203982353210449, 0.9171561002731323]","[0.11287128526240384, -1.4579250415324927, 0.11287128526240384, 0.11287128526240384, 0.11287128526240384, 0.11287128526240384]","[0.11287128526240384, -1.4579250415324927, 0.11287128526240384, 0.11287128526240384, 0.11287128526240384, 0.11287128526240384]",0.002,7,1
0,32,"[0.03402470052242279, -1.537031040792801, 0.03401214281191045, 0.034071488971374464, 0.03416125848889351, 0.034201234579086304]","[0.9412486553192139, 0.9204457998275757, 0.9317511320114136, 0.9539483189582825, 0.938494086265564, 0.937459409236908]","[0.11370142832011325, -1.4570948984747834, 0.11370142832011325, 0.11370142832011325, 0.11370142832011325, 0.11370142832011325]","[0.11370142832011325, -1.4570948984747834, 0.11370142832011325, 0.11370142832011325, 0.11370142832011325, 0.11370142832011325]",0.002,7,1
0,33,"[0.03593341261148453, -1.5350327652743836, 0.03590709367860967, 0.03602878629650874, 0.036076467484235764, 0.036113716661930084]","[0.9593686461448669, 0.9409142136573792, 0.9509202837944031, 0.973623514175415, 0.9569255113601685, 0.9544626474380493]","[0.11453085260290095, -1.4562654741919956, 0.11453085260290095, 0.11453085260290095, 0.11453085260290095, 0.11453085260290095]","[0.11453085260290095, -1.4562654741919956, 0.11453085260290095, 0.11453085260290095, 0.11453085260290095, 0.11453085260290095]",0.002,7,1
0,34,"[0.03792766481637955, -1.5330601532808323, 0.03792173067201787, 0.03803388654675288, 0.03803100436925888, 0.03800014778971672]","[0.9803409576416016, 0.9639140963554382, 0.9710581302642822, 0.9882678985595703, 0.973723828792572, 0.9748517870903015]","[0.11535955286747862, -1.4554367739274179, 0.11535955286747862, 0.11535955286747862, 0.11535955286747862, 0.11535955286747862]","[0.11535955286747862, -1.4554367739274179, 0.11535955286747862, 0.11535955286747862, 0.11535955286747862, 0.11535955286747862]",0.002,7,1
0,35,"[0.03987640142440796, -1.5310710419765492, 0.03984719911684209, 0.03996555387463374, 0.0399509072303772, 0.04002971947193146]","[0.9958455562591553, 0.9881951212882996, 0.9877085089683533, 1.001152515411377, 0.9924730062484741, 0.9916421175003052]","[0.11618752387513484, -1.4546088029197617, 0.11618752387513484, 0.11618752387513484, 0.11618752387513484, 0.11618752387513484]","[0.11618752387513484, -1.4546088029197617, 0.11618752387513484, 0.11618752387513484, 0.11618752387513484, 0.11618752387513484]",0.002,7,1
0,36,"[0.04191121459007263, -1.529040341531374, 0.041847054158346, 0.042129917735717726, 0.042033180594444275, 0.041969526559114456]","[1.0172452926635742, 1.0080208778381348, 1.0075451135635376, 1.0119978189468384, 1.013124942779541, 1.0121617317199707]","[0.11701476039176834, -1.4537815664031282, 0.11701476039176834, 0.11701476039176834, 0.11701476039176834, 0.11701476039176834]","[0.11701476039176834, -1.4537815664031282, 0.11701476039176834, 0.11701476039176834, 0.11701476039176834, 0.11701476039176834]",0.002,7,1
0,37,"[0.043874017894268036, -1.5269707453301926, 0.04397136369814092, 0.04423050462689204, 0.04406360164284706, 0.04396829381585121]","[1.0351613759994507, 1.0280814170837402, 1.0232185125350952, 1.027878761291504, 1.0317357778549194, 1.0296790599822998]","[0.11784125718792089, -1.4529550696069757, 0.11784125718792089, 0.11784125718792089, 0.11784125718792089, 0.11784125718792089]","[0.11784125718792089, -1.4529550696069757, 0.11784125718792089, 0.11784125718792089, 0.11784125718792089, 0.11784125718792089]",0.002,7,1
0,38,"[0.04599162936210632, -1.5248395514539261, 0.046000305806295216, 0.04642741262402339, 0.0461067296564579, 0.04600762948393822]","[1.0460968017578125, 1.0456409454345703, 1.042949914932251, 1.044168472290039, 1.0470749139785767, 1.045226812362671]","[0.11866700903881057, -1.452129317756086, 0.11866700903881057, 0.11866700903881057, 0.11866700903881057, 0.11866700903881057]","[0.11866700903881057, -1.452129317756086, 0.11866700903881057, 0.11866700903881057, 0.11866700903881057, 0.11866700903881057]",0.002,7,1
0,39,"[0.048168983310461044, -1.5226585280946274, 0.0481494108783167, 0.048598213786743116, 0.04822978377342224, 0.048133525997400284]","[1.0597832202911377, 1.0648958683013916, 1.0608270168304443, 1.0626033544540405, 1.0624514818191528, 1.0628631114959717]","[0.11949201072436472, -1.451304316070532, 0.11949201072436472, 0.11949201072436472, 0.11949201072436472, 0.11949201072436472]","[0.11949201072436472, -1.451304316070532, 0.11949201072436472, 0.11949201072436472, 0.11949201072436472, 0.11949201072436472]",0.002,7,1
0,40,"[0.05029376596212387, -1.5204328757575531, 0.05027515092958623, 0.05065409719433589, 0.05043027922511101, 0.05029881373047829]","[1.0744858980178833, 1.0795154571533203, 1.0751423835754395, 1.0764667987823486, 1.075191855430603, 1.0829445123672485]","[0.12031625702925285, -1.4504800697656437, 0.12031625702925285, 0.12031625702925285, 0.12031625702925285, 0.12031625702925285]","[0.12031625702925285, -1.4504800697656437, 0.12031625702925285, 0.12031625702925285, 0.12031625702925285, 0.12031625702925285]",0.002,7,1
0,41,"[0.05254471302032471, -1.5182026636651536, 0.052495781575338185, 0.05272190153088374, 0.05251716077327728, 0.05250152572989464]","[1.0908466577529907, 1.0936987400054932, 1.0835272073745728, 1.0859403610229492, 1.0903067588806152, 1.095528244972229]","[0.1211397427429197, -1.4496565840519768, 0.1211397427429197, 0.1211397427429197, 0.1211397427429197, 0.1211397427429197]","[0.1211397427429197, -1.4496565840519768, 0.1211397427429197, 0.1211397427429197, 0.1211397427429197, 0.1211397427429197]",0.002,7,1
0,42,"[0.054703205823898315, -1.5159590032747765, 0.05462485948671514, 0.054794831866882276, 0.05470617115497589, 0.05470668897032738]","[1.1057475805282593, 1.1084957122802734, 1.0979021787643433, 1.0977537631988525, 1.105363368988037, 1.1085573434829712]","[0.12196246265961823, -1.4488338641352783, 0.12196246265961823, 0.12196246265961823, 0.12196246265961823, 0.12196246265961823]","[0.12196246265961823, -1.4488338641352783, 0.12196246265961823, 0.12196246265961823, 0.12196246265961823, 0.12196246265961823]",0.002,7,1
0,43,"[0.056909773498773575, -1.513631933634617, 0.056801621113912404, 0.05699579297985835, 0.057037681341171265, 0.05706411600112915]","[1.1205812692642212, 1.1175801753997803, 1.1072580814361572, 1.1094409227371216, 1.1229770183563232, 1.1186126470565796]","[0.12278441157844236, -1.4480119152164541, 0.12278441157844236, 0.12278441157844236, 0.12278441157844236, 0.12278441157844236]","[0.12278441157844236, -1.4480119152164541, 0.12278441157844236, 0.12278441157844236, 0.12278441157844236, 0.12278441157844236]",0.002,7,1
0,44,"[0.059119097888469696, -1.5113534604064007, 0.059163872395650685, 0.059174104327819776, 0.05926181748509407, 0.0593428835272789]","[1.128361463546753, 1.1306463479995728, 1.1191545724868774, 1.1227387189865112, 1.1331795454025269, 1.1303327083587646]","[0.12360558430336005, -1.4471907424915365, 0.12360558430336005, 0.12360558430336005, 0.12360558430336005, 0.12360558430336005]","[0.12360558430336005, -1.4471907424915365, 0.12360558430336005, 0.12360558430336005, 0.12360558430336005, 0.12360558430336005]",0.002,7,1
0,45,"[0.06139351800084114, -1.5090571840158482, 0.06142551103700811, 0.06147102891888423, 0.06168151646852493, 0.06165402755141258]","[1.1420780420303345, 1.136303186416626, 1.135789155960083, 1.1407661437988281, 1.1445682048797607, 1.1400119066238403]","[0.12442597564324599, -1.4463703511516506, 0.12442597564324599, 0.12442597564324599, 0.12442597564324599, 0.12442597564324599]","[0.12442597564324599, -1.4463703511516506, 0.12442597564324599, 0.12442597564324599, 0.12442597564324599, 0.12442597564324599]",0.002,7,1
0,46,"[0.06366074085235596, -1.5068064642003556, 0.06375486055483037, 0.06375186025585933, 0.06391029059886932, 0.06400027126073837]","[1.1522032022476196, 1.1467657089233398, 1.1470988988876343, 1.1547167301177979, 1.1548467874526978, 1.1519660949707031]","[0.12524558041191447, -1.445550746382982, 0.12524558041191447, 0.12524558041191447, 0.12524558041191447, 0.12524558041191447]","[0.12524558041191447, -1.445550746382982, 0.12524558041191447, 0.12524558041191447, 0.12524558041191447, 0.12524558041191447]",0.002,7,1
0,47,"[0.0660037100315094, -1.5044253405979653, 0.06601411501039678, 0.06612698614086909, 0.06635043025016785, 0.06632193922996521]","[1.1620879173278809, 1.1529251337051392, 1.153049349784851, 1.1658992767333984, 1.163109540939331, 1.1605802774429321]","[0.1260643934281522, -1.4447319333667443, 0.1260643934281522, 0.1260643934281522, 0.1260643934281522, 0.1260643934281522]","[0.1260643934281522, -1.4447319333667443, 0.1260643934281522, 0.1260643934281522, 0.1260643934281522, 0.1260643934281522]",0.002,7,1
0,48,"[0.06838918477296829, -1.502093405728676, 0.06834394136537725, 0.06852225839581294, 0.06869848072528839, 0.06859400868415833]","[1.1716408729553223, 1.1641267538070679, 1.1582281589508057, 1.1729401350021362, 1.173538088798523, 1.1686713695526123]","[0.12688240951575097, -1.4439139172791455, 0.12688240951575097, 0.12688240951575097, 0.12688240951575097, 0.12688240951575097]","[0.12688240951575097, -1.4439139172791455, 0.12688240951575097, 0.12688240951575097, 0.12688240951575097, 0.12688240951575097]",0.002,7,1
0,49,"[0.07067786157131195, -1.499761441057064, 0.07075149217714483, 0.07089428483929439, 0.07104422897100449, 0.07094194740056992]","[1.179368257522583, 1.1692150831222534, 1.1672511100769043, 1.179185390472412, 1.178938627243042, 1.178011178970337]","[0.12769962350354055, -1.443096703291356, 0.12769962350354055, 0.12769962350354055, 0.12769962350354055, 0.12769962350354055]","[0.12769962350354055, -1.443096703291356, 0.12769962350354055, 0.12769962350354055, 0.12769962350354055, 0.12769962350354055]",0.002,7,1
0,50,"[0.07315995544195175, -1.497363382284977, 0.07321435609926397, 0.07339970647778316, 0.07343388348817825, 0.07325790077447891]","[1.1894303560256958, 1.1793317794799805, 1.179647445678711, 1.1863927841186523, 1.1870099306106567, 1.1847490072250366]","[0.12851603022542116, -1.4422802965694754, 0.12851603022542116, 0.12851603022542116, 0.12851603022542116, 0.12851603022542116]","[0.12851603022542116, -1.4422802965694754, 0.12851603022542116, 0.12851603022542116, 0.12851603022542116, 0.12851603022542116]",0.002,7,1
0,51,"[0.07546622306108475, -1.4950013247183342, 0.0755694548236292, 0.07596127569165034, 0.07567097991704941, 0.07562252879142761]","[1.196575403213501, 1.1859756708145142, 1.1872873306274414, 1.1955517530441284, 1.1930919885635376, 1.1942218542099]","[0.12933162452039626, -1.4414647022745002, 0.12933162452039626, 0.12933162452039626, 0.12933162452039626, 0.12933162452039626]","[0.12933162452039626, -1.4414647022745002, 0.12933162452039626, 0.12933162452039626, 0.12933162452039626, 0.12933162452039626]",0.002,7,1
0,52,"[0.07784786075353622, -1.4925708335689087, 0.0779498259173792, 0.07840697347607417, 0.07809463888406754, 0.0779920443892479]","[1.2029820680618286, 1.188795566558838, 1.1962798833847046, 1.2019230127334595, 1.1981534957885742, 1.201340675354004]","[0.13014640123260515, -1.4406499255622913, 0.13014640123260515, 0.13014640123260515, 0.13014640123260515, 0.13014640123260515]","[0.13014640123260515, -1.4406499255622913, 0.13014640123260515, 0.13014640123260515, 0.13014640123260515, 0.13014640123260515]",0.002,7,1
0,53,"[0.08029238879680634, -1.4900995281389733, 0.0803445021258753, 0.08083824693646235, 0.0803765058517456, 0.08040227741003036]","[1.2065682411193848, 1.1951911449432373, 1.2011882066726685, 1.2095699310302734, 1.2040951251983643, 1.2097254991531372]","[0.13096035521135554, -1.439835971583541, 0.13096035521135554, 0.13096035521135554, 0.13096035521135554, 0.13096035521135554]","[0.13096035521135554, -1.439835971583541, 0.13096035521135554, 0.13096035521135554, 0.13096035521135554, 0.13096035521135554]",0.002,7,1
0,54,"[0.08273550868034363, -1.4877416279963036, 0.08271581331361944, 0.0831337410160522, 0.08292412012815475, 0.08288698643445969]","[1.2087819576263428, 1.1972849369049072, 1.2052466869354248, 1.2125723361968994, 1.207791805267334, 1.2159255743026733]","[0.13177348131115624, -1.4390228454837404, 0.13177348131115624, 0.13177348131115624, 0.13177348131115624, 0.13177348131115624]","[0.13177348131115624, -1.4390228454837404, 0.13177348131115624, 0.13177348131115624, 0.13177348131115624, 0.13177348131115624]",0.002,7,1
0,55,"[0.08519425988197327, -1.4852765214494248, 0.08517581621278936, 0.08534543096508784, 0.08534491807222366, 0.08532921969890594]","[1.2148149013519287, 1.1972538232803345, 1.2083070278167725, 1.2082297801971436, 1.2151713371276855, 1.2194039821624756]","[0.1325857743917494, -1.4382105524031472, 0.1325857743917494, 0.1325857743917494, 0.1325857743917494, 0.1325857743917494]","[0.1325857743917494, -1.4382105524031472, 0.1325857743917494, 0.1325857743917494, 0.1325857743917494, 0.1325857743917494]",0.002,7,1
0,56,"[0.08761806786060333, -1.482821987276413, 0.08760291734804326, 0.08774249135937495, 0.08782488852739334, 0.08782675117254257]","[1.2220454216003418, 1.2001607418060303, 1.2083345651626587, 1.2056937217712402, 1.2218272686004639, 1.2218103408813477]","[0.13339722931814335, -1.4373990974767532, 0.13339722931814335, 0.13339722931814335, 0.13339722931814335, 0.13339722931814335]","[0.13339722931814335, -1.4373990974767532, 0.13339722931814335, 0.13339722931814335, 0.13339722931814335, 0.13339722931814335]",0.002,7,1
0,57,"[0.0900166854262352, -1.480312967007496, 0.08999282518495733, 0.09007267534222407, 0.09029141068458557, 0.09034506976604462]","[1.2239805459976196, 1.203261137008667, 1.2092857360839844, 1.212807297706604, 1.226831316947937, 1.2193617820739746]","[0.13420784096064478, -1.4365884858342517, 0.13420784096064478, 0.13420784096064478, 0.13420784096064478, 0.13420784096064478]","[0.13420784096064478, -1.4365884858342517, 0.13420784096064478, 0.13420784096064478, 0.13420784096064478, 0.13420784096064478]",0.002,7,1
0,58,"[0.09245874732732773, -1.4778742057136078, 0.09245092073549444, 0.09252016126599116, 0.09275901317596436, 0.09279265254735947]","[1.2262401580810547, 1.2042620182037354, 1.2176387310028076, 1.2202523946762085, 1.2267495393753052, 1.2217991352081299]","[0.13501760419489134, -1.4357787226000052, 0.13501760419489134, 0.13501760419489134, 0.13501760419489134, 0.13501760419489134]","[0.13501760419489134, -1.4357787226000052, 0.13501760419489134, 0.13501760419489134, 0.13501760419489134, 0.13501760419489134]",0.002,7,1
0,59,"[0.09489501267671585, -1.4754510906389733, 0.09486323991884404, 0.09505002080883784, 0.09529701620340347, 0.0952422022819519]","[1.229387640953064, 1.2014198303222656, 1.2207601070404053, 1.2297793626785278, 1.226543664932251, 1.2252455949783325]","[0.13582651390188397, -1.4349698128930126, 0.13582651390188397, 0.13582651390188397, 0.13582651390188397, 0.13582651390188397]","[0.13582651390188397, -1.4349698128930126, 0.13582651390188397, 0.13582651390188397, 0.13582651390188397, 0.13582651390188397]",0.002,7,1
0,60,"[0.09727244824171066, -1.4730153170279046, 0.09734136263002569, 0.09756640970196528, 0.0975923240184784, 0.0976560190320015]","[1.2288495302200317, 1.2018780708312988, 1.218698501586914, 1.234815001487732, 1.2255659103393555, 1.224912166595459]","[0.13663456496801923, -1.4341617618268774, 0.13663456496801923, 0.13663456496801923, 0.13663456496801923, 0.13663456496801923]","[0.13663456496801923, -1.4341617618268774, 0.13663456496801923, 0.13663456496801923, 0.13663456496801923, 0.13663456496801923]",0.002,7,1
0,61,"[0.09978075325489044, -1.4705475208214303, 0.099830452595846, 0.10003952562298579, 0.10023028403520584, 0.10009501874446869]","[1.2257041931152344, 1.2006486654281616, 1.2162871360778809, 1.232662558555603, 1.2242733240127563, 1.2249705791473389]","[0.13744175228512176, -1.4333545745097749, 0.13744175228512176, 0.13744175228512176, 0.13744175228512176, 0.13744175228512176]","[0.13744175228512176, -1.4333545745097749, 0.13744175228512176, 0.13744175228512176, 0.13744175228512176, 0.13744175228512176]",0.002,7,1
0,62,"[0.1023339256644249, -1.468186841612198, 0.10222942033876592, 0.1024823623844604, 0.10255788266658783, 0.10250081866979599]","[1.2262967824935913, 1.202102541923523, 1.2154138088226318, 1.2287002801895142, 1.2256741523742676, 1.220975637435913]","[0.13824807075047635, -1.4325482560444203, 0.13824807075047635, 0.13824807075047635, 0.13824807075047635, 0.13824807075047635]","[0.13824807075047635, -1.4325482560444203, 0.13824807075047635, 0.13824807075047635, 0.13824807075047635, 0.13824807075047635]",0.002,7,1
0,63,"[0.1048169657588005, -1.4657946836999436, 0.10473424593080694, 0.10515551149334712, 0.10509595274925232, 0.10484108328819275]","[1.229407787322998, 1.1992090940475464, 1.2151575088500977, 1.2205617427825928, 1.2232751846313477, 1.2210513353347778]","[0.1390535152668604, -1.4317428115280362, 0.1390535152668604, 0.1390535152668604, 0.1390535152668604, 0.1390535152668604]","[0.1390535152668604, -1.4317428115280362, 0.1390535152668604, 0.1390535152668604, 0.1390535152668604, 0.1390535152668604]",0.002,7,1
0,64,"[0.1072089821100235, -1.4634495464018364, 0.10716563860048467, 0.10759596406903071, 0.10734088718891144, 0.10723620653152466]","[1.2312064170837402, 1.201767086982727, 1.2148113250732422, 1.2229359149932861, 1.2224206924438477, 1.2220731973648071]","[0.1398580807425761, -1.4309382460523206, 0.1398580807425761, 0.1398580807425761, 0.1398580807425761, 0.1398580807425761]","[0.1398580807425761, -1.4309382460523206, 0.1398580807425761, 0.1398580807425761, 0.1398580807425761, 0.1398580807425761]",0.002,7,1
0,65,"[0.10969161987304688, -1.461025097673275, 0.10955745378603154, 0.11018399774517817, 0.10980194807052612, 0.10976484417915344]","[1.225056767463684, 1.1996355056762695, 1.212965488433838, 1.220661997795105, 1.2160236835479736, 1.221437692642212]","[0.14066176209148248, -1.430134564703414, 0.14066176209148248, 0.14066176209148248, 0.14066176209148248, 0.14066176209148248]","[0.14066176209148248, -1.430134564703414, 0.14066176209148248, 0.14066176209148248, 0.14066176209148248, 0.14066176209148248]",0.002,7,1
0,66,"[0.11210062354803085, -1.4586128455451508, 0.1120079199420374, 0.11263470231976314, 0.11212027072906494, 0.11213713139295578]","[1.2185806035995483, 1.1995086669921875, 1.210988163948059, 1.217238426208496, 1.21373450756073, 1.2220557928085327]","[0.14146455423302773, -1.4293317725618688, 0.14146455423302773, 0.14146455423302773, 0.14146455423302773, 0.14146455423302773]","[0.14146455423302773, -1.4293317725618688, 0.14146455423302773, 0.14146455423302773, 0.14146455423302773, 0.14146455423302773]",0.002,7,1
0,67,"[0.11453638225793839, -1.4562914830497284, 0.11440831819643194, 0.11487845956768794, 0.11462964117527008, 0.11464250832796097]","[1.215772271156311, 1.196428656578064, 1.2059565782546997, 1.2120834589004517, 1.210791826248169, 1.217907428741455]","[0.14226645209228123, -1.4285298747026154, 0.14226645209228123, 0.14226645209228123, 0.14226645209228123, 0.14226645209228123]","[0.14226645209228123, -1.4285298747026154, 0.14226645209228123, 0.14226645209228123, 0.14226645209228123, 0.14226645209228123]",0.002,7,1
0,68,"[0.11696905642747879, -1.453855687086918, 0.11677581468691045, 0.11714260160412593, 0.11707686632871628, 0.11715219169855118]","[1.2086780071258545, 1.1935898065567017, 1.1995887756347656, 1.2038859128952026, 1.2082797288894653, 1.2137244939804077]","[0.14306745059996573, -1.427728876194931, 0.14306745059996573, 0.14306745059996573, 0.14306745059996573, 0.14306745059996573]","[0.14306745059996573, -1.427728876194931, 0.14306745059996573, 0.14306745059996573, 0.14306745059996573, 0.14306745059996573]",0.002,7,1
0,69,"[0.11941669881343842, -1.4513991263559838, 0.11925059953798467, 0.1194423872181396, 0.11953268945217133, 0.119538314640522]","[1.2061076164245605, 1.1891436576843262, 1.1929447650909424, 1.1951440572738647, 1.2073099613189697, 1.2058677673339844]","[0.14386754469248916, -1.4269287821024075, 0.14386754469248916, 0.14386754469248916, 0.14386754469248916, 0.14386754469248916]","[0.14386754469248916, -1.4269287821024075, 0.14386754469248916, 0.14386754469248916, 0.14386754469248916, 0.14386754469248916]",0.002,7,1
0,70,"[0.12179318070411682, -1.4490996313146134, 0.12154800096620733, 0.12169544279064937, 0.12194551527500153, 0.12197341024875641]","[1.2039344310760498, 1.181797742843628, 1.1849350929260254, 1.18839693069458, 1.2055141925811768, 1.1985386610031128]","[0.14466672931197697, -1.4261295974829196, 0.14466672931197697, 0.14466672931197697, 0.14466672931197697, 0.14466672931197697]","[0.14466672931197697, -1.4261295974829196, 0.14466672931197697, 0.14466672931197697, 0.14466672931197697, 0.14466672931197697]",0.002,7,1
0,71,"[0.12410300225019455, -1.446678065960743, 0.12391740480531865, 0.12419728815045161, 0.12443578243255615, 0.12446141988039017]","[1.1991477012634277, 1.1745959520339966, 1.1822974681854248, 1.1877095699310303, 1.1960506439208984, 1.1908115148544312]","[0.14546499940630384, -1.4253313273885928, 0.14546499940630384, 0.14546499940630384, 0.14546499940630384, 0.14546499940630384]","[0.14546499940630384, -1.4253313273885928, 0.14546499940630384, 0.14546499940630384, 0.14546499940630384, 0.14546499940630384]",0.002,7,1
0,72,"[0.1264851987361908, -1.44428505123172, 0.1262877623187464, 0.1266144949146728, 0.1268070787191391, 0.1267932802438736]","[1.1931649446487427, 1.1646379232406616, 1.1782256364822388, 1.1915030479431152, 1.1885883808135986, 1.18594229221344]","[0.14626234992912576, -1.4245339768657708, 0.14626234992912576, 0.14626234992912576, 0.14626234992912576, 0.14626234992912576]","[0.14626234992912576, -1.4245339768657708, 0.14626234992912576, 0.14626234992912576, 0.14626234992912576, 0.14626234992912576]",0.002,7,1
0,73,"[0.12878906726837158, -1.4420115661672135, 0.12872344652284795, 0.12898234903301997, 0.1291358917951584, 0.1291821002960205]","[1.183502435684204, 1.1549715995788574, 1.1684110164642334, 1.1887257099151611, 1.1797395944595337, 1.1778910160064697]","[0.14705877583991184, -1.4237375509549848, 0.14705877583991184, 0.14705877583991184, 0.14705877583991184, 0.14705877583991184]","[0.14705877583991184, -1.4237375509549848, 0.14705877583991184, 0.14705877583991184, 0.14705877583991184, 0.14705877583991184]",0.002,7,1
0,74,"[0.13121335208415985, -1.4397102159312745, 0.13099223772157842, 0.13134579240765376, 0.13152746856212616, 0.1314653754234314]","[1.171825885772705, 1.1461105346679688, 1.1590160131454468, 1.1808831691741943, 1.1722697019577026, 1.1683228015899658]","[0.1478542721039762, -1.4229420546909204, 0.1478542721039762, 0.1478542721039762, 0.1478542721039762, 0.1478542721039762]","[0.1478542721039762, -1.4229420546909204, 0.1478542721039762, 0.1478542721039762, 0.1478542721039762, 0.1478542721039762]",0.002,7,1
0,75,"[0.1335744857788086, -1.4373931300691147, 0.1333382765399378, 0.13369230806317134, 0.13377422094345093, 0.13375605642795563]","[1.164352297782898, 1.139058232307434, 1.1499963998794556, 1.1657700538635254, 1.1638891696929932, 1.162042260169983]","[0.14864883369250992, -1.4221474931023868, 0.14864883369250992, 0.14864883369250992, 0.14864883369250992, 0.14864883369250992]","[0.14864883369250992, -1.4221474931023868, 0.14864883369250992, 0.14864883369250992, 0.14864883369250992, 0.14864883369250992]",0.002,7,1
0,76,"[0.13594986498355865, -1.4351807248643418, 0.13560706773866826, 0.13603632032360835, 0.13612031936645508, 0.1360434889793396]","[1.1595653295516968, 1.134572982788086, 1.1427359580993652, 1.1509417295455933, 1.1549875736236572, 1.1515114307403564]","[0.1494424555826126, -1.421353871212284, 0.1494424555826126, 0.1494424555826126, 0.1494424555826126, 0.1494424555826126]","[0.1494424555826126, -1.421353871212284, 0.1494424555826126, 0.1494424555826126, 0.1494424555826126, 0.1494424555826126]",0.002,7,1
0,77,"[0.13824260234832764, -1.4329456698945542, 0.13786536851991826, 0.13848249494519038, 0.13827498257160187, 0.13823139667510986]","[1.150266170501709, 1.1270047426223755, 1.1355730295181274, 1.1424670219421387, 1.1457054615020752, 1.1462281942367554]","[0.1502351327573243, -1.4205611940375722, 0.1502351327573243, 0.1502351327573243, 0.1502351327573243, 0.1502351327573243]","[0.1502351327573243, -1.4205611940375722, 0.1502351327573243, 0.1502351327573243, 0.1502351327573243, 0.1502351327573243]",0.002,7,1
0,78,"[0.1404883712530136, -1.4306411159089585, 0.14008790651430303, 0.14087359487499995, 0.14059758186340332, 0.14050567150115967]","[1.1404056549072266, 1.1188708543777466, 1.1281442642211914, 1.1339225769042969, 1.1345309019088745, 1.137726068496704]","[0.15102686020565723, -1.4197694665892393, 0.15102686020565723, 0.15102686020565723, 0.15102686020565723, 0.15102686020565723]","[0.15102686020565723, -1.4197694665892393, 0.15102686020565723, 0.15102686020565723, 0.15102686020565723, 0.15102686020565723]",0.002,7,1
0,79,"[0.14274711906909943, -1.4284558308175583, 0.14230424562563115, 0.14310268938031, 0.14277926087379456, 0.14283064007759094]","[1.1242096424102783, 1.1097548007965088, 1.119787335395813, 1.1271134614944458, 1.1250841617584229, 1.1313369274139404]","[0.1518176329226273, -1.4189786938722693, 0.1518176329226273, 0.1518176329226273, 0.1518176329226273, 0.1518176329226273]","[0.1518176329226273, -1.4189786938722693, 0.1518176329226273, 0.1518176329226273, 0.1518176329226273, 0.1518176329226273]",0.002,7,1
0,80,"[0.14493873715400696, -1.4261979323676606, 0.14457208315004522, 0.14523665487255855, 0.1450173258781433, 0.1450299471616745]","[1.1119030714035034, 1.1002968549728394, 1.1102505922317505, 1.116976261138916, 1.1131315231323242, 1.1197395324707031]","[0.15260744590928588, -1.4181888808856107, 0.15260744590928588, 0.15260744590928588, 0.15260744590928588, 0.15260744590928588]","[0.15260744590928588, -1.4181888808856107, 0.15260744590928588, 0.15260744590928588, 0.15260744590928588, 0.15260744590928588]",0.002,7,1
0,81,"[0.147206649184227, -1.4239461731961747, 0.14668304124941045, 0.1472758489796142, 0.1471937596797943, 0.1472312957048416]","[1.1019436120986938, 1.0900294780731201, 1.1018390655517578, 1.1000703573226929, 1.1056424379348755, 1.1083259582519531]","[0.1533962941727514, -1.4174000326221452, 0.1533962941727514, 0.1533962941727514, 0.1533962941727514, 0.1533962941727514]","[0.1533962941727514, -1.4174000326221452, 0.1533962941727514, 0.1533962941727514, 0.1533962941727514, 0.1533962941727514]",0.002,7,1
0,82,"[0.14933255314826965, -1.4217590999654313, 0.14892942110170537, 0.149303598994873, 0.14944392442703247, 0.1494630128145218]","[1.0943940877914429, 1.0794756412506104, 1.0876582860946655, 1.080851674079895, 1.0967307090759277, 1.0970866680145264]","[0.1541841727262409, -1.4166121540686556, 0.1541841727262409, 0.1541841727262409, 0.1541841727262409, 0.1541841727262409]","[0.1541841727262409, -1.4166121540686556, 0.1541841727262409, 0.1541841727262409, 0.1541841727262409, 0.1541841727262409]",0.002,7,1
0,83,"[0.15152718126773834, -1.4196546983769913, 0.15104324022401983, 0.15145687639202876, 0.1516316533088684, 0.15164382755756378]","[1.0823020935058594, 1.0695123672485352, 1.0694905519485474, 1.0692474842071533, 1.0885140895843506, 1.0814045667648315]","[0.1549710765891015, -1.415825250205795, 0.1549710765891015, 0.1549710765891015, 0.1549710765891015, 0.1549710765891015]","[0.1549710765891015, -1.415825250205795, 0.1549710765891015, 0.1549710765891015, 0.1549710765891015, 0.1549710765891015]",0.002,7,1
0,84,"[0.1536470651626587, -1.4174152624658127, 0.15322429338564092, 0.15357260286297603, 0.15372419357299805, 0.15383417904376984]","[1.0662882328033447, 1.0535452365875244, 1.0643117427825928, 1.0629709959030151, 1.0738738775253296, 1.0686239004135132]","[0.1557570007868419, -1.4150393260080547, 0.1557570007868419, 0.1557570007868419, 0.1557570007868419, 0.1557570007868419]","[0.1557570007868419, -1.4150393260080547, 0.1557570007868419, 0.1557570007868419, 0.1557570007868419, 0.1557570007868419]",0.002,7,1
0,85,"[0.1556532233953476, -1.4152822357467194, 0.15538245836366826, 0.15567819654431148, 0.15605713427066803, 0.15599259734153748]","[1.0568515062332153, 1.045396089553833, 1.0531299114227295, 1.0573582649230957, 1.0579012632369995, 1.0562044382095337]","[0.1565419403511639, -1.4142543864437327, 0.1565419403511639, 0.1565419403511639, 0.1565419403511639, 0.1565419403511639]","[0.1565419403511639, -1.4142543864437327, 0.1565419403511639, 0.1565419403511639, 0.1565419403511639, 0.1565419403511639]",0.002,7,1
0,86,"[0.15776637196540833, -1.4132267099669953, 0.1574342886554163, 0.15778224050488276, 0.1580578088760376, 0.15811820328235626]","[1.0409263372421265, 1.030184268951416, 1.0445938110351562, 1.0538800954818726, 1.0421899557113647, 1.0414248704910278]","[0.15732589031999372, -1.413470436474903, 0.15732589031999372, 0.15732589031999372, 0.15732589031999372, 0.15732589031999372]","[0.15732589031999372, -1.413470436474903, 0.15732589031999372, 0.15732589031999372, 0.15732589031999372, 0.15732589031999372]",0.002,7,1
0,87,"[0.15976108610630035, -1.4111392062953492, 0.15957719484438115, 0.15988151609387202, 0.16017977893352509, 0.16015370190143585]","[1.0287576913833618, 1.0185916423797607, 1.0284160375595093, 1.0376697778701782, 1.0295333862304688, 1.0289093255996704]","[0.15810884573751346, -1.412687481057383, 0.15810884573751346, 0.15810884573751346, 0.15810884573751346, 0.15810884573751346]","[0.15810884573751346, -1.412687481057383, 0.15810884573751346, 0.15810884573751346, 0.15810884573751346, 0.15810884573751346]",0.002,7,1
0,88,"[0.16187170147895813, -1.4090692114881058, 0.16159278551210576, 0.16186968862499995, 0.1621829718351364, 0.1621353030204773]","[1.0118794441223145, 1.0044825077056885, 1.0154993534088135, 1.0213407278060913, 1.0165464878082275, 1.0120413303375244]","[0.1588908016541923, -1.4119055251407042, 0.1588908016541923, 0.1588908016541923, 0.1588908016541923, 0.1588908016541923]","[0.1588908016541923, -1.4119055251407042, 0.1588908016541923, 0.1588908016541923, 0.1588908016541923, 0.1588908016541923]",0.002,7,1
0,89,"[0.1639084815979004, -1.4071683895638962, 0.16369992891420537, 0.16397218286480708, 0.1641438603401184, 0.16412484645843506]","[0.99801105260849, 0.9912946224212646, 1.0013281106948853, 1.0044174194335938, 1.0004005432128906, 0.9963895082473755]","[0.159671753126818, -1.4111245736680786, 0.159671753126818, 0.159671753126818, 0.159671753126818, 0.159671753126818]","[0.159671753126818, -1.4111245736680786, 0.159671753126818, 0.159671753126818, 0.159671753126818, 0.159671753126818]",0.002,7,1
0,90,"[0.16589930653572083, -1.4051031482270737, 0.16561443010439092, 0.16604308664288325, 0.16611391305923462, 0.16607116162776947]","[0.9864161014556885, 0.9824292063713074, 0.982661247253418, 0.9866949319839478, 0.984354555606842, 0.9837343096733093]","[0.16045169521852784, -1.4103446315763688, 0.16045169521852784, 0.16045169521852784, 0.16045169521852784, 0.16045169521852784]","[0.16045169521852784, -1.4103446315763688, 0.16045169521852784, 0.16045169521852784, 0.16045169521852784, 0.16045169521852784]",0.002,7,1
0,91,"[0.1677626520395279, -1.4032533776811142, 0.1675336996661585, 0.1681009966083984, 0.16794374585151672, 0.16794826090335846]","[0.9743650555610657, 0.9650065898895264, 0.970691442489624, 0.9723200798034668, 0.9699817299842834, 0.9712508320808411]","[0.16123062299884008, -1.4095657037960565, 0.16123062299884008, 0.16123062299884008, 0.16123062299884008, 0.16123062299884008]","[0.16123062299884008, -1.4095657037960565, 0.16123062299884008, 0.16123062299884008, 0.16123062299884008, 0.16123062299884008]",0.002,7,1
0,92,"[0.1696852296590805, -1.4013397258571167, 0.16951305070985967, 0.17005054532971187, 0.16988123953342438, 0.16976770758628845]","[0.9590559601783752, 0.9563776254653931, 0.9582843780517578, 0.9610850214958191, 0.9511650204658508, 0.9559822678565979]","[0.16200853154368505, -1.4087877952512116, 0.16200853154368505, 0.16200853154368505, 0.16200853154368505, 0.16200853154368505]","[0.16200853154368505, -1.4087877952512116, 0.16200853154368505, 0.16200853154368505, 0.16200853154368505, 0.16200853154368505]",0.002,7,1
0,93,"[0.17158639430999756, -1.399411366587021, 0.17137366930116826, 0.17201511442150874, 0.17173221707344055, 0.17159822583198547]","[0.9380171895027161, 0.9404794573783875, 0.9418999552726746, 0.9445037245750427, 0.9398354887962341, 0.9427732825279236]","[0.16278541593543633, -1.4080109108594603, 0.16278541593543633, 0.16278541593543633, 0.16278541593543633, 0.16278541593543633]","[0.16278541593543633, -1.4080109108594603, 0.16278541593543633, 0.16278541593543633, 0.16278541593543633, 0.16278541593543633]",0.002,7,1
0,94,"[0.17338477075099945, -1.3975410175374527, 0.17320663133730108, 0.17381243288006587, 0.1735309362411499, 0.17344887554645538]","[0.9215749502182007, 0.9296690821647644, 0.9269636273384094, 0.9226844906806946, 0.9243714809417725, 0.9308921098709106]","[0.1635612712629417, -1.4072350555319548, 0.1635612712629417, 0.1635612712629417, 0.1635612712629417, 0.1635612712629417]","[0.1635612712629417, -1.4072350555319548, 0.1635612712629417, 0.1635612712629417, 0.1635612712629417, 0.1635612712629417]",0.002,7,1
0,95,"[0.17525145411491394, -1.3957440567067643, 0.17499047914613897, 0.17544762670483394, 0.17532815039157867, 0.1753276288509369]","[0.9065455198287964, 0.9174058437347412, 0.9137852787971497, 0.9028947353363037, 0.9117982387542725, 0.9129443764686584]","[0.16433609262155432, -1.4064602341733423, 0.16433609262155432, 0.16433609262155432, 0.16433609262155432, 0.16433609262155432]","[0.16433609262155432, -1.4064602341733423, 0.16433609262155432, 0.16433609262155432, 0.16433609262155432, 0.16433609262155432]",0.002,7,1
0,96,"[0.1770380288362503, -1.3938740354827424, 0.1767972151385706, 0.17722611009564204, 0.17710386216640472, 0.17709991335868835]","[0.8916099667549133, 0.9000442028045654, 0.896007776260376, 0.881239652633667, 0.8960229754447937, 0.8995069861412048]","[0.1651098751131637, -1.405686451681733, 0.1651098751131637, 0.1651098751131637, 0.1651098751131637, 0.1651098751131637]","[0.1651098751131637, -1.405686451681733, 0.1651098751131637, 0.1651098751131637, 0.1651098751131637, 0.1651098751131637]",0.002,7,1
0,97,"[0.17878590524196625, -1.3920561236194153, 0.178507153187887, 0.17895154535260005, 0.17889180779457092, 0.17888027429580688]","[0.8721746206283569, 0.8841858506202698, 0.882270336151123, 0.8695212602615356, 0.8804312348365784, 0.8824803829193115]","[0.1658826138462266, -1.40491371294867, 0.1658826138462266, 0.1658826138462266, 0.1658826138462266, 0.1658826138462266]","[0.1658826138462266, -1.40491371294867, 0.1658826138462266, 0.1658826138462266, 0.1658826138462266, 0.1658826138462266]",0.002,7,1
0,98,"[0.18055561184883118, -1.3902756732753296, 0.1803191343890589, 0.18060247480358882, 0.18062447011470795, 0.18064948916435242]","[0.8562120199203491, 0.8700926899909973, 0.8648054599761963, 0.856576144695282, 0.8629752397537231, 0.8624722361564636]","[0.166654303935798, -1.4041420228590986, 0.166654303935798, 0.166654303935798, 0.166654303935798, 0.166654303935798]","[0.166654303935798, -1.4041420228590986, 0.166654303935798, 0.166654303935798, 0.166654303935798, 0.166654303935798]",0.002,7,1
0,99,"[0.18222594261169434, -1.3884655100158234, 0.18201238313783819, 0.18223218500103755, 0.1823427975177765, 0.1823577731847763]","[0.8431587815284729, 0.8538685441017151, 0.8475793600082397, 0.8441826105117798, 0.8461340069770813, 0.8470239639282227]","[0.16742494050356208, -1.4033713862913344, 0.16742494050356208, 0.16742494050356208, 0.16742494050356208, 0.16742494050356208]","[0.16742494050356208, -1.4033713862913344, 0.16742494050356208, 0.16742494050356208, 0.16742494050356208, 0.16742494050356208]",0.002,7,1
0,100,"[0.18385805189609528, -1.3867696088603516, 0.183692757283346, 0.18381981431927485, 0.1840471625328064, 0.18404674530029297]","[0.8240535259246826, 0.8383371233940125, 0.8331019282341003, 0.830571174621582, 0.8312451839447021, 0.8283394575119019]","[0.1681945186778629, -1.4026018081170337, 0.1681945186778629, 0.1681945186778629, 0.1681945186778629, 0.1681945186778629]","[0.1681945186778629, -1.4026018081170337, 0.1681945186778629, 0.1681945186778629, 0.1681945186778629, 0.1681945186778629]",0.002,7,1
0,101,"[0.1854162961244583, -1.3851039123586197, 0.18539840379823858, 0.18542317926373286, 0.18570806086063385, 0.18571670353412628]","[0.8090766072273254, 0.8252694010734558, 0.8197746872901917, 0.8121607303619385, 0.8148242235183716, 0.8116213083267212]","[0.16896303359373518, -1.4018332932011615, 0.16896303359373518, 0.16896303359373518, 0.16896303359373518, 0.16896303359373518]","[0.16896303359373518, -1.4018332932011615, 0.16896303359373518, 0.16896303359373518, 0.16896303359373518, 0.16896303359373518]",0.002,7,1
0,102,"[0.18704669177532196, -1.383446992640831, 0.18701154390443975, 0.18701116620983882, 0.1873980611562729, 0.1873261034488678]","[0.7914182543754578, 0.8076152205467224, 0.8066529631614685, 0.7962629795074463, 0.7984150648117065, 0.7927172780036926]","[0.16973048039293528, -1.4010658464019612, 0.16973048039293528, 0.16973048039293528, 0.16973048039293528, 0.16973048039293528]","[0.16973048039293528, -1.4010658464019612, 0.16973048039293528, 0.16973048039293528, 0.16973048039293528, 0.16973048039293528]",0.002,7,1
0,103,"[0.1885451227426529, -1.3817862433246155, 0.18854219118227178, 0.18863062440838618, 0.1889595091342926, 0.18888787925243378]","[0.7735068202018738, 0.7861508131027222, 0.78523850440979, 0.7821072936058044, 0.7786925435066223, 0.7772258520126343]","[0.17049685422397173, -1.4002994725709248, 0.17049685422397173, 0.17049685422397173, 0.17049685422397173, 0.17049685422397173]","[0.17049685422397173, -1.4002994725709248, 0.17049685422397173, 0.17049685422397173, 0.17049685422397173, 0.17049685422397173]",0.002,7,1
0,104,"[0.18997931480407715, -1.3802293700030823, 0.19007474580873662, 0.1901506620594482, 0.190461203455925, 0.19045798480510712]","[0.7533619403839111, 0.7672051191329956, 0.7669002413749695, 0.7673040628433228, 0.7585621476173401, 0.7574598789215088]","[0.17126215024213584, -1.3995341765527607, 0.17126215024213584, 0.17126215024213584, 0.17126215024213584, 0.17126215024213584]","[0.17126215024213584, -1.3995341765527607, 0.17126215024213584, 0.17126215024213584, 0.17126215024213584, 0.17126215024213584]",0.002,7,1
0,105,"[0.19150376319885254, -1.3786958915046235, 0.19156390825380498, 0.1916772562214355, 0.19194012880325317, 0.19188706576824188]","[0.73720383644104, 0.7506988048553467, 0.7475904226303101, 0.7493005990982056, 0.7395185828208923, 0.7396181225776672]","[0.1720263636095325, -1.398769963185364, 0.1720263636095325, 0.1720263636095325, 0.1720263636095325, 0.1720263636095325]","[0.1720263636095325, -1.398769963185364, 0.1720263636095325, 0.1720263636095325, 0.1720263636095325, 0.1720263636095325]",0.002,7,1
0,106,"[0.1930336207151413, -1.3771617871573945, 0.19306451479067022, 0.19314829885449214, 0.19344568252563477, 0.19335193932056427]","[0.7195410132408142, 0.7336838841438293, 0.7307798862457275, 0.7290033102035522, 0.7231780886650085, 0.7231245636940002]","[0.1727894894951107, -1.3980068372997858, 0.1727894894951107, 0.1727894894951107, 0.1727894894951107, 0.1727894894951107]","[0.1727894894951107, -1.3980068372997858, 0.1727894894951107, 0.1727894894951107, 0.1727894894951107, 0.1727894894951107]",0.002,7,1
0,107,"[0.1944558322429657, -1.3758027267507096, 0.19455510774721319, 0.19461135446514888, 0.19479049742221832, 0.19469399750232697]","[0.7030675411224365, 0.7163234949111938, 0.7129369378089905, 0.7081146240234375, 0.7047776579856873, 0.7040363550186157]","[0.17355152307469404, -1.3972448037202025, 0.17355152307469404, 0.17355152307469404, 0.17355152307469404, 0.17355152307469404]","[0.17355152307469404, -1.3972448037202025, 0.17355152307469404, 0.17355152307469404, 0.17355152307469404, 0.17355152307469404]",0.002,7,1
0,108,"[0.19586490094661713, -1.3743522030166169, 0.1959622542010706, 0.1960814434238891, 0.19614554941654205, 0.19606906175613403]","[0.6860830187797546, 0.6982412934303284, 0.7004134654998779, 0.6884264945983887, 0.6875907778739929, 0.6866933107376099]","[0.17431245953101113, -1.3964838672638855, 0.17431245953101113, 0.17431245953101113, 0.17431245953101113, 0.17431245953101113]","[0.17431245953101113, -1.3964838672638855, 0.17431245953101113, 0.17431245953101113, 0.17431245953101113, 0.17431245953101113]",0.002,7,1
0,109,"[0.1971866339445114, -1.373007447724678, 0.19729787508119756, 0.19748572885479732, 0.19747193157672882, 0.19733791053295135]","[0.6678422093391418, 0.6841656565666199, 0.6835722327232361, 0.6739214062690735, 0.6702446341514587, 0.6702970266342163]","[0.17507229405372643, -1.3957240327411702, 0.17507229405372643, 0.17507229405372643, 0.17507229405372643, 0.17507229405372643]","[0.17507229405372643, -1.3957240327411702, 0.17507229405372643, 0.17507229405372643, 0.17507229405372643, 0.17507229405372643]",0.002,7,1
0,110,"[0.19847847521305084, -1.3716753882220765, 0.1986473242389124, 0.19890205442395015, 0.19871091842651367, 0.19863323867321014]","[0.6489090323448181, 0.6667712926864624, 0.6620551347732544, 0.6576688885688782, 0.6501743793487549, 0.6533883213996887]","[0.17583102183946997, -1.3949653049554267, 0.17583102183946997, 0.17583102183946997, 0.17583102183946997, 0.17583102183946997]","[0.17583102183946997, -1.3949653049554267, 0.17583102183946997, 0.17583102183946997, 0.17583102183946997, 0.17583102183946997]",0.002,7,1
0,111,"[0.1997571587562561, -1.3703924727490921, 0.20002824464906865, 0.2001526790806274, 0.19996778666973114, 0.19988875091075897]","[0.6322124004364014, 0.6494049429893494, 0.6474884152412415, 0.6408841609954834, 0.6329717636108398, 0.6372028589248657]","[0.17658863809186856, -1.394207688703028, 0.17658863809186856, 0.17658863809186856, 0.17658863809186856, 0.17658863809186856]","[0.17658863809186856, -1.394207688703028, 0.17658863809186856, 0.17658863809186856, 0.17658863809186856, 0.17658863809186856]",0.002,7,1
0,112,"[0.2009761482477188, -1.3691139233163376, 0.20124799409975225, 0.20138971387829585, 0.2012474685907364, 0.20109274983406067]","[0.613681435585022, 0.6322109699249268, 0.6259630918502808, 0.6179277300834656, 0.618624746799469, 0.6225478053092957]","[0.17734513802157542, -1.3934511887733212, 0.17734513802157542, 0.17734513802157542, 0.17734513802157542, 0.17734513802157542]","[0.17734513802157542, -1.3934511887733212, 0.17734513802157542, 0.17734513802157542, 0.17734513802157542, 0.17734513802157542]",0.002,7,1
0,113,"[0.20214800536632538, -1.3678859335235138, 0.202432934437887, 0.2025422292896728, 0.2024090737104416, 0.20230084657669067]","[0.5956552624702454, 0.6117786169052124, 0.6076022982597351, 0.5946699380874634, 0.6006590723991394, 0.6036813855171204]","[0.17810051684630074, -1.3926958099485958, 0.17810051684630074, 0.17810051684630074, 0.17810051684630074, 0.17810051684630074]","[0.17810051684630074, -1.3926958099485958, 0.17810051684630074, 0.17810051684630074, 0.17810051684630074, 0.17810051684630074]",0.002,7,1
0,114,"[0.20336011052131653, -1.366716445689537, 0.20360213914980108, 0.2037324148365478, 0.20360849797725677, 0.2034265100955963]","[0.5794861912727356, 0.5968365669250488, 0.5841171145439148, 0.5746294260025024, 0.5851556062698364, 0.588171124458313]","[0.17885476979084194, -1.3919415570040545, 0.17885476979084194, 0.17885476979084194, 0.17885476979084194, 0.17885476979084194]","[0.17885476979084194, -1.3919415570040545, 0.17885476979084194, 0.17885476979084194, 0.17885476979084194, 0.17885476979084194]",0.002,7,1
0,115,"[0.204468235373497, -1.3656301510385056, 0.20474654832948858, 0.20487992345776362, 0.20465302467346191, 0.20455442368984222]","[0.5630959272384644, 0.5796934366226196, 0.5673184990882874, 0.5555734038352966, 0.5664646625518799, 0.5706823468208313]","[0.17960789208711384, -1.3911884347077828, 0.17960789208711384, 0.17960789208711384, 0.17960789208711384, 0.17960789208711384]","[0.17960789208711384, -1.3911884347077828, 0.17960789208711384, 0.17960789208711384, 0.17960789208711384, 0.17960789208711384]",0.002,7,1
0,116,"[0.20556388795375824, -1.3645124447396775, 0.20578509966005498, 0.20593409120526118, 0.20573554933071136, 0.20572791993618011]","[0.5459118485450745, 0.5607707500457764, 0.5503343343734741, 0.5398741960525513, 0.5481876134872437, 0.5522461533546448]","[0.18035987897417868, -1.3904364478207178, 0.18035987897417868, 0.18035987897417868, 0.18035987897417868, 0.18035987897417868]","[0.18035987897417868, -1.3904364478207178, 0.18035987897417868, 0.18035987897417868, 0.18035987897417868, 0.18035987897417868]",0.002,7,1
0,117,"[0.20664718747138977, -1.3633928161910553, 0.20687419572939092, 0.20700041830029292, 0.20682722330093384, 0.20681415498256683]","[0.5307419896125793, 0.5397554636001587, 0.5343090295791626, 0.5252851843833923, 0.5306644439697266, 0.5366437435150146]","[0.18111072569827633, -1.3896856010966203, 0.18111072569827633, 0.18111072569827633, 0.18111072569827633, 0.18111072569827633]","[0.18111072569827633, -1.3896856010966203, 0.18111072569827633, 0.18111072569827633, 0.18111072569827633, 0.18111072569827633]",0.002,7,1
0,118,"[0.2077256590127945, -1.3623901170543213, 0.20792657533754522, 0.20797423898663325, 0.20786231756210327, 0.20781299471855164]","[0.5136067867279053, 0.5202374458312988, 0.5139302015304565, 0.508024275302887, 0.5139133334159851, 0.5195964574813843]","[0.1818604275128543, -1.3889358992820422, 0.1818604275128543, 0.1818604275128543, 0.1818604275128543, 0.1818604275128543]","[0.1818604275128543, -1.3889358992820422, 0.1818604275128543, 0.1818604275128543, 0.1818604275128543, 0.1818604275128543]",0.002,7,1
0,119,"[0.20864950120449066, -1.3614123475602646, 0.2089169661151331, 0.2089206415363769, 0.20887286961078644, 0.20879635214805603]","[0.49791109561920166, 0.4993056356906891, 0.49782595038414, 0.4906063377857208, 0.49822235107421875, 0.501185417175293]","[0.18260897967859785, -1.3881873471162987, 0.18260897967859785, 0.18260897967859785, 0.18260897967859785, 0.18260897967859785]","[0.18260897967859785, -1.3881873471162987, 0.18260897967859785, 0.18260897967859785, 0.18260897967859785, 0.18260897967859785]",0.002,7,1
0,120,"[0.20962992310523987, -1.3604750049165268, 0.20986968675722295, 0.20985571920361323, 0.20975631475448608, 0.2098330855369568]","[0.4809481203556061, 0.48324674367904663, 0.48000383377075195, 0.47398123145103455, 0.4803107678890228, 0.4827178716659546]","[0.1833563774634597, -1.3874399493314369, 0.1833563774634597, 0.1833563774634597, 0.1833563774634597, 0.1833563774634597]","[0.1833563774634597, -1.3874399493314369, 0.1833563774634597, 0.1833563774634597, 0.1833563774634597, 0.1833563774634597]",0.002,7,1
0,121,"[0.21064786612987518, -1.359560326938965, 0.21078616777528936, 0.21075419961895747, 0.2108127623796463, 0.21073082089424133]","[0.4638126492500305, 0.46312007308006287, 0.46215391159057617, 0.45640039443969727, 0.46542611718177795, 0.4641411304473877]","[0.1841026161426903, -1.3866937106522061, 0.1841026161426903, 0.1841026161426903, 0.1841026161426903, 0.1841026161426903]","[0.1841026161426903, -1.3866937106522061, 0.1841026161426903, 0.1841026161426903, 0.1841026161426903, 0.1841026161426903]",0.002,7,1
0,122,"[0.2115354835987091, -1.3587316584638138, 0.21170455614198858, 0.21161095678295894, 0.2116493433713913, 0.21168091893196106]","[0.448043555021286, 0.442912757396698, 0.44199416041374207, 0.44221019744873047, 0.4450342059135437, 0.44845351576805115]","[0.18484769099886728, -1.3859486357960293, 0.18484769099886728, 0.18484769099886728, 0.18484769099886728, 0.18484769099886728]","[0.18484769099886728, -1.3859486357960293, 0.18484769099886728, 0.18484769099886728, 0.18484769099886728, 0.18484769099886728]",0.002,7,1
0,123,"[0.21237285435199738, -1.357915536766388, 0.21252614656557256, 0.21247856199230952, 0.21253521740436554, 0.2125520408153534]","[0.43080461025238037, 0.4220767915248871, 0.4244881868362427, 0.4296972155570984, 0.42813166975975037, 0.428658127784729]","[0.18559159732192573, -1.3852047294729708, 0.18559159732192573, 0.18559159732192573, 0.18559159732192573, 0.18559159732192573]","[0.18559159732192573, -1.3852047294729708, 0.18559159732192573, 0.18559159732192573, 0.18559159732192573, 0.18559159732192573]",0.002,7,1
0,124,"[0.213265523314476, -1.3570808333209534, 0.21336013475526983, 0.2132001358219604, 0.21333777904510498, 0.21338161826133728]","[0.41696152091026306, 0.4060206711292267, 0.4080292582511902, 0.4144173562526703, 0.41128796339035034, 0.4113018214702606]","[0.1863343304091875, -1.384461996385709, 0.1863343304091875, 0.1863343304091875, 0.1863343304091875, 0.1863343304091875]","[0.1863343304091875, -1.384461996385709, 0.1863343304091875, 0.1863343304091875, 0.1863343304091875, 0.1863343304091875]",0.002,7,1
0,125,"[0.2140551656484604, -1.3562888366035004, 0.2141488234149378, 0.2139994341083984, 0.21412426233291626, 0.21419289708137512]","[0.40122151374816895, 0.38548344373703003, 0.3932037353515625, 0.3980179727077484, 0.3943079710006714, 0.39455410838127136]","[0.18707588556539143, -1.3837204412295052, 0.18707588556539143, 0.18707588556539143, 0.18707588556539143, 0.18707588556539143]","[0.18707588556539143, -1.3837204412295052, 0.18707588556539143, 0.18707588556539143, 0.18707588556539143, 0.18707588556539143]",0.002,7,1
0,126,"[0.21482259035110474, -1.355592043404915, 0.21495372453798467, 0.21475307523693843, 0.21486122906208038, 0.21504011750221252]","[0.38492608070373535, 0.36959439516067505, 0.3781304955482483, 0.380497008562088, 0.3777761161327362, 0.3786149024963379]","[0.18781625810272246, -1.382980068692174, 0.18781625810272246, 0.18781625810272246, 0.18781625810272246, 0.18781625810272246]","[0.18781625810272246, -1.382980068692174, 0.18781625810272246, 0.18781625810272246, 0.18781625810272246, 0.18781625810272246]",0.002,7,1
0,127,"[0.21551424264907837, -1.3549289566329499, 0.21558076540102178, 0.21555499612774653, 0.21564702689647675, 0.21567706763744354]","[0.36934030055999756, 0.3546749949455261, 0.3607672154903412, 0.36734405159950256, 0.3625308573246002, 0.3615691065788269]","[0.18855544334084182, -1.3822408834540547, 0.18855544334084182, 0.18855544334084182, 0.18855544334084182, 0.18855544334084182]","[0.18855544334084182, -1.3822408834540547, 0.18855544334084182, 0.18855544334084182, 0.18855544334084182, 0.18855544334084182]",0.002,7,1
0,128,"[0.2162298858165741, -1.354243890648224, 0.2163332144366663, 0.2162114816853027, 0.21628692746162415, 0.2163788080215454]","[0.3528635501861572, 0.33759620785713196, 0.344719797372818, 0.35434338450431824, 0.3460013270378113, 0.3460591733455658]","[0.1892934366069163, -1.3815028901879802, 0.1892934366069163, 0.1892934366069163, 0.1892934366069163, 0.1892934366069163]","[0.1892934366069163, -1.3815028901879802, 0.1892934366069163, 0.1892934366069163, 0.1892934366069163, 0.1892934366069163]",0.002,7,1
0,129,"[0.21688495576381683, -1.353556514983513, 0.21698505083192998, 0.21683399259533687, 0.21701925992965698, 0.217018723487854]","[0.3378787040710449, 0.32037192583084106, 0.3302666246891022, 0.33919191360473633, 0.32832634449005127, 0.3290824890136719]","[0.19003023323564783, -1.3807660935592487, 0.19003023323564783, 0.19003023323564783, 0.19003023323564783, 0.19003023323564783]","[0.19003023323564783, -1.3807660935592487, 0.19003023323564783, 0.19003023323564783, 0.19003023323564783, 0.19003023323564783]",0.002,7,1
0,130,"[0.21750712394714355, -1.3529688131860276, 0.21754151979555303, 0.21750657140698237, 0.21765810251235962, 0.217727392911911]","[0.321382999420166, 0.3061148226261139, 0.31317439675331116, 0.32085686922073364, 0.31554925441741943, 0.3141975998878479]","[0.19076582856930302, -1.3800304982255935, 0.19076582856930302, 0.19076582856930302, 0.19076582856930302, 0.19076582856930302]","[0.19076582856930302, -1.3800304982255935, 0.19076582856930302, 0.19076582856930302, 0.19076582856930302, 0.19076582856930302]",0.002,7,1
0,131,"[0.21817180514335632, -1.3524208676866074, 0.21815234819521123, 0.21804015218701167, 0.21822747588157654, 0.21831440925598145]","[0.3064749240875244, 0.2894954979419708, 0.29622477293014526, 0.3030434846878052, 0.3009762465953827, 0.2980039715766907]","[0.19150021795774258, -1.379296108837154, 0.19150021795774258, 0.19150021795774258, 0.19150021795774258, 0.19150021795774258]","[0.19150021795774258, -1.379296108837154, 0.19150021795774258, 0.19150021795774258, 0.19150021795774258, 0.19150021795774258]",0.002,7,1
0,132,"[0.21867716312408447, -1.3518530440381546, 0.21876269975771123, 0.21859745561566157, 0.2187862992286682, 0.2188807725906372]","[0.293969064950943, 0.27400416135787964, 0.28214073181152344, 0.28861379623413086, 0.28463807702064514, 0.28247731924057007]","[0.19223339675845078, -1.3785629300364457, 0.19223339675845078, 0.19223339675845078, 0.19223339675845078, 0.19223339675845078]","[0.19223339675845078, -1.3785629300364457, 0.19223339675845078, 0.19223339675845078, 0.19223339675845078, 0.19223339675845078]",0.002,7,1
0,133,"[0.21929889917373657, -1.3513030868819733, 0.21930200258363897, 0.21922342359509273, 0.21937403082847595, 0.21938931941986084]","[0.2776959240436554, 0.2632323205471039, 0.26972177624702454, 0.27652040123939514, 0.2704562544822693, 0.26741209626197815]","[0.19296536033656458, -1.377830966458332, 0.19296536033656458, 0.19296536033656458, 0.19296536033656458, 0.19296536033656458]","[0.19296536033656458, -1.377830966458332, 0.19296536033656458, 0.19296536033656458, 0.19296536033656458, 0.19296536033656458]",0.002,7,1
0,134,"[0.2198147177696228, -1.3508280676654358, 0.2197631041156214, 0.21973328172650142, 0.21985727548599243, 0.21991954743862152]","[0.2621271312236786, 0.25037863850593567, 0.2550106346607208, 0.26308897137641907, 0.2543101906776428, 0.25483617186546326]","[0.19369610406490334, -1.377100222729993, 0.19369610406490334, 0.19369610406490334, 0.19369610406490334, 0.19369610406490334]","[0.19369610406490334, -1.377100222729993, 0.19369610406490334, 0.19369610406490334, 0.19369610406490334, 0.19369610406490334]",0.002,7,1
0,135,"[0.22029514610767365, -1.3502520334771653, 0.22029096284975225, 0.22024707376446528, 0.22030359506607056, 0.2203681766986847]","[0.24488955736160278, 0.23597005009651184, 0.24247799813747406, 0.24955761432647705, 0.23968718945980072, 0.24107395112514496]","[0.19442562332399757, -1.376370703470899, 0.19442562332399757, 0.19442562332399757, 0.19442562332399757, 0.19442562332399757]","[0.19442562332399757, -1.376370703470899, 0.19442562332399757, 0.19442562332399757, 0.19442562332399757, 0.19442562332399757]",0.002,7,1
0,136,"[0.2207527458667755, -1.349878878598549, 0.2207406202899378, 0.22074822961773677, 0.22079111635684967, 0.2208346724510193]","[0.22983069717884064, 0.22496727108955383, 0.22989603877067566, 0.23607796430587769, 0.22634103894233704, 0.2252488136291504]","[0.1951539135021186, -1.375642413292778, 0.1951539135021186, 0.1951539135021186, 0.1951539135021186, 0.1951539135021186]","[0.1951539135021186, -1.375642413292778, 0.1951539135021186, 0.1951539135021186, 0.1951539135021186, 0.1951539135021186]",0.002,7,1
0,137,"[0.2211829274892807, -1.3494190734675904, 0.2211673895465296, 0.22120384752239985, 0.22121497988700867, 0.2212425172328949]","[0.21613340079784393, 0.21181906759738922, 0.21640636026859283, 0.22159868478775024, 0.2121863067150116, 0.2119557410478592]","[0.19588096999530732, -1.3749153567995893, 0.19588096999530732, 0.19588096999530732, 0.19588096999530732, 0.19588096999530732]","[0.19588096999530732, -1.3749153567995893, 0.19588096999530732, 0.19588096999530732, 0.19588096999530732, 0.19588096999530732]",0.002,7,1
0,138,"[0.2214868813753128, -1.348991112118103, 0.2215507666217249, 0.22160200654949946, 0.22158114612102509, 0.2216540277004242]","[0.2037694752216339, 0.1979161947965622, 0.20317795872688293, 0.20584101974964142, 0.19767557084560394, 0.19822417199611664]","[0.19660678820740363, -1.374189538587493, 0.19660678820740363, 0.19660678820740363, 0.19660678820740363, 0.19660678820740363]","[0.19660678820740363, -1.374189538587493, 0.19660678820740363, 0.19660678820740363, 0.19660678820740363, 0.19660678820740363]",0.002,7,1
0,139,"[0.22190819680690765, -1.3486446303180237, 0.22196990648378545, 0.22193913042034907, 0.222018301486969, 0.22203360497951508]","[0.18859736621379852, 0.19067062437534332, 0.189700648188591, 0.19208723306655884, 0.18746709823608398, 0.18607862293720245]","[0.19733136355007524, -1.3734649632448213, 0.19733136355007524, 0.19733136355007524, 0.19733136355007524, 0.19733136355007524]","[0.19733136355007524, -1.3734649632448213, 0.19733136355007524, 0.19733136355007524, 0.19733136355007524, 0.19733136355007524]",0.002,7,1
0,140,"[0.22227071225643158, -1.3483022165349503, 0.22231752077211553, 0.22234313070263667, 0.22234351933002472, 0.2223460078239441]","[0.1761050820350647, 0.17791520059108734, 0.17697378993034363, 0.17843995988368988, 0.17510852217674255, 0.17480459809303284]","[0.19805469144284696, -1.3727416353520496, 0.19805469144284696, 0.19805469144284696, 0.19805469144284696, 0.19805469144284696]","[0.19805469144284696, -1.3727416353520496, 0.19805469144284696, 0.19805469144284696, 0.19805469144284696, 0.19805469144284696]",0.002,7,1
0,141,"[0.22265620529651642, -1.3479461383870621, 0.2226489225970667, 0.22263531267132564, 0.2226916253566742, 0.22266408801078796]","[0.16168589890003204, 0.1640724390745163, 0.16625072062015533, 0.1648334115743637, 0.16196849942207336, 0.16084612905979156]","[0.19877676731312927, -1.3720195594817672, 0.19877676731312927, 0.19877676731312927, 0.19877676731312927, 0.19877676731312927]","[0.19877676731312927, -1.3720195594817672, 0.19877676731312927, 0.19877676731312927, 0.19877676731312927, 0.19877676731312927]",0.002,7,1
0,142,"[0.2228478342294693, -1.347658858900406, 0.2229707876788538, 0.2229115205952148, 0.2229718565940857, 0.22297939658164978]","[0.15133273601531982, 0.15188564360141754, 0.15731756389141083, 0.15169431269168854, 0.14989405870437622, 0.14951825141906738]","[0.19949758659624753, -1.371298740198649, 0.19949758659624753, 0.19949758659624753, 0.19949758659624753, 0.19949758659624753]","[0.19949758659624753, -1.371298740198649, 0.19949758659624753, 0.19949758659624753, 0.19949758659624753, 0.19949758659624753]",0.002,7,1
0,143,"[0.22331294417381287, -1.347436399464943, 0.22324926057924444, 0.22321407377209468, 0.22326689958572388, 0.22324587404727936]","[0.1390964537858963, 0.1421307921409607, 0.14402107894420624, 0.14123110473155975, 0.14019405841827393, 0.13809455931186676]","[0.20021714473547073, -1.3705791820594257, 0.20021714473547073, 0.20021714473547073, 0.20021714473547073, 0.20021714473547073]","[0.20021714473547073, -1.3705791820594257, 0.20021714473547073, 0.20021714473547073, 0.20021714473547073, 0.20021714473547073]",0.002,7,1
0,144,"[0.22345508635044098, -1.3471531581929703, 0.2235339323626917, 0.22356895982708735, 0.22346529364585876, 0.22350451350212097]","[0.12813687324523926, 0.13558630645275116, 0.13102661073207855, 0.12694045901298523, 0.12455514073371887, 0.1269887536764145]","[0.20093543718204032, -1.3698608896128563, 0.20093543718204032, 0.20093543718204032, 0.20093543718204032, 0.20093543718204032]","[0.20093543718204032, -1.3698608896128563, 0.20093543718204032, 0.20093543718204032, 0.20093543718204032, 0.20093543718204032]",0.002,7,1
