Arnibjarnst/BoxLift/logs/ur_rtde/trajectory_dur=10.0_delay=0.2_gain=100_lh=0.03_real.csv
arm_idx,step,actual_q,actual_qd,target_q,expected_q,loop_time,robot_mode,safety_mode
0,-1,"[-0.008977238331929982, -1.5797506771483363, -0.008975239470601082, -0.009031133060791063, -0.008983914052144826, -0.008959595357076466]","[0.031049709767103195, 0.030301528051495552, 0.02907261811196804, 0.03081454150378704, 0.02934475615620613, 0.030656510964035988]","[0.0, -1.5707963267948966, 0.0, 0.0, 0.0, 0.0]","[0.0, -1.5707963267948966, 0.0, 0.0, 0.0, 0.0]",0.002,7,1
0,-1,"[-0.008289639149801076, -1.5790258846678675, -0.008360852487385273, -0.008461670284606981, -0.008341614400045216, -0.00839549699892217]","[0.045544009655714035, 0.04715890809893608, 0.045138727873563766, 0.04901115968823433, 0.045289766043424606, 0.04381323978304863]","[0.0, -1.5707963267948966, 0.0, 0.0, 0.0, 0.0]","[0.0, -1.5707963267948966, 0.0, 0.0, 0.0, 0.0]",0.002,7,1
0,-1,"[-0.007566277180806935, -1.5783034763731898, -0.007676186505705118, -0.007650093441345263, -0.007621590291158498, -0.007618729268209279]","[0.059253182262182236, 0.05919814482331276, 0.05859785154461861, 0.06187713146209717, 0.05950536951422691, 0.05794615298509598]","[0.0, -1.5707963267948966, 0.0, 0.0, 0.0, 0.0]","[0.0, -1.5707963267948966, 0.0, 0.0, 0.0, 0.0]",0.002,7,1
0,-1,"[-0.006490532551900685, -1.5771500072874964, -0.006555392872542143, -0.00659842908892827, -0.006514374409810841, -0.006534401570455373]","[0.07651784271001816, 0.07388677448034286, 0.07543139159679413, 0.07847931236028671, 0.07606074213981628, 0.07585716992616653]","[0.0, -1.5707963267948966, 0.0, 0.0, 0.0, 0.0]","[0.0, -1.5707963267948966, 0.0, 0.0, 0.0, 0.0]",0.002,7,1
0,-1,"[-0.005895916615621388, -1.5766126118102015, -0.005977810826152563, -0.005910472278930712, -0.005799118672506154, -0.005907837544576466]","[0.08496903628110886, 0.0828736275434494, 0.08537440747022629, 0.09102609008550644, 0.08932919055223465, 0.08793335407972336]","[0.0, -1.5707963267948966, 0.0, 0.0, 0.0, 0.0]","[0.0, -1.5707963267948966, 0.0, 0.0, 0.0, 0.0]",0.002,7,1
0,-1,"[-0.004563156758443654, -1.5753113232054652, -0.004683110397309065, -0.004627541904785204, -0.004466835652486623, -0.004456345235006154]","[0.09803546965122223, 0.09403111040592194, 0.09739421308040619, 0.10215939581394196, 0.09773711115121841, 0.09895223379135132]","[0.0, -1.5707963267948966, 0.0, 0.0, 0.0, 0.0]","[0.0, -1.5707963267948966, 0.0, 0.0, 0.0, 0.0]",0.002,7,1
0,-1,"[-0.003239456807271779, -1.573998590508932, -0.0033618395682424307, -0.0032289785197754384, -0.0030811468707483414, -0.0030697027789514664]","[0.07592727988958359, 0.08862628787755966, 0.08377029746770859, 0.0821278765797615, 0.07840991020202637, 0.07766077667474747]","[0.0, -1.5707963267948966, 0.0, 0.0, 0.0, 0.0]","[0.0, -1.5707963267948966, 0.0, 0.0, 0.0, 0.0]",0.002,7,1
0,-1,"[-0.0019872824298303726, -1.572648664514059, -0.002017892664298415, -0.0019435447505493642, -0.0018270651446741226, -0.0018733183490198257]","[0.06013987958431244, 0.0642554759979248, 0.06508327275514603, 0.06126074865460396, 0.061940956860780716, 0.06040167436003685]","[0.0, -1.5707963267948966, 0.0, 0.0, 0.0, 0.0]","[0.0, -1.5707963267948966, 0.0, 0.0, 0.0, 0.0]",0.002,7,1
0,-1,"[-0.001355473195211232, -1.5719152889647425, -0.0013331995578482747, -0.001231388454772997, -0.0011165777789514664, -0.0011661688434045914]","[0.048281580209732056, 0.04930789768695831, 0.05167260020971298, 0.05015871301293373, 0.05143478512763977, 0.04804084822535515]","[0.0, -1.5707963267948966, 0.0, 0.0, 0.0, 0.0]","[0.0, -1.5707963267948966, 0.0, 0.0, 0.0, 0.0]",0.002,7,1
0,-1,"[-0.0008209387408655289, -1.5714742145934046, -0.0007492885342799127, -0.0007315439036865712, -0.000665012990133107, -0.0006745497332971695]","[0.038916707038879395, 0.03948630020022392, 0.04059496521949768, 0.03803834691643715, 0.0369076132774353, 0.03709883615374565]","[0.0, -1.5707963267948966, 0.0, 0.0, 0.0, 0.0]","[0.0, -1.5707963267948966, 0.0, 0.0, 0.0, 0.0]",0.002,7,1
0,-1,"[-0.0002930800067346695, -1.570916315118307, -0.00026421021902933717, -0.00019438684497075087, -0.0001977125750940445, -0.00014955202211552887]","[0.021382058039307594, 0.01925843395292759, 0.021996861323714256, 0.020803268998861313, 0.019297348335385323, 0.019377317279577255]","[0.0, -1.5707963267948966, 0.0, 0.0, 0.0, 0.0]","[0.0, -1.5707963267948966, 0.0, 0.0, 0.0, 0.0]",0.002,7,1
0,-1,"[-0.0001176039325159195, -1.5708023510374964, -6.752657645847648e-05, -2.6983073730946217e-06, -5.799928774052887e-05, -1.1746083394825746e-05]","[0.002578736748546362, 9.842467989074066e-05, 0.00015133287524804473, 0.00037325863377191126, -0.003926591482013464, 0.00012071269156876951]","[0.0, -1.5707963267948966, 0.0, 0.0, 0.0, 0.0]","[0.0, -1.5707963267948966, 0.0, 0.0, 0.0, 0.0]",0.002,7,1
0,-1,"[-5.5615101949513246e-05, -1.5707695135500508, -9.181236964650452e-05, -6.730974230961806e-05, -1.9375477926075746e-05, -4.750887026006012e-05]","[-0.0005569598288275301, 0.0026072862092405558, -0.0012775998329743743, -8.139014971675351e-05, -5.022199616178114e-07, -0.0003372590581420809]","[0.0, -1.5707963267948966, 0.0, 0.0, 0.0, 0.0]","[0.0, -1.5707963267948966, 0.0, 0.0, 0.0, 0.0]",0.002,7,1
0,-1,"[-0.0001176039325159195, -1.570911546746725, -0.0001774232368916273, -8.829057727055556e-05, -0.000111881886617482, -7.802644838506012e-05]","[0.00012982670159544796, -0.005334104411303997, -0.0022569200955331326, -1.4792268521190977e-09, -9.127606656611498e-12, -0.00019248237367719412]","[0.0, -1.5707963267948966, 0.0, 0.0, 0.0, 0.0]","[0.0, -1.5707963267948966, 0.0, 0.0, 0.0, 0.0]",0.002,7,1
0,-1,"[-0.00017959276308232575, -1.5709268055357875, -0.00010656392259988934, -7.183969531254775e-05, -7.325807680302887e-05, -3.5587941304981996e-05]","[2.0890468869339375e-15, -0.00448221992701292, -0.0007031758432276547, 0.0005809176946058869, -7.072150736035566e-19, -0.0001172071133623831]","[0.0, -1.5707963267948966, 0.0, 0.0, 0.0, 0.0]","[0.0, -1.5707963267948966, 0.0, 0.0, 0.0, 0.0]",0.002,7,1
0,-1,"[-0.00013333955873662262, -1.5709301433958949, -0.00016379663429688662, -3.8341884948778215e-05, -7.325807680302887e-05, -3.5587941304981996e-05]","[0.00012925810005981475, -0.0012202956713736057, -0.0005480447434820235, 0.00040419274591840804, 0.0002926701563410461, -4.649002949008718e-05]","[0.0, -1.5707963267948966, 0.0, 0.0, 0.0, 0.0]","[0.0, -1.5707963267948966, 0.0, 0.0, 0.0, 0.0]",0.002,7,1
0,-1,"[-0.00015479723085576325, -1.5709883175291957, -0.00010206973820459098, -6.850183520512587e-05, -7.898012270146637e-05, -9.85304461877945e-05]","[-1.4934813918898726e-07, -0.0005220221355557442, 0.00012969515228178352, 0.0002027796144830063, 0.0005668221856467426, -6.040131097506674e-07]","[0.0, -1.5707963267948966, 0.0, 0.0, 0.0, 0.0]","[0.0, -1.5707963267948966, 0.0, 0.0, 0.0, 0.0]",0.002,7,1
0,-1,"[-8.8993703023732e-05, -1.570909162560934, -0.00016834188136272132, -1.2831096984911028e-05, -4.5124684469044496e-05, -5.6568776265919496e-05]","[-4.838704086793924e-15, -0.00029380182968452573, 8.246421202784404e-05, 0.0006554098799824715, 0.0005031282780691981, -1.0977651947186029e-11]","[0.0, -1.5707963267948966, 0.0, 0.0, 0.0, 0.0]","[0.0, -1.5707963267948966, 0.0, 0.0, 0.0, 0.0]",0.002,7,1
0,-1,"[-0.00012189546693974762, -1.5709392033019007, -0.00016088815755210817, 1.828252758784288e-05, -4.0356312887013246e-05, 1.811981201171875e-05]","[-9.142229152657795e-34, 0.0001682003930909559, 8.605955372331664e-05, 0.00046207374543882906, 0.0006561033078469336, 0.0004790452658198774]","[0.0, -1.5707963267948966, 0.0, 0.0, 0.0, 0.0]","[0.0, -1.5707963267948966, 0.0, 0.0, 0.0, 0.0]",0.002,7,1
0,-1,"[-0.00012189546693974762, -1.5708891354002894, -0.00011404164251871407, -4.0130024292039934e-05, -3.701845277959137e-05, -3.987947572881012e-05]","[-5.605193857299268e-45, 0.0002047652524197474, 0.0002000005479203537, 0.0004491028084885329, 0.0010081697255373001, 0.00040119263576343656]","[0.0, -1.5707963267948966, 0.0, 0.0, 0.0, 0.0]","[0.0, -1.5707963267948966, 0.0, 0.0, 0.0, 0.0]",0.002,7,1
0,-1,"[-0.00016624132265263825, -1.5708443127074183, -0.00010206973820459098, -6.850183520512587e-05, -2.9865895406544496e-05, -7.039705385381012e-05]","[0.0, 0.00041701571899466217, 0.00022836538846604526, 0.0004905707319267094, 0.0007746957126073539, 0.0003443480236455798]","[0.0, -1.5707963267948966, 0.0, 0.0, 0.0, 0.0]","[0.0, -1.5707963267948966, 0.0, 0.0, 0.0, 0.0]",0.002,7,1
0,-1,"[-0.00010520616640263825, -1.5709182224669398, -0.00012302398681640625, -2.6983073730946217e-06, 1.1444091796875e-05, -0.00010759035219365387]","[0.0004251939826644957, 0.00024213184951804578, 0.00018685421673581004, 0.0005385400145314634, 0.0006004587630741298, 0.0004897608887404203]","[0.0, -1.5707963267948966, 0.0, 0.0, 0.0, 0.0]","[0.0, -1.5707963267948966, 0.0, 0.0, 0.0, 0.0]",0.002,7,1
0,-1,"[-7.707277406865387e-05, -1.570909162560934, -0.00013945103273727, 9.222621581983503e-06, 3.603315417421982e-05, -1.1746083394825746e-05]","[0.00059961510123685, 7.91121565271169e-05, 0.00022133724996820092, 0.00041013502050191164, 0.00046693006879650056, 0.00036479454138316214]","[0.0, -1.5707963267948966, 0.0, 0.0, 0.0, 0.0]","[0.0, -1.5707963267948966, 0.0, 0.0, 0.0, 0.0]",0.002,7,1
0,-1,"[-2.748170961552887e-05, -1.5709144077696742, -0.00015297241043299437, -5.205095324711806e-05, 6.67572021484375e-06, -3.4634266988575746e-05]","[0.0005646104691550136, 9.375451918458566e-05, 0.00020725557988043875, 0.00033666397212073207, 0.00036833170452155173, 0.00033906521275639534]","[0.0, -1.5707963267948966, 0.0, 0.0, 0.0, 0.0]","[0.0, -1.5707963267948966, 0.0, 0.0, 0.0, 0.0]",0.002,7,1
0,-1,"[-0.00013763109316045075, -1.5709058247008265, -0.00013943910016678274, 4.2839641235303816e-05, -1.7468129293263246e-05, -4.116688863575746e-06]","[0.0005429635057225823, 0.0001273476955248043, 0.00037834301474504173, 0.00027311212033964694, 0.0003390350902918726, 0.0004731020890176296]","[0.0, -1.5707963267948966, 0.0, 0.0, 0.0, 0.0]","[0.0, -1.5707963267948966, 0.0, 0.0, 0.0, 0.0]",0.002,7,1
0,-1,"[-3.129640688115387e-05, -1.5708447895445765, -8.954569784691557e-05, -3.27390483398915e-05, -5.4661427633106996e-05, 0.0]","[0.0005443071713671088, 0.001286575454287231, 0.0007088924176059663, 0.00023712879919912666, 0.0003388830227777362, 0.0003332552732899785]","[0.0, -1.5707963267948966, 0.0, 0.0, 0.0, 0.0]","[0.0, -1.5707963267948966, 0.0, 0.0, 0.0, 0.0]",0.002,7,1
0,-1,"[-3.1773244039356996e-05, -1.570911546746725, -9.179723565466702e-05, -0.00011117876086430556, -3.511110414677887e-05, -4.116688863575746e-06]","[0.0007997351349331439, 0.0008504558354616165, 0.0006711571477353573, 0.00014989935152698308, 0.00024653651053085923, 0.00035699678119271994]","[0.0, -1.5707963267948966, 0.0, 0.0, 0.0, 0.0]","[0.0, -1.5707963267948966, 0.0, 0.0, 0.0, 0.0]",0.002,7,1
0,-1,"[-1.985231508427887e-05, -1.5708981953062953, -8.277893357444555e-05, -4.191816363530165e-05, 7.152557373046875e-06, 2.9029846700723283e-05]","[0.0009768410818651319, 0.0007044580997899175, 0.0008232638356275856, 0.00014990991621743888, 0.00022258910757955164, 0.0002822674869094044]","[0.0, -1.5707963267948966, 0.0, 0.0, 0.0, 0.0]","[0.0, -1.5707963267948966, 0.0, 0.0, 0.0, 0.0]",0.002,7,1
0,-1,"[-2.8912221090138246e-05, -1.5708400211729945, -7.486343383789062e-05, 2.114355053706163e-05, -8.756319154912262e-05, -2.557436098271637e-05]","[0.0015881805447861552, 0.0002044105203822255, 0.000568435643799603, 0.00015741566312499344, 0.00019111008441541344, 0.00020335352746769786]","[0.0, -1.5707963267948966, 0.0, 0.0, 0.0, 0.0]","[0.0, -1.5707963267948966, 0.0, 0.0, 0.0, 0.0]",0.002,7,1
0,-1,"[-7.788287561538709e-07, -1.5708848438658656, -9.409392805537209e-05, -4.0130024292039934e-05, -4.3217335836231996e-05, -4.178682436162262e-05]","[0.0014982735738158226, 8.745009267840942e-07, 0.0005086755263619125, 0.00014651143283117563, 0.0001830064138630405, 0.00018979841843247414]","[0.0, -1.5707963267948966, 0.0, 0.0, 0.0, 0.0]","[0.0, -1.5707963267948966, 0.0, 0.0, 0.0, 0.0]",0.002,7,1
0,-1,"[3.2096009817905724e-05, -1.5709387264647425, -3.748533708858304e-05, -4.2037372924852434e-05, -6.024037496388246e-06, -3.4634266988575746e-05]","[0.0004882552020717412, 3.80120805217385e-16, 0.0004615405632648617, 0.0001411173288943246, 0.00016048182442318648, 0.0001629912294447422]","[0.0, -1.5707963267948966, 0.0, 0.0, 0.0, 0.0]","[0.0, -1.5707963267948966, 0.0, 0.0, 0.0, 0.0]",0.002,7,1
0,-1,"[3.6489724152488634e-05, -1.5709072552123011, -3.4606455301400274e-05, -5.3719883300829e-05, 6.424999446608126e-05, 1.7081913028960116e-05]","[0.0002518218825571239, 2.9740465988798435e-29, 0.0013201875844970345, 0.00012409203918650746, 0.00013619470701087266, 0.00015688376151956618]","[0.0, -1.5707963267948966, 0.0, 0.0, 0.0, 0.0]","[0.0, -1.5707963267948966, 0.0, 0.0, 0.0, 0.0]",0.002,7,1
0,-1,"[-3.320375551396637e-05, -1.570878644982809, -6.29425048828125e-05, 4.2839641235303816e-05, 2.04443495022133e-06, 1.9746732505154796e-05]","[0.00017736970039550215, 0.001503458945080638, 0.0017373182345181704, 0.00011246227950323373, 0.00013777954154647887, 0.00013656594092026353]","[0.0, -1.5707963267948966, 0.0, 0.0, 0.0, 0.0]","[0.0, -1.5707963267948966, 0.0, 0.0, 0.0, 0.0]",0.002,7,1
0,-1,"[-2.557436098271637e-05, -1.5708476505675257, -1.0248659236822277e-05, 9.222621581983503e-06, 1.0987281712004915e-05, -3.4634266988575746e-05]","[0.0001368973753415048, 0.001959622837603092, 0.0017419091891497374, 0.00010291598300682381, 0.0001235892705153674, 0.0001381017646053806]","[0.0, -1.5707963267948966, 0.0, 0.0, 0.0, 0.0]","[0.0, -1.5707963267948966, 0.0, 0.0, 0.0, 0.0]",0.002,7,1
0,-1,"[-1.0315571920216371e-05, -1.5708219013609828, -4.36007758253254e-05, 3.377973522944444e-05, 2.0623210730263963e-06, -7.788287561538709e-07]","[0.00010199096141150221, 0.0010502988006919622, 9.25917871021087e-13, 8.332650031661615e-05, 0.00010705114982556552, 0.00011777821782743558]","[0.0, -1.5707963267948966, 0.0, 0.0, 0.0, 0.0]","[0.0, -1.5707963267948966, 0.0, 0.0, 0.0, 0.0]",0.002,7,1
0,-1,"[3.814697265625e-06, -1.5708686314024867, 1.255665914356996e-06, 2.114355053706163e-05, -4.3217335836231996e-05, 1.9776820408878848e-05]","[8.717283344594762e-05, 0.0005999850109219551, 5.3996590217901045e-24, 7.499432103941217e-05, 7.858379831304774e-05, 9.232451702700928e-05]","[0.0, -1.5707963267948966, 0.0, 0.0, 0.0, 0.0]","[0.0, -1.5707963267948966, 0.0, 0.0, 0.0, 0.0]",0.002,7,1
0,-1,"[-1.3653432027638246e-05, -1.5708595714964808, -1.3634496099257376e-05, -3.7269001342821184e-05, -2.652803529912262e-05, 7.924920282675885e-06]","[7.157457730500028e-05, 0.0003095873980782926, 7.604286246505052e-41, 6.52130984235555e-05, 6.791047781007364e-05, 9.35196949285455e-05]","[0.0, -1.5707963267948966, 0.0, 0.0, 0.0, 0.0]","[0.0, -1.5707963267948966, 0.0, 0.0, 0.0, 0.0]",0.002,7,1
0,-1,"[-5.323091615849762e-05, -1.5708352528014125, -7.40015457267873e-06, 5.189954724116319e-05, 3.465414192760363e-05, -1.3653432027638246e-05]","[6.0711292462656274e-05, -0.00020271686662454158, -0.0, 5.768901246483438e-05, 5.978975968901068e-05, 9.092174877878278e-05]","[0.0, -1.5707963267948966, 0.0, 0.0, 0.0, 0.0]","[0.0, -1.5707963267948966, 0.0, 0.0, 0.0, 0.0]",0.002,7,1
0,-1,"[-2.1282826558888246e-05, -1.5708519421019496, -4.363077096058987e-05, -1.1758213378953997e-05, -1.732503072560121e-06, 6.220030627446249e-05]","[1.4467750588664785e-05, -1.1821808028350143e-15, -0.0, 5.356860492611304e-05, 5.53752834093757e-05, 8.660762250656262e-05]","[0.0, -1.5707963267948966, 0.0, 0.0, 0.0, 0.0]","[0.0, -1.5707963267948966, 0.0, 0.0, 0.0, 0.0]",0.002,7,1
0,-1,"[1.5806555893504992e-05, -1.5708066425719203, 3.4634266988575746e-05, -4.191816363530165e-05, -6.024037496388246e-06, 3.169774936395697e-05]","[1.3036511518293992e-05, -6.89409965864337e-27, -0.0, 4.999760494683869e-05, 5.1567880291258916e-05, 9.068216604646295e-05]","[0.0, -1.5707963267948966, 0.0, 0.0, 0.0, 0.0]","[0.0, -1.5707963267948966, 0.0, 0.0, 0.0, 0.0]",0.002,7,1
0,-1,"[-4.178682436162262e-05, -1.5708681545653285, -3.16739096888341e-05, -3.27390483398915e-05, 1.8358230590820312e-05, -2.9865895406544496e-05]","[1.2322560905886348e-05, -2.233607784697796e-34, -0.0, 3.5366050088470047e-09, 6.421377293008845e-06, 8.701792830834165e-05]","[0.0, -1.5707963267948966, 0.0, 0.0, 0.0, 0.0]","[0.0, -1.5707963267948966, 0.0, 0.0, 0.0, 0.0]",0.002,7,1
0,-1,"[3.814697265625e-06, -1.5708562336363734, 3.129640688115387e-05, 1.2083644531202253e-05, 2.384185791015625e-06, -8.885060445606996e-06]","[1.1106078090961091e-05, 0.0, -0.0, 1.1681874744392384e-18, 2.1210662146478078e-15, 4.0215993067249656e-05]","[0.0, -1.5707963267948966, 0.0, 0.0, 0.0, 0.0]","[0.0, -1.5707963267948966, 0.0, 0.0, 0.0, 0.0]",0.002,7,1
0,-1,"[-4.178682436162262e-05, -1.5708304844298304, -4.811593680642545e-05, 1.3752574584913191e-05, -2.175966371709137e-05, -8.885060445606996e-06]","[1.0340486369386781e-05, 0.0, -0.0, 9.051219928373201e-26, 1.6434205447659813e-22, 3.115970155509462e-12]","[0.0, -1.5707963267948966, 0.0, 0.0, 0.0, 0.0]","[0.0, -1.5707963267948966, 0.0, 0.0, 0.0, 0.0]",0.002,7,1
0,-1,"[-2.462068666631012e-05, -1.5708099804320277, -5.262806371320039e-05, 1.661359753413194e-05, -2.652803529912262e-05, 3.351163832121529e-05]","[6.7148127439181446e-18, 0.0, -0.0, 1.2745726542749265e-37, 2.3142287892424543e-34, 4.387840781204668e-24]","[0.0, -1.5707963267948966, 0.0, 0.0, 0.0, 0.0]","[0.0, -1.5707963267948966, 0.0, 0.0, 0.0, 0.0]",0.002,7,1
0,-1,"[2.6226043701171875e-06, -1.570778564815857, -1.9348373825778253e-05, 2.114355053706163e-05, 1.536226409371011e-05, 1.2554644854390062e-05]","[3.9158648602840896e-29, 0.0, -0.0, 9.80908925027372e-45, 1.793101514950036e-41, 6.455239781644195e-05]","[0.0, -1.5707963267948966, 0.0, 0.0, 0.0, 0.0]","[0.0, -1.5707963267948966, 0.0, 0.0, 0.0, 0.0]",0.002,7,1
0,-1,"[-1.699129213506012e-05, -1.5708261928954066, -7.382052444881992e-06, 4.5581454894971785e-05, 1.8358230590820312e-05, -2.9865895406544496e-05]","[3.06323844301405e-42, 0.0, -0.0, 0.0, 0.0, 6.060193118173629e-05]","[0.0, -1.5707963267948966, 0.0, 0.0, 0.0, 0.0]","[0.0, -1.5707963267948966, 0.0, 0.0, 0.0, 0.0]",0.002,7,1
0,-1,"[-3.415742983037262e-05, -1.570778564815857, -1.9302980945212767e-05, 1.2083644531202253e-05, 3.4654138289624825e-05, 3.337860107421875e-06]","[0.0, 8.757176692597568e-05, -0.0, 0.0, 0.0, 5.677889203070663e-05]","[0.0, -1.5707963267948966, 0.0, 0.0, 0.0, 0.0]","[0.0, -1.5707963267948966, 0.0, 0.0, 0.0, 0.0]",0.002,7,1
0,-1,"[-9.361897603810121e-06, -1.5707696512984803, -2.721585042309016e-05, -2.081811938481337e-05, 1.8358230590820312e-05, 1.9776820408878848e-05]","[0.0, 3.3896882086992264e-05, -0.0, 0.0, 0.0, 5.278295429889113e-05]","[0.0, -1.5707963267948966, 0.0, 0.0, 0.0, 0.0]","[0.0, -1.5707963267948966, 0.0, 0.0, 0.0, 0.0]",0.002,7,1
0,-1,"[2.6226043701171875e-06, -1.5707771765049365, -1.254441485798452e-06, 4.5700664184522566e-05, 2.728319122979883e-05, -2.557436098271637e-05]","[0.0, 2.5315510356449522e-05, -0.0, 0.0, 0.0, 1.7875422253510465e-09]","[0.0, -1.5707963267948966, 0.0, 0.0, 0.0, 0.0]","[0.0, -1.5707963267948966, 0.0, 0.0, 0.0, 0.0]",0.002,7,1
0,-1,"[-7.788287561538709e-07, -1.5708486042418421, 6.024037496388246e-06, 2.9249782226514753e-05, -8.885060445606996e-06, 1.2554644854390062e-05]","[0.0, 4.133041147724725e-05, -0.0, 0.0, 0.0, 5.904490692634407e-19]","[0.0, -1.5707963267948966, 0.0, 0.0, 0.0, 0.0]","[0.0, -1.5707963267948966, 0.0, 0.0, 0.0, 0.0]",0.002,7,1
0,-1,"[-1.699129213506012e-05, -1.5708638630309046, -3.4618376957951114e-05, -4.918993029789931e-05, -1.3176594869435121e-05, 1.707267620076891e-05]","[0.0, 3.785381341003813e-05, -0.0, 0.0, 0.0, 1.073112969579381e-23]","[0.0, -1.5707963267948966, 0.0, 0.0, 0.0, 0.0]","[0.0, -1.5707963267948966, 0.0, 0.0, 0.0, 0.0]",0.002,7,1
0,-1,"[1.1368392733857036e-05, -1.5708519421019496, -5.2682196837849915e-05, 2.5673503539991316e-05, -6.024037496388246e-06, 6.220030627446249e-05]","[0.0, 1.73603039002046e-05, -0.0, 0.0, 0.0, 1.2734277380311015e-29]","[0.0, -1.5707963267948966, 0.0, 0.0, 0.0, 0.0]","[0.0, -1.5707963267948966, 0.0, 0.0, 0.0, 0.0]",0.002,7,1
0,1,"[2.8903483325848356e-05, -1.5708233318724574, -4.077027551829815e-05, 2.5673503539991316e-05, -2.175966371709137e-05, 4.543256727629341e-05]","[0.0, 1.3729739293921739e-05, -0.0, 0.0, 0.0, 5.605193857299268e-45]","[0.04418479434657463, -1.5266115324483218, 0.04418479434657463, 0.04418479434657463, 0.04418479434657463, 0.04418479434657463]","[0.04418479434657463, -1.5266115324483218, 0.04418479434657463, 0.04418479434657463, 0.04418479434657463, 0.04418479434657463]",0.002,7,1
0,2,"[-5.3707753316700746e-05, -1.5707980595030726, 1.732503072560121e-06, 2.9130572936963972e-05, 3.902912067133002e-05, 6.671833398286253e-05]","[0.0, 1.3323211533133872e-05, -0.0, 0.0, 0.0, 0.0]","[0.04461996713404648, -1.52617635966085, 0.04461996713404648, 0.04461996713404648, 0.04461996713404648, 0.04461996713404648]","[0.04461996713404648, -1.52617635966085, 0.04461996713404648, 0.04461996713404648, 0.04461996713404648, 0.04461996713404648]",0.002,7,1
0,3,"[-2.9865895406544496e-05, -1.5706676209122925, 0.0, 6.930410351557725e-05, 0.00010908865806413814, 5.5789947509765625e-05]","[0.02246030792593956, 0.09873587638139725, 0.0650457888841629, 0.03498252108693123, 0.03163589909672737, 0.0339423231780529]","[0.045055069432306895, -1.5257412573625897, 0.045055069432306895, 0.045055069432306895, 0.045055069432306895, 0.045055069432306895]","[0.045055069432306895, -1.5257412573625897, 0.045055069432306895, 0.045055069432306895, 0.045055069432306895, 0.045055069432306895]",0.002,7,1
0,4,"[1.8906592231360264e-05, -1.5704892417164338, 0.00011426607240849762, 0.00013415395703120225, 0.00017240452871192247, 0.00021046638721600175]","[0.02945610322058201, 0.11771968007087708, 0.08139711618423462, 0.05798918753862381, 0.05409029871225357, 0.05549444630742073]","[0.045490100553995036, -1.5253062262409016, 0.045490100553995036, 0.045490100553995036, 0.045490100553995036, 0.045490100553995036]","[0.045490100553995036, -1.5253062262409016, 0.045490100553995036, 0.045490100553995036, 0.045490100553995036, 0.045490100553995036]",0.002,7,1
0,5,"[0.00018065738549921662, -1.5704083906351407, 0.0002549330340784195, 0.00024418413128657335, 0.00028858811128884554, 0.0003139400505460799]","[0.033529363572597504, 0.1125451996922493, 0.0783999115228653, 0.06079154834151268, 0.059313055127859116, 0.06302083283662796]","[0.04592505981186254, -1.524871266983034, 0.04592505981186254, 0.04592505981186254, 0.04592505981186254, 0.04592505981186254]","[0.04592505981186254, -1.524871266983034, 0.04592505981186254, 0.04592505981186254, 0.04592505981186254, 0.04592505981186254]",0.002,7,1
0,6,"[0.00033331275335513055, -1.5702313237455492, 0.00047141710390263825, 0.0003848510929564952, 0.0004117648641113192, 0.0004548454307951033]","[0.0457175187766552, 0.1058872789144516, 0.0800362080335617, 0.059403080493211746, 0.060401443392038345, 0.06240358576178551]","[0.0463599465187745, -1.524436380276122, 0.0463599465187745, 0.0463599465187745, 0.0463599465187745, 0.0463599465187745]","[0.0463599465187745, -1.524436380276122, 0.0463599465187745, 0.0463599465187745, 0.0463599465187745, 0.0463599465187745]",0.002,7,1
0,7,"[0.00042809630394913256, -1.570025968223792, 0.0006907621966760757, 0.0005571085163573741, 0.0005332193104550242, 0.0005205583292990923]","[0.0578925646841526, 0.10898273438215256, 0.08832268416881561, 0.06493642181158066, 0.06336688995361328, 0.06463117152452469]","[0.0467947599877107, -1.5240015668071858, 0.0467947599877107, 0.0467947599877107, 0.0467947599877107, 0.0467947599877107]","[0.0467947599877107, -1.5240015668071858, 0.0467947599877107, 0.0467947599877107, 0.0467947599877107, 0.0467947599877107]",0.002,7,1
0,8,"[0.0005929546314291656, -1.5698907371591595, 0.0007837454425256851, 0.0007414060780028819, 0.0006580128101631999, 0.0007233047508634627]","[0.07444389164447784, 0.10468222200870514, 0.09201441705226898, 0.07418985664844513, 0.06879446655511856, 0.07159438729286194]","[0.047229499531766576, -1.52356682726313, 0.047229499531766576, 0.047229499531766576, 0.047229499531766576, 0.047229499531766576]","[0.047229499531766576, -1.52356682726313, 0.047229499531766576, 0.047229499531766576, 0.047229499531766576, 0.047229499531766576]",0.002,7,1
0,9,"[0.0006835815729573369, -1.5696705818739538, 0.0010436216937463882, 0.0008746820637206554, 0.0007616227376274765, 0.0008128595072776079]","[0.08310883492231369, 0.09233777970075607, 0.08201184868812561, 0.08468005806207657, 0.07590741664171219, 0.07936912029981613]","[0.047664164464154356, -1.5231321623307421, 0.047664164464154356, 0.047664164464154356, 0.047664164464154356, 0.047664164464154356]","[0.047664164464154356, -1.5231321623307421, 0.047664164464154356, 0.047664164464154356, 0.047664164464154356, 0.047664164464154356]",0.002,7,1
0,10,"[0.0009105875506065786, -1.5695444039632385, 0.0011504332171838882, 0.0010482507893065929, 0.0009387722238898277, 0.0010562277166172862]","[0.09538616240024567, 0.05869909003376961, 0.0781886950135231, 0.08503447473049164, 0.08546612411737442, 0.08473667502403259]","[0.048098754098204126, -1.5226975726966925, 0.048098754098204126, 0.048098754098204126, 0.048098754098204126, 0.048098754098204126]","[0.048098754098204126, -1.5226975726966925, 0.048098754098204126, 0.048098754098204126, 0.048098754098204126, 0.048098754098204126]",0.002,7,1
0,11,"[0.0011594884563237429, -1.5694154997221013, 0.0013306776629846695, 0.0012047725864867687, 0.0012002162402495742, 0.001240854267962277]","[0.10266494750976562, 0.07069385796785355, 0.0917462632060051, 0.0898408591747284, 0.09601999819278717, 0.09235303848981857]","[0.048533267747364967, -1.5222630590475317, 0.048533267747364967, 0.048533267747364967, 0.048533267747364967, 0.048533267747364967]","[0.048533267747364967, -1.5222630590475317, 0.048533267747364967, 0.048533267747364967, 0.048533267747364967, 0.048533267747364967]",0.002,7,1
0,12,"[0.001341465744189918, -1.5692638567746435, 0.0015600363360803726, 0.0014207798191527843, 0.0014253153931349516, 0.0013739489950239658]","[0.10937652736902237, 0.09879931062459946, 0.10983870178461075, 0.09854574501514435, 0.10457541048526764, 0.10187201201915741]","[0.048967704725205966, -1.5218286220696906, 0.048967704725205966, 0.048967704725205966, 0.048967704725205966, 0.048967704725205966]","[0.048967704725205966, -1.5218286220696906, 0.048967704725205966, 0.048967704725205966, 0.048967704725205966, 0.048967704725205966]",0.002,7,1
0,13,"[0.001530133537016809, -1.5689759377022092, 0.0016892592059534195, 0.001633449191711378, 0.0016330168582499027, 0.0016649103490635753]","[0.11544902622699738, 0.10788162052631378, 0.11166250705718994, 0.10753102600574493, 0.11256291717290878, 0.11067479848861694]","[0.049402064345417336, -1.5213942624494792, 0.049402064345417336, 0.049402064345417336, 0.049402064345417336, 0.049402064345417336]","[0.049402064345417336, -1.5213942624494792, 0.049402064345417336, 0.049402064345417336, 0.049402064345417336, 0.049402064345417336]",0.002,7,1
0,14,"[0.001783242216333747, -1.5688635162408282, 0.0019405523883264664, 0.001885219211242628, 0.0018626217497512698, 0.0018462562002241611]","[0.12340615689754486, 0.11271142214536667, 0.11675605177879333, 0.11702586710453033, 0.12082083523273468, 0.11877530068159103]","[0.04983634592181149, -1.5209599808730851, 0.04983634592181149, 0.04983634592181149, 0.04983634592181149, 0.04983634592181149]","[0.04983634592181149, -1.5209599808730851, 0.04983634592181149, 0.04983634592181149, 0.04983634592181149, 0.04983634592181149]",0.002,7,1
0,15,"[0.0020833355374634266, -1.568631070000567, 0.0022419134723108414, 0.00209610044445796, 0.002126136561855674, 0.002102646743878722]","[0.1323772370815277, 0.12045702338218689, 0.12561868131160736, 0.12607458233833313, 0.12467056512832642, 0.12756092846393585]","[0.05027054876832418, -1.5205257780265724, 0.05027054876832418, 0.05027054876832418, 0.05027054876832418, 0.05027054876832418]","[0.05027054876832418, -1.5205257780265724, 0.05027054876832418, 0.05027054876832418, 0.05027054876832418, 0.05027054876832418]",0.002,7,1
0,16,"[0.002408403204753995, -1.5683205656572063, 0.0024550596820276382, 0.002348466510436964, 0.0023899676743894815, 0.0023756360169500113]","[0.1414577066898346, 0.12865428626537323, 0.13503070175647736, 0.13343682885169983, 0.13585087656974792, 0.13462552428245544]","[0.05070467219901544, -1.5200916545958811, 0.05070467219901544, 0.05070467219901544, 0.05070467219901544, 0.05070467219901544]","[0.05070467219901544, -1.5200916545958811, 0.05070467219901544, 0.05070467219901544, 0.05070467219901544, 0.05070467219901544]",0.002,7,1
0,17,"[0.0027159792371094227, -1.568041843628027, 0.002785984669820607, 0.0026240783878783702, 0.002695145783945918, 0.002677416894584894]","[0.1485319286584854, 0.14129887521266937, 0.14450675249099731, 0.1417572796344757, 0.14480432868003845, 0.14274881780147552]","[0.051138715528070866, -1.5196576112668256, 0.051138715528070866, 0.051138715528070866, 0.051138715528070866, 0.051138715528070866]","[0.051138715528070866, -1.5196576112668256, 0.051138715528070866, 0.051138715528070866, 0.051138715528070866, 0.051138715528070866]",0.002,7,1
0,18,"[0.0029679876752197742, -1.5677865383080025, 0.0031073729144495132, 0.0029733616062621593, 0.0030137868598103523, 0.003017640206962824]","[0.16113364696502686, 0.14596061408519745, 0.15419790148735046, 0.15280573070049286, 0.15315128862857819, 0.15163099765777588]","[0.051572678069802536, -1.519223648725094, 0.051572678069802536, 0.051572678069802536, 0.051572678069802536, 0.051572678069802536]","[0.051572678069802536, -1.519223648725094, 0.051572678069802536, 0.051572678069802536, 0.051572678069802536, 0.051572678069802536]",0.002,7,1
0,19,"[0.003299687523394823, -1.5674448253451665, 0.0034435431109827164, 0.0032778221317748546, 0.003335413057357073, 0.003362722462043166]","[0.16888295114040375, 0.15562808513641357, 0.1633218675851822, 0.16091148555278778, 0.1592039316892624, 0.1596619039773941]","[0.05200655913865015, -1.5187897676562465, 0.05200655913865015, 0.05200655913865015, 0.05200655913865015, 0.05200655913865015]","[0.05200655913865015, -1.5187897676562465, 0.05200655913865015, 0.05200655913865015, 0.05200655913865015, 0.05200655913865015]",0.002,7,1
0,20,"[0.003601768519729376, -1.5670712867616494, 0.003751103078023732, 0.0036464172550658702, 0.0036240690387785435, 0.0036891745403409004]","[0.17576095461845398, 0.1647610366344452, 0.17116816341876984, 0.1682177633047104, 0.16791889071464539, 0.16880619525909424]","[0.05244035804918214, -1.5183559687457144, 0.05244035804918214, 0.05244035804918214, 0.05244035804918214, 0.05244035804918214]","[0.05244035804918214, -1.5183559687457144, 0.05244035804918214, 0.05244035804918214, 0.05244035804918214, 0.05244035804918214]",0.002,7,1
0,21,"[0.0040284572169184685, -1.566793721900769, 0.004129711781637013, 0.0039394336887816905, 0.004020347725600004, 0.0040461779572069645]","[0.1832447499036789, 0.17317375540733337, 0.1781463474035263, 0.17694996297359467, 0.17605140805244446, 0.17650102078914642]","[0.05287407411609672, -1.5179222526787999, 0.05287407411609672, 0.05287407411609672, 0.05287407411609672, 0.05287407411609672]","[0.05287407411609672, -1.5179222526787999, 0.05287407411609672, 0.05287407411609672, 0.05287407411609672, 0.05287407411609672]",0.002,7,1
0,22,"[0.0044858683831989765, -1.5664325298606236, 0.004497353230611623, 0.004349513644836378, 0.0044050058349967, 0.004415340255945921]","[0.19193851947784424, 0.18207266926765442, 0.18564698100090027, 0.1845802217721939, 0.18590332567691803, 0.18272435665130615]","[0.05330770665422299, -1.5174886201406736, 0.05330770665422299, 0.05330770665422299, 0.05330770665422299, 0.05330770665422299]","[0.05330770665422299, -1.5174886201406736, 0.05330770665422299, 0.05330770665422299, 0.05330770665422299, 0.05330770665422299]",0.002,7,1
0,23,"[0.004874139558523893, -1.5660932509093364, 0.004924599324361623, 0.004767699832580519, 0.00482234638184309, 0.004756903741508722]","[0.20116282999515533, 0.19016775488853455, 0.19489191472530365, 0.1915908306837082, 0.19450697302818298, 0.19346265494823456]","[0.05374125497852198, -1.5170550718163747, 0.05374125497852198, 0.05374125497852198, 0.05374125497852198, 0.05374125497852198]","[0.05374125497852198, -1.5170550718163747, 0.05374125497852198, 0.05374125497852198, 0.05374125497852198, 0.05374125497852198]",0.002,7,1
0,24,"[0.005272184032946825, -1.565631476962455, 0.005348984395162404, 0.005167170161865187, 0.005242055747658014, 0.00519457645714283]","[0.2090955525636673, 0.19884905219078064, 0.20421460270881653, 0.20223328471183777, 0.20347270369529724, 0.20381073653697968]","[0.05417471840408779, -1.5166216083908088, 0.05417471840408779, 0.05417471840408779, 0.05417471840408779, 0.05417471840408779]","[0.05417471840408779, -1.5166216083908088, 0.05417471840408779, 0.05417471840408779, 0.05417471840408779, 0.05417471840408779]",0.002,7,1
0,25,"[0.00576254166662693, -1.5651952198571344, 0.005794827138082326, 0.005622192020080519, 0.005577507894486189, 0.005581683944910765]","[0.21764138340950012, 0.20850414037704468, 0.21632252633571625, 0.21228741109371185, 0.21134258806705475, 0.21227407455444336]","[0.05460809624614861, -1.516188230548748, 0.05460809624614861, 0.05460809624614861, 0.05460809624614861, 0.05460809624614861]","[0.05460809624614861, -1.516188230548748, 0.05460809624614861, 0.05460809624614861, 0.05460809624614861, 0.05460809624614861]",0.002,7,1
0,26,"[0.006227102596312761, -1.5647333155250926, 0.006213967000142873, 0.006106658572814894, 0.006072665564715862, 0.006028473377227783]","[0.22562141716480255, 0.21855269372463226, 0.22092226147651672, 0.2229359745979309, 0.21944648027420044, 0.2208443433046341]","[0.05504138782006785, -1.5157549389748286, 0.05504138782006785, 0.05504138782006785, 0.05504138782006785, 0.05504138782006785]","[0.05504138782006785, -1.5157549389748286, 0.05504138782006785, 0.05504138782006785, 0.05504138782006785, 0.05504138782006785]",0.002,7,1
0,27,"[0.006666750647127628, -1.5643177971108635, 0.006666485463277638, 0.006554051036498976, 0.006589099299162626, 0.00654242280870676]","[0.2334921956062317, 0.2261953055858612, 0.2302616983652115, 0.2300426959991455, 0.22792603075504303, 0.22899724543094635]","[0.055474592441345186, -1.5153217343535514, 0.055474592441345186, 0.055474592441345186, 0.055474592441345186, 0.055474592441345186]","[0.055474592441345186, -1.5153217343535514, 0.055474592441345186, 0.055474592441345186, 0.055474592441345186, 0.055474592441345186]",0.002,7,1
0,28,"[0.007175174076110125, -1.5638871265440066, 0.007162872944967091, 0.007020516986511183, 0.007036248221993446, 0.006948760710656643]","[0.2406197339296341, 0.23622293770313263, 0.23650458455085754, 0.23685412108898163, 0.23533084988594055, 0.23706910014152527]","[0.0559077094256177, -1.5148886173692788, 0.0559077094256177, 0.0559077094256177, 0.0559077094256177, 0.0559077094256177]","[0.0559077094256177, -1.5148886173692788, 0.0559077094256177, 0.0559077094256177, 0.0559077094256177, 0.0559077094256177]",0.002,7,1
0,29,"[0.007606052327901125, -1.5633623160286625, 0.007631603871480763, 0.007510109538696241, 0.00752634322270751, 0.0074660563841462135]","[0.24752360582351685, 0.2443365752696991, 0.24724146723747253, 0.24170035123825073, 0.24451635777950287, 0.24671447277069092]","[0.05634073808866088, -1.5144555887062356, 0.05634073808866088, 0.05634073808866088, 0.05634073808866088, 0.05634073808866088]","[0.05634073808866088, -1.5144555887062356, 0.05634073808866088, 0.05634073808866088, 0.05634073808866088, 0.05634073808866088]",0.002,7,1
0,30,"[0.008102435618638992, -1.562825290752091, 0.008189980183736623, 0.008009834880493116, 0.007996134459972382, 0.0079653887078166]","[0.25529178977012634, 0.252175897359848, 0.25546032190322876, 0.24955712258815765, 0.2541452646255493, 0.2540667951107025]","[0.05677367774638972, -1.514022649048507, 0.05677367774638972, 0.05677367774638972, 0.05677367774638972, 0.05677367774638972]","[0.05677367774638972, -1.514022649048507, 0.05677367774638972, 0.05677367774638972, 0.05677367774638972, 0.05677367774638972]",0.002,7,1
0,31,"[0.00867230910807848, -1.5623385471156617, 0.008756462727681935, 0.008560820216796827, 0.008562772534787655, 0.008448264561593533]","[0.2637231945991516, 0.26211658120155334, 0.2629309594631195, 0.2592650055885315, 0.26093852519989014, 0.26182377338409424]","[0.05720652771485992, -1.5135897990800367, 0.05720652771485992, 0.05720652771485992, 0.05720652771485992, 0.05720652771485992]","[0.05720652771485992, -1.5135897990800367, 0.05720652771485992, 0.05720652771485992, 0.05720652771485992, 0.05720652771485992]",0.002,7,1
0,32,"[0.00921221449971199, -1.5618133575520297, 0.009270970021383107, 0.00911514341320796, 0.009060248732566833, 0.009034494869410992]","[0.27190446853637695, 0.26985394954681396, 0.26963719725608826, 0.2680884599685669, 0.26924991607666016, 0.2681969404220581]","[0.057639287310268766, -1.5131570394846279, 0.057639287310268766, 0.057639287310268766, 0.057639287310268766, 0.057639287310268766]","[0.057639287310268766, -1.5131570394846279, 0.057639287310268766, 0.057639287310268766, 0.057639287310268766, 0.057639287310268766]",0.002,7,1
0,33,"[0.009747825562953949, -1.5612569845146318, 0.009800259266988576, 0.009716077441833448, 0.009599520824849606, 0.009557291865348816]","[0.2793329358100891, 0.27844786643981934, 0.27821436524391174, 0.2787756323814392, 0.2755948007106781, 0.2787933647632599]","[0.05807195584895635, -1.5127243709459401, 0.05807195584895635, 0.05807195584895635, 0.05807195584895635, 0.05807195584895635]","[0.05807195584895635, -1.5127243709459401, 0.05807195584895635, 0.05807195584895635, 0.05807195584895635, 0.05807195584895635]",0.002,7,1
0,34,"[0.010316211730241776, -1.5606225685081263, 0.010344330464498341, 0.010279222125671339, 0.010243352502584457, 0.01011046115309]","[0.28653523325920105, 0.2850741744041443, 0.28559401631355286, 0.2843116819858551, 0.2845763862133026, 0.2878129482269287]","[0.05850453264740661, -1.51229179414749, 0.05850453264740661, 0.05850453264740661, 0.05850453264740661, 0.05850453264740661]","[0.05850453264740661, -1.51229179414749, 0.05850453264740661, 0.05850453264740661, 0.05850453264740661, 0.05850453264740661]",0.002,7,1
0,35,"[0.01090427115559578, -1.560109826070704, 0.01095754304994756, 0.010900064105651808, 0.01074928417801857, 0.010711459442973137]","[0.29550668597221375, 0.29435619711875916, 0.29241272807121277, 0.29126623272895813, 0.29165178537368774, 0.2931849956512451]","[0.05893701702224843, -1.511859309772648, 0.05893701702224843, 0.05893701702224843, 0.05893701702224843, 0.05893701702224843]","[0.05893701702224843, -1.511859309772648, 0.05893701702224843, 0.05893701702224843, 0.05893701702224843, 0.05893701702224843]",0.002,7,1
0,36,"[0.011566605418920517, -1.5595246416381379, 0.011554543172017873, 0.011421962375305128, 0.011424100026488304, 0.011320398189127445]","[0.3027464747428894, 0.30402541160583496, 0.30182868242263794, 0.2971004545688629, 0.29826176166534424, 0.3015275299549103]","[0.059369408290256664, -1.5114269185046398, 0.059369408290256664, 0.059369408290256664, 0.059369408290256664, 0.059369408290256664]","[0.059369408290256664, -1.5114269185046398, 0.059369408290256664, 0.059369408290256664, 0.059369408290256664, 0.059369408290256664]",0.002,7,1
0,37,"[0.012189841829240322, -1.5588587953573843, 0.012159172688619435, 0.012127800578735304, 0.01203308068215847, 0.011889943853020668]","[0.309478759765625, 0.31009310483932495, 0.306538462638855, 0.30455267429351807, 0.3068392276763916, 0.3093947172164917]","[0.05980170576835331, -1.5109946210265432, 0.05980170576835331, 0.05980170576835331, 0.05980170576835331, 0.05980170576835331]","[0.05980170576835331, -1.5109946210265432, 0.05980170576835331, 0.05980170576835331, 0.05980170576835331, 0.05980170576835331]",0.002,7,1
0,38,"[0.012770073488354683, -1.5582837725854297, 0.012812439595357716, 0.012711806888244581, 0.012591294944286346, 0.012584129348397255]","[0.31692081689834595, 0.31834229826927185, 0.31346210837364197, 0.3113785982131958, 0.31641560792922974, 0.31708118319511414]","[0.060233908773608465, -1.510562418021288, 0.060233908773608465, 0.060233908773608465, 0.060233908773608465, 0.060233908773608465]","[0.060233908773608465, -1.510562418021288, 0.060233908773608465, 0.060233908773608465, 0.060233908773608465, 0.060233908773608465]",0.002,7,1
0,39,"[0.013422004878520966, -1.5576240050471206, 0.013487164174215138, 0.013336344356201124, 0.013265158981084824, 0.01317509263753891]","[0.3233749568462372, 0.3264838755130768, 0.3196829557418823, 0.3191607594490051, 0.3229237496852875, 0.32378190755844116]","[0.060666016623241524, -1.510130310171655, 0.060666016623241524, 0.060666016623241524, 0.060666016623241524, 0.060666016623241524]","[0.060666016623241524, -1.510130310171655, 0.060666016623241524, 0.060666016623241524, 0.060666016623241524, 0.060666016623241524]",0.002,7,1
0,40,"[0.014139094389975071, -1.5569506876966734, 0.014104191456929982, 0.014054818744323683, 0.013868484646081924, 0.01381127443164587]","[0.3305208086967468, 0.33480104804039, 0.33042338490486145, 0.32652342319488525, 0.3295775353908539, 0.3316912055015564]","[0.061098028634622194, -1.5096982981602745, 0.061098028634622194, 0.061098028634622194, 0.061098028634622194, 0.061098028634622194]","[0.061098028634622194, -1.5096982981602745, 0.061098028634622194, 0.061098028634622194, 0.061098028634622194, 0.061098028634622194]",0.002,7,1
0,41,"[0.014773571863770485, -1.556262200964131, 0.014746967946187794, 0.01473335802044673, 0.014524188823997974, 0.01449514925479889]","[0.3393130898475647, 0.34182217717170715, 0.3382037281990051, 0.3350192606449127, 0.33741313219070435, 0.3387814462184906]","[0.06152994412527155, -1.509266382669625, 0.06152994412527155, 0.06152994412527155, 0.06152994412527155, 0.06152994412527155]","[0.06152994412527155, -1.509266382669625, 0.06152994412527155, 0.06152994412527155, 0.06152994412527155, 0.06152994412527155]",0.002,7,1
0,42,"[0.01549490261822939, -1.5555450183204194, 0.015432659779683888, 0.01547948896374507, 0.015156160108745098, 0.015187731012701988]","[0.3456888794898987, 0.34850114583969116, 0.3439699709415436, 0.3404628336429596, 0.3418646454811096, 0.34446436166763306]","[0.06196176241286319, -1.5088345643820333, 0.06196176241286319, 0.06196176241286319, 0.06196176241286319, 0.06196176241286319]","[0.06196176241286319, -1.5088345643820333, 0.06196176241286319, 0.06196176241286319, 0.06196176241286319, 0.06196176241286319]",0.002,7,1
0,43,"[0.016161659732460976, -1.5548582573286076, 0.016158882771627248, 0.0161098676868896, 0.015948308631777763, 0.01586666889488697]","[0.35342109203338623, 0.35650596022605896, 0.3510374426841736, 0.3454744815826416, 0.35181090235710144, 0.35373154282569885]","[0.062393482815224256, -1.5084028439796724, 0.062393482815224256, 0.062393482815224256, 0.062393482815224256, 0.062393482815224256]","[0.062393482815224256, -1.5084028439796724, 0.062393482815224256, 0.062393482815224256, 0.062393482815224256, 0.062393482815224256]",0.002,7,1
0,44,"[0.016895022243261337, -1.554158156072237, 0.016837898884908498, 0.016815109843872023, 0.016646824777126312, 0.01660461723804474]","[0.3598819077014923, 0.36140185594558716, 0.35948818922042847, 0.3517196476459503, 0.35890933871269226, 0.36099961400032043]","[0.06282510465033653, -1.50797122214456, 0.06282510465033653, 0.06282510465033653, 0.06282510465033653, 0.06282510465033653]","[0.06282510465033653, -1.50797122214456, 0.06282510465033653, 0.06282510465033653, 0.06282510465033653, 0.06282510465033653]",0.002,7,1
0,45,"[0.01764010079205036, -1.5534288857928296, 0.017551247273580373, 0.017509742374084425, 0.017351742833852768, 0.01732688583433628]","[0.365960955619812, 0.3667823076248169, 0.3622741401195526, 0.3565968871116638, 0.36736592650413513, 0.36869850754737854]","[0.06325662723633747, -1.507539699558559, 0.06325662723633747, 0.06325662723633747, 0.06325662723633747, 0.06325662723633747]","[0.06325662723633747, -1.507539699558559, 0.06325662723633747, 0.06325662723633747, 0.06325662723633747, 0.06325662723633747]",0.002,7,1
0,46,"[0.018433263525366783, -1.5526150309345503, 0.018307987843648732, 0.01815740644421382, 0.018060004338622093, 0.018106946721673012]","[0.3710630536079407, 0.37372082471847534, 0.3708266019821167, 0.36542555689811707, 0.3746093213558197, 0.3753451704978943]","[0.0636880498915214, -1.5071082769033752, 0.0636880498915214, 0.0636880498915214, 0.0636880498915214, 0.0636880498915214]","[0.0636880498915214, -1.5071082769033752, 0.0636880498915214, 0.0636880498915214, 0.0636880498915214, 0.0636880498915214]",0.002,7,1
0,47,"[0.019163094460964203, -1.551992655997612, 0.01906139055360967, 0.01896457254376216, 0.018853535875678062, 0.018856443464756012]","[0.37937530875205994, 0.37973952293395996, 0.3775637447834015, 0.37483757734298706, 0.3829452097415924, 0.3820084035396576]","[0.06411937193434043, -1.506676954860556, 0.06411937193434043, 0.06411937193434043, 0.06411937193434043, 0.06411937193434043]","[0.06411937193434043, -1.506676954860556, 0.06411937193434043, 0.06411937193434043, 0.06411937193434043, 0.06411937193434043]",0.002,7,1
0,48,"[0.01997862569987774, -1.5511491273394604, 0.019817177449361623, 0.019697471255920362, 0.019602317363023758, 0.019630294293165207]","[0.38680505752563477, 0.3870525062084198, 0.38589826226234436, 0.3846534788608551, 0.39032942056655884, 0.3896934986114502]","[0.06455059268340568, -1.506245734111491, 0.06455059268340568, 0.06455059268340568, 0.06455059268340568, 0.06455059268340568]","[0.06455059268340568, -1.506245734111491, 0.06455059268340568, 0.06455059268340568, 0.06455059268340568, 0.06455059268340568]",0.002,7,1
0,49,"[0.020740658044815063, -1.5503502630493422, 0.02058869997133428, 0.020455165500305128, 0.02041064202785492, 0.020435761660337448]","[0.3942619264125824, 0.3940994441509247, 0.39222899079322815, 0.3941054344177246, 0.39718982577323914, 0.39732474088668823]","[0.06498171145748827, -1.5058146153374083, 0.06498171145748827, 0.06498171145748827, 0.06498171145748827, 0.06498171145748827]","[0.06498171145748827, -1.5058146153374083, 0.06498171145748827, 0.06498171145748827, 0.06498171145748827, 0.06498171145748827]",0.002,7,1
0,50,"[0.021481838077306747, -1.5495210469565173, 0.021443668995992482, 0.021248145694396925, 0.021269310265779495, 0.021239537745714188]","[0.3997681438922882, 0.39952555298805237, 0.3988138437271118, 0.40043905377388, 0.4048874080181122, 0.40310049057006836]","[0.06541272757552037, -1.5053835992193763, 0.06541272757552037, 0.06541272757552037, 0.06541272757552037, 0.06541272757552037]","[0.06541272757552037, -1.5053835992193763, 0.06541272757552037, 0.06541272757552037, 0.06541272757552037, 0.06541272757552037]",0.002,7,1
0,51,"[0.02236262522637844, -1.5487709280899544, 0.02225667635072881, 0.022069378490112257, 0.022085927426815033, 0.022099923342466354]","[0.40402474999427795, 0.4031793177127838, 0.4037386476993561, 0.4082578420639038, 0.409807950258255, 0.4090002179145813]","[0.06584364035659639, -1.5049526864383003, 0.06584364035659639, 0.06584364035659639, 0.06584364035659639, 0.06584364035659639]","[0.06584364035659639, -1.5049526864383003, 0.06584364035659639, 0.06584364035659639, 0.06584364035659639, 0.06584364035659639]",0.002,7,1
0,52,"[0.02318115532398224, -1.5478978392532845, 0.02296907106508428, 0.02289061128582759, 0.022842491045594215, 0.022899193689227104]","[0.4116235077381134, 0.4076741337776184, 0.40779751539230347, 0.4143333435058594, 0.41585761308670044, 0.4129179120063782]","[0.06627444911997396, -1.5045218776749225, 0.06627444911997396, 0.06627444911997396, 0.06627444911997396, 0.06627444911997396]","[0.06627444911997396, -1.5045218776749225, 0.06627444911997396, 0.06627444911997396, 0.06627444911997396, 0.06627444911997396]",0.002,7,1
0,53,"[0.02397734299302101, -1.547039971952774, 0.023863140736715138, 0.023619456882141066, 0.023689202964305878, 0.023805037140846252]","[0.4160686135292053, 0.4125310778617859, 0.4113726019859314, 0.41972440481185913, 0.4217263162136078, 0.4182368218898773]","[0.06670515318507503, -1.5040911736098215, 0.06670515318507503, 0.06670515318507503, 0.06670515318507503, 0.06670515318507503]","[0.06670515318507503, -1.5040911736098215, 0.06670515318507503, 0.06670515318507503, 0.06670515318507503, 0.06670515318507503]",0.002,7,1
0,54,"[0.024873511865735054, -1.5462632414749642, 0.024651352559224904, 0.024481578464172316, 0.024615632370114326, 0.024668589234352112]","[0.423867404460907, 0.4165533483028412, 0.4156309962272644, 0.42458415031433105, 0.4259648323059082, 0.4233224391937256]","[0.06713575187148693, -1.5036605749234095, 0.06713575187148693, 0.06713575187148693, 0.06713575187148693, 0.06713575187148693]","[0.06713575187148693, -1.5036605749234095, 0.06713575187148693, 0.06713575187148693, 0.06713575187148693, 0.06713575187148693]",0.002,7,1
0,55,"[0.02567136101424694, -1.5453450952521344, 0.025512520466939748, 0.025290055865905714, 0.025356395170092583, 0.02552264928817749]","[0.42919498682022095, 0.42339977622032166, 0.4224652945995331, 0.4302283227443695, 0.4313153326511383, 0.4285672605037689]","[0.06756624449896355, -1.503230082295933, 0.06756624449896355, 0.06756624449896355, 0.06756624449896355, 0.06756624449896355]","[0.06756624449896355, -1.503230082295933, 0.06756624449896355, 0.06756624449896355, 0.06756624449896355, 0.06756624449896355]",0.002,7,1
0,56,"[0.026590848341584206, -1.544394365777709, 0.026408974324361623, 0.026172323817871046, 0.026340587064623833, 0.026399755850434303]","[0.43475133180618286, 0.42959511280059814, 0.43066495656967163, 0.43819355964660645, 0.43765103816986084, 0.43243926763534546]","[0.0679966303874262, -1.5027996964074704, 0.0679966303874262, 0.0679966303874262, 0.0679966303874262, 0.0679966303874262]","[0.0679966303874262, -1.5027996964074704, 0.0679966303874262, 0.0679966303874262, 0.0679966303874262, 0.0679966303874262]",0.002,7,1
0,57,"[0.02737612836062908, -1.5435393669507285, 0.02731496492494756, 0.02706102907147212, 0.027179300785064697, 0.027263307943940163]","[0.44041523337364197, 0.4321573078632355, 0.43812742829322815, 0.4469316601753235, 0.44372567534446716, 0.4394216239452362]","[0.06842690885696494, -1.5023694179379317, 0.06842690885696494, 0.06842690885696494, 0.06842690885696494, 0.06842690885696494]","[0.06842690885696494, -1.5023694179379317, 0.06842690885696494, 0.06842690885696494, 0.06842690885696494, 0.06842690885696494]",0.002,7,1
0,58,"[0.028213361278176308, -1.5426745165935536, 0.028083149586812794, 0.02793697893109126, 0.028178168460726738, 0.028158342465758324]","[0.44533324241638184, 0.44030842185020447, 0.4459213316440582, 0.4513769745826721, 0.44838064908981323, 0.4468027949333191]","[0.0688570792278394, -1.5019392475670572, 0.0688570792278394, 0.0688570792278394, 0.0688570792278394, 0.0688570792278394]","[0.0688570792278394, -1.5019392475670572, 0.0688570792278394, 0.0688570792278394, 0.0688570792278394, 0.0688570792278394]",0.002,7,1
0,59,"[0.029098203405737877, -1.541706509222724, 0.029041115437642873, 0.028800173396728468, 0.029089683666825294, 0.029069725424051285]","[0.4496503472328186, 0.4430849850177765, 0.44914403557777405, 0.4562777280807495, 0.45466718077659607, 0.45132529735565186]","[0.0692871408204801, -1.5015091859744165, 0.0692871408204801, 0.0692871408204801, 0.0692871408204801, 0.0692871408204801]","[0.0692871408204801, -1.5015091859744165, 0.0692871408204801, 0.0692871408204801, 0.0692871408204801, 0.0692871408204801]",0.002,7,1
0,60,"[0.03001748025417328, -1.5408355568400403, 0.029941860829488576, 0.02973274766888423, 0.029992742463946342, 0.029948754236102104]","[0.45578205585479736, 0.4459906816482544, 0.45548319816589355, 0.4624200165271759, 0.46167513728141785, 0.4567013680934906]","[0.06971709295548933, -1.5010792338394072, 0.06971709295548933, 0.06971709295548933, 0.06971709295548933, 0.06971709295548933]","[0.06971709295548933, -1.5010792338394072, 0.06971709295548933, 0.06971709295548933, 0.06971709295548933, 0.06971709295548933]",0.002,7,1
0,61,"[0.030959198251366615, -1.5399329804680129, 0.03089458147157842, 0.03065423547711177, 0.030999111011624336, 0.030910149216651917]","[0.4611859917640686, 0.45238056778907776, 0.4602935314178467, 0.46674981713294983, 0.4663093388080597, 0.4618804454803467]","[0.07014693495364233, -1.5006493918412542, 0.07014693495364233, 0.07014693495364233, 0.07014693495364233, 0.07014693495364233]","[0.07014693495364233, -1.5006493918412542, 0.07014693495364233, 0.07014693495364233, 0.07014693495364233, 0.07014693495364233]",0.002,7,1
0,62,"[0.03191021829843521, -1.5389541623047371, 0.03180104890932256, 0.03166465341534419, 0.031865548342466354, 0.03186224400997162]","[0.46603140234947205, 0.45642000436782837, 0.46483027935028076, 0.4731438159942627, 0.46877750754356384, 0.46801701188087463]","[0.07057666613588828, -1.5002196606590084, 0.07057666613588828, 0.07057666613588828, 0.07057666613588828, 0.07057666613588828]","[0.07057666613588828, -1.5002196606590084, 0.07057666613588828, 0.07057666613588828, 0.07057666613588828, 0.07057666613588828]",0.002,7,1
0,63,"[0.032853253185749054, -1.5380577345243474, 0.03276569048036748, 0.0326576667973022, 0.0328577421605587, 0.03286384046077728]","[0.4731109142303467, 0.46058890223503113, 0.46909430623054504, 0.47985976934432983, 0.4739837348461151, 0.47115209698677063]","[0.07100628582335153, -1.499790040971545, 0.07100628582335153, 0.07100628582335153, 0.07100628582335153, 0.07100628582335153]","[0.07100628582335153, -1.499790040971545, 0.07100628582335153, 0.07100628582335153, 0.07100628582335153, 0.07100628582335153]",0.002,7,1
0,64,"[0.033804751932621, -1.5371193450740357, 0.03374225298036748, 0.03361038743939204, 0.0337834395468235, 0.03376196324825287]","[0.47680845856666565, 0.46789464354515076, 0.47344499826431274, 0.4851025640964508, 0.47616681456565857, 0.4759235084056854]","[0.07143579333733246, -1.4993605334575641, 0.07143579333733246, 0.07143579333733246, 0.07143579333733246, 0.07143579333733246]","[0.07143579333733246, -1.4993605334575641, 0.07143579333733246, 0.07143579333733246, 0.07143579333733246, 0.07143579333733246]",0.002,7,1
0,65,"[0.03472460061311722, -1.5361305263689538, 0.03470212617983037, 0.034649892444274855, 0.034711387008428574, 0.034716829657554626]","[0.4794761836528778, 0.47145721316337585, 0.47682347893714905, 0.48826852440834045, 0.48058176040649414, 0.4781704246997833]","[0.07186518799930869, -1.498931138795588, 0.07186518799930869, 0.07186518799930869, 0.07186518799930869, 0.07186518799930869]","[0.07186518799930869, -1.498931138795588, 0.07186518799930869, 0.07186518799930869, 0.07186518799930869, 0.07186518799930869]",0.002,7,1
0,66,"[0.035658564418554306, -1.5351500560394307, 0.03568154970277959, 0.035625024432800245, 0.03577946498990059, 0.03567604720592499]","[0.4826359152793884, 0.475805401802063, 0.4793488085269928, 0.49088701605796814, 0.48278170824050903, 0.4828929305076599]","[0.07229446913093615, -1.4985018576639604, 0.07229446913093615, 0.07229446913093615, 0.07229446913093615, 0.07229446913093615]","[0.07229446913093615, -1.4985018576639604, 0.07229446913093615, 0.07229446913093615, 0.07229446913093615, 0.07229446913093615]",0.002,7,1
0,67,"[0.03671414032578468, -1.534238078897335, 0.03665763536562139, 0.03658704339947505, 0.036771517246961594, 0.03665255010128021]","[0.4899179935455322, 0.48165005445480347, 0.48637494444847107, 0.49269920587539673, 0.4876134395599365, 0.486368864774704]","[0.07272363605405009, -1.4980726907408464, 0.07272363605405009, 0.07272363605405009, 0.07272363605405009, 0.07272363605405009]","[0.07272363605405009, -1.4980726907408464, 0.07272363605405009, 0.07272363605405009, 0.07272363605405009, 0.07272363605405009]",0.002,7,1
0,68,"[0.03770077973604202, -1.533246011739113, 0.03764850298036748, 0.03769509374584956, 0.03776329383254051, 0.037627436220645905]","[0.4933091700077057, 0.4866258502006531, 0.4900701642036438, 0.4929898679256439, 0.4924570322036743, 0.4933358430862427]","[0.07315268809066618, -1.4976436387042305, 0.07315268809066618, 0.07315268809066618, 0.07315268809066618, 0.07315268809066618]","[0.07315268809066618, -1.4976436387042305, 0.07315268809066618, 0.07315268809066618, 0.07315268809066618, 0.07315268809066618]",0.002,7,1
0,69,"[0.03871383145451546, -1.5322433945587655, 0.03868753114809209, 0.03866486131634517, 0.038691211491823196, 0.038592562079429626]","[0.4973308742046356, 0.4908026158809662, 0.4960619807243347, 0.4965554177761078, 0.49497807025909424, 0.4961802363395691]","[0.07358162456298162, -1.4972147022319149, 0.07358162456298162, 0.07358162456298162, 0.07358162456298162, 0.07358162456298162]","[0.07358162456298162, -1.4972147022319149, 0.07358162456298162, 0.07358162456298162, 0.07358162456298162, 0.07358162456298162]",0.002,7,1
0,70,"[0.039670541882514954, -1.5312317323735734, 0.03969699541200811, 0.039728088969848585, 0.039672303944826126, 0.03960072621703148]","[0.5021194815635681, 0.4969380497932434, 0.4992207884788513, 0.5028287768363953, 0.49890631437301636, 0.501406729221344]","[0.07401044479337612, -1.4967858820015205, 0.07401044479337612, 0.07401044479337612, 0.07401044479337612, 0.07401044479337612]","[0.07401044479337612, -1.4967858820015205, 0.07401044479337612, 0.07401044479337612, 0.07401044479337612, 0.07401044479337612]",0.002,7,1
0,71,"[0.0406532846391201, -1.5302513179234047, 0.04067069688905889, 0.04075102388348384, 0.04064381495118141, 0.040600135922431946]","[0.5043554306030273, 0.5004007816314697, 0.5020650625228882, 0.5069983601570129, 0.5019697546958923, 0.5050829648971558]","[0.07443914810441309, -1.4963571786904835, 0.07443914810441309, 0.07443914810441309, 0.07443914810441309, 0.07443914810441309]","[0.07443914810441309, -1.4963571786904835, 0.07443914810441309, 0.07443914810441309, 0.07443914810441309, 0.07443914810441309]",0.002,7,1
0,72,"[0.04167970269918442, -1.5292223666659375, 0.041659180318013966, 0.041772885913513136, 0.04167737811803818, 0.04159649461507797]","[0.5064985156059265, 0.5054759383201599, 0.5095654726028442, 0.5097150802612305, 0.5037947297096252, 0.5095134973526001]","[0.07486773381884058, -1.495928592976056, 0.07486773381884058, 0.07486773381884058, 0.07486773381884058, 0.07486773381884058]","[0.07486773381884058, -1.495928592976056, 0.07486773381884058, 0.07486773381884058, 0.07486773381884058, 0.07486773381884058]",0.002,7,1
0,73,"[0.0426773764193058, -1.528216091250517, 0.042728726063863576, 0.04278640329327388, 0.04262716323137283, 0.042574718594551086]","[0.5082583427429199, 0.5087103247642517, 0.5103058815002441, 0.5107548832893372, 0.5080656409263611, 0.5124285221099854]","[0.07529620125959248, -1.495500125535304, 0.07529620125959248, 0.07529620125959248, 0.07529620125959248, 0.07529620125959248]","[0.07529620125959248, -1.495500125535304, 0.07529620125959248, 0.07529620125959248, 0.07529620125959248, 0.07529620125959248]",0.002,7,1
0,74,"[0.04364616051316261, -1.5272285167923947, 0.043728176747457326, 0.04380564271893306, 0.04373059794306755, 0.04356575384736061]","[0.5125131011009216, 0.5148836374282837, 0.5155009031295776, 0.5114705562591553, 0.5134285092353821, 0.5162414312362671]","[0.07572454974978947, -1.4950717770451072, 0.07572454974978947, 0.07572454974978947, 0.07572454974978947, 0.07572454974978947]","[0.07572454974978947, -1.4950717770451072, 0.07572454974978947, 0.07572454974978947, 0.07572454974978947, 0.07572454974978947]",0.002,7,1
0,75,"[0.04475288838148117, -1.526168805812933, 0.04480106035341436, 0.044848724002502394, 0.044694218784570694, 0.04459713399410248]","[0.5190427899360657, 0.518288791179657, 0.5163892507553101, 0.5117178559303284, 0.517619788646698, 0.5170968174934387]","[0.07615277861274017, -1.4946435481821565, 0.07615277861274017, 0.07615277861274017, 0.07615277861274017, 0.07615277861274017]","[0.07615277861274017, -1.4946435481821565, 0.07615277861274017, 0.07615277861274017, 0.07615277861274017, 0.07615277861274017]",0.002,7,1
0,76,"[0.04582297056913376, -1.5251588125577946, 0.04577190080751592, 0.04591350137676997, 0.045754626393318176, 0.04562342166900635]","[0.5199358463287354, 0.5205191969871521, 0.5184810161590576, 0.5134057402610779, 0.5208829045295715, 0.5218796133995056]","[0.07658088717194218, -1.4942154396229543, 0.07658088717194218, 0.07658088717194218, 0.07658088717194218, 0.07658088717194218]","[0.07658088717194218, -1.4942154396229543, 0.07658088717194218, 0.07658088717194218, 0.07658088717194218, 0.07658088717194218]",0.002,7,1
0,77,"[0.04676365107297897, -1.5241276186755677, 0.04676658311952764, 0.046989722842834425, 0.04676327109336853, 0.04666385427117348]","[0.5249962210655212, 0.5242934226989746, 0.520825207233429, 0.5193524956703186, 0.5223918557167053, 0.5251999497413635]","[0.07700887475108316, -1.4937874520438135, 0.07700887475108316, 0.07700887475108316, 0.07700887475108316, 0.07700887475108316]","[0.07700887475108316, -1.4937874520438135, 0.07700887475108316, 0.07700887475108316, 0.07700887475108316, 0.07700887475108316]",0.002,7,1
0,78,"[0.04785000532865524, -1.523093507891037, 0.04785472551454717, 0.048053427333496046, 0.04782532528042793, 0.04772932827472687]","[0.5276775360107422, 0.5284887552261353, 0.5278542637825012, 0.5223985910415649, 0.5245846509933472, 0.5287604928016663]","[0.07743674067404187, -1.4933595861208546, 0.07743674067404187, 0.07743674067404187, 0.07743674067404187, 0.07743674067404187]","[0.07743674067404187, -1.4933595861208546, 0.07743674067404187, 0.07743674067404187, 0.07743674067404187, 0.07743674067404187]",0.002,7,1
0,79,"[0.04892076551914215, -1.522018240099289, 0.04889804521669561, 0.049031062717102, 0.04881037399172783, 0.048763588070869446]","[0.5299904346466064, 0.5326179265975952, 0.5295767784118652, 0.523990273475647, 0.5277029275894165, 0.5324196815490723]","[0.07786448426488929, -1.4929318425300073, 0.07786448426488929, 0.07786448426488929, 0.07786448426488929, 0.07786448426488929]","[0.07786448426488929, -1.4929318425300073, 0.07786448426488929, 0.07786448426488929, 0.07786448426488929, 0.07786448426488929]",0.002,7,1
0,80,"[0.049982089549303055, -1.520971344118454, 0.049991909657613576, 0.0500677066990356, 0.0498967282474041, 0.04984290897846222]","[0.5316177010536194, 0.5323380827903748, 0.5314242839813232, 0.5257488489151001, 0.5318913459777832, 0.5343641042709351]","[0.07829210484788961, -1.492504221947007, 0.07829210484788961, 0.07829210484788961, 0.07829210484788961, 0.07829210484788961]","[0.07829210484788961, -1.492504221947007, 0.07829210484788961, 0.07829210484788961, 0.07829210484788961, 0.07829210484788961]",0.002,7,1
0,81,"[0.05107375234365463, -1.5199208308807393, 0.05100614229311162, 0.05115000783886714, 0.05093289539217949, 0.05093128979206085]","[0.5340902805328369, 0.5345476865768433, 0.5304369926452637, 0.5288233160972595, 0.5351018309593201, 0.5372025370597839]","[0.07871960174750138, -1.4920767250473952, 0.07871960174750138, 0.07871960174750138, 0.07871960174750138, 0.07871960174750138]","[0.07871960174750138, -1.4920767250473952, 0.07871960174750138, 0.07871960174750138, 0.07871960174750138, 0.07871960174750138]",0.002,7,1
0,82,"[0.05214737355709076, -1.5187967059067269, 0.05203134218324834, 0.05212645112957759, 0.05201834812760353, 0.0520012229681015]","[0.5353114604949951, 0.535305917263031, 0.5349887609481812, 0.5305442810058594, 0.538870096206665, 0.5418463349342346]","[0.07914697428837855, -1.491649352506518, 0.07914697428837855, 0.07914697428837855, 0.07914697428837855, 0.07914697428837855]","[0.07914697428837855, -1.491649352506518, 0.07914697428837855, 0.07914697428837855, 0.07914697428837855, 0.07914697428837855]",0.002,7,1
0,83,"[0.05328242480754852, -1.517704838221409, 0.053103272114888966, 0.053155704135559034, 0.0530373714864254, 0.0531512051820755]","[0.5368964076042175, 0.5374353528022766, 0.5393869876861572, 0.5356996655464172, 0.5404507517814636, 0.5448487997055054]","[0.07957422179537149, -1.4912221049995251, 0.07957422179537149, 0.07957422179537149, 0.07957422179537149, 0.07957422179537149]","[0.07957422179537149, -1.4912221049995251, 0.07957422179537149, 0.07957422179537149, 0.07957422179537149, 0.07957422179537149]",0.002,7,1
0,84,"[0.05432363599538803, -1.5166421134820958, 0.05418855348695928, 0.05420021593060298, 0.054203856736421585, 0.054255273193120956]","[0.5400634407997131, 0.5376768112182617, 0.5391044020652771, 0.5389448404312134, 0.5431705713272095, 0.5451244115829468]","[0.08000134359352813, -1.4907949832013685, 0.08000134359352813, 0.08000134359352813, 0.08000134359352813, 0.08000134359352813]","[0.08000134359352813, -1.4907949832013685, 0.08000134359352813, 0.08000134359352813, 0.08000134359352813, 0.08000134359352813]",0.002,7,1
0,85,"[0.055395759642124176, -1.515538015668728, 0.05531150499452764, 0.055311723346374464, 0.055227432399988174, 0.055341411381959915]","[0.5422869324684143, 0.5350503325462341, 0.5395588874816895, 0.5418369770050049, 0.5442779064178467, 0.5454062819480896]","[0.08042833900809497, -1.4903679877868017, 0.08042833900809497, 0.08042833900809497, 0.08042833900809497, 0.08042833900809497]","[0.08042833900809497, -1.4903679877868017, 0.08042833900809497, 0.08042833900809497, 0.08042833900809497, 0.08042833900809497]",0.002,7,1
0,86,"[0.056491125375032425, -1.5144796048155804, 0.05631620088686162, 0.05637185155834956, 0.05634031072258949, 0.05643931031227112]","[0.5449215173721313, 0.5352815389633179, 0.5386053323745728, 0.5457518100738525, 0.5462521314620972, 0.5448327660560608]","[0.08085520736451816, -1.4899411194303784, 0.08085520736451816, 0.08085520736451816, 0.08085520736451816, 0.08085520736451816]","[0.08085520736451816, -1.4899411194303784, 0.08085520736451816, 0.08085520736451816, 0.08085520736451816, 0.08085520736451816]",0.002,7,1
0,87,"[0.05756637454032898, -1.513462697421648, 0.057424370442525685, 0.05739252149548335, 0.05751117691397667, 0.05752455070614815]","[0.5455735325813293, 0.5342385172843933, 0.5400756001472473, 0.5466229915618896, 0.5469470024108887, 0.5447801947593689]","[0.08128194798844461, -1.489514378806452, 0.08128194798844461, 0.08128194798844461, 0.08128194798844461, 0.08128194798844461]","[0.08128194798844461, -1.489514378806452, 0.08128194798844461, 0.08128194798844461, 0.08128194798844461, 0.08128194798844461]",0.002,7,1
0,88,"[0.05867815762758255, -1.5122690250030537, 0.058530632649556935, 0.058465881938598585, 0.05859168991446495, 0.05871112644672394]","[0.5462036728858948, 0.5381675362586975, 0.5415930151939392, 0.5477009415626526, 0.5480061769485474, 0.5470963716506958]","[0.08170856020572298, -1.4890877665891735, 0.08170856020572298, 0.08170856020572298, 0.08170856020572298, 0.08170856020572298]","[0.08170856020572298, -1.4890877665891735, 0.08170856020572298, 0.08170856020572298, 0.08170856020572298, 0.08170856020572298]",0.002,7,1
0,89,"[0.05977097526192665, -1.5112177667072793, 0.05966550508608037, 0.05953912317242427, 0.05967441201210022, 0.05983049422502518]","[0.5481597781181335, 0.5416673421859741, 0.5432832837104797, 0.5487163066864014, 0.550645112991333, 0.5467920899391174]","[0.0821350433424048, -1.4886612834524917, 0.0821350433424048, 0.0821350433424048, 0.0821350433424048, 0.0821350433424048]","[0.0821350433424048, -1.4886612834524917, 0.0821350433424048, 0.0821350433424048, 0.0821350433424048, 0.0821350433424048]",0.002,7,1
0,90,"[0.060820769518613815, -1.5100938652506848, 0.06070310274233037, 0.060652537936828566, 0.06083555892109871, 0.06089670956134796]","[0.5525924563407898, 0.5397367477416992, 0.5461768507957458, 0.5514638423919678, 0.5498834848403931, 0.5464490652084351]","[0.0825613967247455, -1.488234930070151, 0.0825613967247455, 0.0825613967247455, 0.0825613967247455, 0.0825613967247455]","[0.0825613967247455, -1.488234930070151, 0.0825613967247455, 0.0825613967247455, 0.0825613967247455, 0.0825613967247455]",0.002,7,1
0,91,"[0.061935167759656906, -1.509002861832716, 0.06176883379091436, 0.06178240358319087, 0.0619368702173233, 0.06203841045498848]","[0.5501527190208435, 0.540561854839325, 0.5466411113739014, 0.5548496246337891, 0.5506281852722168, 0.5487198233604431]","[0.0829876196792055, -1.4878087071156911, 0.0829876196792055, 0.0829876196792055, 0.0829876196792055, 0.0829876196792055]","[0.0829876196792055, -1.4878087071156911, 0.0829876196792055, 0.0829876196792055, 0.0829876196792055, 0.0829876196792055]",0.002,7,1
0,92,"[0.06299976259469986, -1.5079401445439835, 0.06288558641542608, 0.06291334211315913, 0.06312784552574158, 0.06319811195135117]","[0.5483136177062988, 0.5397484302520752, 0.5470929145812988, 0.5536365509033203, 0.5513426661491394, 0.5480583906173706]","[0.08341371153245129, -1.4873826152624452, 0.08341371153245129, 0.08341371153245129, 0.08341371153245129, 0.08341371153245129]","[0.08341371153245129, -1.4873826152624452, 0.08341371153245129, 0.08341371153245129, 0.08341371153245129, 0.08341371153245129]",0.002,7,1
0,93,"[0.06408021599054337, -1.5068324816278, 0.06404620805849248, 0.06399468957867427, 0.0642438679933548, 0.06427566707134247]","[0.5519009828567505, 0.5402502417564392, 0.5454646348953247, 0.555680513381958, 0.5509127974510193, 0.5487245917320251]","[0.08383967161135646, -1.48695665518354, 0.08383967161135646, 0.08383967161135646, 0.08383967161135646, 0.08383967161135646]","[0.08383967161135646, -1.48695665518354, 0.08383967161135646, 0.08383967161135646, 0.08383967161135646, 0.08383967161135646]",0.002,7,1
0,94,"[0.06524406373500824, -1.5057833653739472, 0.06514102617372686, 0.06516842424359126, 0.06534682959318161, 0.06538788974285126]","[0.5500091910362244, 0.5409867167472839, 0.5458640456199646, 0.5566867589950562, 0.550309956073761, 0.5483300685882568]","[0.08426549924300272, -1.4865308275518938, 0.08426549924300272, 0.08426549924300272, 0.08426549924300272, 0.08426549924300272]","[0.08426549924300272, -1.4865308275518938, 0.08426549924300272, 0.08426549924300272, 0.08426549924300272, 0.08426549924300272]",0.002,7,1
0,95,"[0.06639790534973145, -1.5046145257404824, 0.06626254716982061, 0.0663185554691772, 0.06644918769598007, 0.0664205402135849]","[0.5521413087844849, 0.5438703894615173, 0.5469000935554504, 0.5571252703666687, 0.5504648089408875, 0.5479050278663635]","[0.0846911937546811, -1.4861051330402155, 0.0846911937546811, 0.0846911937546811, 0.0846911937546811, 0.0846911937546811]","[0.0846911937546811, -1.4861051330402155, 0.0846911937546811, 0.0846911937546811, 0.0846911937546811, 0.0846911937546811]",0.002,7,1
0,96,"[0.06748658418655396, -1.503527083700039, 0.06733400026430303, 0.06743542730297847, 0.06754279136657715, 0.06754468381404877]","[0.5516242980957031, 0.543464183807373, 0.5469422936439514, 0.5552952885627747, 0.5474193692207336, 0.5472990870475769]","[0.08511675447389287, -1.4856795723210037, 0.08511675447389287, 0.08511675447389287, 0.08511675447389287, 0.08511675447389287]","[0.08511675447389287, -1.4856795723210037, 0.08511675447389287, 0.08511675447389287, 0.08511675447389287, 0.08511675447389287]",0.002,7,1
0,97,"[0.06858048588037491, -1.5024323996952553, 0.06847554842104131, 0.06857626020397944, 0.06859753280878067, 0.06861276179552078]","[0.5507515072822571, 0.5441142320632935, 0.5484868288040161, 0.555256724357605, 0.5496323704719543, 0.5470840930938721]","[0.0855421807283507, -1.4852541460665458, 0.0855421807283507, 0.0855421807283507, 0.0855421807283507, 0.0855421807283507]","[0.0855421807283507, -1.4852541460665458, 0.0855421807283507, 0.0855421807283507, 0.0855421807283507, 0.0855421807283507]",0.002,7,1
0,98,"[0.06972715258598328, -1.5013456729105492, 0.06958896318544561, 0.06968407213177485, 0.06979262828826904, 0.06965003907680511]","[0.551181972026825, 0.5462131500244141, 0.5485808849334717, 0.5504041910171509, 0.547977089881897, 0.5485354661941528]","[0.08596747184597962, -1.484828854948917, 0.08596747184597962, 0.08596747184597962, 0.08596747184597962, 0.08596747184597962]","[0.08596747184597962, -1.484828854948917, 0.08596747184597962, 0.08596747184597962, 0.08596747184597962, 0.08596747184597962]",0.002,7,1
0,99,"[0.07081971317529678, -1.5002245393446465, 0.07075101533998662, 0.0707828241535644, 0.07081466168165207, 0.07076699286699295]","[0.5519983172416687, 0.5463939905166626, 0.5490827560424805, 0.549877405166626, 0.5484550595283508, 0.5494052767753601]","[0.0863926271549182, -1.4844036996399783, 0.0863926271549182, 0.0863926271549182, 0.0863926271549182, 0.0863926271549182]","[0.0863926271549182, -1.4844036996399783, 0.0863926271549182, 0.0863926271549182, 0.0863926271549182, 0.0863926271549182]",0.002,7,1
0,100,"[0.0719386637210846, -1.4991491448930283, 0.07177478471864873, 0.07193712770428462, 0.0719199851155281, 0.07186263799667358]","[0.5504328012466431, 0.5489388704299927, 0.5506108403205872, 0.5489068627357483, 0.5486055016517639, 0.5512245893478394]","[0.08681764598351958, -1.483978680811377, 0.08681764598351958, 0.08681764598351958, 0.08681764598351958, 0.08681764598351958]","[0.08681764598351958, -1.483978680811377, 0.08681764598351958, 0.08681764598351958, 0.08681764598351958, 0.08681764598351958]",0.002,7,1
0,101,"[0.07298228144645691, -1.4980655846050759, 0.07289201418031865, 0.07310490190472407, 0.072951540350914, 0.07288272678852081]","[0.5492410659790039, 0.5482578277587891, 0.5477261543273926, 0.5487370491027832, 0.5490071773529053, 0.5492661595344543]","[0.08724252766035244, -1.4835537991345442, 0.08724252766035244, 0.08724252766035244, 0.08724252766035244, 0.08724252766035244]","[0.08724252766035244, -1.4835537991345442, 0.08724252766035244, 0.08724252766035244, 0.08724252766035244, 0.08724252766035244]",0.002,7,1
0,102,"[0.07407832890748978, -1.4969246548465271, 0.07397443452943975, 0.0741996008106689, 0.07398367673158646, 0.07406086474657059]","[0.5470680594444275, 0.5477181077003479, 0.5471658110618591, 0.549289345741272, 0.544822633266449, 0.5496314764022827]","[0.08766727151420217, -1.4831290552806944, 0.08766727151420217, 0.08766727151420217, 0.08766727151420217, 0.08766727151420217]","[0.08766727151420217, -1.4831290552806944, 0.08766727151420217, 0.08766727151420217, 0.08766727151420217, 0.08766727151420217]",0.002,7,1
0,103,"[0.07515405863523483, -1.4958871763995667, 0.07505494752992803, 0.07525746404614253, 0.07517744600772858, 0.0750657320022583]","[0.5472167134284973, 0.5467091798782349, 0.548566997051239, 0.548077404499054, 0.546571671962738, 0.5491803884506226]","[0.08809187687407186, -1.4827044499208246, 0.08809187687407186, 0.08809187687407186, 0.08809187687407186, 0.08809187687407186]","[0.08809187687407186, -1.4827044499208246, 0.08809187687407186, 0.08809187687407186, 0.08809187687407186, 0.08809187687407186]",0.002,7,1
0,104,"[0.07628349214792252, -1.4947378796390076, 0.07616931596864873, 0.07639400541271968, 0.07623846083879471, 0.07615923136472702]","[0.5454621911048889, 0.5476537942886353, 0.5439757704734802, 0.5429379940032959, 0.5473886728286743, 0.5492605566978455]","[0.0885163430691834, -1.4822799837257132, 0.0885163430691834, 0.0885163430691834, 0.0885163430691834, 0.0885163430691834]","[0.0885163430691834, -1.4822799837257132, 0.0885163430691834, 0.0885163430691834, 0.0885163430691834, 0.0885163430691834]",0.002,7,1
0,105,"[0.07736126333475113, -1.4937053185752411, 0.0772936979876917, 0.07750098287548823, 0.07734505832195282, 0.07726229727268219]","[0.54658043384552, 0.5492979884147644, 0.5472571849822998, 0.5394024848937988, 0.5458038449287415, 0.5489886999130249]","[0.08894066942897857, -1.481855657365918, 0.08894066942897857, 0.08894066942897857, 0.08894066942897857, 0.08894066942897857]","[0.08894066942897857, -1.481855657365918, 0.08894066942897857, 0.08894066942897857, 0.08894066942897857, 0.08894066942897857]",0.002,7,1
0,106,"[0.07847126573324203, -1.4926178839853783, 0.07836038271059209, 0.07854382574047847, 0.07833424210548401, 0.07833710312843323]","[0.545457661151886, 0.5472607612609863, 0.5440113544464111, 0.5380696654319763, 0.5465198755264282, 0.5479301810264587]","[0.08936485528312, -1.4814314715117765, 0.08936485528312, 0.08936485528312, 0.08936485528312, 0.08936485528312]","[0.08936485528312, -1.4814314715117765, 0.08936485528312, 0.08936485528312, 0.08936485528312, 0.08936485528312]",0.002,7,1
0,107,"[0.07955639064311981, -1.491497629587986, 0.07945424715151006, 0.07966749250378413, 0.07950043678283691, 0.07939234375953674]","[0.5442047715187073, 0.5464029312133789, 0.5438989400863647, 0.5367540717124939, 0.5445189476013184, 0.5474801659584045]","[0.08978889996149231, -1.4810074268334041, 0.08978889996149231, 0.08978889996149231, 0.08978889996149231, 0.08978889996149231]","[0.08978889996149231, -1.4810074268334041, 0.08978889996149231, 0.08978889996149231, 0.08978889996149231, 0.08978889996149231]",0.002,7,1
0,108,"[0.08064297586679459, -1.4904479321888466, 0.08049947420229131, 0.08068124830212398, 0.08047575503587723, 0.08052466809749603]","[0.5410104393959045, 0.5431095957756042, 0.5425205826759338, 0.5363516211509705, 0.5427644848823547, 0.5459715723991394]","[0.09021280279420313, -1.4805835240006935, 0.09021280279420313, 0.09021280279420313, 0.09021280279420313, 0.09021280279420313]","[0.09021280279420313, -1.4805835240006935, 0.09021280279420313, 0.09021280279420313, 0.09021280279420313, 0.09021280279420313]",0.002,7,1
0,109,"[0.08171311020851135, -1.4893601772240181, 0.08157474199403936, 0.08180098115887446, 0.08164362609386444, 0.08161933720111847]","[0.5398136377334595, 0.5439344048500061, 0.5390409231185913, 0.5372466444969177, 0.5417813658714294, 0.5439859628677368]","[0.09063656311158419, -1.4801597636833124, 0.09063656311158419, 0.09063656311158419, 0.09063656311158419, 0.09063656311158419]","[0.09063656311158419, -1.4801597636833124, 0.09063656311158419, 0.09063656311158419, 0.09063656311158419, 0.09063656311158419]",0.002,7,1
0,110,"[0.08289395272731781, -1.4882010456970711, 0.08268243471254522, 0.08278553068127437, 0.08271376043558121, 0.0827178806066513]","[0.5390837788581848, 0.5412009954452515, 0.5389560461044312, 0.5357440710067749, 0.5394225120544434, 0.5440924763679504]","[0.09106018024419235, -1.4797361465507042, 0.09106018024419235, 0.09106018024419235, 0.09106018024419235, 0.09106018024419235]","[0.09106018024419235, -1.4797361465507042, 0.09106018024419235, 0.09106018024419235, 0.09106018024419235, 0.09106018024419235]",0.002,7,1
0,111,"[0.08388694375753403, -1.4871878337911149, 0.0837777296649378, 0.08384124814953609, 0.08383789658546448, 0.08382593095302582]","[0.5368805527687073, 0.5389004349708557, 0.535993754863739, 0.5335100889205933, 0.5404791235923767, 0.5426396131515503]","[0.0914836535228107, -1.4793126732720858, 0.0914836535228107, 0.0914836535228107, 0.0914836535228107, 0.0914836535228107]","[0.0914836535228107, -1.4793126732720858, 0.0914836535228107, 0.0914836535228107, 0.0914836535228107, 0.0914836535228107]",0.002,7,1
0,112,"[0.08499367535114288, -1.4860707235387345, 0.08482963243593389, 0.08489243566479487, 0.08486417680978775, 0.08488897234201431]","[0.534605085849762, 0.5368557572364807, 0.536624014377594, 0.5316935181617737, 0.5406572818756104, 0.5390064716339111]","[0.09190698227844955, -1.478889344516447, 0.09190698227844955, 0.09190698227844955, 0.09190698227844955, 0.09190698227844955]","[0.09190698227844955, -1.478889344516447, 0.09190698227844955, 0.09190698227844955, 0.09190698227844955, 0.09190698227844955]",0.002,7,1
0,113,"[0.08612165600061417, -1.485057995920517, 0.08589202562441045, 0.08590893327679439, 0.08596968650817871, 0.08604161441326141]","[0.5346630811691284, 0.5317263007164001, 0.5340903401374817, 0.5313416719436646, 0.5371541380882263, 0.5358942151069641]","[0.09233016584234753, -1.4784661609525491, 0.09233016584234753, 0.09233016584234753, 0.09233016584234753, 0.09233016584234753]","[0.09233016584234753, -1.4784661609525491, 0.09233016584234753, 0.09233016584234753, 0.09233016584234753, 0.09233016584234753]",0.002,7,1
0,114,"[0.08711054176092148, -1.483981305067875, 0.08688813844789678, 0.08698074399914546, 0.08701158314943314, 0.08712900429964066]","[0.5322844982147217, 0.52683424949646, 0.526192307472229, 0.5319995880126953, 0.5345349311828613, 0.533459484577179]","[0.09275320354597265, -1.478043123248924, 0.09275320354597265, 0.09275320354597265, 0.09275320354597265, 0.09275320354597265]","[0.09275320354597265, -1.478043123248924, 0.09275320354597265, 0.09275320354597265, 0.09275320354597265, 0.09275320354597265]",0.002,7,1
0,115,"[0.08817332983016968, -1.482881562118866, 0.08796769777406865, 0.08797530710186763, 0.08812632411718369, 0.08820249140262604]","[0.5293397903442383, 0.5227881073951721, 0.5230187177658081, 0.5317202210426331, 0.5308014750480652, 0.529042661190033]","[0.09317609472102331, -1.4776202320738732, 0.09317609472102331, 0.09317609472102331, 0.09317609472102331, 0.09317609472102331]","[0.09317609472102331, -1.4776202320738732, 0.09317609472102331, 0.09317609472102331, 0.09317609472102331, 0.09317609472102331]",0.002,7,1
0,116,"[0.08922264724969864, -1.4817943212440987, 0.08903295198549444, 0.08900372564282222, 0.08914926648139954, 0.08928234875202179]","[0.5271684527397156, 0.5227384567260742, 0.5231336951255798, 0.5316555500030518, 0.5288580656051636, 0.5240186452865601]","[0.09359883869942948, -1.477197488095467, 0.09359883869942948, 0.09359883869942948, 0.09359883869942948, 0.09359883869942948]","[0.09359883869942948, -1.477197488095467, 0.09359883869942948, 0.09359883869942948, 0.09359883869942948, 0.09359883869942948]",0.002,7,1
0,117,"[0.09029394388198853, -1.4808017399958153, 0.09002095857729131, 0.08996324121441646, 0.09028105437755585, 0.09031157940626144]","[0.5261345505714417, 0.5178649425506592, 0.5226727724075317, 0.5285595655441284, 0.5254877209663391, 0.5224894881248474]","[0.09402143481335355, -1.476774891981543, 0.09402143481335355, 0.09402143481335355, 0.09402143481335355, 0.09402143481335355]","[0.09402143481335355, -1.476774891981543, 0.09402143481335355, 0.09402143481335355, 0.09402143481335355, 0.09402143481335355]",0.002,7,1
0,118,"[0.09133557230234146, -1.4797011327794571, 0.09110528627504522, 0.09106092035260005, 0.09126881510019302, 0.09131493419408798]","[0.5238787531852722, 0.5161841511726379, 0.5191477537155151, 0.5235815048217773, 0.5237891674041748, 0.5200548768043518]","[0.0944438823951916, -1.476352444399705, 0.0944438823951916, 0.0944438823951916, 0.0944438823951916, 0.0944438823951916]","[0.0944438823951916, -1.476352444399705, 0.0944438823951916, 0.0944438823951916, 0.0944438823951916, 0.0944438823951916]",0.002,7,1
0,119,"[0.0922677144408226, -1.4786460113576432, 0.09212762514223272, 0.09210698186840816, 0.09230975806713104, 0.09238217771053314]","[0.5200090408325195, 0.512564480304718, 0.5163633227348328, 0.5233898162841797, 0.5213552713394165, 0.5159655213356018]","[0.09486618077757428, -1.4759301460173222, 0.09486618077757428, 0.09486618077757428, 0.09486618077757428, 0.09486618077757428]","[0.09486618077757428, -1.4759301460173222, 0.09486618077757428, 0.09486618077757428, 0.09486618077757428, 0.09486618077757428]",0.002,7,1
0,120,"[0.09331128746271133, -1.477573388522007, 0.09318858781923467, 0.09319238244976802, 0.09333889931440353, 0.09345109760761261]","[0.5168295502662659, 0.5097517371177673, 0.5147634744644165, 0.5217933058738708, 0.5180146098136902, 0.5138291716575623]","[0.09528832929336797, -1.4755079975015286, 0.09528832929336797, 0.09528832929336797, 0.09528832929336797, 0.09528832929336797]","[0.09528832929336797, -1.4755079975015286, 0.09528832929336797, 0.09528832929336797, 0.09528832929336797, 0.09528832929336797]",0.002,7,1
0,121,"[0.09432585537433624, -1.4765421760133286, 0.0941999594317835, 0.09421364843334956, 0.09448660910129547, 0.09445975720882416]","[0.5141273140907288, 0.5052443146705627, 0.5104356408119202, 0.5209026336669922, 0.5128802061080933, 0.5107460618019104]","[0.09571032727567588, -1.4750859995192207, 0.09571032727567588, 0.09571032727567588, 0.09571032727567588, 0.09571032727567588]","[0.09571032727567588, -1.4750859995192207, 0.09571032727567588, 0.09571032727567588, 0.09571032727567588, 0.09571032727567588]",0.002,7,1
0,122,"[0.0954035073518753, -1.4755407211235543, 0.09527761140932256, 0.09530179082836909, 0.09546704590320587, 0.09549678862094879]","[0.5108674168586731, 0.5044942498207092, 0.5074350237846375, 0.5191770792007446, 0.5110122561454773, 0.5085715055465698]","[0.09613217405783886, -1.4746641527370576, 0.09613217405783886, 0.09613217405783886, 0.09613217405783886, 0.09613217405783886]","[0.09613217405783886, -1.4746641527370576, 0.09613217405783886, 0.09613217405783886, 0.09613217405783886, 0.09613217405783886]",0.002,7,1
0,123,"[0.09639692306518555, -1.4745163333467026, 0.09626609483827764, 0.09631840764965816, 0.0964849442243576, 0.09648765623569489]","[0.510010302066803, 0.5027238130569458, 0.5069181323051453, 0.5124983191490173, 0.5081264972686768, 0.5037215948104858]","[0.09655386897343679, -1.4742424578214597, 0.09655386897343679, 0.09655386897343679, 0.09655386897343679, 0.09655386897343679]","[0.09655386897343679, -1.4742424578214597, 0.09655386897343679, 0.09655386897343679, 0.09655386897343679, 0.09655386897343679]",0.002,7,1
0,124,"[0.09742020070552826, -1.4734830644777794, 0.0972817579852503, 0.09729210912670894, 0.0974525734782219, 0.09748305380344391]","[0.5060195922851562, 0.5005599856376648, 0.501003623008728, 0.509017288684845, 0.5016188025474548, 0.5015587210655212]","[0.09697541135628937, -1.4738209154386073, 0.09697541135628937, 0.09697541135628937, 0.09697541135628937, 0.09697541135628937]","[0.09697541135628937, -1.4738209154386073, 0.09697541135628937, 0.09697541135628937, 0.09697541135628937, 0.09697541135628937]",0.002,7,1
0,125,"[0.09841839969158173, -1.4724633258632203, 0.09829312959779912, 0.09841219961132808, 0.09848351031541824, 0.09847114980220795]","[0.5023233294487, 0.4971470832824707, 0.49824216961860657, 0.5065324902534485, 0.5000073909759521, 0.4970690906047821]","[0.0973968005404573, -1.4733995262544393, 0.0973968005404573, 0.0973968005404573, 0.0973968005404573, 0.0973968005404573]","[0.0973968005404573, -1.4733995262544393, 0.0973968005404573, 0.0973968005404573, 0.0973968005404573, 0.0973968005404573]",0.002,7,1
0,126,"[0.09939247369766235, -1.4714799237302323, 0.0993426481830042, 0.09940259038891597, 0.09943223744630814, 0.09943331778049469]","[0.4954059422016144, 0.4933827221393585, 0.49668675661087036, 0.5026580095291138, 0.4956280589103699, 0.4940066635608673]","[0.09781803586024324, -1.4729782909346534, 0.09781803586024324, 0.09781803586024324, 0.09781803586024324, 0.09781803586024324]","[0.09781803586024324, -1.4729782909346534, 0.09781803586024324, 0.09781803586024324, 0.09781803586024324, 0.09781803586024324]",0.002,7,1
0,127,"[0.10041310638189316, -1.4704694014838715, 0.10024720827211553, 0.10040490209545894, 0.10042519867420197, 0.10039545595645905]","[0.4919075667858124, 0.4925706386566162, 0.4925804138183594, 0.49596261978149414, 0.49209994077682495, 0.4927801787853241]","[0.09823911665019303, -1.4725572101447035, 0.09823911665019303, 0.09823911665019303, 0.09823911665019303, 0.09823911665019303]","[0.09823911665019303, -1.4725572101447035, 0.09823911665019303, 0.09823911665019303, 0.09823911665019303, 0.09823911665019303]",0.002,7,1
0,128,"[0.10137338936328888, -1.469501019721367, 0.10128766695131475, 0.10140077650036616, 0.10145439207553864, 0.10136713087558746]","[0.48945239186286926, 0.4921513497829437, 0.4924101233482361, 0.4899950921535492, 0.488904744386673, 0.48840004205703735]","[0.09866004224509654, -1.4721362845498, 0.09866004224509654, 0.09866004224509654, 0.09866004224509654, 0.09866004224509654]","[0.09866004224509654, -1.4721362845498, 0.09866004224509654, 0.09866004224509654, 0.09866004224509654, 0.09866004224509654]",0.002,7,1
0,129,"[0.10240254551172256, -1.4684805136970063, 0.10224706331361944, 0.10243515550579829, 0.10242153704166412, 0.10230664908885956]","[0.4871636927127838, 0.48875799775123596, 0.48564499616622925, 0.48520392179489136, 0.4865244925022125, 0.4865756928920746]","[0.09908081197998884, -1.4717155148149077, 0.09908081197998884, 0.09908081197998884, 0.09908081197998884, 0.09908081197998884]","[0.09908081197998884, -1.4717155148149077, 0.09908081197998884, 0.09908081197998884, 0.09908081197998884, 0.09908081197998884]",0.002,7,1
0,130,"[0.1033659279346466, -1.4674999949387093, 0.10328084627260381, 0.10340420782055659, 0.10335002839565277, 0.10326637327671051]","[0.4812909960746765, 0.4864107370376587, 0.4842134714126587, 0.4825577735900879, 0.48030343651771545, 0.48421284556388855]","[0.09950142519015123, -1.4712949016047454, 0.09950142519015123, 0.09950142519015123, 0.09950142519015123, 0.09950142519015123]","[0.09950142519015123, -1.4712949016047454, 0.09950142519015123, 0.09950142519015123, 0.09950142519015123, 0.09950142519015123]",0.002,7,1
0,131,"[0.10426687449216843, -1.4666033697179337, 0.10423595110048467, 0.10436825334515376, 0.10432527214288712, 0.10415972769260406]","[0.47844457626342773, 0.4831414818763733, 0.4818111062049866, 0.4799557030200958, 0.47540518641471863, 0.4805830419063568]","[0.09992188121111227, -1.4708744455837843, 0.09992188121111227, 0.09992188121111227, 0.09992188121111227, 0.09992188121111227]","[0.09992188121111227, -1.4708744455837843, 0.09992188121111227, 0.09992188121111227, 0.09992188121111227, 0.09992188121111227]",0.002,7,1
0,132,"[0.10519783198833466, -1.465660535996296, 0.1051262060748499, 0.10537795602764888, 0.10522500425577164, 0.1051541417837143]","[0.47388628125190735, 0.4786939322948456, 0.4750732481479645, 0.47545990347862244, 0.472472608089447, 0.47681841254234314]","[0.10034217937864888, -1.4704541474162476, 0.10034217937864888, 0.10034217937864888, 0.10034217937864888, 0.10034217937864888]","[0.10034217937864888, -1.4704541474162476, 0.10034217937864888, 0.10034217937864888, 0.10034217937864888, 0.10034217937864888]",0.002,7,1
0,133,"[0.10611949861049652, -1.4647198927453537, 0.10612517992128545, 0.10631780206646724, 0.10614722967147827, 0.10606325417757034]","[0.4685327112674713, 0.47774815559387207, 0.4741876423358917, 0.47001081705093384, 0.4708607494831085, 0.474288672208786]","[0.10076231902878728, -1.4700340077661094, 0.10076231902878728, 0.10076231902878728, 0.10076231902878728, 0.10076231902878728]","[0.10076231902878728, -1.4700340077661094, 0.10076231902878728, 0.10076231902878728, 0.10076231902878728, 0.10076231902878728]",0.002,7,1
0,134,"[0.10710722208023071, -1.4637809109738846, 0.10710221925844365, 0.10726038991894526, 0.10713683813810349, 0.10699091106653214]","[0.46781808137893677, 0.47125163674354553, 0.46901392936706543, 0.46207326650619507, 0.4675632417201996, 0.46951183676719666]","[0.10118229949780419, -1.4696140272970923, 0.10118229949780419, 0.10118229949780419, 0.10118229949780419, 0.10118229949780419]","[0.10118229949780419, -1.4696140272970923, 0.10118229949780419, 0.10118229949780419, 0.10118229949780419, 0.10118229949780419]",0.002,7,1
0,135,"[0.10804519057273865, -1.4628325340202828, 0.1079795996295374, 0.10820774614300532, 0.10792336612939835, 0.10792338848114014]","[0.4608334004878998, 0.46837395429611206, 0.46488022804260254, 0.45543983578681946, 0.46407514810562134, 0.4669419229030609]","[0.10160212012222773, -1.4691942066726689, 0.10160212012222773, 0.10160212012222773, 0.10160212012222773, 0.10160212012222773]","[0.10160212012222773, -1.4691942066726689, 0.10160212012222773, 0.10160212012222773, 0.10160212012222773, 0.10160212012222773]",0.002,7,1
0,136,"[0.10899315774440765, -1.4619058680585404, 0.10885411897768194, 0.10909883558239741, 0.10887987166643143, 0.10880947858095169]","[0.45800408720970154, 0.4647742807865143, 0.4591687321662903, 0.453717440366745, 0.4590509533882141, 0.46329596638679504]","[0.10202178023883857, -1.468774546556058, 0.10202178023883857, 0.10202178023883857, 0.10202178023883857, 0.10202178023883857]","[0.10202178023883857, -1.468774546556058, 0.10202178023883857, 0.10202178023883857, 0.10202178023883857, 0.10202178023883857]",0.002,7,1
0,137,"[0.10984613001346588, -1.46095313996587, 0.10972863832582647, 0.11003212511029048, 0.10981115698814392, 0.10973458737134933]","[0.45535627007484436, 0.46222907304763794, 0.4571281373500824, 0.4502476155757904, 0.4564049243927002, 0.45799294114112854]","[0.10244127918467097, -1.4683550476102256, 0.10244127918467097, 0.10244127918467097, 0.10244127918467097, 0.10244127918467097]","[0.10244127918467097, -1.4683550476102256, 0.10244127918467097, 0.10244127918467097, 0.10244127918467097, 0.10244127918467097]",0.002,7,1
0,138,"[0.11074179410934448, -1.460114636724331, 0.11065799394716436, 0.11093799650158687, 0.11064762622117996, 0.11066190153360367]","[0.4487501382827759, 0.45786309242248535, 0.45085227489471436, 0.4454653263092041, 0.45084577798843384, 0.45449748635292053]","[0.10286061629701376, -1.4679357104978827, 0.10286061629701376, 0.10286061629701376, 0.10286061629701376, 0.10286061629701376]","[0.10286061629701376, -1.4679357104978827, 0.10286061629701376, 0.10286061629701376, 0.10286061629701376, 0.10286061629701376]",0.002,7,1
0,139,"[0.11167782545089722, -1.4593406927636643, 0.11154014268984014, 0.11176924287762446, 0.11159511655569077, 0.11154133826494217]","[0.44598984718322754, 0.45138269662857056, 0.44707944989204407, 0.43968331813812256, 0.4456946551799774, 0.448468416929245]","[0.10327979091341144, -1.4675165358814852, 0.10327979091341144, 0.10327979091341144, 0.10327979091341144, 0.10327979091341144]","[0.10327979091341144, -1.4675165358814852, 0.10327979091341144, 0.10327979091341144, 0.10327979091341144, 0.10327979091341144]",0.002,7,1
0,140,"[0.11251106858253479, -1.4583936345628281, 0.11243039766420537, 0.11261360227551265, 0.11246905475854874, 0.1124272421002388]","[0.44160839915275574, 0.44658082723617554, 0.4428474009037018, 0.43492504954338074, 0.44248074293136597, 0.4439358711242676]","[0.10369880237166522, -1.4670975244232314, 0.10369880237166522, 0.10369880237166522, 0.10369880237166522, 0.10369880237166522]","[0.10369880237166522, -1.4670975244232314, 0.10369880237166522, 0.10369880237166522, 0.10369880237166522, 0.10369880237166522]",0.002,7,1
0,141,"[0.11342215538024902, -1.4574834939888497, 0.11327964464296514, 0.11339275419201655, 0.11336357146501541, 0.11330819875001907]","[0.4363453686237335, 0.43967539072036743, 0.4348714351654053, 0.4310872554779053, 0.43928682804107666, 0.4392812252044678]","[0.10411765000983408, -1.4666786767850626, 0.10411765000983408, 0.10411765000983408, 0.10411765000983408, 0.10411765000983408]","[0.10411765000983408, -1.4666786767850626, 0.10411765000983408, 0.10411765000983408, 0.10411765000983408, 0.10411765000983408]",0.002,7,1
0,142,"[0.11430694162845612, -1.4566622090390702, 0.11416322389711553, 0.1142170864292602, 0.11421655118465424, 0.11421919614076614]","[0.4307567775249481, 0.4351315200328827, 0.432090163230896, 0.4250008463859558, 0.4358085095882416, 0.4360669255256653]","[0.10453633316623578, -1.4662599936286607, 0.10453633316623578, 0.10453633316623578, 0.10453633316623578, 0.10453633316623578]","[0.10453633316623578, -1.4662599936286607, 0.10453633316623578, 0.10453633316623578, 0.10453633316623578, 0.10453633316623578]",0.002,7,1
0,143,"[0.11518814414739609, -1.4558077317527314, 0.11496478716005498, 0.1151166397282104, 0.11502138525247574, 0.11507431417703629]","[0.4267313778400421, 0.4303472638130188, 0.4282754957675934, 0.42471402883529663, 0.43002861738204956, 0.43163132667541504]","[0.10495485117944792, -1.4658414756154485, 0.10495485117944792, 0.10495485117944792, 0.10495485117944792, 0.10495485117944792]","[0.10495485117944792, -1.4658414756154485, 0.10495485117944792, 0.10495485117944792, 0.10495485117944792, 0.10495485117944792]",0.002,7,1
0,144,"[0.1160278394818306, -1.4549516227892418, 0.11585551897157842, 0.11592046796765132, 0.11589273065328598, 0.11594820767641068]","[0.42368853092193604, 0.4246252179145813, 0.42323294281959534, 0.42390480637550354, 0.4232575297355652, 0.42495375871658325]","[0.10537320338830898, -1.4654231234065875, 0.10537320338830898, 0.10537320338830898, 0.10537320338830898, 0.10537320338830898]","[0.10537320338830898, -1.4654231234065875, 0.10537320338830898, 0.10537320338830898, 0.10537320338830898, 0.10537320338830898]",0.002,7,1
0,145,"[0.11687038838863373, -1.4540748012116929, 0.11664897600282842, 0.11677031099285884, 0.11676239222288132, 0.11682317405939102]","[0.4188903868198395, 0.41878026723861694, 0.41788583993911743, 0.4189412295818329, 0.4193934500217438, 0.4188094437122345]","[0.10579138913191942, -1.4650049376629772, 0.10579138913191942, 0.10579138913191942, 0.10579138913191942, 0.10579138913191942]","[0.10579138913191942, -1.4650049376629772, 0.10579138913191942, 0.10579138913191942, 0.10579138913191942, 0.10579138913191942]",0.002,7,1
0,146,"[0.11769253760576248, -1.4533133965781708, 0.11752206483949834, 0.11755661546673579, 0.11762929707765579, 0.11765105277299881]","[0.41382864117622375, 0.4113571345806122, 0.4123687744140625, 0.4139496386051178, 0.4140189290046692, 0.41348516941070557]","[0.10620940774964259, -1.464586919045254, 0.10620940774964259, 0.10620940774964259, 0.10620940774964259, 0.10620940774964259]","[0.10620940774964259, -1.464586919045254, 0.10620940774964259, 0.10620940774964259, 0.10620940774964259, 0.10620940774964259]",0.002,7,1
0,147,"[0.1185019463300705, -1.4524716523340722, 0.11837512651552373, 0.11833612501110835, 0.11844338476657867, 0.1184934750199318]","[0.4086008667945862, 0.4041759669780731, 0.4069565534591675, 0.4100705087184906, 0.4102913439273834, 0.40710213780403137]","[0.10662725858110593, -1.4641690682137907, 0.10662725858110593, 0.10662725858110593, 0.10662725858110593, 0.10662725858110593]","[0.10662725858110593, -1.4641690682137907, 0.10662725858110593, 0.10662725858110593, 0.10662725858110593, 0.10662725858110593]",0.002,7,1
0,148,"[0.11932890862226486, -1.4516365093043824, 0.11909133592714483, 0.11911682664837642, 0.11926951259374619, 0.11929797381162643]","[0.4049425423145294, 0.39741116762161255, 0.39952003955841064, 0.4051547944545746, 0.4057607352733612, 0.40157005190849304]","[0.10704494096620197, -1.4637513858286946, 0.10704494096620197, 0.10704494096620197, 0.10704494096620197, 0.10704494096620197]","[0.10704494096620197, -1.4637513858286946, 0.10704494096620197, 0.10704494096620197, 0.10704494096620197, 0.10704494096620197]",0.002,7,1
0,149,"[0.12014179676771164, -1.4508216467550774, 0.11990768114198858, 0.1199299532124023, 0.12008026242256165, 0.12014861404895782]","[0.40070074796676636, 0.3960082232952118, 0.39894044399261475, 0.40090110898017883, 0.39884623885154724, 0.396359384059906]","[0.10746245424508928, -1.4633338725498073, 0.10746245424508928, 0.10746245424508928, 0.10746245424508928, 0.10746245424508928]","[0.10746245424508928, -1.4633338725498073, 0.10746245424508928, 0.10746245424508928, 0.10746245424508928, 0.10746245424508928]",0.002,7,1
0,150,"[0.1208653524518013, -1.4500380766442795, 0.12070638338197881, 0.12071435033764644, 0.12082459777593613, 0.12092148512601852]","[0.39310693740844727, 0.38906723260879517, 0.39128008484840393, 0.39725789427757263, 0.392802357673645, 0.390794575214386]","[0.10787979775819356, -1.462916529036703, 0.10787979775819356, 0.10787979775819356, 0.10787979775819356, 0.10787979775819356]","[0.10787979775819356, -1.462916529036703, 0.10787979775819356, 0.10787979775819356, 0.10787979775819356, 0.10787979775819356]",0.002,7,1
0,151,"[0.12164992839097977, -1.4493052449873467, 0.12146503130067998, 0.12148408472027583, 0.12159837782382965, 0.12169329822063446]","[0.38877227902412415, 0.38488924503326416, 0.3862816393375397, 0.3933642506599426, 0.3883358836174011, 0.3861534893512726]","[0.10829697084620879, -1.4624993559486879, 0.10829697084620879, 0.10829697084620879, 0.10829697084620879, 0.10829697084620879]","[0.10829697084620879, -1.4624993559486879, 0.10829697084620879, 0.10829697084620879, 0.10829697084620879, 0.10829697084620879]",0.002,7,1
