Arnibjarnst/BoxLift/logs/ur_rtde/trajectory_dur=10.0_delay=0.5_ampl=20.0_real.csv
arm_idx,step,actual_q,expected_q,loop_time,robot_mode,safety_mode
0,-1,"[0.02384425885975361, -1.5394287978163739, 0.0350573698626917, 0.05459587156262202, 0.019393807277083397, 0.03121209144592285]","[0.0, -1.5707963267948966, 0.0, 0.0, 0.0, 0.0]",0.002,7,1
0,-1,"[0.02367456629872322, -1.5397690527937193, 0.03463584581484014, 0.054184122676513624, 0.019254261627793312, 0.030839156359434128]","[0.0, -1.5707963267948966, 0.0, 0.0, 0.0, 0.0]",0.002,7,1
0,-1,"[0.023476405069231987, -1.5399940398386498, 0.03444558778871709, 0.0539669233509521, 0.019183576107025146, 0.030687479302287102]","[0.0, -1.5707963267948966, 0.0, 0.0, 0.0, 0.0]",0.002,7,1
0,-1,"[0.02328045852482319, -1.5403085754117747, 0.034095589314596, 0.053439422244689894, 0.0190142635256052, 0.030422581359744072]","[0.0, -1.5707963267948966, 0.0, 0.0, 0.0, 0.0]",0.002,7,1
0,-1,"[0.023105116561055183, -1.5406277489713212, 0.033703152333394826, 0.05292193471874995, 0.018859565258026123, 0.03015088476240635]","[0.0, -1.5707963267948966, 0.0, 0.0, 0.0, 0.0]",0.002,7,1
0,-1,"[0.02266852930188179, -1.5411988266608496, 0.03313762346376592, 0.05198494970288081, 0.018472373485565186, 0.029626283794641495]","[0.0, -1.5707963267948966, 0.0, 0.0, 0.0, 0.0]",0.002,7,1
0,-1,"[0.02232460491359234, -1.5417042852244158, 0.03248626390566045, 0.05098871767010493, 0.018190454691648483, 0.029111726209521294]","[0.0, -1.5707963267948966, 0.0, 0.0, 0.0, 0.0]",0.002,7,1
0,-1,"[0.021807674318552017, -1.5422997468015929, 0.031868759785787404, 0.04990212499584956, 0.017831388860940933, 0.028476184234023094]","[0.0, -1.5707963267948966, 0.0, 0.0, 0.0, 0.0]",0.002,7,1
0,-1,"[0.02122824266552925, -1.5429478132030745, 0.03109294572939092, 0.04852144300427241, 0.01734106056392193, 0.02774740941822529]","[0.0, -1.5707963267948966, 0.0, 0.0, 0.0, 0.0]",0.002,7,1
0,-1,"[0.0206014234572649, -1.5437173631838341, 0.03017312685121709, 0.047128720874450636, 0.016848688945174217, 0.026960667222738266]","[0.0, -1.5707963267948966, 0.0, 0.0, 0.0, 0.0]",0.002,7,1
0,-1,"[0.019600825384259224, -1.5450641431710501, 0.028760258351461232, 0.04472963392224116, 0.015930170193314552, 0.025569256395101547]","[0.0, -1.5707963267948966, 0.0, 0.0, 0.0, 0.0]",0.002,7,1
0,-1,"[0.018751641735434532, -1.5461500448039551, 0.027585331593648732, 0.04287628709759517, 0.015314669348299503, 0.024464581161737442]","[0.0, -1.5707963267948966, 0.0, 0.0, 0.0, 0.0]",0.002,7,1
0,-1,"[0.01793706975877285, -1.5472357154688616, 0.02638894716371709, 0.040982409114501905, 0.014672827906906605, 0.023385031148791313]","[0.0, -1.5707963267948966, 0.0, 0.0, 0.0, 0.0]",0.002,7,1
0,-1,"[0.017078416422009468, -1.5484088447741051, 0.025006596242086232, 0.03883294641461177, 0.013890892267227173, 0.02218111976981163]","[0.0, -1.5707963267948966, 0.0, 0.0, 0.0, 0.0]",0.002,7,1
0,-1,"[0.016019217669963837, -1.5496869304082175, 0.023630921040670216, 0.03663901864971919, 0.013126939535140991, 0.02091768942773342]","[0.0, -1.5707963267948966, 0.0, 0.0, 0.0, 0.0]",0.002,7,1
0,-1,"[0.015196586027741432, -1.5507622857442875, 0.022431675587789357, 0.034674449557922316, 0.012463580816984177, 0.019800685346126556]","[0.0, -1.5707963267948966, 0.0, 0.0, 0.0, 0.0]",0.002,7,1
0,-1,"[0.01450921781361103, -1.551648562108614, 0.021376911793844044, 0.033056898708007765, 0.011885958723723888, 0.018934030085802078]","[0.0, -1.5707963267948966, 0.0, 0.0, 0.0, 0.0]",0.002,7,1
0,-1,"[0.013773998245596886, -1.552638917495944, 0.020277325307027638, 0.031399770373962355, 0.01125254575163126, 0.017945796251296997]","[0.0, -1.5707963267948966, 0.0, 0.0, 0.0, 0.0]",0.002,7,1
0,-1,"[0.012699182145297527, -1.5538460363498707, 0.018872563038961232, 0.029219551677368116, 0.01038515567779541, 0.01675657369196415]","[0.0, -1.5707963267948966, 0.0, 0.0, 0.0, 0.0]",0.002,7,1
0,-1,"[0.011344180442392826, -1.5556606690264125, 0.016907993947164357, 0.026077075595519972, 0.009291216731071472, 0.014891957864165306]","[0.0, -1.5707963267948966, 0.0, 0.0, 0.0, 0.0]",0.002,7,1
0,-1,"[0.010156175121665001, -1.5570239017582317, 0.015206638966695607, 0.023577852840087843, 0.008304119110107422, 0.01338399387896061]","[0.0, -1.5707963267948966, 0.0, 0.0, 0.0, 0.0]",0.002,7,1
0,-1,"[0.009129446931183338, -1.558575316598155, 0.013589207326070607, 0.02106909334149165, 0.007473120000213385, 0.01195677649229765]","[0.0, -1.5707963267948966, 0.0, 0.0, 0.0, 0.0]",0.002,7,1
0,-1,"[0.008007971569895744, -1.5598618018305679, 0.012089077626363576, 0.01871149122204585, 0.006621167529374361, 0.010668043978512287]","[0.0, -1.5707963267948966, 0.0, 0.0, 0.0, 0.0]",0.002,7,1
0,-1,"[0.007003122009336948, -1.5610856043970962, 0.010659519826070607, 0.016432090396545362, 0.005764788947999477, 0.009388105012476444]","[0.0, -1.5707963267948966, 0.0, 0.0, 0.0, 0.0]",0.002,7,1
0,-1,"[0.006125106941908598, -1.5622524035028, 0.009297672902242482, 0.014295740718505812, 0.0050599523819983006, 0.008217090740799904]","[0.0, -1.5707963267948966, 0.0, 0.0, 0.0, 0.0]",0.002,7,1
0,-1,"[0.005228114314377308, -1.5634285549497982, 0.00802165666689092, 0.012337608928344679, 0.004335582721978426, 0.007068995852023363]","[0.0, -1.5707963267948966, 0.0, 0.0, 0.0, 0.0]",0.002,7,1
0,-1,"[0.002352377399802208, -1.5673816528036078, 0.0036547819720667007, 0.00559954225506587, 0.002110040280967951, 0.0032553700730204582]","[0.0, -1.5707963267948966, 0.0, 0.0, 0.0, 0.0]",0.002,7,1
0,-1,"[0.0020667051430791616, -1.5678841346273948, 0.003102127705709279, 0.004776640529296827, 0.0017779108602553606, 0.0027383072301745415]","[0.0, -1.5707963267948966, 0.0, 0.0, 0.0, 0.0]",0.002,7,1
0,-1,"[0.0011948824394494295, -1.5692129605780174, 0.001744572316304982, 0.002678080196044874, 0.001023537595756352, 0.0016256357776001096]","[0.0, -1.5707963267948966, 0.0, 0.0, 0.0, 0.0]",0.002,7,1
0,-1,"[0.000853547069709748, -1.5696117565133427, 0.0013092199908655289, 0.0020485359379271983, 0.0007423973875120282, 0.0012385845184326172]","[0.0, -1.5707963267948966, 0.0, 0.0, 0.0, 0.0]",0.002,7,1
0,-1,"[0.0006822628783993423, -1.5699492565220972, 0.0009806791888635757, 0.0016103225895385265, 0.0005864708800800145, 0.0009508132934570312]","[0.0, -1.5707963267948966, 0.0, 0.0, 0.0, 0.0]",0.002,7,1
0,-1,"[0.000497911125421524, -1.570228184955642, 0.0007174650775354507, 0.0011492210575561046, 0.0004253932274878025, 0.00067363545531407]","[0.0, -1.5707963267948966, 0.0, 0.0, 0.0, 0.0]",0.002,7,1
0,-1,"[0.0002349333808524534, -1.5705718032152909, 0.00024491945375615387, 0.0005280214497069835, 0.0001491730217821896, 0.00029755401192232966]","[0.0, -1.5707963267948966, 0.0, 0.0, 0.0, 0.0]",0.002,7,1
0,-1,"[8.654594421386719e-05, -1.570843359033102, 8.885060445606996e-06, 0.0001116234013061046, 9.054528345586732e-05, 0.0001396579755237326]","[0.0, -1.5707963267948966, 0.0, 0.0, 0.0, 0.0]",0.002,7,1
0,-1,"[2.9741284379269928e-05, -1.5709191761412562, -5.393314495449886e-05, 3.3302898071241316e-05, 7.359821029240265e-05, 9.173584112431854e-05]","[0.0, -1.5707963267948966, 0.0, 0.0, 0.0, 0.0]",0.002,7,1
0,-1,"[0.00012688948481809348, -1.5708910427489222, -1.9330142094986513e-05, 0.00010029851879878038, 6.475639384007081e-05, 0.0001067161574610509]","[0.0, -1.5707963267948966, 0.0, 0.0, 0.0, 0.0]",0.002,7,1
0,-1,"[0.0001520743389846757, -1.5707723972867207, 1.732503072560121e-06, 1.9116992614698347e-05, 8.172988600563258e-05, 9.614050213713199e-05]","[0.0, -1.5707963267948966, 0.0, 0.0, 0.0, 0.0]",0.002,7,1
0,-1,"[0.00015212236030492932, -1.5707922452741805, 4.5124684469044496e-05, 9.278833355708116e-05, 9.810615301830694e-05, 9.040832810569555e-05]","[0.0, -1.5707963267948966, 0.0, 0.0, 0.0, 0.0]",0.002,7,1
0,-1,"[0.00010628699965309352, -1.570702044369984, 7.454548970997621e-06, 2.4481410644483503e-05, 0.00016830491949804127, 8.7270193034783e-05]","[0.0, -1.5707963267948966, 0.0, 0.0, 0.0, 0.0]",0.002,7,1
0,-1,"[6.900649168528616e-05, -1.57080139736318, -4.291534423828125e-06, 2.018987622065538e-05, 7.81924682087265e-05, 7.195472426246852e-05]","[0.0, -1.5707963267948966, 0.0, 0.0, 0.0, 0.0]",0.002,7,1
0,-1,"[0.00010629260941641405, -1.570766643886902, 4.593526021778871e-06, 6.4535731933546e-05, 4.984995030099526e-05, 5.125999450683594e-05]","[0.0, -1.5707963267948966, 0.0, 0.0, 0.0, 0.0]",0.002,7,1
0,-1,"[8.654594421386719e-05, -1.570771207098307, -1.191520641441457e-05, 3.199159588618272e-05, 2.583568675618153e-05, 7.948875281726941e-05]","[0.0, -1.5707963267948966, 0.0, 0.0, 0.0, 0.0]",0.002,7,1
0,-1,"[0.00011815250036306679, -1.570778564815857, 5.418459047490387e-05, 6.58470341186046e-05, -2.209340230763246e-06, 6.757974915672094e-05]","[0.0, -1.5707963267948966, 0.0, 0.0, 0.0, 0.0]",0.002,7,1
0,-1,"[4.486064426600933e-05, -1.570766643886902, 4.5124684469044496e-05, 4.522382702631944e-05, 8.707046799827367e-05, 5.56854392925743e-05]","[0.0, -1.5707963267948966, 0.0, 0.0, 0.0, 0.0]",0.002,7,1
0,-1,"[6.905889313202351e-05, -1.570795189375378, 6.6105519429982e-05, -2.4990444519090715e-05, 2.883437082346063e-05, 7.334374822676182e-05]","[0.0, -1.5707963267948966, 0.0, 0.0, 0.0, 0.0]",0.002,7,1
0,-1,"[0.00011065255239373073, -1.5707757703115313, 5.8476124898731996e-05, -1.604974780278212e-05, 3.0296934710349888e-05, 3.5994991776533425e-05]","[0.0, -1.5707963267948966, 0.0, 0.0, 0.0, 0.0]",0.002,7,1
0,-1,"[7.778947474434972e-05, -1.5707830828472034, -4.76837158203125e-06, -4.128818847703997e-06, -2.209340230763246e-06, 1.5250033357006032e-05]","[0.0, -1.5707963267948966, 0.0, 0.0, 0.0, 0.0]",0.002,7,1
0,-1,"[0.00012375801452435553, -1.5707906049541016, -2.0972607671865262e-05, -1.1758213378953997e-05, 7.679843838559464e-05, -1.794496645146637e-05]","[0.0, -1.5707963267948966, 0.0, 0.0, 0.0, 0.0]",0.002,7,1
0,-1,"[0.00014441553503274918, -1.5707830828472034, 8.279481996709137e-05, 2.901136364741319e-05, 6.455075890698936e-06, 3.337860107421875e-06]","[0.0, -1.5707963267948966, 0.0, 0.0, 0.0, 0.0]",0.002,7,1
0,-1,"[0.0001106437121052295, -1.5707860988435023, 5.418459047490387e-05, 1.6271557612412835e-07, 2.740478521445766e-05, 4.812957558897324e-05]","[0.0, -1.5707963267948966, 0.0, 0.0, 0.0, 0.0]",0.002,7,1
0,-1,"[8.216006244765595e-05, -1.5707848967361606, 4.178682436162262e-05, -1.1758213378953997e-05, -1.5083943502247621e-05, -5.799928774052887e-05]","[0.0, -1.5707963267948966, 0.0, 0.0, 0.0, 0.0]",0.002,7,1
0,-1,"[9.086766658583656e-05, -1.5707546037486573, -1.33514404296875e-05, -4.85938838501454e-05, 1.8358230590820312e-05, 3.157854007440619e-05]","[0.0, -1.5707963267948966, 0.0, 0.0, 0.0, 0.0]",0.002,7,1
0,-1,"[9.85860824584961e-05, -1.5707380003990075, 1.1746083394825746e-05, -6.921709094243056e-05, -3.0819569722950746e-05, 3.29552567563951e-05]","[0.0, -1.5707963267948966, 0.0, 0.0, 0.0, 0.0]",0.002,7,1
0,-1,"[7.908960105851293e-05, -1.5707455225022677, 4.178682436162262e-05, 1.6271557612412835e-07, -3.8448964254200746e-05, -5.513826479131012e-05]","[0.0, -1.5707963267948966, 0.0, 0.0, 0.0, 0.0]",0.002,7,1
0,-1,"[7.557131175417453e-05, -1.5708142719664515, 1.3653432027638246e-05, -1.6168957092332903e-05, -3.0819569722950746e-05, -4.593526021778871e-06]","[0.0, -1.5707963267948966, 0.0, 0.0, 0.0, 0.0]",0.002,7,1
0,-1,"[-2.686177388966371e-06, -1.5707649203580623, 5.8476124898731996e-05, -3.667295489506728e-05, 1.8358230590820312e-05, 3.0600458558183163e-05]","[0.0, -1.5707963267948966, 0.0, 0.0, 0.0, 0.0]",0.002,7,1
0,-1,"[2.1000038032070734e-05, -1.5708281002440394, 2.7958546773731996e-05, 2.0785922668409285e-05, -1.9375477926075746e-05, -5.070363179981996e-06]","[0.0, -1.5707963267948966, 0.0, 0.0, 0.0, 0.0]",0.002,7,1
0,-1,"[5.931685882387683e-05, -1.5707922092718327, 0.0, 2.018987622065538e-05, -2.652803529912262e-05, 1.2320449968683533e-05]","[0.0, -1.5707963267948966, 0.0, 0.0, 0.0, 0.0]",0.002,7,1
0,-1,"[1.4543533325195312e-05, -1.5708161793150843, 1.1746083394825746e-05, 4.641591992182725e-05, 1.9938293007726315e-06, -4.593526021778871e-06]","[0.0, -1.5707963267948966, 0.0, 0.0, 0.0, 0.0]",0.002,7,1
0,-1,"[-1.794496645146637e-05, -1.570778564815857, 0.0, 6.58470341186046e-05, 8.576958498451859e-05, -1.3176594869435121e-05]","[0.0, -1.5707963267948966, 0.0, 0.0, 0.0, 0.0]",0.002,7,1
0,-1,"[4.7226429160218686e-05, -1.570778564815857, 8.885060445606996e-06, 4.573459289503035e-06, -2.209340230763246e-06, -7.788287561538709e-07]","[0.0, -1.5707963267948966, 0.0, 0.0, 0.0, 0.0]",0.002,7,1
0,-1,"[1.016961869027e-05, -1.5707694835731054, 3.2726918355763246e-05, -4.248028137254778e-06, -6.024037496388246e-06, -5.036989320927887e-05]","[0.0, -1.5707963267948966, 0.0, 0.0, 0.0, 0.0]",0.002,7,1
0,-1,"[2.658367156982422e-05, -1.5707860659225226, -3.282751276856288e-05, -2.367914233403212e-05, 1.1049271051888354e-05, -5.036989320927887e-05]","[0.0, -1.5707963267948966, 0.0, 0.0, 0.0, 0.0]",0.002,7,1
0,-1,"[-6.024037496388246e-06, -1.5707785829402674, -1.811981201171875e-05, -4.128818847703997e-06, 3.188412301824428e-05, 2.4129261873895302e-05]","[0.0, -1.5707963267948966, 0.0, 0.0, 0.0, 0.0]",0.002,7,1
0,-1,"[2.2244454157771543e-05, -1.5708161793150843, -7.388115591311362e-06, -3.667295489506728e-05, 4.3796535464935005e-05, 6.595024024136364e-05]","[0.0, -1.5707963267948966, 0.0, 0.0, 0.0, 0.0]",0.002,7,1
0,-1,"[1.889144732558634e-05, -1.5707425636104126, 5.8476124898731996e-05, -4.248028137254778e-06, 3.0270308343460783e-05, 1.2271553714526817e-05]","[0.0, -1.5707963267948966, 0.0, 0.0, 0.0, 0.0]",0.002,7,1
0,-1,"[-6.024037496388246e-06, -1.5707575807685608, -4.071617149747908e-05, -2.928197894291884e-05, 2.0086167751287576e-06, -2.5097523824513246e-05]","[0.0, -1.5707963267948966, 0.0, 0.0, 0.0, 0.0]",0.002,7,1
0,-1,"[2.2244454157771543e-05, -1.5707621258555555, 7.087389101201325e-05, -4.248028137254778e-06, 2.2804737454862334e-05, -9.838734762013246e-06]","[0.0, -1.5707963267948966, 0.0, 0.0, 0.0, 0.0]",0.002,7,1
0,-1,"[2.2244454157771543e-05, -1.5708233318724574, 0.0, -1.6168957092332903e-05, -1.5083943502247621e-05, 1.2269278158782981e-05]","[0.0, -1.5707963267948966, 0.0, 0.0, 0.0, 0.0]",0.002,7,1
0,-1,"[2.658367156982422e-05, -1.5708066425719203, 6.181398500615387e-05, -3.238142047123915e-05, 1.993511432374362e-06, -8.885060445606996e-06]","[0.0, -1.5707963267948966, 0.0, 0.0, 0.0, 0.0]",0.002,7,1
0,-1,"[3.8504600524902344e-05, -1.570769492588017, 4.083315004521637e-05, -1.306951556401259e-05, 9.453548045712523e-06, -4.593526021778871e-06]","[0.0, -1.5707963267948966, 0.0, 0.0, 0.0, 0.0]",0.002,7,1
0,-1,"[3.530550020514056e-05, -1.5707002304883027, 2.843538393193512e-05, 4.454249999952253e-06, 1.5483856259379536e-05, -4.3217335836231996e-05]","[0.0, -1.5707963267948966, 0.0, 0.0, 0.0, 0.0]",0.002,7,1
0,-1,"[1.4543533325195312e-05, -1.570766643886902, 4.941621889287262e-05, -8.658771850633684e-06, 3.0279159545898438e-05, -1.794496645146637e-05]","[0.0, -1.5707963267948966, 0.0, 0.0, 0.0, 0.0]",0.002,7,1
0,-1,"[1.888275073724799e-05, -1.5707830828472034, 3.701845277959137e-05, -4.001081500248915e-05, 8.860182424541563e-05, 4.919434286421165e-05]","[0.0, -1.5707963267948966, 0.0, 0.0, 0.0, 0.0]",0.002,7,1
0,-1,"[5.926656740484759e-05, -1.5707694835712864, 5.8476124898731996e-05, -3.238142047123915e-05, 2.7440652047516778e-05, -8.885060445606996e-06]","[0.0, -1.5707963267948966, 0.0, 0.0, 0.0, 0.0]",0.002,7,1
0,-1,"[-1.732503072560121e-06, -1.570736489182611, 7.516542543584137e-05, -4.248028137254778e-06, 3.026142076123506e-05, -1.3176594869435121e-05]","[0.0, -1.5707963267948966, 0.0, 0.0, 0.0, 0.0]",0.002,7,1
0,-1,"[3.0966282793087885e-05, -1.570766643886902, 2.5097523824513246e-05, -4.248028137254778e-06, 2.5823741452768445e-05, 2.4078610294964164e-05]","[0.0, -1.5707963267948966, 0.0, 0.0, 0.0, 0.0]",0.002,7,1
0,1,"[2.658367156982422e-05, -1.5707621258555555, -4.291534423828125e-06, -1.6168957092332903e-05, 6.419479632313596e-06, 3.337860107421875e-06]","[0.10828445813955082, -1.4625118686553458, 0.10828445813955082, 0.10828445813955082, 0.10828445813955082, 0.10828445813955082]",0.002,7,1
0,2,"[5.156564657227136e-05, -1.5707334553993242, 5.8476124898731996e-05, 3.771364178462022e-05, 2.4419008695986122e-05, 3.373656454641605e-06]","[0.1087014652855503, -1.4620948615093463, 0.1087014652855503, 0.1087014652855503, 0.1087014652855503, 0.1087014652855503]",0.002,7,1
0,3,"[2.658367156982422e-05, -1.5707425636104126, 7.94569598596695e-05, -6.063402209477431e-05, 1.1056196854042355e-05, 2.417750692984555e-05]","[0.10911830070841638, -1.4616780260864801, 0.10911830070841638, 0.10911830070841638, 0.10911830070841638, 0.10911830070841638]",0.002,7,1
0,4,"[0.0003781384148169309, -1.5691573998522763, 0.0011637846576135757, 0.0006809669682006358, 0.0007049012347124517, 0.0008114835363812745]","[0.10953496374964564, -1.461261363045251, 0.10953496374964564, 0.10953496374964564, 0.10953496374964564, 0.10953496374964564]",0.002,7,1
0,5,"[0.0007819664315320551, -1.5686808175272127, 0.0016053358661096695, 0.0009708839603881358, 0.0009812986245378852, 0.0010710174683481455]","[0.10995145375100698, -1.4608448730438897, 0.10995145375100698, 0.10995145375100698, 0.10995145375100698, 0.10995145375100698]",0.002,7,1
0,6,"[0.0011943710269406438, -1.5682745392299076, 0.0022614637957971695, 0.0015662151524047374, 0.0010999970836564898, 0.0013679941184818745]","[0.11036777005454271, -1.4604285567403539, 0.11036777005454271, 0.11036777005454271, 0.11036777005454271, 0.11036777005454271]",0.002,7,1
0,7,"[0.0014636260457336903, -1.5678171236398448, 0.002594772969381154, 0.0020747619816283702, 0.0014636621344834566, 0.00168303691316396]","[0.11078391200256951, -1.460012414792327, 0.11078391200256951, 0.11078391200256951, 0.11078391200256951, 0.11078391200256951]",0.002,7,1
0,8,"[0.0019129280699416995, -1.5673636573231597, 0.002869431172506154, 0.002306028003356886, 0.001846621511504054, 0.002150012878701091]","[0.1111998789376795, -1.459596447857217, 0.1111998789376795, 0.1111998789376795, 0.1111998789376795, 0.1111998789376795]",0.002,7,1
0,9,"[0.0023493252228945494, -1.5670837788241734, 0.0032570997821252945, 0.002687497729919386, 0.0023743901401758194, 0.002544705756008625]","[0.11161567020274131, -1.4591806565921552, 0.11161567020274131, 0.11161567020274131, 0.11161567020274131, 0.11161567020274131]",0.002,7,1
0,10,"[0.002879838924854994, -1.566669730735459, 0.0035393873797815445, 0.0030026870914916515, 0.0028978309128433466, 0.0030421926639974117]","[0.11203128514090101, -1.4587650416539955, 0.11203128514090101, 0.11203128514090101, 0.11203128514090101, 0.11203128514090101]",0.002,7,1
0,11,"[0.003322584554553032, -1.5663067514872928, 0.004036728535787404, 0.0033525663563231944, 0.003530853660777211, 0.003608932951465249]","[0.11244672309558329, -1.4583496036993133, 0.11244672309558329, 0.11244672309558329, 0.11244672309558329, 0.11244672309558329]",0.002,7,1
0,12,"[0.00382328312844038, -1.5658327325112005, 0.00461751619447881, 0.003926201457641554, 0.0041075292974710464, 0.0041510420851409435]","[0.11286198341049244, -1.457934343384404, 0.11286198341049244, 0.11286198341049244, 0.11286198341049244, 0.11286198341049244]",0.002,7,1
0,13,"[0.004481210373342037, -1.5652550638518115, 0.005211655293599904, 0.0046805578419188976, 0.004642152227461338, 0.004728992003947496]","[0.11327706542961338, -1.4575192613652832, 0.11327706542961338, 0.11327706542961338, 0.11327706542961338, 0.11327706542961338]",0.002,7,1
0,14,"[0.005222897976636887, -1.5646311675994475, 0.005948368703023732, 0.005472703570983839, 0.005190899129956961, 0.005379063077270985]","[0.11369196849721265, -1.457104358297684, 0.11369196849721265, 0.11369196849721265, 0.11369196849721265, 0.11369196849721265]",0.002,7,1
0,15,"[0.005976187530905008, -1.5639696654728432, 0.0066178480731409195, 0.006353541011474562, 0.0059752981178462505, 0.006097686942666769]","[0.11410669195783954, -1.456689634837057, 0.11410669195783954, 0.11410669195783954, 0.11410669195783954, 0.11410669195783954]",0.002,7,1
0,16,"[0.00681174173951149, -1.563246387788542, 0.007348362599508107, 0.007043643588684034, 0.0066694049164652824, 0.0068262070417404175]","[0.11452123515632703, -1.4562750916385696, 0.11452123515632703, 0.11452123515632703, 0.11452123515632703, 0.11452123515632703]",0.002,7,1
0,17,"[0.007489314768463373, -1.5625099989450355, 0.008065525685445607, 0.007713719005248976, 0.007533823139965534, 0.007668022997677326]","[0.11493559743779294, -1.4558607293571035, 0.11493559743779294, 0.11493559743779294, 0.11493559743779294, 0.11493559743779294]",0.002,7,1
0,18,"[0.008076172322034836, -1.5617870160243292, 0.00880605379213506, 0.008408351535461378, 0.008309087716042995, 0.008372806943953037]","[0.11534977814764079, -1.4554465486472559, 0.11534977814764079, 0.11534977814764079, 0.11534977814764079, 0.11534977814764079]",0.002,7,1
0,19,"[0.008915308862924576, -1.5609080216712137, 0.009665314351217091, 0.009309216136596632, 0.009159909561276436, 0.00920950435101986]","[0.11576377663156107, -1.4550325501633354, 0.11576377663156107, 0.11576377663156107, 0.11576377663156107, 0.11576377663156107]",0.002,7,1
0,20,"[0.009828479029238224, -1.5600633456236501, 0.01052409807314092, 0.01021377622570796, 0.010025858879089355, 0.010121556930243969]","[0.11617759223553205, -1.4546187345593644, 0.11617759223553205, 0.11617759223553205, 0.11617759223553205, 0.11617759223553205]",0.002,7,1
0,21,"[0.010798436589539051, -1.5591499547338863, 0.011536900197164357, 0.011238141650817823, 0.010964108631014824, 0.011061842553317547]","[0.11659122430582095, -1.4542051024890756, 0.11659122430582095, 0.11659122430582095, 0.11659122430582095, 0.11659122430582095]",0.002,7,1
0,22,"[0.011790198273956776, -1.5581260745278378, 0.012438599263326466, 0.012164278621337843, 0.011867130175232887, 0.011969270184636116]","[0.1170046721889849, -1.4537916546059118, 0.1170046721889849, 0.1170046721889849, 0.1170046721889849, 0.1170046721889849]",0.002,7,1
0,23,"[0.01276658196002245, -1.5572268388098855, 0.013365093861715138, 0.0132564741322021, 0.012845538556575775, 0.01297061238437891]","[0.11741793523187208, -1.4533783915630245, 0.11741793523187208, 0.11741793523187208, 0.11741793523187208, 0.11741793523187208]",0.002,7,1
0,24,"[0.01376647874712944, -1.5561931582963844, 0.014488999043599904, 0.014262719745300245, 0.013899136334657669, 0.013990098610520363]","[0.11783101278162257, -1.452965314013274, 0.11783101278162257, 0.11783101278162257, 0.11783101278162257, 0.11783101278162257]",0.002,7,1
0,25,"[0.0148443803191185, -1.5550831102630873, 0.01547271410097295, 0.0153469282337646, 0.014967212453484535, 0.014984889887273312]","[0.11824390418566953, -1.452552422609227, 0.11824390418566953, 0.11824390418566953, 0.11824390418566953, 0.11824390418566953]",0.002,7,1
0,26,"[0.015875309705734253, -1.5539838068983336, 0.0164721647845667, 0.016362114543579054, 0.016131063923239708, 0.016157852485775948]","[0.11865660879174024, -1.4521397180031563, 0.11865660879174024, 0.11865660879174024, 0.11865660879174024, 0.11865660879174024]",0.002,7,1
0,27,"[0.01708575338125229, -1.5528300826302548, 0.01763326326479131, 0.017417951221130323, 0.01725587621331215, 0.017263177782297134]","[0.11906912594785697, -1.4517272008470397, 0.11906912594785697, 0.11906912594785697, 0.11906912594785697, 0.11906912594785697]",0.002,7,1
0,28,"[0.018246537074446678, -1.5516134195825835, 0.018790547047750294, 0.01850513994183345, 0.01840902864933014, 0.018427859991788864]","[0.1194814550023382, -1.4513148717925584, 0.1194814550023382, 0.1194814550023382, 0.1194814550023382, 0.1194814550023382]",0.002,7,1
0,29,"[0.019490836188197136, -1.5504321542433281, 0.019928757344381154, 0.01966790735211177, 0.01949496567249298, 0.01966388337314129]","[0.11989359530379957, -1.450902731491097, 0.11989359530379957, 0.11989359530379957, 0.11989359530379957, 0.11989359530379957]",0.002,7,1
0,30,"[0.020581385120749474, -1.5491476462087412, 0.02122050920595342, 0.021017594928405714, 0.020783934742212296, 0.020838145166635513]","[0.12030554620115486, -1.4504907805937417, 0.12030554620115486, 0.12030554620115486, 0.12030554620115486, 0.12030554620115486]",0.002,7,1
0,31,"[0.021905437111854553, -1.547855469664075, 0.022481266652242482, 0.022197409267089796, 0.022033531218767166, 0.022142641246318817]","[0.12071730704361706, -1.4500790197512794, 0.12071730704361706, 0.12071730704361706, 0.12071730704361706, 0.12071730704361706]",0.002,7,1
0,32,"[0.023195400834083557, -1.5465549819967528, 0.023696247731344044, 0.02343837797131343, 0.02330586314201355, 0.023447370156645775]","[0.12112887718069947, -1.449667449614197, 0.12112887718069947, 0.12112887718069947, 0.12112887718069947, 0.12112887718069947]",0.002,7,1
0,33,"[0.024554969742894173, -1.5452305779657145, 0.024944130574361623, 0.024669094676635694, 0.024675071239471436, 0.02480236440896988]","[0.12154025596221658, -1.44925607083268, 0.12154025596221658, 0.12154025596221658, 0.12154025596221658, 0.12154025596221658]",0.002,7,1
0,34,"[0.025865262374281883, -1.5438280173442145, 0.02629405656923467, 0.025940342540405226, 0.026038883253932, 0.026145268231630325]","[0.12195144273828526, -1.4488448840566113, 0.12195144273828526, 0.12195144273828526, 0.12195144273828526, 0.12195144273828526]",0.002,7,1
0,35,"[0.02721063420176506, -1.5424470857581873, 0.027707878743306935, 0.02734307825054927, 0.027421023696660995, 0.027529818937182426]","[0.12236243685932563, -1.4484338899355709, 0.12236243685932563, 0.12236243685932563, 0.12236243685932563, 0.12236243685932563]",0.002,7,1
0,36,"[0.02853059582412243, -1.5410144322416564, 0.029174629841939748, 0.028749867076538038, 0.028889421373605728, 0.028978288173675537]","[0.12277323767606219, -1.4480230891188344, 0.12277323767606219, 0.12277323767606219, 0.12277323767606219, 0.12277323767606219]",0.002,7,1
0,37,"[0.029976461082696915, -1.5395907939276476, 0.030580822621480763, 0.030181689853332472, 0.03030819073319435, 0.030426612123847008]","[0.12318384453952479, -1.4476124822553718, 0.12318384453952479, 0.12318384453952479, 0.12318384453952479, 0.12318384453952479]",0.002,7,1
0,38,"[0.03139285743236542, -1.5381299418262024, 0.031995598469869435, 0.031651540393493605, 0.031872183084487915, 0.031873732805252075]","[0.12359425680104974, -1.4472020699938468, 0.12359425680104974, 0.12359425680104974, 0.12359425680104974, 0.12359425680104974]",0.002,7,1
0,39,"[0.03286805376410484, -1.5366466280869027, 0.03352052370180303, 0.03328768789257808, 0.0332932285964489, 0.03335278108716011]","[0.12400447381228076, -1.4467918529826158, 0.12400447381228076, 0.12400447381228076, 0.12400447381228076, 0.12400447381228076]",0.002,7,1
0,40,"[0.03442267328500748, -1.5351750080338498, 0.0350268522845667, 0.03478066503491206, 0.03491973131895065, 0.03484348952770233]","[0.12441449492516997, -1.4463818318697266, 0.12441449492516997, 0.12441449492516997, 0.12441449492516997, 0.12441449492516997]",0.002,7,1
0,41,"[0.03599032759666443, -1.5336951923421402, 0.03654605547060186, 0.036369486446044874, 0.03639909625053406, 0.03643371909856796]","[0.124824319491979, -1.4459720073029176, 0.124824319491979, 0.124824319491979, 0.124824319491979, 0.124824319491979]",0.002,7,1
0,42,"[0.03757615014910698, -1.5321271021715184, 0.03818351427187139, 0.0380444961735229, 0.03808517009019852, 0.03801039978861809]","[0.12523394686527997, -1.4455623799296167, 0.12523394686527997, 0.12523394686527997, 0.12523394686527997, 0.12523394686527997]",0.002,7,1
0,43,"[0.03923407942056656, -1.5305298802307625, 0.039731804524556935, 0.03966133176770015, 0.03961137309670448, 0.03956602141261101]","[0.12564337639795659, -1.44515295039694, 0.12564337639795659, 0.12564337639795659, 0.12564337639795659, 0.12564337639795659]",0.002,7,1
0,44,"[0.040827758610248566, -1.528940526103117, 0.04134828249086553, 0.04138712465252681, 0.0411592461168766, 0.041116777807474136]","[0.1260526074432049, -1.4447437193516917, 0.1260526074432049, 0.1260526074432049, 0.1260526074432049, 0.1260526074432049]",0.002,7,1
0,45,"[0.042422641068696976, -1.527303786282875, 0.042948547993795216, 0.043018026942871046, 0.042875565588474274, 0.042718976736068726]","[0.1264616393545348, -1.4443346874403618, 0.1264616393545348, 0.1264616393545348, 0.1264616393545348, 0.1264616393545348]",0.002,7,1
0,46,"[0.04415241628885269, -1.5256722506931801, 0.04466373125185186, 0.04478125154461665, 0.04447086155414581, 0.04435471445322037]","[0.12687047148577058, -1.4439258553091259, 0.12687047148577058, 0.12687047148577058, 0.12687047148577058, 0.12687047148577058]",0.002,7,1
0,47,"[0.04586504027247429, -1.524058637475111, 0.046282593403951466, 0.04645351945843501, 0.04607477784156799, 0.04603138938546181]","[0.12727910319105212, -1.4435172236038445, 0.12727910319105212, 0.12727910319105212, 0.12727910319105212, 0.12727910319105212]",0.002,7,1
0,48,"[0.04753844812512398, -1.5223828938654442, 0.04796487489809209, 0.0481225687214355, 0.0478971004486084, 0.04776175692677498]","[0.1276875338248361, -1.4431087929700603, 0.1276875338248361, 0.1276875338248361, 0.1276875338248361, 0.1276875338248361]",0.002,7,1
0,49,"[0.04927758127450943, -1.5206912209144612, 0.04965383211244756, 0.04982726156201167, 0.0495685450732708, 0.04956669360399246]","[0.12809576274189666, -1.442700564053, 0.12809576274189666, 0.12809576274189666, 0.12809576274189666, 0.12809576274189666]",0.002,7,1
0,50,"[0.05110323801636696, -1.5189588528922577, 0.05136758485902959, 0.0515487629124145, 0.0512910820543766, 0.05133465304970741]","[0.1285037892973267, -1.44229253749757, 0.1285037892973267, 0.1285037892973267, 0.1285037892973267, 0.1285037892973267]",0.002,7,1
0,51,"[0.05287552252411842, -1.5171330955675622, 0.053092304860250294, 0.05321006357159419, 0.05311575159430504, 0.05313074588775635]","[0.12891161284653874, -1.4418847139483577, 0.12891161284653874, 0.12891161284653874, 0.12891161284653874, 0.12891161284653874]",0.002,7,1
0,52,"[0.05464797094464302, -1.515428477232792, 0.054903809224263966, 0.05498413621868892, 0.05483902618288994, 0.05497012287378311]","[0.12931923274526613, -1.4414770940496304, 0.12931923274526613, 0.12931923274526613, 0.12931923274526613, 0.12931923274526613]",0.002,7,1
0,53,"[0.05649274215102196, -1.5135914471796532, 0.056694809590474904, 0.05671958505596919, 0.05669671297073364, 0.056820377707481384]","[0.12972664834956382, -1.4410696784453327, 0.12972664834956382, 0.12972664834956382, 0.12972664834956382, 0.12972664834956382]",0.002,7,1
0,54,"[0.05832814797759056, -1.5118000780097027, 0.058471028004781544, 0.058528586024902296, 0.05856693163514137, 0.058696359395980835]","[0.1301338590158095, -1.4406624677790871, 0.1301338590158095, 0.1301338590158095, 0.1301338590158095, 0.1301338590158095]",0.002,7,1
0,55,"[0.06020960584282875, -1.5099946942976494, 0.06023914018739873, 0.06035368024792476, 0.06049027293920517, 0.06056898087263107]","[0.13054086410070473, -1.440255462694192, 0.13054086410070473, 0.13054086410070473, 0.13054086410070473, 0.13054086410070473]",0.002,7,1
0,56,"[0.06205377355217934, -1.5081415262869378, 0.06215078035463506, 0.06225077688183589, 0.06233692169189453, 0.062459684908390045]","[0.13094766296127572, -1.4398486638336208, 0.13094766296127572, 0.13094766296127572, 0.13094766296127572, 0.13094766296127572]",0.002,7,1
0,57,"[0.06388939172029495, -1.5063288074782868, 0.06395465532411748, 0.06414775430645747, 0.06421095132827759, 0.06432235240936279]","[0.13135425495487452, -1.439442071840022, 0.13135425495487452, 0.13135425495487452, 0.13135425495487452, 0.13135425495487452]",0.002,7,1
0,58,"[0.06582919508218765, -1.504567840402462, 0.06592685381044561, 0.06608454763378901, 0.06620201468467712, 0.06620847433805466]","[0.1317606394391799, -1.4390356873557166, 0.1317606394391799, 0.1317606394391799, 0.1317606394391799, 0.1317606394391799]",0.002,7,1
0,59,"[0.06787068396806717, -1.5027037274888535, 0.06775790849794561, 0.06805567323651118, 0.06808537244796753, 0.0680190697312355]","[0.13216681577219863, -1.4386295110226979, 0.13216681577219863, 0.13216681577219863, 0.13216681577219863, 0.13216681577219863]",0.002,7,1
0,60,"[0.06986177712678909, -1.5008508500507851, 0.06976300874818975, 0.07001785814251704, 0.07003118842840195, 0.06999698281288147]","[0.13257278331226613, -1.4382235434826305, 0.13257278331226613, 0.13257278331226613, 0.13257278331226613, 0.13257278331226613]",0.002,7,1
0,61,"[0.07186026871204376, -1.4989706140807648, 0.0716941992389124, 0.07206050931896968, 0.07196931540966034, 0.07187149673700333]","[0.13297854141804777, -1.4378177853768488, 0.13297854141804777, 0.13297854141804777, 0.13297854141804777, 0.13297854141804777]",0.002,7,1
0,62,"[0.07381638139486313, -1.497058005338051, 0.07359010377992803, 0.07407455026593013, 0.07377336919307709, 0.07382917404174805]","[0.1333840894485397, -1.437412237346357, 0.1333840894485397, 0.1333840894485397, 0.1333840894485397, 0.1333840894485397]",0.002,7,1
0,63,"[0.0757291167974472, -1.4951654759100457, 0.07552510896791631, 0.07608656465496821, 0.07573285698890686, 0.07570797950029373]","[0.13378942676307, -1.4370069000318266, 0.13378942676307, 0.13378942676307, 0.13378942676307, 0.13378942676307]",0.002,7,1
0,64,"[0.07773539423942566, -1.4932665911367913, 0.0775216261493128, 0.07809500276531978, 0.07770031690597534, 0.07762411236763]","[0.13419455272129965, -1.4366017740735968, 0.13419455272129965, 0.13419455272129965, 0.13419455272129965, 0.13419455272129965]",0.002,7,1
0,65,"[0.07971123605966568, -1.4913479697755356, 0.07940942445863897, 0.08003847181286616, 0.07963551580905914, 0.07964944839477539]","[0.13459946668322342, -1.4361968601116732, 0.13459946668322342, 0.13459946668322342, 0.13459946668322342, 0.13459946668322342]",0.002,7,1
0,66,"[0.08170727640390396, -1.489349679355957, 0.0813825766192835, 0.08193199216809077, 0.08161864429712296, 0.08171845972537994]","[0.1350041680091711, -1.4357921587857254, 0.1350041680091711, 0.1350041680091711, 0.1350041680091711, 0.1350041680091711]",0.002,7,1
0,67,"[0.08382214605808258, -1.4874219608357926, 0.08336812654604131, 0.08384708940472407, 0.08369029313325882, 0.08374007791280746]","[0.13540865605980834, -1.4353876707350883, 0.13540865605980834, 0.13540865605980834, 0.13540865605980834, 0.13540865605980834]",0.002,7,1
0,68,"[0.08578991144895554, -1.4853700709393998, 0.08526689211000615, 0.08576206743206782, 0.08568799495697021, 0.0858076810836792]","[0.1358129301961377, -1.4349833965987588, 0.1358129301961377, 0.1358129301961377, 0.1358129301961377, 0.1358129301961377]",0.002,7,1
0,69,"[0.08785618841648102, -1.4834327560714264, 0.08737594286073858, 0.0877426105686645, 0.08772975206375122, 0.08784067630767822]","[0.1362169897794997, -1.4345793370153967, 0.1362169897794997, 0.1362169897794997, 0.1362169897794997, 0.1362169897794997]",0.002,7,1
0,70,"[0.0898783728480339, -1.4814299580505867, 0.08932954469789678, 0.08969645082440181, 0.08980146050453186, 0.08991444110870361]","[0.13662083417157384, -1.4341754926233228, 0.13662083417157384, 0.13662083417157384, 0.13662083417157384, 0.13662083417157384]",0.002,7,1
0,71,"[0.09188397228717804, -1.4794038099101563, 0.0913475195514124, 0.09175805627789302, 0.09190306812524796, 0.09198516607284546]","[0.1370244627343795, -1.433771864060517, 0.1370244627343795, 0.1370244627343795, 0.1370244627343795, 0.1370244627343795]",0.002,7,1
0,72,"[0.09391522407531738, -1.477401116197445, 0.09335786501039678, 0.09380654870953364, 0.09395629167556763, 0.09406391531229019]","[0.1374278748302771, -1.4333684519646195, 0.1374278748302771, 0.1374278748302771, 0.1374278748302771, 0.1374278748302771]",0.002,7,1
0,73,"[0.09583619236946106, -1.4754567605308075, 0.09534961382021123, 0.09582070886578364, 0.09603699296712875, 0.09604105353355408]","[0.1378310698219689, -1.4329652569729276, 0.1378310698219689, 0.1378310698219689, 0.1378310698219689, 0.1378310698219689]",0.002,7,1
0,74,"[0.09793400764465332, -1.4734730806997796, 0.09744006792177373, 0.09789959966625972, 0.09801457822322845, 0.09807074069976807]","[0.1382340470725003, -1.4325622797223962, 0.1382340470725003, 0.1382340470725003, 0.1382340470725003, 0.1382340470725003]",0.002,7,1
0,75,"[0.10006190836429596, -1.4714215782335778, 0.09939414659609014, 0.10005418836560054, 0.10014881193637848, 0.1000482514500618]","[0.13863680594526057, -1.432159520849636, 0.13863680594526057, 0.13863680594526057, 0.13863680594526057, 0.13863680594526057]",0.002,7,1
0,76,"[0.1021026149392128, -1.4694547963193436, 0.10150653520692998, 0.1021537023731689, 0.10210132598876953, 0.10208532214164734]","[0.13903934580398397, -1.4317569809909125, 0.13903934580398397, 0.13903934580398397, 0.13903934580398397, 0.13903934580398397]",0.002,7,1
0,77,"[0.10419490933418274, -1.4674029734781762, 0.10352117220033819, 0.10428421079602046, 0.1041179671883583, 0.10407575219869614]","[0.1394416660127508, -1.4313546607821457, 0.1394416660127508, 0.1394416660127508, 0.1394416660127508, 0.1394416660127508]",0.002,7,1
0,78,"[0.10617966204881668, -1.4654698383859177, 0.10565787950624639, 0.10642187177624507, 0.10606219619512558, 0.10611634701490402]","[0.13984376593598832, -1.4309525608589082, 0.13984376593598832, 0.13984376593598832, 0.13984376593598832, 0.13984376593598832]",0.002,7,1
0,79,"[0.1082807332277298, -1.463434786801674, 0.10766965547670537, 0.10847572862591548, 0.10808337479829788, 0.10814589262008667]","[0.14024564493847183, -1.4305506818564246, 0.14024564493847183, 0.14024564493847183, 0.14024564493847183, 0.14024564493847183]",0.002,7,1
0,80,"[0.11032336950302124, -1.461431236272194, 0.10970527330507451, 0.11059717714276118, 0.11019261181354523, 0.11010944843292236]","[0.14064730238532558, -1.430149024409571, 0.14064730238532558, 0.14064730238532558, 0.14064730238532558, 0.14064730238532558]",0.002,7,1
0,81,"[0.11239776760339737, -1.4594114136746903, 0.11171037355531865, 0.11255578577008052, 0.11221284419298172, 0.11221545189619064]","[0.14104873764202383, -1.4297475891528728, 0.14104873764202383, 0.14104873764202383, 0.14104873764202383, 0.14104873764202383]",0.002,7,1
0,82,"[0.1144547387957573, -1.4573639196208497, 0.11373979250063115, 0.11446957170452876, 0.11429392546415329, 0.11433837562799454]","[0.14144995007439193, -1.4293463767205046, 0.14144995007439193, 0.14144995007439193, 0.14144995007439193, 0.14144995007439193]",0.002,7,1
0,83,"[0.1164887547492981, -1.4553108376315613, 0.11577779451479131, 0.11644379674877925, 0.11636767536401749, 0.11645131558179855]","[0.14185093904860713, -1.4289453877462894, 0.14185093904860713, 0.14185093904860713, 0.14185093904860713, 0.14185093904860713]",0.002,7,1
0,84,"[0.11855049431324005, -1.453288660650589, 0.11783153215517217, 0.11837164937939448, 0.11848235875368118, 0.11847423017024994]","[0.14225170393119976, -1.4285446228636969, 0.14225170393119976, 0.14225170393119976, 0.14225170393119976, 0.14225170393119976]",0.002,7,1
0,85,"[0.12058351188898087, -1.4511594486287613, 0.11984092393984014, 0.1204041677662353, 0.12050149589776993, 0.12062069773674011]","[0.14265224408905414, -1.4281440827058425, 0.14265224408905414, 0.14265224408905414, 0.14265224408905414, 0.14265224408905414]",0.002,7,1
0,86,"[0.1226002499461174, -1.4490800362876435, 0.12184507051576787, 0.1224331098743896, 0.12261084467172623, 0.12267503887414932]","[0.1430525588894096, -1.427743767905487, 0.1430525588894096, 0.1430525588894096, 0.1430525588894096, 0.1430525588894096]",0.002,7,1
0,87,"[0.12465550005435944, -1.4470430475524445, 0.12390166917909795, 0.12446312486614985, 0.12465053051710129, 0.12467873841524124]","[0.14345264769986155, -1.427343679095035, 0.14345264769986155, 0.14345264769986155, 0.14345264769986155, 0.14345264769986155]",0.002,7,1
0,88,"[0.1266050934791565, -1.4450425815633317, 0.1259406248675745, 0.12645809232678218, 0.12670239806175232, 0.12685123085975647]","[0.1438525098883623, -1.4269438169065343, 0.1438525098883623, 0.1438525098883623, 0.1438525098883623, 0.1438525098883623]",0.002,7,1
0,89,"[0.12865275144577026, -1.4430174690536042, 0.12798959413637334, 0.1285431820103149, 0.12882168591022491, 0.12879572808742523]","[0.1442521448232222, -1.4265441819716744, 0.1442521448232222, 0.1442521448232222, 0.1442521448232222, 0.1442521448232222]",0.002,7,1
0,90,"[0.13076575100421906, -1.440948264007904, 0.1300109068499964, 0.13063149034466548, 0.1308482438325882, 0.13075731694698334]","[0.1446515518731107, -1.426144774921786, 0.1446515518731107, 0.1446515518731107, 0.1446515518731107, 0.1446515518731107]",0.002,7,1
0,91,"[0.1327516734600067, -1.4389619094184418, 0.13198978105653936, 0.13264958440747066, 0.1328054666519165, 0.13277186453342438]","[0.14505073040705715, -1.4257455963878394, 0.14505073040705715, 0.14505073040705715, 0.14505073040705715, 0.14505073040705715]",0.002,7,1
0,92,"[0.13483382761478424, -1.4369590741446991, 0.13395387331117803, 0.13475148260083003, 0.1347799003124237, 0.13477233052253723]","[0.14544967979445197, -1.4253466470004446, 0.14544967979445197, 0.14544967979445197, 0.14544967979445197, 0.14544967979445197]",0.002,7,1
0,93,"[0.13679398596286774, -1.4350042057088395, 0.1360109488116663, 0.13683001577343745, 0.13668686151504517, 0.1366814225912094]","[0.1458483994050475, -1.424947927389849, 0.1458483994050475, 0.1458483994050475, 0.1458483994050475, 0.1458483994050475]",0.002,7,1
0,94,"[0.13873769342899323, -1.4331160497716446, 0.1380069891559046, 0.13890139638867183, 0.13860630989074707, 0.13866746425628662]","[0.14624688860895915, -1.4245494381859374, 0.14624688860895915, 0.14624688860895915, 0.14624688860895915, 0.14624688860895915]",0.002,7,1
0,95,"[0.14080116152763367, -1.4310738158277054, 0.1399768034564417, 0.1409103113361816, 0.1405898481607437, 0.14060615003108978]","[0.1466451467766663, -1.4241511800182303, 0.1466451467766663, 0.1466451467766663, 0.1466451467766663, 0.1466451467766663]",0.002,7,1
0,96,"[0.14275600016117096, -1.4291325819543381, 0.14191085497011358, 0.14285974084820552, 0.14248837530612946, 0.14254768192768097]","[0.1470431732790133, -1.4237531535158832, 0.1470431732790133, 0.1470431732790133, 0.1470431732790133, 0.1470431732790133]",0.002,7,1
0,97,"[0.1447797268629074, -1.42716600120578, 0.14385492006410772, 0.14468960344281, 0.1445063352584839, 0.14457356929779053]","[0.14744096748721047, -1.4233553593076862, 0.14744096748721047, 0.14744096748721047, 0.14744096748721047, 0.14744096748721047]",0.002,7,1
0,98,"[0.14673301577568054, -1.4251995992711564, 0.14575082460512334, 0.14658383905377192, 0.14643506705760956, 0.14653709530830383]","[0.14783852877283513, -1.4229577980220613, 0.14783852877283513, 0.14783852877283513, 0.14783852877283513, 0.14783852877283513]",0.002,7,1
0,99,"[0.14863617718219757, -1.4232567709735413, 0.14764291444887334, 0.14843015253033442, 0.14836843311786652, 0.14853788912296295]","[0.1482358565078325, -1.422560470287064, 0.1482358565078325, 0.1482358565078325, 0.1482358565078325, 0.1482358565078325]",0.002,7,1
0,100,"[0.15055792033672333, -1.4212747526219864, 0.14967614809145147, 0.15028242647137446, 0.1503172516822815, 0.15046459436416626]","[0.1486329500645169, -1.4221633767303796, 0.1486329500645169, 0.1486329500645169, 0.1486329500645169, 0.1486329500645169]",0.002,7,1
0,101,"[0.15250760316848755, -1.419370399122574, 0.15153772035707647, 0.1521708208271484, 0.1523400843143463, 0.1524289846420288]","[0.1490298088155724, -1.4217665179793242, 0.1490298088155724, 0.1490298088155724, 0.1490298088155724, 0.1490298088155724]",0.002,7,1
0,102,"[0.15436553955078125, -1.4174265277436753, 0.15353233018984014, 0.154064341182373, 0.1543087512254715, 0.15429392457008362]","[0.14942643213405413, -1.4213698946608424, 0.14942643213405413, 0.14942643213405413, 0.14942643213405413, 0.14942643213405413]",0.002,7,1
0,103,"[0.15619057416915894, -1.4154647451690217, 0.15543634096254522, 0.15593473493542476, 0.15617097914218903, 0.15623530745506287]","[0.1498228193933892, -1.4209735074015073, 0.1498228193933892, 0.1498228193933892, 0.1498228193933892, 0.1498228193933892]",0.002,7,1
0,104,"[0.15802033245563507, -1.4136645954898377, 0.15725213686098272, 0.15776781618084712, 0.1581358015537262, 0.15815521776676178]","[0.15021896996737752, -1.420577356827519, 0.15021896996737752, 0.15021896996737752, 0.15021896996737752, 0.15021896996737752]",0.002,7,1
0,105,"[0.15802033245563507, -1.4136645954898377, 0.15725213686098272, 0.15776781618084712, 0.1581358015537262, 0.15815521776676178]","[0.15061488323019293, -1.4201814435647035, 0.15061488323019293, 0.15061488323019293, 0.15061488323019293, 0.15061488323019293]",0.002,7,1
0,106,"[0.16186048090457916, -1.4100062859109421, 0.160987679158346, 0.1616390186497192, 0.16182789206504822, 0.16184379160404205]","[0.15101055855638423, -1.4197857682385124, 0.15101055855638423, 0.15101055855638423, 0.15101055855638423, 0.15101055855638423]",0.002,7,1
0,107,"[0.1636315882205963, -1.4082203668406983, 0.16283113161195928, 0.1634012895771484, 0.16368961334228516, 0.16362489759922028]","[0.15140599532087604, -1.4193903314740206, 0.15140599532087604, 0.15140599532087604, 0.15140599532087604, 0.15140599532087604]",0.002,7,1
0,108,"[0.16550177335739136, -1.4064254772714158, 0.1646793524371546, 0.16531233369793696, 0.16544872522354126, 0.16534219682216644]","[0.1518011928989699, -1.4189951338959266, 0.1518011928989699, 0.1518011928989699, 0.1518011928989699, 0.1518011928989699]",0.002,7,1
0,109,"[0.16727831959724426, -1.4046366524747391, 0.16643840471376592, 0.1671321827122192, 0.1671934723854065, 0.16714708507061005]","[0.15219615066634518, -1.4186001761285514, 0.15219615066634518, 0.15219615066634518, 0.15219615066634518, 0.15219615066634518]",0.002,7,1
0,110,"[0.16904211044311523, -1.40286477029834, 0.1682217756854456, 0.16899554311718745, 0.16893370449543, 0.1688498556613922]","[0.15259086799906008, -1.4182054587958364, 0.15259086799906008, 0.15259086799906008, 0.15259086799906008, 0.15259086799906008]",0.002,7,1
0,111,"[0.17085260152816772, -1.4011177134564896, 0.16998845735658819, 0.17086116849865718, 0.17059409618377686, 0.17054352164268494]","[0.15298534427355268, -1.4178109825213439, 0.15298534427355268, 0.15298534427355268, 0.15298534427355268, 0.15298534427355268]",0.002,7,1
0,112,"[0.17253968119621277, -1.399466724400856, 0.17176753679384404, 0.17254750310864253, 0.17232279479503632, 0.17225798964500427]","[0.15337957886664189, -1.4174167479282547, 0.15337957886664189, 0.15337957886664189, 0.15337957886664189, 0.15337957886664189]",0.002,7,1
0,113,"[0.17430490255355835, -1.3976726692966004, 0.1734398047076624, 0.17425648748364253, 0.17402517795562744, 0.17397119104862213]","[0.1537735711555283, -1.4170227556393682, 0.1537735711555283, 0.1537735711555283, 0.1537735711555283, 0.1537735711555283]",0.002,7,1
0,114,"[0.17597664892673492, -1.3960371178439637, 0.1751325766192835, 0.17581300317730708, 0.17579369246959686, 0.17569340765476227]","[0.15416732051779541, -1.4166290062771012, 0.15416732051779541, 0.15416732051779541, 0.15416732051779541, 0.15416732051779541]",0.002,7,1
0,115,"[0.17766505479812622, -1.3943186712316056, 0.17677098909486944, 0.1774872976490478, 0.1774667501449585, 0.17742739617824554]","[0.15456082633141044, -1.4162355004634861, 0.15456082633141044, 0.15456082633141044, 0.15456082633141044, 0.15456082633141044]",0.002,7,1
0,116,"[0.17940673232078552, -1.3926198792508622, 0.17845613161195928, 0.17911343156781, 0.1791626363992691, 0.17911751568317413]","[0.15495408797472535, -1.4158422388201712, 0.15495408797472535, 0.15495408797472535, 0.15495408797472535, 0.15495408797472535]",0.002,7,1
0,117,"[0.1809859722852707, -1.3910277646831055, 0.18009883562196904, 0.18071119367565913, 0.18085573613643646, 0.1808612197637558]","[0.15534710482647787, -1.4154492219684187, 0.15534710482647787, 0.15534710482647787, 0.15534710482647787, 0.15534710482647787]",0.002,7,1
0,118,"[0.18260958790779114, -1.3893898141435166, 0.1816652456866663, 0.1823085981556396, 0.18238995969295502, 0.18248777091503143]","[0.1557398762657924, -1.4150564505291041, 0.1557398762657924, 0.1557398762657924, 0.1557398762657924, 0.1557398762657924]",0.002,7,1
0,119,"[0.18426738679409027, -1.387770341043808, 0.18334848085512334, 0.18387047826733394, 0.18409210443496704, 0.18410003185272217]","[0.15613240167218106, -1.4146639251227155, 0.15613240167218106, 0.15613240167218106, 0.15613240167218106, 0.15613240167218106]",0.002,7,1
0,120,"[0.18578508496284485, -1.3861479771188279, 0.18490344682802373, 0.18543176233258052, 0.18570728600025177, 0.18573157489299774]","[0.15652468042554465, -1.4142716463693519, 0.15652468042554465, 0.15652468042554465, 0.15652468042554465, 0.15652468042554465]",0.002,7,1
0,121,"[0.1873217225074768, -1.3845022034696122, 0.18646413484682256, 0.18695954858746333, 0.18732814490795135, 0.18731789290905]","[0.1569167119061736, -1.413879614888723, 0.1569167119061736, 0.1569167119061736, 0.1569167119061736, 0.1569167119061736]",0.002,7,1
0,122,"[0.18884992599487305, -1.382976384168007, 0.18800479570497686, 0.18860714017834468, 0.18889059126377106, 0.18887001276016235]","[0.157308495494749, -1.4134878313001475, 0.157308495494749, 0.157308495494749, 0.157308495494749, 0.157308495494749]",0.002,7,1
0,123,"[0.19038203358650208, -1.3814733040383835, 0.18949681917299444, 0.19008640825238032, 0.19039291143417358, 0.19042231142520905]","[0.15770003057234352, -1.413096296222553, 0.15770003057234352, 0.15770003057234352, 0.15770003057234352, 0.15770003057234352]",0.002,7,1
0,124,"[0.19191515445709229, -1.3799206626466294, 0.1910017172442835, 0.19163159906353755, 0.19191913306713104, 0.19185306131839752]","[0.1580913165204225, -1.412705010274474, 0.1580913165204225, 0.1580913165204225, 0.1580913165204225, 0.1580913165204225]",0.002,7,1
0,125,"[0.19339756667613983, -1.3784659814885636, 0.19250566164125615, 0.19304577886547847, 0.19337476789951324, 0.19332344830036163]","[0.1584823527208447, -1.4123139740740518, 0.1584823527208447, 0.1584823527208447, 0.1584823527208447, 0.1584823527208447]",0.002,7,1
0,126,"[0.19481097161769867, -1.3769624841264267, 0.19392806688417608, 0.19464139520611567, 0.19481384754180908, 0.19472050666809082]","[0.1588731385558636, -1.411923188239033, 0.1588731385558636, 0.1588731385558636, 0.1588731385558636, 0.1588731385558636]",0.002,7,1
0,127,"[0.19636516273021698, -1.375583754186966, 0.19545156160463506, 0.19607488691296382, 0.19618180394172668, 0.19610406458377838]","[0.15926367340812805, -1.4115326533867685, 0.15926367340812805, 0.15926367340812805, 0.15926367340812805, 0.15926367340812805]",0.002,7,1
0,128,"[0.1977083683013916, -1.374132679109909, 0.19686919847597295, 0.19754807531323237, 0.19754929840564728, 0.19746975600719452]","[0.15965395666068347, -1.4111423701342132, 0.15965395666068347, 0.15965395666068347, 0.15965395666068347, 0.15965395666068347]",0.002,7,1
0,129,"[0.1990472674369812, -1.3727508050254364, 0.19827062288393194, 0.19899432241406245, 0.19886453449726105, 0.19880743324756622]","[0.1600439876969727, -1.410752339097924, 0.1600439876969727, 0.1600439876969727, 0.1600439876969727, 0.1600439876969727]",0.002,7,1
0,130,"[0.2004348784685135, -1.3714471024325867, 0.19964439073671514, 0.20040444910015864, 0.20025108754634857, 0.200175479054451]","[0.16043376590083713, -1.4103625608940593, 0.16043376590083713, 0.16043376590083713, 0.16043376590083713, 0.16043376590083713]",0.002,7,1
0,131,"[0.2017442137002945, -1.3700764787248154, 0.2009494940387171, 0.20170239984478755, 0.20155277848243713, 0.201478973031044]","[0.16082329065651743, -1.409973036138379, 0.16082329065651743, 0.16082329065651743, 0.16082329065651743, 0.16082329065651743]",0.002,7,1
0,132,"[0.20307333767414093, -1.3686882269433518, 0.20231277147401983, 0.203006311053894, 0.20294509828090668, 0.20275940001010895]","[0.16121256134865475, -1.4095837654462418, 0.16121256134865475, 0.16121256134865475, 0.16121256134865475, 0.16121256134865475]",0.002,7,1
0,133,"[0.20429979264736176, -1.3674491059831162, 0.20358211198915654, 0.20424751817669673, 0.20418168604373932, 0.2040296047925949]","[0.16160157736229158, -1.409194749432605, 0.16160157736229158, 0.16160157736229158, 0.16160157736229158, 0.16160157736229158]",0.002,7,1
0,134,"[0.20555903017520905, -1.3661929082921525, 0.20487004915346319, 0.20550887166943355, 0.20542068779468536, 0.20529387891292572]","[0.1619903380828727, -1.408805988712024, 0.1619903380828727, 0.1619903380828727, 0.1619903380828727, 0.1619903380828727]",0.002,7,1
0,135,"[0.2068263292312622, -1.3650180262378235, 0.20608836809267217, 0.20671193181958003, 0.2066364288330078, 0.20653213560581207]","[0.1623788428962463, -1.4084174838986503, 0.1623788428962463, 0.1623788428962463, 0.1623788428962463, 0.1623788428962463]",0.002,7,1
0,136,"[0.2079930305480957, -1.3638127905181427, 0.20735532442201787, 0.20786969243969722, 0.20781835913658142, 0.20776008069515228]","[0.16276709118866473, -1.4080292356062318, 0.16276709118866473, 0.16276709118866473, 0.16276709118866473, 0.16276709118866473]",0.002,7,1
0,137,"[0.20918352901935577, -1.3625624638846894, 0.20854121843446904, 0.2090020614811401, 0.20900113880634308, 0.20899884402751923]","[0.1631550823467856, -1.407641244448111, 0.1631550823467856, 0.1631550823467856, 0.1631550823467856, 0.1631550823467856]",0.002,7,1
0,138,"[0.21031790971755981, -1.361379624610283, 0.20966130891908819, 0.21006040155377192, 0.21016931533813477, 0.21018698811531067]","[0.16354281575767285, -1.4072535110372237, 0.16354281575767285, 0.16354281575767285, 0.16354281575767285, 0.16354281575767285]",0.002,7,1
0,139,"[0.21140921115875244, -1.3602314305356522, 0.21084148088564092, 0.21115629255261226, 0.21128733456134796, 0.2112925797700882]","[0.16393029080879742, -1.4068660359860992, 0.16393029080879742, 0.16393029080879742, 0.16393029080879742, 0.16393029080879742]",0.002,7,1
0,140,"[0.21255700290203094, -1.3591244679740448, 0.21194631258119756, 0.21230487405743403, 0.21245482563972473, 0.2124575525522232]","[0.16431750688803853, -1.406478819906858, 0.16431750688803853, 0.16431750688803853, 0.16431750688803853, 0.16431750688803853]",0.002,7,1
0,141,"[0.21365754306316376, -1.3579766315272828, 0.21311456361879522, 0.21334342538800044, 0.2135305255651474, 0.21353277564048767]","[0.16470446338368452, -1.406091863411212, 0.16470446338368452, 0.16470446338368452, 0.16470446338368452, 0.16470446338368452]",0.002,7,1
0,142,"[0.2146296203136444, -1.3569111985019227, 0.21410113969911748, 0.21435002862896724, 0.21468637883663177, 0.21458344161510468]","[0.16509115968443372, -1.4057051671104628, 0.16509115968443372, 0.16509115968443372, 0.16509115968443372, 0.16509115968443372]",0.002,7,1
0,143,"[0.2156621664762497, -1.3558016580394288, 0.21516067186464483, 0.2153363662907104, 0.21564719080924988, 0.21564729511737823]","[0.16547759517939556, -1.405318731615501, 0.16547759517939556, 0.16547759517939556, 0.16547759517939556, 0.16547759517939556]",0.002,7,1
0,144,"[0.2167029082775116, -1.3547819268754502, 0.21619111696352178, 0.21631507455792232, 0.21667933464050293, 0.21667608618736267]","[0.16586376925809146, -1.404932557536805, 0.16586376925809146, 0.16586376925809146, 0.16586376925809146, 0.16586376925809146]",0.002,7,1
0,145,"[0.21757599711418152, -1.3537974816611786, 0.21716863313783819, 0.21736590444531245, 0.2176072746515274, 0.21757781505584717]","[0.16624968131045587, -1.4045466454844406, 0.16624968131045587, 0.16624968131045587, 0.16624968131045587, 0.16624968131045587]",0.002,7,1
0,146,"[0.21854892373085022, -1.352852226500847, 0.21813947359193975, 0.21835796415295405, 0.21856236457824707, 0.2185804396867752]","[0.16663533072683717, -1.4041609960680594, 0.16663533072683717, 0.16663533072683717, 0.16663533072683717, 0.16663533072683717]",0.002,7,1
0,147,"[0.21938282251358032, -1.351922557955124, 0.21906072298158819, 0.21916250764813228, 0.21952544152736664, 0.21949473023414612]","[0.16702071689799858, -1.4037756098968979, 0.16702071689799858, 0.16702071689799858, 0.16702071689799858, 0.16702071689799858]",0.002,7,1
0,148,"[0.22031450271606445, -1.35100673258815, 0.21988469759096319, 0.2200302320667724, 0.22043906152248383, 0.22032496333122253]","[0.16740583921511923, -1.4033904875797774, 0.16740583921511923, 0.16740583921511923, 0.16740583921511923, 0.16740583921511923]",0.002,7,1
0,149,"[0.22117076814174652, -1.3501440596631546, 0.2208159605609339, 0.22095338880505366, 0.22123584151268005, 0.22123923897743225]","[0.16779069706979508, -1.4030056297251015, 0.16779069706979508, 0.16779069706979508, 0.16779069706979508, 0.16779069706979508]",0.002,7,1
0,150,"[0.2220008224248886, -1.349273459320404, 0.22166902223695928, 0.22186152517285151, 0.22204267978668213, 0.22209781408309937]","[0.16817528985403984, -1.4026210369408567, 0.16817528985403984, 0.16817528985403984, 0.16817528985403984, 0.16817528985403984]",0.002,7,1
0,151,"[0.22281676530838013, -1.3484380108169098, 0.22252208391298467, 0.22269527494396968, 0.22292561829090118, 0.22283607721328735]","[0.1685596169602861, -1.4022367098346105, 0.1685596169602861, 0.1685596169602861, 0.1685596169602861, 0.1685596169602861]",0.002,7,1
0,152,"[0.22361189126968384, -1.347676695590355, 0.22330743471254522, 0.22347347318615718, 0.2236931473016739, 0.22362133860588074]","[0.168943677781386, -1.4018526490135106, 0.168943677781386, 0.168943677781386, 0.168943677781386, 0.168943677781386]",0.002,7,1
0,153,"[0.22435973584651947, -1.3468802285245438, 0.22409087816347295, 0.22420637189831538, 0.22445890307426453, 0.22437888383865356]","[0.1693274717106124, -1.4014688550842842, 0.1693274717106124, 0.1693274717106124, 0.1693274717106124, 0.1693274717106124]",0.002,7,1
0,154,"[0.22513052821159363, -1.3461220425418396, 0.2247837225543421, 0.22492198526348872, 0.22518137097358704, 0.22513282299041748]","[0.16971099814165988, -1.4010853286532368, 0.16971099814165988, 0.16971099814165988, 0.16971099814165988, 0.16971099814165988]",0.002,7,1
0,155,"[0.22513052821159363, -1.3461220425418396, 0.2247837225543421, 0.22492198526348872, 0.22518137097358704, 0.22513282299041748]","[0.17009425646864546, -1.4007020703262512, 0.17009425646864546, 0.17009425646864546, 0.17009425646864546, 0.17009425646864546]",0.002,7,1
0,156,"[0.2264426350593567, -1.3446883720210572, 0.22622520128359014, 0.22636882841076655, 0.22640858590602875, 0.2264014482498169]","[0.17047724608610976, -1.4003190807087869, 0.17047724608610976, 0.17047724608610976, 0.17047724608610976, 0.17047724608610976]",0.002,7,1
0,157,"[0.22712434828281403, -1.3440662187388916, 0.22691136995424444, 0.2271295028873901, 0.2270439714193344, 0.22703461349010468]","[0.17085996638901793, -1.3999363604058785, 0.17085996638901793, 0.17085996638901793, 0.17085996638901793, 0.17085996638901793]",0.002,7,1
0,158,"[0.22767788171768188, -1.3434270930341263, 0.22759896913637334, 0.22771911203350825, 0.227674663066864, 0.22765599191188812]","[0.17124241677276056, -1.399553910022136, 0.17124241677276056, 0.17124241677276056, 0.17124241677276056, 0.17124241677276056]",0.002,7,1
0,159,"[0.22830966114997864, -1.3427992922118683, 0.22816974321474248, 0.2282816606708984, 0.228269562125206, 0.22823864221572876]","[0.17162459663315463, -1.399171730161742, 0.17162459663315463, 0.17162459663315463, 0.17162459663315463, 0.17162459663315463]",0.002,7,1
0,160,"[0.22891855239868164, -1.342161313896515, 0.2287676970111292, 0.22885672628369136, 0.22888299822807312, 0.22877782583236694]","[0.17200650536644452, -1.398789821428452, 0.17200650536644452, 0.17200650536644452, 0.17200650536644452, 0.17200650536644452]",0.002,7,1
0,161,"[0.22941626608371735, -1.3416146498969574, 0.22934276262392217, 0.22942130147900386, 0.2293710857629776, 0.22927546501159668]","[0.17238814236930286, -1.3984081844255938, 0.17238814236930286, 0.17238814236930286, 0.17238814236930286, 0.17238814236930286]",0.002,7,1
0,162,"[0.2299482673406601, -1.3410571825555344, 0.22988635698427373, 0.22994308053936763, 0.22985544800758362, 0.22979845106601715]","[0.17276950703883162, -1.398026819756065, 0.17276950703883162, 0.17276950703883162, 0.17276950703883162, 0.17276950703883162]",0.002,7,1
0,163,"[0.23044811189174652, -1.340543733244278, 0.2303412596331995, 0.2304672437855224, 0.23033800721168518, 0.23028889298439026]","[0.173150598772563, -1.3976457280223336, 0.173150598772563, 0.173150598772563, 0.173150598772563, 0.173150598772563]",0.002,7,1
0,164,"[0.23088209331035614, -1.340119944219925, 0.23086148897279912, 0.23093418657269282, 0.23074081540107727, 0.23073427379131317]","[0.17353141696846028, -1.3972649098264363, 0.17353141696846028, 0.17353141696846028, 0.17353141696846028, 0.17353141696846028]",0.002,7,1
0,165,"[0.23130983114242554, -1.3396241825870057, 0.23129159608949834, 0.23131565629925532, 0.23126105964183807, 0.23117965459823608]","[0.17391196102491896, -1.3968843657699777, 0.17391196102491896, 0.17391196102491896, 0.17391196102491896, 0.17391196102491896]",0.002,7,1
0,166,"[0.23168785870075226, -1.339197264318802, 0.23169261613954717, 0.23174933969464107, 0.2316402643918991, 0.23157447576522827]","[0.1742922303407676, -1.3965040964541289, 0.1742922303407676, 0.1742922303407676, 0.1742922303407676, 0.1742922303407676]",0.002,7,1
0,167,"[0.23200514912605286, -1.338735820060112, 0.232065502797262, 0.23214296876873775, 0.2320343554019928, 0.2319720983505249]","[0.17467222431526877, -1.3961241024796278, 0.17467222431526877, 0.17467222431526877, 0.17467222431526877, 0.17467222431526877]",0.002,7,1
0,168,"[0.23243463039398193, -1.338424639110901, 0.23243695894350225, 0.23246578752484126, 0.2323816567659378, 0.2323138266801834]","[0.17505194234812002, -1.3957443844467765, 0.17505194234812002, 0.17505194234812002, 0.17505194234812002, 0.17505194234812002]",0.002,7,1
0,169,"[0.23278580605983734, -1.3380484592965622, 0.23274690309633428, 0.23278896390881343, 0.23270079493522644, 0.2327146977186203]","[0.1754313838394548, -1.3953649429554418, 0.1754313838394548, 0.1754313838394548, 0.1754313838394548, 0.1754313838394548]",0.002,7,1
0,170,"[0.23307348787784576, -1.3377127212337037, 0.2330568472491663, 0.23311774312939448, 0.2329988032579422, 0.23297923803329468]","[0.17581054818984349, -1.394985778605053, 0.17581054818984349, 0.17581054818984349, 0.17581054818984349, 0.17581054818984349]",0.002,7,1
0,171,"[0.23337645828723907, -1.337450997238495, 0.2333772818194788, 0.23339180528607173, 0.23324942588806152, 0.23327851295471191]","[0.1761894348002942, -1.3946068919946024, 0.1761894348002942, 0.1761894348002942, 0.1761894348002942, 0.1761894348002942]",0.002,7,1
0,172,"[0.23361966013908386, -1.337224693303444, 0.23364574113954717, 0.2336631256290893, 0.23352192342281342, 0.23351585865020752]","[0.17656804307225388, -1.3942282837226427, 0.17656804307225388, 0.17656804307225388, 0.17656804307225388, 0.17656804307225388]",0.002,7,1
0,173,"[0.23390091955661774, -1.3369476211122056, 0.2338808218585413, 0.2338750797459106, 0.2337319552898407, 0.2337561398744583]","[0.17694637240760924, -1.3938499543872873, 0.17694637240760924, 0.17694637240760924, 0.17694637240760924, 0.17694637240760924]",0.002,7,1
0,174,"[0.23407955467700958, -1.336778701548912, 0.23404246965517217, 0.23411910116162105, 0.23402732610702515, 0.2340077906847]","[0.17732442220868752, -1.393471904586209, 0.17732442220868752, 0.17732442220868752, 0.17732442220868752, 0.17732442220868752]",0.002,7,1
0,175,"[0.23426282405853271, -1.3365463924459, 0.23422509828676397, 0.2342856365391235, 0.23416770994663239, 0.23414653539657593]","[0.17770219187825756, -1.393094134916639, 0.17770219187825756, 0.17770219187825756, 0.17770219187825756, 0.17770219187825756]",0.002,7,1
0,176,"[0.2344057559967041, -1.3363905859044571, 0.23438054720033819, 0.23446647703137202, 0.23431949317455292, 0.23435918986797333]","[0.17807968081953088, -1.3927166459753657, 0.17807968081953088, 0.17807968081953088, 0.17807968081953088, 0.17807968081953088]",0.002,7,1
0,177,"[0.234531968832016, -1.3362513941577454, 0.23457414308656865, 0.23459450780834956, 0.23445121943950653, 0.23448190093040466]","[0.17845688843616236, -1.3923394383587342, 0.17845688843616236, 0.17845688843616236, 0.17845688843616236, 0.17845688843616236]",0.002,7,1
0,178,"[0.2346518337726593, -1.3361600798419495, 0.2346590201007288, 0.23468892156567378, 0.23452900350093842, 0.23455306887626648]","[0.17883381413225138, -1.3919625126626451, 0.17883381413225138, 0.17883381413225138, 0.17883381413225138, 0.17883381413225138]",0.002,7,1
0,179,"[0.23483407497406006, -1.3360777509263535, 0.23472673097719365, 0.2347910839268188, 0.23461292684078217, 0.2346891462802887]","[0.1792104573123426, -1.391585869482554, 0.1792104573123426, 0.1792104573123426, 0.1792104573123426, 0.1792104573123426]",0.002,7,1
0,180,"[0.23488838970661163, -1.336013377909996, 0.23478967348207647, 0.2348969417759399, 0.2346952110528946, 0.23474803566932678]","[0.1795868173814271, -1.3912095094134695, 0.1795868173814271, 0.1795868173814271, 0.1795868173814271, 0.1795868173814271]",0.002,7,1
0,181,"[0.23488299548625946, -1.335974545483925, 0.23488265672792608, 0.23485009252514644, 0.23476722836494446, 0.2347884625196457]","[0.17996289374494315, -1.3908334330499534, 0.17996289374494315, 0.17996289374494315, 0.17996289374494315, 0.17996289374494315]",0.002,7,1
0,182,"[0.23497694730758667, -1.3359322559884568, 0.23491079012026006, 0.23494832097973628, 0.23477484285831451, 0.23478737473487854]","[0.18033868580877713, -1.3904576409861193, 0.18033868580877713, 0.18033868580877713, 0.18033868580877713, 0.18033868580877713]",0.002,7,1
0,183,"[0.234893798828125, -1.3359128099730988, 0.23490649858583623, 0.23495583116497798, 0.23481960594654083, 0.23486045002937317]","[0.1807141929792648, -1.3900821338156317, 0.1807141929792648, 0.1807141929792648, 0.1807141929792648, 0.1807141929792648]",0.002,7,1
0,184,"[0.23493099212646484, -1.335983620291092, 0.23483163515199834, 0.23484878122296138, 0.2347867637872696, 0.23476973176002502]","[0.18108941466319173, -1.3897069121317047, 0.18108941466319173, 0.18108941466319173, 0.18108941466319173, 0.18108941466319173]",0.002,7,1
0,185,"[0.23489487171173096, -1.3360764694264908, 0.2347953955279749, 0.23483376085247798, 0.23468159139156342, 0.23468537628650665]","[0.18146435026779456, -1.389331976527102, 0.18146435026779456, 0.18146435026779456, 0.18146435026779456, 0.18146435026779456]",0.002,7,1
0,186,"[0.23473253846168518, -1.3362145584872742, 0.23471481004823858, 0.23472492277111812, 0.23458126187324524, 0.23455971479415894]","[0.18183899920076196, -1.3889573275941345, 0.18183899920076196, 0.18183899920076196, 0.18183899920076196, 0.18183899920076196]",0.002,7,1
0,187,"[0.23463650047779083, -1.3362517070821305, 0.23466092744936162, 0.23462085306134028, 0.23445235192775726, 0.2344857156276703]","[0.18221336087023535, -1.3885829659246611, 0.18221336087023535, 0.18221336087023535, 0.18221336087023535, 0.18221336087023535]",0.002,7,1
0,188,"[0.23448827862739563, -1.3364753288081666, 0.23446876207460576, 0.23452059804882808, 0.2343684434890747, 0.23438557982444763]","[0.18258743468481003, -1.3882088921100866, 0.18258743468481003, 0.18258743468481003, 0.18258743468481003, 0.18258743468481003]",0.002,7,1
0,189,"[0.23442624509334564, -1.3365877729705353, 0.23436004320253545, 0.2343727785297851, 0.23439264297485352, 0.23425374925136566]","[0.182961220053536, -1.3878351067413606, 0.182961220053536, 0.182961220053536, 0.182961220053536, 0.182961220053536]",0.002,7,1
0,190,"[0.23424522578716278, -1.3367510449937363, 0.23421889940370733, 0.23420362054791255, 0.23413154482841492, 0.23414269089698792]","[0.18333471638591906, -1.3874616104089774, 0.18333471638591906, 0.18333471638591906, 0.18333471638591906, 0.18333471638591906]",0.002,7,1
0,191,"[0.2340194582939148, -1.3368362051299592, 0.2340915838824671, 0.2341027694889526, 0.23403270542621613, 0.2339733988046646]","[0.18370792309192144, -1.3870884037029751, 0.18370792309192144, 0.18370792309192144, 0.18370792309192144, 0.18370792309192144]",0.002,7,1
0,192,"[0.23385700583457947, -1.3371554774096985, 0.2338202635394495, 0.2339079815098266, 0.23384398221969604, 0.2337367683649063]","[0.18408083958196303, -1.3867154872129335, 0.18408083958196303, 0.18408083958196303, 0.18408083958196303, 0.18408083958196303]",0.002,7,1
0,193,"[0.23366403579711914, -1.3372644794038315, 0.23370820680727178, 0.23376528799023433, 0.23372557759284973, 0.23360610008239746]","[0.1844534652669222, -1.3863428615279743, 0.1844534652669222, 0.1844534652669222, 0.1844534652669222, 0.1844534652669222]",0.002,7,1
0,194,"[0.2333754152059555, -1.3375012141517182, 0.23342925706972295, 0.2335079151340942, 0.23342707753181458, 0.23336069285869598]","[0.18482579955813663, -1.38597052723676, 0.18482579955813663, 0.18482579955813663, 0.18482579955813663, 0.18482579955813663]",0.002,7,1
0,195,"[0.23318006098270416, -1.3377439391664048, 0.2332065741168421, 0.23331300794567866, 0.23322775959968567, 0.23314672708511353]","[0.18519784186740443, -1.385598484927492, 0.18519784186740443, 0.18519784186740443, 0.18519784186740443, 0.18519784186740443]",0.002,7,1
0,196,"[0.23293694853782654, -1.3380422306111832, 0.2329500357257288, 0.2330126005360107, 0.23293401300907135, 0.23287047445774078]","[0.1855695916069849, -1.3852267351879117, 0.1855695916069849, 0.1855695916069849, 0.1855695916069849, 0.1855695916069849]",0.002,7,1
0,197,"[0.2326819896697998, -1.3383132827332993, 0.23264629045595342, 0.2326788145252685, 0.23276036977767944, 0.23263581097126007]","[0.18594104818959967, -1.384855278605297, 0.18594104818959967, 0.18594104818959967, 0.18594104818959967, 0.18594104818959967]",0.002,7,1
0,198,"[0.23228713870048523, -1.3386083406260987, 0.23231631914247686, 0.23243264734234614, 0.23247118294239044, 0.23230291903018951]","[0.18631221102843326, -1.3844841157664634, 0.18631221102843326, 0.18631221102843326, 0.18631221102843326, 0.18631221102843326]",0.002,7,1
0,199,"[0.23200389742851257, -1.338957281117775, 0.23208696046938115, 0.23210327207531734, 0.23215653002262115, 0.23204441368579865]","[0.18668307953713448, -1.384113247257762, 0.18668307953713448, 0.18668307953713448, 0.18668307953713448, 0.18668307953713448]",0.002,7,1
0,200,"[0.23168425261974335, -1.3393233579448243, 0.2317264715777796, 0.23179606973614497, 0.23181402683258057, 0.23172137141227722]","[0.18705365312981692, -1.3837426736650795, 0.18705365312981692, 0.18705365312981692, 0.18705365312981692, 0.18705365312981692]",0.002,7,1
0,201,"[0.2313726544380188, -1.3395972561887284, 0.23140079179872686, 0.23146919786419673, 0.23151201009750366, 0.23138998448848724]","[0.18742393122106019, -1.3833723955738364, 0.18742393122106019, 0.18742393122106019, 0.18742393122106019, 0.18742393122106019]",0.002,7,1
0,202,"[0.23096802830696106, -1.3399850887111207, 0.23102075258363897, 0.2310303884693603, 0.23109328746795654, 0.23099829256534576]","[0.1877939132259107, -1.3830024135689858, 0.1877939132259107, 0.1877939132259107, 0.1877939132259107, 0.1877939132259107]",0.002,7,1
0,203,"[0.23055480420589447, -1.3403116476586838, 0.23068696657289678, 0.230647011394165, 0.2307744175195694, 0.23065130412578583]","[0.18816359855988257, -1.382632728235014, 0.18816359855988257, 0.18816359855988257, 0.18816359855988257, 0.18816359855988257]",0.002,7,1
0,204,"[0.23020035028457642, -1.3407659542611619, 0.23028976122011358, 0.2302974897572021, 0.23039056360721588, 0.23029720783233643]","[0.18853298663895854, -1.382263340155938, 0.18853298663895854, 0.18853298663895854, 0.18853298663895854, 0.18853298663895854]",0.002,7,1
0,205,"[0.22982105612754822, -1.3411400479129334, 0.22992021242250615, 0.22982732831921382, 0.22997558116912842, 0.22983825206756592]","[0.18890207687959115, -1.3818942499153053, 0.18890207687959115, 0.18890207687959115, 0.18890207687959115, 0.18890207687959115]",0.002,7,1
0,206,"[0.22939275205135345, -1.3415401440909882, 0.2295001188861292, 0.2293824392506103, 0.22954672574996948, 0.22944404184818268]","[0.18927086869870327, -1.3815254580961933, 0.18927086869870327, 0.18927086869870327, 0.18927086869870327, 0.18927086869870327]",0.002,7,1
0,207,"[0.22897285223007202, -1.3419310015491028, 0.2290881315814417, 0.22900931417431636, 0.22916044294834137, 0.22900016605854034]","[0.18963936151368924, -1.3811569652812072, 0.18963936151368924, 0.18963936151368924, 0.18963936151368924, 0.18963936151368924]",0.002,7,1
0,208,"[0.22848357260227203, -1.3424377602389832, 0.22859174409975225, 0.2285446363636474, 0.2286386489868164, 0.22857734560966492]","[0.19000755474241582, -1.3807887720524807, 0.19000755474241582, 0.19000755474241582, 0.19000755474241582, 0.19000755474241582]",0.002,7,1
0,209,"[0.2280845195055008, -1.3428361278823395, 0.2282016913043421, 0.2280774551578979, 0.22817081212997437, 0.22811540961265564]","[0.19037544780322294, -1.3804208789916736, 0.19037544780322294, 0.19037544780322294, 0.19037544780322294, 0.19037544780322294]",0.002,7,1
0,210,"[0.22759294509887695, -1.3433198642781754, 0.22767287889589483, 0.22759239255871577, 0.22767040133476257, 0.2276293933391571]","[0.19074304011492485, -1.3800532866799717, 0.19074304011492485, 0.19074304011492485, 0.19074304011492485, 0.19074304011492485]",0.002,7,1
0,211,"[0.22707611322402954, -1.343770684008934, 0.22721368471254522, 0.2270912367054443, 0.2271951287984848, 0.22717055678367615]","[0.1911103310968108, -1.3796859956980858, 0.1911103310968108, 0.1911103310968108, 0.1911103310968108, 0.1911103310968108]",0.002,7,1
0,212,"[0.22656013071537018, -1.3442591440728684, 0.22671920457948858, 0.22656254350628657, 0.22666122019290924, 0.22666403651237488]","[0.1914773201686462, -1.3793190066262504, 0.1914773201686462, 0.1914773201686462, 0.1914773201686462, 0.1914773201686462]",0.002,7,1
0,213,"[0.22603130340576172, -1.3446928572705765, 0.22619468370546514, 0.22608844816174312, 0.2262241244316101, 0.226141095161438]","[0.1918440067506732, -1.3789523200442233, 0.1918440067506732, 0.1918440067506732, 0.1918440067506732, 0.1918440067506732]",0.002,7,1
0,214,"[0.22553759813308716, -1.3452374649098893, 0.225654427205221, 0.22552423059429927, 0.22568035125732422, 0.22564348578453064]","[0.19221039026361214, -1.3785859365312845, 0.19221039026361214, 0.19221039026361214, 0.19221039026361214, 0.19221039026361214]",0.002,7,1
0,215,"[0.2250548154115677, -1.3457618069699784, 0.22515517870058233, 0.22496680795635982, 0.22512242197990417, 0.2251053750514984]","[0.19257647012866178, -1.3782198566662347, 0.19257647012866178, 0.19257647012866178, 0.19257647012866178, 0.19257647012866178]",0.002,7,1
0,216,"[0.2244855910539627, -1.3462647956660767, 0.22462302843202764, 0.2244364458271484, 0.2245725691318512, 0.22455869615077972]","[0.1929422457675008, -1.3778540810273958, 0.1929422457675008, 0.1929422457675008, 0.1929422457675008, 0.1929422457675008]",0.002,7,1
0,217,"[0.22397099435329437, -1.3467671436122437, 0.22411710420717412, 0.22387079774822993, 0.22404521703720093, 0.22397124767303467]","[0.19330771660228843, -1.377488610192608, 0.19330771660228843, 0.19330771660228843, 0.19330771660228843, 0.19330771660228843]",0.002,7,1
0,218,"[0.2233615517616272, -1.3472889822772522, 0.22355395952333623, 0.2232925134846191, 0.22350086271762848, 0.22346410155296326]","[0.1936728820556654, -1.377123444739231, 0.1936728820556654, 0.1936728820556654, 0.1936728820556654, 0.1936728820556654]",0.002,7,1
0,219,"[0.22280317544937134, -1.347952203159668, 0.2229684034930628, 0.2226586776920776, 0.22293773293495178, 0.22285176813602448]","[0.19403774155075496, -1.3767585852441415, 0.19403774155075496, 0.19403774155075496, 0.19403774155075496, 0.19403774155075496]",0.002,7,1
0,220,"[0.2221500724554062, -1.3484404695085068, 0.22244292894472295, 0.22214142858471675, 0.22231996059417725, 0.22231054306030273]","[0.1944022945111635, -1.3763940322837331, 0.1944022945111635, 0.1944022945111635, 0.1944022945111635, 0.1944022945111635]",0.002,7,1
0,221,"[0.22155439853668213, -1.3490157586387177, 0.22180062929262334, 0.22159890710797114, 0.22168855369091034, 0.22165068984031677]","[0.1947665403609819, -1.3760297864339146, 0.1947665403609819, 0.1947665403609819, 0.1947665403609819, 0.1947665403609819]",0.002,7,1
0,222,"[0.220962256193161, -1.349607841377594, 0.22126275697817022, 0.2210027414509277, 0.2210806906223297, 0.2210777997970581]","[0.19513047852478604, -1.3756658482701105, 0.19513047852478604, 0.19513047852478604, 0.19513047852478604, 0.19513047852478604]",0.002,7,1
0,223,"[0.22041642665863037, -1.3502277594855805, 0.22068387666811162, 0.2203546005436401, 0.2204769402742386, 0.22046351432800293]","[0.19549410842763798, -1.3753022183672585, 0.19549410842763798, 0.19549410842763798, 0.19549410842763798, 0.19549410842763798]",0.002,7,1
0,224,"[0.21981222927570343, -1.3507738721421738, 0.2201016584979456, 0.21967272340740962, 0.21989388763904572, 0.21986278891563416]","[0.19585742949508667, -1.3749388972998098, 0.19585742949508667, 0.19585742949508667, 0.19585742949508667, 0.19585742949508667]",0.002,7,1
0,225,"[0.2192218005657196, -1.3514054280570527, 0.21941692033876592, 0.21914748727764888, 0.2192583531141281, 0.21922801434993744]","[0.196220441153169, -1.3745758856417276, 0.196220441153169, 0.196220441153169, 0.196220441153169, 0.196220441153169]",0.002,7,1
0,226,"[0.21859006583690643, -1.3519952458194275, 0.21887666383852178, 0.21855275213208003, 0.21862266957759857, 0.21864327788352966]","[0.19658314282841066, -1.374213183966486, 0.19658314282841066, 0.19658314282841066, 0.19658314282841066, 0.19658314282841066]",0.002,7,1
0,227,"[0.2179977148771286, -1.3526388716748734, 0.2182696501361292, 0.21786264955487056, 0.2180352360010147, 0.2179604321718216]","[0.19694553394782702, -1.3738507928470696, 0.19694553394782702, 0.19694553394782702, 0.19694553394782702, 0.19694553394782702]",0.002,7,1
0,228,"[0.21732214093208313, -1.3532383006862183, 0.2175973097430628, 0.21729390203442378, 0.21742956340312958, 0.21731829643249512]","[0.19730761393892404, -1.3734887128559725, 0.19730761393892404, 0.19730761393892404, 0.19730761393892404, 0.19730761393892404]",0.002,7,1
0,229,"[0.2166982740163803, -1.3538189989379426, 0.21702653566469365, 0.21665005266156, 0.2167614847421646, 0.21666975319385529]","[0.19766938222969926, -1.3731269445651972, 0.19766938222969926, 0.19766938222969926, 0.19766938222969926, 0.19766938222969926]",0.002,7,1
0,230,"[0.21605853736400604, -1.3544801634601136, 0.216346565877096, 0.21604256212200923, 0.21608130633831024, 0.2160518914461136]","[0.19803083824864254, -1.372765488546254, 0.19803083824864254, 0.19803083824864254, 0.19803083824864254, 0.19803083824864254]",0.002,7,1
0,231,"[0.21542701125144958, -1.355100767021515, 0.2157352606402796, 0.21544746934857173, 0.21547304093837738, 0.21539051830768585]","[0.19839198142473713, -1.3724043453701595, 0.19839198142473713, 0.19839198142473713, 0.19839198142473713, 0.19839198142473713]",0.002,7,1
0,232,"[0.2147841900587082, -1.3557917040637513, 0.21513778368105108, 0.21474330007519526, 0.21477261185646057, 0.2147238701581955]","[0.1987528111874605, -1.372043515607436, 0.1987528111874605, 0.1987528111874605, 0.1987528111874605, 0.1987528111874605]",0.002,7,1
0,233,"[0.2142142355442047, -1.3563627314618607, 0.21446496645082647, 0.21416084348645015, 0.2140425145626068, 0.2140631526708603]","[0.19911332696678513, -1.3716829998281115, 0.19911332696678513, 0.19911332696678513, 0.19911332696678513, 0.19911332696678513]",0.002,7,1
0,234,"[0.21357117593288422, -1.3570535790971299, 0.21381837526430303, 0.213520808810852, 0.21344627439975739, 0.21340838074684143]","[0.1994735281931797, -1.371322798601717, 0.1994735281931797, 0.1994735281931797, 0.1994735281931797, 0.1994735281931797]",0.002,7,1
0,235,"[0.21291935443878174, -1.3576726031354447, 0.21314794221986944, 0.21289007245983882, 0.21269847452640533, 0.2127482146024704]","[0.19983341429760967, -1.3709629124972869, 0.19983341429760967, 0.19983341429760967, 0.19983341429760967, 0.19983341429760967]",0.002,7,1
0,236,"[0.21226733922958374, -1.3583800506642838, 0.2125480810748499, 0.21221320211376948, 0.21214266121387482, 0.2120915651321411]","[0.20019298471153835, -1.370603342083358, 0.20019298471153835, 0.20019298471153835, 0.20019298471153835, 0.20019298471153835]",0.002,7,1
0,237,"[0.2115553915500641, -1.3589792561582108, 0.2118757406817835, 0.21166853486981196, 0.21143221855163574, 0.2113715559244156]","[0.2005522388669278, -1.3702440879279687, 0.2005522388669278, 0.2005522388669278, 0.2005522388669278, 0.2005522388669278]",0.002,7,1
0,238,"[0.21092966198921204, -1.359645054941513, 0.21120864549745733, 0.2109636503406982, 0.21079052984714508, 0.21073879301548004]","[0.20091117619623974, -1.369885150598657, 0.20091117619623974, 0.20091117619623974, 0.20091117619623974, 0.20091117619623974]",0.002,7,1
0,239,"[0.21027454733848572, -1.3602648836425324, 0.21054488817323858, 0.2103392320820312, 0.21007704734802246, 0.21011395752429962]","[0.20126979613243623, -1.3695265306624602, 0.20126979613243623, 0.20126979613243623, 0.20126979613243623, 0.20126979613243623]",0.002,7,1
0,240,"[0.20964030921459198, -1.360924170618393, 0.20986587205995733, 0.20965556680645747, 0.2094373255968094, 0.20942367613315582]","[0.20162809810898094, -1.3691682286859157, 0.20162809810898094, 0.20162809810898094, 0.20162809810898094, 0.20162809810898094]",0.002,7,1
0,241,"[0.2088927924633026, -1.3615838897279282, 0.20933849016298467, 0.2090204197117309, 0.20879876613616943, 0.20873796939849854]","[0.20198608155983971, -1.3688102452350568, 0.20198608155983971, 0.20198608155983971, 0.20198608155983971, 0.20198608155983971]",0.002,7,1
0,242,"[0.2083526998758316, -1.3622283351472397, 0.2085807959185999, 0.20834867536511226, 0.20819829404354095, 0.20811744034290314]","[0.20234374591948165, -1.3684525808754149, 0.20234374591948165, 0.20234374591948165, 0.20234374591948165, 0.20234374591948165]",0.002,7,1
0,243,"[0.2076958864927292, -1.3627942961505433, 0.20796138445009404, 0.2077842193790893, 0.20751816034317017, 0.20742285251617432]","[0.20270109062287986, -1.3680952361720167, 0.20270109062287986, 0.20270109062287986, 0.20270109062287986, 0.20270109062287986]",0.002,7,1
0,244,"[0.20703959465026855, -1.3634734016707917, 0.20733148256410772, 0.2071358400532226, 0.20682036876678467, 0.20679759979248047]","[0.20305811510551253, -1.367738211689384, 0.20305811510551253, 0.20305811510551253, 0.20305811510551253, 0.20305811510551253]",0.002,7,1
0,245,"[0.20635251700878143, -1.3640592259219666, 0.20671254793276006, 0.20651344835247798, 0.2062017321586609, 0.20613564550876617]","[0.20341481880336368, -1.3673815079915328, 0.20341481880336368, 0.20341481880336368, 0.20341481880336368, 0.20341481880336368]",0.002,7,1
0,246,"[0.20572571456432343, -1.3647578817657013, 0.2060325781451624, 0.20578841745343013, 0.2055635154247284, 0.2054944932460785]","[0.20377120115292413, -1.3670251256419723, 0.20377120115292413, 0.20377120115292413, 0.20377120115292413, 0.20377120115292413]",0.002,7,1
0,247,"[0.20512692630290985, -1.3653586965850373, 0.2054513136493128, 0.20522694169964595, 0.20492646098136902, 0.20480704307556152]","[0.20412726159119232, -1.3666690652037041, 0.20412726159119232, 0.20412726159119232, 0.20412726159119232, 0.20412726159119232]",0.002,7,1
0,248,"[0.20446252822875977, -1.3660048258355637, 0.20470935503114873, 0.20455960809674067, 0.20432138442993164, 0.20424801111221313]","[0.20448299955567523, -1.3663133272392214, 0.20448299955567523, 0.20448299955567523, 0.20448299955567523, 0.20448299955567523]",0.002,7,1
0,249,"[0.2038186937570572, -1.3666702520898362, 0.20412093797792608, 0.20387618123974605, 0.20363938808441162, 0.2036190778017044]","[0.20483841448438928, -1.3659579123105072, 0.20483841448438928, 0.20483841448438928, 0.20483841448438928, 0.20483841448438928]",0.002,7,1
0,250,"[0.2031693309545517, -1.3672544074109574, 0.2035158316241663, 0.2032293516346435, 0.2030089795589447, 0.20292724668979645]","[0.2051935058158612, -1.3656028209790354, 0.2051935058158612, 0.2051935058158612, 0.2051935058158612, 0.2051935058158612]",0.002,7,1
0,251,"[0.20253753662109375, -1.3678747725537796, 0.20291549364198858, 0.20259038984265132, 0.20244817435741425, 0.2023753970861435]","[0.20554827298912903, -1.3652480538057676, 0.20554827298912903, 0.20554827298912903, 0.20554827298912903, 0.20554827298912903]",0.002,7,1
0,252,"[0.20190885663032532, -1.3684802812388916, 0.20233565965761358, 0.20193485795941157, 0.20179888606071472, 0.20174168050289154]","[0.2059027154437427, -1.3648936113511538, 0.2059027154437427, 0.2059027154437427, 0.2059027154437427, 0.2059027154437427]",0.002,7,1
0,253,"[0.20132260024547577, -1.3691050571254273, 0.20168000856508428, 0.20125715314831538, 0.20123888552188873, 0.201132133603096]","[0.20625683261976532, -1.3645394941751312, 0.20625683261976532, 0.20625683261976532, 0.20625683261976532, 0.20625683261976532]",0.002,7,1
0,254,"[0.20065714418888092, -1.3696910601905365, 0.20110971132387334, 0.20062331735577388, 0.2005966603755951, 0.2005208432674408]","[0.2066106239577738, -1.3641857028371227, 0.2066106239577738, 0.2066106239577738, 0.2066106239577738, 0.2066106239577738]",0.002,7,1
0,255,"[0.20001162588596344, -1.3702540707639237, 0.200477425252096, 0.1999998527714233, 0.19999003410339355, 0.1999611109495163]","[0.20696408889885973, -1.3638322378960368, 0.20696408889885973, 0.20696408889885973, 0.20696408889885973, 0.20696408889885973]",0.002,7,1
0,256,"[0.19938603043556213, -1.3708051604083558, 0.19984418550600225, 0.1993768650242309, 0.19935287535190582, 0.1993715614080429]","[0.20731722688463042, -1.3634790999102662, 0.20731722688463042, 0.20731722688463042, 0.20731722688463042, 0.20731722688463042]",0.002,7,1
0,257,"[0.19884949922561646, -1.3713893604329606, 0.1992257277118128, 0.19877783834423823, 0.19878962635993958, 0.19875198602676392]","[0.20767003735720962, -1.363126289437687, 0.20767003735720962, 0.20767003735720962, 0.20767003735720962, 0.20767003735720962]",0.002,7,1
0,258,"[0.1981917768716812, -1.3720110815814515, 0.19867021242250615, 0.19816307603802485, 0.19815701246261597, 0.19823606312274933]","[0.2080225197592386, -1.3627738070356579, 0.2080225197592386, 0.2080225197592386, 0.2080225197592386, 0.2080225197592386]",0.002,7,1
0,259,"[0.1975911259651184, -1.372575895195343, 0.19808942476381475, 0.19756297647442622, 0.19763146340847015, 0.19764557480812073]","[0.20837467353387673, -1.3624216532610198, 0.20837467353387673, 0.20837467353387673, 0.20837467353387673, 0.20837467353387673]",0.002,7,1
0,260,"[0.19706133008003235, -1.3731425267509003, 0.19751292863954717, 0.19690684854473872, 0.19706492125988007, 0.19706733524799347]","[0.20872649812480268, -1.3620698286700939, 0.20872649812480268, 0.20872649812480268, 0.20872649812480268, 0.20872649812480268]",0.002,7,1
0,261,"[0.19646713137626648, -1.3736575257829209, 0.19691211382021123, 0.19638924180950923, 0.1964137852191925, 0.19645653665065765]","[0.20907799297621507, -1.3617183338186816, 0.20907799297621507, 0.20907799297621507, 0.20907799297621507, 0.20907799297621507]",0.002,7,1
0,262,"[0.19583289325237274, -1.3741982144168396, 0.19640142122377569, 0.19583408414807124, 0.19597041606903076, 0.1959741711616516]","[0.2094291575328335, -1.361367169262063, 0.2094291575328335, 0.2094291575328335, 0.2094291575328335, 0.2094291575328335]",0.002,7,1
0,263,"[0.1953403204679489, -1.3747344327024003, 0.19586354890932256, 0.19523052751507564, 0.1954059600830078, 0.19541510939598083]","[0.20977999123989927, -1.3610163355549973, 0.20977999123989927, 0.20977999123989927, 0.20977999123989927, 0.20977999123989927]",0.002,7,1
0,264,"[0.19475477933883667, -1.3752751660398026, 0.19532901445497686, 0.1946517664143066, 0.19487056136131287, 0.19489355385303497]","[0.21013049354317645, -1.36066583325172, 0.21013049354317645, 0.21013049354317645, 0.21013049354317645, 0.21013049354317645]",0.002,7,1
0,265,"[0.19424907863140106, -1.3757466983846207, 0.19473249117006475, 0.19413630544628901, 0.1943492591381073, 0.19434385001659393]","[0.21048066388895256, -1.360315662905944, 0.21048066388895256, 0.21048066388895256, 0.21048066388895256, 0.21048066388895256]",0.002,7,1
0,266,"[0.19366249442100525, -1.3762588959983368, 0.1942532698260706, 0.19354431211437984, 0.19379068911075592, 0.1938132494688034]","[0.21083050172403953, -1.359965825070857, 0.21083050172403953, 0.21083050172403953, 0.21083050172403953, 0.21083050172403953]",0.002,7,1
0,267,"[0.1931757926940918, -1.3767807644656678, 0.19372779527773076, 0.1931364971348266, 0.19332380592823029, 0.19325459003448486]","[0.21118000649577473, -1.3596163202991218, 0.21118000649577473, 0.21118000649577473, 0.21118000649577473, 0.21118000649577473]",0.002,7,1
0,268,"[0.19259418547153473, -1.3772850942662735, 0.19321090379823858, 0.19255559026684566, 0.19274748861789703, 0.19277632236480713]","[0.21152917765202153, -1.359267149142875, 0.21152917765202153, 0.21152917765202153, 0.21152917765202153, 0.21152917765202153]",0.002,7,1
0,269,"[0.19213035702705383, -1.377725214963295, 0.19272405305971319, 0.19205205022778316, 0.19228717684745789, 0.19226741790771484]","[0.2118780146411704, -1.358918312153726, 0.2118780146411704, 0.2118780146411704, 0.2118780146411704, 0.2118780146411704]",0.002,7,1
0,270,"[0.1916397213935852, -1.3782010686448594, 0.19221002260317022, 0.19157735883679194, 0.19180966913700104, 0.19179463386535645]","[0.21222651691213973, -1.3585698098827568, 0.21222651691213973, 0.21222651691213973, 0.21222651691213973, 0.21222651691213973]",0.002,7,1
0,271,"[0.19111914932727814, -1.3786651206067582, 0.1917331854449671, 0.19108204423870845, 0.19133614003658295, 0.19134056568145752]","[0.21257468391437662, -1.3582216428805198, 0.21257468391437662, 0.21257468391437662, 0.21257468391437662, 0.21257468391437662]",0.002,7,1
0,272,"[0.19064322113990784, -1.3791805368712922, 0.1912601629840296, 0.19060270368542476, 0.19088655710220337, 0.19084559381008148]","[0.21292251509785787, -1.3578738116970386, 0.21292251509785787, 0.21292251509785787, 0.21292251509785787, 0.21292251509785787]",0.002,7,1
0,273,"[0.19023634493350983, -1.3795708578876038, 0.1908658186541956, 0.19020096837963862, 0.19042129814624786, 0.19044965505599976]","[0.21327000991309084, -1.3575263168818057, 0.21327000991309084, 0.21327000991309084, 0.21327000991309084, 0.21327000991309084]",0.002,7,1
0,274,"[0.18974408507347107, -1.379996345644333, 0.1903923193560999, 0.18977443754162593, 0.18995045125484467, 0.18997415900230408]","[0.21361716781111414, -1.3571791589837825, 0.21361716781111414, 0.21361716781111414, 0.21361716781111414, 0.21361716781111414]",0.002,7,1
0,275,"[0.1892751306295395, -1.3804076474956055, 0.18998605409731084, 0.18934790670361323, 0.1894790530204773, 0.18953222036361694]","[0.2139639882434988, -1.3568323385513978, 0.2139639882434988, 0.2139639882434988, 0.2139639882434988, 0.2139639882434988]",0.002,7,1
0,276,"[0.18891140818595886, -1.3808237475207825, 0.1895526091205042, 0.1888717848011474, 0.18904918432235718, 0.18909426033496857]","[0.21431047066234885, -1.3564858561325477, 0.21431047066234885, 0.21431047066234885, 0.21431047066234885, 0.21431047066234885]",0.002,7,1
0,277,"[0.18850797414779663, -1.3812867116979142, 0.18916255632509404, 0.1884884077259521, 0.18868911266326904, 0.18872487545013428]","[0.21465661452030227, -1.3561397122745942, 0.21465661452030227, 0.21465661452030227, 0.21465661452030227, 0.21465661452030227]",0.002,7,1
0,278,"[0.18814466893672943, -1.3816877764514466, 0.1886995474444788, 0.1880529361912231, 0.1882709264755249, 0.1883227676153183]","[0.21500241927053204, -1.3557939075243646, 0.21500241927053204, 0.21500241927053204, 0.21500241927053204, 0.21500241927053204]",0.002,7,1
0,279,"[0.18777260184288025, -1.3820089262774964, 0.18834144273866826, 0.1877540785023193, 0.18788424134254456, 0.18788225948810577]","[0.2153478843667467, -1.3554484424281499, 0.2153478843667467, 0.2153478843667467, 0.2153478843667467, 0.2153478843667467]",0.002,7,1
0,280,"[0.18742533028125763, -1.382364885216095, 0.18797237077821904, 0.18737880765881343, 0.18752717971801758, 0.1875160187482834]","[0.21569300926319152, -1.355103317531705, 0.21569300926319152, 0.21569300926319152, 0.21569300926319152, 0.21569300926319152]",0.002,7,1
0,281,"[0.18702799081802368, -1.3827585738948365, 0.1876137892352503, 0.1870400148579101, 0.18718522787094116, 0.1871706247329712]","[0.216037793414649, -1.3547585333802477, 0.216037793414649, 0.216037793414649, 0.216037793414649, 0.216037793414649]",0.002,7,1
0,282,"[0.18667225539684296, -1.38312782466922, 0.18723041216005498, 0.18670932828869624, 0.18683293461799622, 0.18684419989585876]","[0.21638223627644013, -1.3544140905184565, 0.21638223627644013, 0.21638223627644013, 0.21638223627644013, 0.21638223627644013]",0.002,7,1
0,283,"[0.186380997300148, -1.3834552776864548, 0.18692380586733037, 0.18638281404461665, 0.18651780486106873, 0.18652154505252838]","[0.21672633730442498, -1.3540699894904715, 0.21672633730442498, 0.21672633730442498, 0.21672633730442498, 0.21672633730442498]",0.002,7,1
0,284,"[0.18601544201374054, -1.3837512743524094, 0.18662625948061162, 0.18607394277539058, 0.18612518906593323, 0.18617497384548187]","[0.21707009595500357, -1.353726230839893, 0.21707009595500357, 0.21707009595500357, 0.21707009595500357, 0.21707009595500357]",0.002,7,1
0,285,"[0.1857326775789261, -1.3840757769397278, 0.18620807329286748, 0.1858120399662475, 0.18583086133003235, 0.18583886325359344]","[0.21741351168511697, -1.3533828151097795, 0.21741351168511697, 0.21741351168511697, 0.21741351168511697, 0.21741351168511697]",0.002,7,1
0,286,"[0.1854819804430008, -1.384333850150444, 0.18598872820009404, 0.18554501115765376, 0.1855287104845047, 0.18560117483139038]","[0.21775658395224778, -1.3530397428426488, 0.21775658395224778, 0.21775658395224778, 0.21775658395224778, 0.21775658395224778]",0.002,7,1
0,287,"[0.18522097170352936, -1.3846676063588639, 0.1856930891620081, 0.18522815286602778, 0.18534471094608307, 0.18528570234775543]","[0.2180993122144214, -1.352697014580475, 0.2180993122144214, 0.2180993122144214, 0.2180993122144214, 0.2180993122144214]",0.002,7,1
0,288,"[0.18493293225765228, -1.384930135016777, 0.18549710908998662, 0.1849650579639892, 0.1850612461566925, 0.18506865203380585]","[0.21844169593020643, -1.35235463086469, 0.21844169593020643, 0.21844169593020643, 0.21844169593020643, 0.21844169593020643]",0.002,7,1
0,289,"[0.18470488488674164, -1.385182575588562, 0.18519241014589483, 0.18477575361218257, 0.18485921621322632, 0.18479248881340027]","[0.21878373455871605, -1.3520125922361805, 0.21878373455871605, 0.21878373455871605, 0.21878373455871605, 0.21878373455871605]",0.002,7,1
0,290,"[0.18450935184955597, -1.3853757691434403, 0.18498212495912725, 0.1845230299183349, 0.18455491960048676, 0.184597909450531]","[0.21912542755960843, -1.3516708992352882, 0.21912542755960843, 0.21912542755960843, 0.21912542755960843, 0.21912542755960843]",0.002,7,1
0,291,"[0.18427368998527527, -1.385679842238762, 0.18479854265321904, 0.18431512891735835, 0.18432798981666565, 0.18438829481601715]","[0.21946677439308773, -1.3513295524018087, 0.21946677439308773, 0.21946677439308773, 0.21946677439308773, 0.21946677439308773]",0.002,7,1
0,292,"[0.18413077294826508, -1.3859531295350571, 0.18456679979433233, 0.1841319042393188, 0.1841292679309845, 0.18420028686523438]","[0.21980777451990507, -1.3509885522749916, 0.21980777451990507, 0.21980777451990507, 0.21980777451990507, 0.21980777451990507]",0.002,7,1
0,293,"[0.18391035497188568, -1.3861769449761887, 0.18436080614198858, 0.183965726489685, 0.18397194147109985, 0.1840103566646576]","[0.22014842740135926, -1.3506478993935374, 0.22014842740135926, 0.22014842740135926, 0.22014842740135926, 0.22014842740135926]",0.002,7,1
0,294,"[0.1837708055973053, -1.3863406044295807, 0.18413955370058233, 0.18377189218487544, 0.1837722361087799, 0.1838057041168213]","[0.22048873249929765, -1.3503075942955989, 0.22048873249929765, 0.22048873249929765, 0.22048873249929765, 0.22048873249929765]",0.002,7,1
0,295,"[0.18359500169754028, -1.3864620339921494, 0.18397695222963506, 0.18362145006146235, 0.1835561990737915, 0.18359823524951935]","[0.220828689276117, -1.3499676375187795, 0.220828689276117, 0.220828689276117, 0.220828689276117, 0.220828689276117]",0.002,7,1
0,296,"[0.18345865607261658, -1.3866468530944367, 0.18383771577943975, 0.18349341928448482, 0.1834900677204132, 0.18350361287593842]","[0.22116829719476438, -1.3496280296001322, 0.22116829719476438, 0.22116829719476438, 0.22116829719476438, 0.22116829719476438]",0.002,7,1
0,297,"[0.18329496681690216, -1.3867652875236054, 0.1836779753314417, 0.18341092645611567, 0.18337643146514893, 0.18337664008140564]","[0.22150755571873798, -1.3492887710761585, 0.22150755571873798, 0.22150755571873798, 0.22150755571873798, 0.22150755571873798]",0.002,7,1
0,298,"[0.18314523994922638, -1.3868974906257172, 0.1836169401751917, 0.18334369241680903, 0.18328091502189636, 0.18325288593769073]","[0.22184646431208785, -1.3489498624828087, 0.22184646431208785, 0.22184646431208785, 0.22184646431208785, 0.22184646431208785]",0.002,7,1
0,299,"[0.18306583166122437, -1.387096033697464, 0.18352252641786748, 0.18322352945294185, 0.1832178831100464, 0.18316878378391266]","[0.22218502243941698, -1.3486113043554795, 0.22218502243941698, 0.22218502243941698, 0.22218502243941698, 0.22218502243941698]",0.002,7,1
0,300,"[0.18302756547927856, -1.387161986236908, 0.18336612382997686, 0.18315200387921138, 0.18309809267520905, 0.1831388771533966]","[0.2225232295658819, -1.3482730972290147, 0.2225232295658819, 0.2225232295658819, 0.2225232295658819, 0.2225232295658819]",0.002,7,1
0,301,"[0.18302443623542786, -1.3872295332005997, 0.18334657350649053, 0.18308178960766597, 0.18307159841060638, 0.18301813304424286]","[0.22286108515719377, -1.3479352416377028, 0.22286108515719377, 0.22286108515719377, 0.22286108515719377, 0.22286108515719377]",0.002,7,1
0,302,"[0.18285392224788666, -1.3873330813697358, 0.18321353593935186, 0.18304984151806636, 0.1829657107591629, 0.18300718069076538]","[0.223198588679619, -1.3475977381152775, 0.223198588679619, 0.223198588679619, 0.223198588679619, 0.223198588679619]",0.002,7,1
0,303,"[0.18291513621807098, -1.3873194021037598, 0.18316585222353154, 0.1830259996601562, 0.18302921950817108, 0.1829388588666916]","[0.2235357395999802, -1.3472605871949164, 0.2235357395999802, 0.2235357395999802, 0.2235357395999802, 0.2235357395999802]",0.002,7,1
0,304,"[0.182862788438797, -1.3873885881951828, 0.18317157426942998, 0.18298523008312984, 0.18291468918323517, 0.18293103575706482]","[0.22387253738565704, -1.3469237894092396, 0.22387253738565704, 0.22387253738565704, 0.22387253738565704, 0.22387253738565704]",0.002,7,1
0,305,"[0.1828465312719345, -1.3874532145312806, 0.18317062059511358, 0.18296901761975093, 0.18291032314300537, 0.18289397656917572]","[0.224208981504587, -1.3465873452903097, 0.224208981504587, 0.224208981504587, 0.224208981504587, 0.224208981504587]",0.002,7,1
0,306,"[0.18288350105285645, -1.3873674136451264, 0.18318397203554326, 0.18296162664379878, 0.18302056193351746, 0.18300849199295044]","[0.22454507142526636, -1.3462512553696302, 0.22454507142526636, 0.22454507142526636, 0.22454507142526636, 0.22454507142526636]",0.002,7,1
0,307,"[0.18300586938858032, -1.3873492044261475, 0.18325406709779912, 0.18307797491040034, 0.18305182456970215, 0.1830936223268509]","[0.2248808066167509, -1.3459155201781456, 0.2248808066167509, 0.2248808066167509, 0.2248808066167509, 0.2248808066167509]",0.002,7,1
0,308,"[0.18303632736206055, -1.387281597857811, 0.18324357668031865, 0.18321244298901362, 0.18316826224327087, 0.18318472802639008]","[0.22521618654865672, -1.34558014024624, 0.22521618654865672, 0.22521618654865672, 0.22521618654865672, 0.22521618654865672]",0.002,7,1
0,309,"[0.18316198885440826, -1.387224407201149, 0.18332130113710576, 0.18323533117260737, 0.18327292799949646, 0.18322256207466125]","[0.22555121069116127, -1.3452451161037353, 0.22555121069116127, 0.22555121069116127, 0.22555121069116127, 0.22555121069116127]",0.002,7,1
0,310,"[0.18324612081050873, -1.3871734750321885, 0.18344384828676397, 0.18333510934796138, 0.18335938453674316, 0.1834014505147934]","[0.22588587851500408, -1.3449104482798924, 0.22588587851500408, 0.22588587851500408, 0.22588587851500408, 0.22588587851500408]",0.002,7,1
0,311,"[0.18338117003440857, -1.3871029925397416, 0.18358117738832647, 0.1834544378468017, 0.18340298533439636, 0.18347623944282532]","[0.22622018949148742, -1.344576137303409, 0.22622018949148742, 0.22622018949148742, 0.22622018949148742, 0.22622018949148742]",0.002,7,1
