Arnibjarnst/BoxLift/logs/ur_rtde/trajectory_dur=7.5_delay=0.0_gain=100_lh=0.03_real.csv
arm_idx,step,actual_q,actual_qd,target_q,expected_q,loop_time,robot_mode,safety_mode
0,-1,"[-0.005007568989888966, -1.5757109127440394, -0.004927289672195911, -0.005139068966247606, -0.005079094563619435, -0.004984680806295216]","[0.03760131075978279, 0.03817635029554367, 0.04099088907241821, 0.03917081281542778, 0.03883920982480049, 0.03686356544494629]","[0.0, -1.5707963267948966, 0.0, 0.0, 0.0, 0.0]","[0.0, -1.5707963267948966, 0.0, 0.0, 0.0, 0.0]",0.002,7,1
0,-1,"[-0.004326168690816701, -1.5749432049193324, -0.00418692035600543, -0.004407600765564013, -0.004284207020894826, -0.004248444234029591]","[0.05254494026303291, 0.05555004999041557, 0.05548911541700363, 0.05499421805143356, 0.05409996211528778, 0.053874142467975616]","[0.0, -1.5707963267948966, 0.0, 0.0, 0.0, 0.0]","[0.0, -1.5707963267948966, 0.0, 0.0, 0.0, 0.0]",0.002,7,1
0,-1,"[-0.0038836638080042007, -1.574505468408102, -0.0037018542643636465, -0.0038979810527344227, -0.0037959257708948257, -0.0037716070758264664]","[0.06104177236557007, 0.06224346160888672, 0.0631563812494278, 0.06418979167938232, 0.061763960868120193, 0.06069570034742355]","[0.0, -1.5707963267948966, 0.0, 0.0, 0.0, 0.0]","[0.0, -1.5707963267948966, 0.0, 0.0, 0.0, 0.0]",0.002,7,1
0,-1,"[-0.0032237211810510757, -1.5737415752806605, -0.0029871833976358175, -0.003222064380981493, -0.003179375325338185, -0.003087822590963185]","[0.07271751761436462, 0.06942125409841537, 0.07293841242790222, 0.07696771621704102, 0.07267490029335022, 0.07166332751512527]","[0.0, -1.5707963267948966, 0.0, 0.0, 0.0, 0.0]","[0.0, -1.5707963267948966, 0.0, 0.0, 0.0, 0.0]",0.002,7,1
0,-1,"[-0.002061192189351857, -1.5727960071959437, -0.001943696173839271, -0.0020353359035034657, -0.001916233693258107, -0.0019725004779260757]","[0.0647844448685646, 0.03927890583872795, 0.05307096242904663, 0.06391388177871704, 0.06450030952692032, 0.06516517698764801]","[0.0, -1.5707963267948966, 0.0, 0.0, 0.0, 0.0]","[0.0, -1.5707963267948966, 0.0, 0.0, 0.0, 0.0]",0.002,7,1
0,-1,"[-0.0015152136432092789, -1.5721270046629847, -0.0013560217339545488, -0.0014472764781494618, -0.0013302008258264664, -0.0013678709613245132]","[0.05555840581655502, 0.056874051690101624, 0.055800821632146835, 0.05664896219968796, 0.051453184336423874, 0.054327383637428284]","[0.0, -1.5707963267948966, 0.0, 0.0, 0.0, 0.0]","[0.0, -1.5707963267948966, 0.0, 0.0, 0.0, 0.0]",0.002,7,1
0,-1,"[-0.0009644667254846695, -1.571672102014059, -0.0008785015088506043, -0.0009905856898804188, -0.0008819738971155289, -0.0008991400348108414]","[0.04274175688624382, 0.04338059574365616, 0.04306436702609062, 0.04302040860056877, 0.042318396270275116, 0.043602533638477325]","[0.0, -1.5707963267948966, 0.0, 0.0, 0.0, 0.0]","[0.0, -1.5707963267948966, 0.0, 0.0, 0.0, 0.0]",0.002,7,1
0,-1,"[-0.0006502310382288101, -1.5713049374022425, -0.00046471477253362536, -0.0005777639201660634, -0.0005105177508752945, -0.0005553404437463882]","[0.03451821208000183, 0.030492007732391357, 0.034870218485593796, 0.03595145046710968, 0.031224580481648445, 0.03255615755915642]","[0.0, -1.5707963267948966, 0.0, 0.0, 0.0, 0.0]","[0.0, -1.5707963267948966, 0.0, 0.0, 0.0, 0.0]",0.002,7,1
0,-1,"[-0.00027925172914677887, -1.5709926090636195, -0.000169921520864591, -0.0002591174891968251, -0.00018006960024052887, -0.00021249452699834137]","[0.022969666868448257, 0.0201630387455225, 0.021694360300898552, 0.024005334824323654, 0.019878283143043518, 0.02090396359562874]","[0.0, -1.5707963267948966, 0.0, 0.0, 0.0, 0.0]","[0.0, -1.5707963267948966, 0.0, 0.0, 0.0, 0.0]",0.002,7,1
0,-1,"[-0.000146214162008107, -1.570829530755514, 4.941621889287262e-05, -8.089960131840712e-05, 6.67572021484375e-06, -6.562868227177887e-05]","[0.011735275387763977, 0.009627784602344036, 0.00994979590177536, 0.010428469628095627, 0.009377981536090374, 0.009454555809497833]","[0.0, -1.5707963267948966, 0.0, 0.0, 0.0, 0.0]","[0.0, -1.5707963267948966, 0.0, 0.0, 0.0, 0.0]",0.002,7,1
0,-1,"[-0.00017720857729131012, -1.5707815716326259, 8.885060445606996e-06, -7.481992755131728e-05, -0.00010759035219365387, -7.802644838506012e-05]","[-0.0033337718341499567, 0.013719884678721428, 0.004559159744530916, -7.906474638730288e-05, -0.0005871982430107892, -0.000677482399623841]","[0.0, -1.5707963267948966, 0.0, 0.0, 0.0, 0.0]","[0.0, -1.5707963267948966, 0.0, 0.0, 0.0, 0.0]",0.002,7,1
0,-1,"[-0.00013333955873662262, -1.5709315739073695, -6.29425048828125e-05, -4.3110256530809465e-05, -2.7958546773731996e-05, -3.5587941304981996e-05]","[3.259289542256738e-06, -0.0018912877421826124, -0.001863751676864922, 0.00013976808986626565, -7.761852612020448e-05, -0.00015076782437972724]","[0.0, -1.5707963267948966, 0.0, 0.0, 0.0, 0.0]","[0.0, -1.5707963267948966, 0.0, 0.0, 0.0, 0.0]",0.002,7,1
0,-1,"[-8.70863543909195e-05, -1.5710050068297328, -3.3486485335743055e-05, -3.8461094238329e-05, -8.613268007451325e-05, -3.2726918355763246e-05]","[0.000648271874524653, -0.002239106222987175, -0.002138113835826516, 0.0005146166076883674, -1.2618812661457923e-07, -5.107311517349444e-05]","[0.0, -1.5707963267948966, 0.0, 0.0, 0.0, 0.0]","[0.0, -1.5707963267948966, 0.0, 0.0, 0.0, 0.0]",0.002,7,1
0,-1,"[-6.753603090459137e-05, -1.570991655389303, -8.722631173441187e-05, -3.560007128911025e-05, -9.85304461877945e-05, -5.6568776265919496e-05]","[0.0002993728849105537, -0.000777104462031275, -0.0003363179275766015, 0.00028107946855016053, 0.0006774290814064443, -3.3295868232668946e-12]","[0.0, -1.5707963267948966, 0.0, 0.0, 0.0, 0.0]","[0.0, -1.5707963267948966, 0.0, 0.0, 0.0, 0.0]",0.002,7,1
0,-1,"[-0.0001176039325159195, -1.5709625683226527, -3.348648897372186e-05, -5.193174395756728e-05, -8.408223287403871e-06, -6.896654237920075e-05]","[0.0001801425969460979, 0.00021922675659880042, -0.0001924338866956532, 0.0005561296711675823, 0.0005571698420681059, -1.0998070034037705e-21]","[0.0, -1.5707963267948966, 0.0, 0.0, 0.0, 0.0]","[0.0, -1.5707963267948966, 0.0, 0.0, 0.0, 0.0]",0.002,7,1
0,-1,"[-0.0001176039325159195, -1.5709716282286585, -8.365273242816329e-05, -1.0327701904344622e-05, -7.850328554326325e-05, -3.987947572881012e-05]","[8.773717127041891e-05, 0.0002760792849585414, -0.00015853391960263252, 0.0005413230392150581, 0.0007442703354172409, 0.0005772478762082756]","[0.0, -1.5707963267948966, 0.0, 0.0, 0.0, 0.0]","[0.0, -1.5707963267948966, 0.0, 0.0, 0.0, 0.0]",0.002,7,1
0,-1,"[-0.00013333955873662262, -1.5709344349303187, -8.726994565222412e-05, -1.1758213378953997e-05, -5.799928774052887e-05, -3.987947572881012e-05]","[0.00016965187387540936, 0.00020221371960360557, -9.531773685012013e-05, 0.00040886588976718485, 0.0007941349758766592, 0.0003988376702181995]","[0.0, -1.5707963267948966, 0.0, 0.0, 0.0, 0.0]","[0.0, -1.5707963267948966, 0.0, 0.0, 0.0, 0.0]",0.002,7,1
0,-1,"[-0.00010520616640263825, -1.5709253750243128, -8.365273242816329e-05, -5.6461696960496965e-05, -3.415742983037262e-05, -4.464784731084137e-05]","[0.0005475376965478063, 0.0001313708198722452, -6.632517761318013e-05, 0.00028010105597786605, 0.00044285229523666203, 0.0005890391767024994]","[0.0, -1.5707963267948966, 0.0, 0.0, 0.0, 0.0]","[0.0, -1.5707963267948966, 0.0, 0.0, 0.0, 0.0]",0.002,7,1
0,-1,"[-8.1364308492482e-05, -1.5709182224669398, -7.921457290649414e-05, -4.001081500248915e-05, -3.415742983037262e-05, -4.464784731084137e-05]","[0.0005547196487896144, 0.0001742517779348418, -5.659371890942566e-05, 0.00039383923285640776, 0.0004121562815271318, 0.00039839951205067337]","[0.0, -1.5707963267948966, 0.0, 0.0, 0.0, 0.0]","[0.0, -1.5707963267948966, 0.0, 0.0, 0.0, 0.0]",0.002,7,1
0,-1,"[-7.230440248662262e-05, -1.5709225140013636, -7.486343383789062e-05, -2.069891009526259e-05, 6.428369033528725e-06, -5.8476124898731996e-05]","[0.0004483151133172214, 0.00043982864008285105, -5.0271450163563713e-05, 0.0003652216983027756, 0.00046767492312937975, 0.00036599539453163743]","[0.0, -1.5707963267948966, 0.0, 0.0, 0.0, 0.0]","[0.0, -1.5707963267948966, 0.0, 0.0, 0.0, 0.0]",0.002,7,1
0,-1,"[-0.0001099745379846695, -1.5709053478636683, -6.29425048828125e-05, -1.6168957092332903e-05, 2.273472819069866e-05, -3.701845277959137e-05]","[0.0009819119004532695, 0.0006742597906850278, 7.122916485968744e-06, 0.00032824277877807617, 0.00040058084414340556, 0.0003276006318628788]","[0.0, -1.5707963267948966, 0.0, 0.0, 0.0, 0.0]","[0.0, -1.5707963267948966, 0.0, 0.0, 0.0, 0.0]",0.002,7,1
0,-1,"[-6.896654237920075e-05, -1.5709554157652796, -5.537271499633789e-05, -1.1758213378953997e-05, 2.71612880169414e-05, -2.080598940068512e-05]","[0.0007505380199290812, 0.0008589617209509015, 3.081416434724815e-05, 0.0003001817676704377, 0.0002610500669106841, 0.00028588235727511346]","[0.0, -1.5707963267948966, 0.0, 0.0, 0.0, 0.0]","[0.0, -1.5707963267948966, 0.0, 0.0, 0.0, 0.0]",0.002,7,1
0,-1,"[-3.1773244039356996e-05, -1.5709053478636683, -4.9845577450469136e-05, 1.661359753413194e-05, -2.209340230763246e-06, -3.701845277959137e-05]","[0.0009247755515389144, 0.0007047391845844686, 4.0050701500149444e-05, 0.00026139887631870806, 0.00020578847033903003, 0.0002564219757914543]","[0.0, -1.5707963267948966, 0.0, 0.0, 0.0, 0.0]","[0.0, -1.5707963267948966, 0.0, 0.0, 0.0, 0.0]",0.002,7,1
0,-1,"[-4.5124684469044496e-05, -1.5709434948363246, -5.8591365814208984e-05, -4.167974505620009e-05, -6.024037496388246e-06, 7.946252480905969e-06]","[0.0017494364874437451, 0.00044209009502083063, 3.6777506466023624e-05, 0.00020436734484974295, 0.0001954016915988177, 0.0002328129776287824]","[0.0, -1.5707963267948966, 0.0, 0.0, 0.0, 0.0]","[0.0, -1.5707963267948966, 0.0, 0.0, 0.0, 0.0]",0.002,7,1
0,-1,"[-2.8912221090138246e-05, -1.5708981953062953, -9.164381481241435e-05, 3.8071269653272566e-05, -6.324449648076325e-05, 7.946252480905969e-06]","[0.002020999090746045, 0.0003223010862711817, 3.357611785759218e-05, 0.00016156084893736988, 0.000137769035063684, 0.00021138484589755535]","[0.0, -1.5707963267948966, 0.0, 0.0, 0.0, 0.0]","[0.0, -1.5707963267948966, 0.0, 0.0, 0.0, 0.0]",0.002,7,1
0,-1,"[3.2703159376978874e-05, -1.5708981953062953, -8.726119995117188e-05, -5.81306270142079e-05, 1.5258310668286867e-05, -3.2726918355763246e-05]","[3.736807775567286e-05, 0.0002189995429944247, 3.0887436878401786e-05, 0.0001335817651124671, 0.0001348413497908041, 0.00015604034706484526]","[0.0, -1.5707963267948966, 0.0, 0.0, 0.0, 0.0]","[0.0, -1.5707963267948966, 0.0, 0.0, 0.0, 0.0]",0.002,7,1
0,-1,"[-1.8421803609669496e-05, -1.5709272823729457, -5.419671651907265e-05, -2.8089886047411028e-05, 2.716159724514e-05, 3.348422615090385e-05]","[0.0006345825386233628, 0.0007813829579390585, 1.920697201285293e-08, 0.00013867911184206605, 0.00011987427569692954, 0.00013298109115567058]","[0.0, -1.5707963267948966, 0.0, 0.0, 0.0, 0.0]","[0.0, -1.5707963267948966, 0.0, 0.0, 0.0, 0.0]",0.002,7,1
0,-1,"[-2.748170961552887e-05, -1.5709449253477992, -5.8591365814208984e-05, -4.248028137254778e-06, 1.5275571058737114e-05, -8.885060445606996e-06]","[3.3125590448435105e-07, 0.0009092213003896177, 8.348728959414033e-18, 0.00012493862595874816, 0.00012588092067744583, 0.00013882818166166544]","[0.0, -1.5707963267948966, 0.0, 0.0, 0.0, 0.0]","[0.0, -1.5707963267948966, 0.0, 0.0, 0.0, 0.0]",0.002,7,1
0,-1,"[-3.0199159795074593e-07, -1.5708610020079554, -5.8591365814208984e-05, 1.649438824458116e-05, 2.384185791015625e-06, -1.3653432027638246e-05]","[1.4398763362957095e-16, 0.0014910944737493992, 3.628956994056971e-27, 0.00011366695980541408, 0.00013078692427370697, 0.0001231750939041376]","[0.0, -1.5707963267948966, 0.0, 0.0, 0.0, 0.0]","[0.0, -1.5707963267948966, 0.0, 0.0, 0.0, 0.0]",0.002,7,1
0,-1,"[3.273955371696502e-05, -1.570845743218893, -7.046878454275429e-05, -7.34746966557509e-06, -2.175966371709137e-05, -2.557436098271637e-05]","[6.258735524064417e-26, 0.0016550294822081923, 8.144957973854616e-05, 0.00010426135122543201, 0.00014925016148481518, 0.00011056436778744683]","[0.0, -1.5707963267948966, 0.0, 0.0, 0.0, 0.0]","[0.0, -1.5707963267948966, 0.0, 0.0, 0.0, 0.0]",0.002,7,1
0,-1,"[3.567725798347965e-05, -1.5708548031248988, -7.486343383789062e-05, -1.1758213378953997e-05, -2.6051198140919496e-05, 1.2569886166602373e-05]","[3.089509846176952e-06, 0.0017619949067011476, 0.000104496706626378, 9.629355918150395e-05, 0.00013579319056589156, 0.00010029662371380255]","[0.0, -1.5707963267948966, 0.0, 0.0, 0.0, 0.0]","[0.0, -1.5707963267948966, 0.0, 0.0, 0.0, 0.0]",0.002,7,1
0,-1,"[-3.9402638570606996e-05, -1.5708524189391078, -2.7188465537619777e-05, 2.5435084960889753e-05, -3.415742983037262e-05, -3.701845277959137e-05]","[1.8017040952060435e-17, 0.0014189968351274729, 0.00010861819464480504, 8.820452057989314e-05, 0.0001149747331510298, 0.00010527983249630779]","[0.0, -1.5707963267948966, 0.0, 0.0, 0.0, 0.0]","[0.0, -1.5707963267948966, 0.0, 0.0, 0.0, 0.0]",0.002,7,1
0,-1,"[7.152676516852807e-06, -1.5707975826659144, -1.8433929653838277e-05, -2.069891009526259e-05, -1.0315571920216371e-05, -4.116688863575746e-06]","[7.831499836755192e-27, 0.00033964557223953307, 0.00010105467663379386, 8.243367483373731e-05, 0.00010194997594226152, 9.716146450955421e-05]","[0.0, -1.5707963267948966, 0.0, 0.0, 0.0, 0.0]","[0.0, -1.5707963267948966, 0.0, 0.0, 0.0, 0.0]",0.002,7,1
0,-1,"[-9.361897603810121e-06, -1.5708185635008753, -6.738066440448165e-05, -2.817516662645403e-06, 6.4373016357421875e-06, -5.547200338185121e-06]","[4.567080565841843e-38, 4.123862912936392e-15, 0.00017299580213148147, 7.643308344995603e-05, 8.974939555628225e-05, 8.893219637684524e-05]","[0.0, -1.5707963267948966, 0.0, 0.0, 0.0, 0.0]","[0.0, -1.5707963267948966, 0.0, 0.0, 0.0, 0.0]",0.002,7,1
0,-1,"[-1.8421803609669496e-05, -1.5708219013609828, -6.29425048828125e-05, 2.9130572936963972e-05, 2.384185791015625e-06, 1.52587890625e-05]","[0.0, 1.792526662781442e-24, 0.00017070661124307662, 7.206173904705793e-05, 8.161108416970819e-05, 8.306918607559055e-05]","[0.0, -1.5707963267948966, 0.0, 0.0, 0.0, 0.0]","[0.0, -1.5707963267948966, 0.0, 0.0, 0.0, 0.0]",0.002,7,1
0,-1,"[-1.732503072560121e-06, -1.5708524189391078, -7.051270949887112e-05, 1.2083644531202253e-05, 1.0925292372121476e-05, -2.271333803349762e-05]","[0.0, 7.791609102437026e-34, 0.0001745946501614526, 2.970192269913241e-07, 7.482590444851667e-05, 7.793138502165675e-05]","[0.0, -1.5707963267948966, 0.0, 0.0, 0.0, 0.0]","[0.0, -1.5707963267948966, 0.0, 0.0, 0.0, 0.0]",0.002,7,1
0,-1,"[-4.7032033101856996e-05, -1.5708052120604457, -5.976736429147422e-05, -3.2619839050340715e-05, -1.4607106344044496e-05, 2.9020768124610186e-05]","[0.0, 3.3911422836660573e-43, 0.00017555513477418572, 3.52462796362335e-13, 7.934088353067636e-05, 7.339208968915045e-05]","[0.0, -1.5707963267948966, 0.0, 0.0, 0.0, 0.0]","[0.0, -1.5707963267948966, 0.0, 0.0, 0.0, 0.0]",0.002,7,1
0,-1,"[3.2703159376978874e-05, -1.5707724752667964, -1.8457889382261783e-05, -1.9149189331102434e-05, -2.175966371709137e-05, -8.885060445606996e-06]","[0.0, 0.0, 0.00019336817786097527, 6.405842173565806e-18, 7.810278475517407e-05, 7.012453716015443e-05]","[0.0, -1.5707963267948966, 0.0, 0.0, 0.0, 0.0]","[0.0, -1.5707963267948966, 0.0, 0.0, 0.0, 0.0]",0.002,7,1
0,-1,"[-1.2222920553028871e-05, -1.5708142719664515, -3.0311348382383585e-05, 5.44029423217296e-05, 1.0907722753472626e-05, 7.94625339040067e-06]","[0.0, 0.0, 0.00016733258962631226, 1.3815547715090034e-28, 6.910712545504794e-05, 1.1610881154374298e-14]","[0.0, -1.5707963267948966, 0.0, 0.0, 0.0, 0.0]","[0.0, -1.5707963267948966, 0.0, 0.0, 0.0, 0.0]",0.002,7,1
0,-1,"[-3.034273256474762e-05, -1.5707886976054688, -1.6850235624588095e-06, -1.1639004089403215e-05, 3.890991138177924e-05, 2.8993605155847035e-05]","[0.0, 0.0, 0.00018332804029341787, 6.989213078416312e-37, 7.261874270625412e-05, 5.873884806002069e-23]","[0.0, -1.5707963267948966, 0.0, 0.0, 0.0, 0.0]","[0.0, -1.5707963267948966, 0.0, 0.0, 0.0, 0.0]",0.002,7,1
0,-1,"[1.627612073207274e-05, -1.5708548031248988, -7.173180347308517e-05, -8.897190429735247e-06, 4.771327803609893e-05, 3.337860107421875e-06]","[0.0, 0.0, 0.00018728138820733875, 5.465064010866787e-44, 1.7760750779416412e-05, 4.5511383443498264e-30]","[0.0, -1.5707963267948966, 0.0, 0.0, 0.0, 0.0]","[0.0, -1.5707963267948966, 0.0, 0.0, 0.0, 0.0]",0.002,7,1
0,-1,"[-9.361897603810121e-06, -1.5707886976054688, -5.976736429147422e-05, 1.661359753413194e-05, 5.080700066173449e-05, 2.43611320911441e-05]","[0.0, 3.582393401302397e-05, 0.0005361518706195056, 0.0, 1.3761189453578848e-12, 3.5262617594133763e-37]","[0.0, -1.5707963267948966, 0.0, 0.0, 0.0, 0.0]","[0.0, -1.5707963267948966, 0.0, 0.0, 0.0, 0.0]",0.002,7,1
0,-1,"[-1.4130269185841371e-05, -1.5708309612669886, -4.0284154238179326e-05, 9.103412292432722e-06, -3.0819569722950746e-05, -4.116688863575746e-06]","[0.0, 3.2199372071772814e-05, 0.0005051141488365829, 0.0, 1.0662290887383757e-19, 2.6624670822171524e-44]","[0.0, -1.5707963267948966, 0.0, 0.0, 0.0, 0.0]","[0.0, -1.5707963267948966, 0.0, 0.0, 0.0, 0.0]",0.002,7,1
0,-1,"[-2.557436098271637e-05, -1.5708066425719203, -2.86102294921875e-06, -3.703058276371962e-05, 1.8358230590820312e-05, -2.557436098271637e-05]","[0.0, 2.7734275136026554e-05, 0.00022789784998167306, 0.0, 2.2995469999825343e-30, 0.0]","[0.0, -1.5707963267948966, 0.0, 0.0, 0.0, 0.0]","[0.0, -1.5707963267948966, 0.0, 0.0, 0.0, 0.0]",0.002,7,1
0,-1,"[-2.557436098271637e-05, -1.5708261928954066, -5.1021575927734375e-05, 1.2083644531202253e-05, 3.0279159545898438e-05, 5.75919148104731e-05]","[0.0, 2.538733315304853e-05, 0.00016516413597855717, 0.0, 1.781709631058338e-37, 0.0]","[0.0, -1.5707963267948966, 0.0, 0.0, 0.0, 0.0]","[0.0, -1.5707963267948966, 0.0, 0.0, 0.0, 0.0]",0.002,7,1
0,-1,"[-6.024037496388246e-06, -1.5708142719664515, -4.78464353363961e-05, -4.895151171879775e-05, 5.958604742772877e-05, 7.94625339040067e-06]","[0.0, 2.3406591935781762e-05, 0.0001295114925596863, 0.0, 1.401298464324817e-44, 0.0]","[0.0, -1.5707963267948966, 0.0, 0.0, 0.0, 0.0]","[0.0, -1.5707963267948966, 0.0, 0.0, 0.0, 0.0]",0.002,7,1
0,-1,"[2.6226043701171875e-06, -1.5708023510374964, -6.29425048828125e-05, 1.649438824458116e-05, 5.958604742772877e-05, -2.9865895406544496e-05]","[0.0, 2.145380130968988e-05, 0.00010345724149374291, 0.0, 0.0, 0.0]","[0.0, -1.5707963267948966, 0.0, 0.0, 0.0, 0.0]","[0.0, -1.5707963267948966, 0.0, 0.0, 0.0, 0.0]",0.002,7,1
0,-1,"[-2.557436098271637e-05, -1.5709058247008265, -4.78464353363961e-05, -5.3481464721727434e-05, 2.2661686671199277e-05, 1.9776820408878848e-05]","[0.0, 2.00220056285616e-05, 8.824175165500492e-05, 0.0, 0.0, 0.0]","[0.0, -1.5707963267948966, 0.0, 0.0, 0.0, 0.0]","[0.0, -1.5707963267948966, 0.0, 0.0, 0.0, 0.0]",0.002,7,1
0,-1,"[-4.7032033101856996e-05, -1.5708385906615199, -6.411850336007774e-05, -4.367237426805559e-06, 6.4373016357421875e-06, 7.946252480905969e-06]","[0.0, 2.937046298781055e-15, 7.692803046666086e-05, 0.0, 0.0, 0.0]","[0.0, -1.5707963267948966, 0.0, 0.0, 0.0, 0.0]","[0.0, -1.5707963267948966, 0.0, 0.0, 0.0, 0.0]",0.002,7,1
0,-1,"[7.173776339186588e-06, -1.5708385906615199, 1.255665914356996e-06, 2.1024341247510847e-05, 2.1484902390511706e-06, 2.4385213691857643e-05]","[0.0, 1.7127911293017892e-26, 6.81857272866182e-05, 0.0, 0.0, 0.0]","[0.0, -1.5707963267948966, 0.0, 0.0, 0.0, 0.0]","[0.0, -1.5707963267948966, 0.0, 0.0, 0.0, 0.0]",0.002,7,1
0,1,"[2.6226043701171875e-06, -1.5707934659770508, 3.0819569722950746e-05, -3.2619839050340715e-05, 5.202865577302873e-05, 7.94625339040067e-06]","[0.0, 0.0, 4.568731674226001e-05, 0.0, 0.0, 0.0]","[0.0005850211778378632, -1.5702113056170588, 0.0005850211778378632, 0.0005850211778378632, 0.0005850211778378632, 0.0005850211778378632]","[0.0005850211778378632, -1.5702113056170588, 0.0005850211778378632, 0.0005850211778378632, 0.0005850211778378632, 0.0005850211778378632]",0.002,7,1
0,2,"[-2.557436098271637e-05, -1.5707975826659144, -5.1021575927734375e-05, 2.4481410644483503e-05, -6.024037496388246e-06, -1.794496645146637e-05]","[0.0, 0.0, 1.8152087477574241e-07, 0.0, 0.0, 0.0]","[0.0011700407124382083, -1.5696262860824584, 0.0011700407124382083, 0.0011700407124382083, 0.0011700407124382083, 0.0011700407124382083]","[0.0011700407124382083, -1.5696262860824584, 0.0011700407124382083, 0.0011700407124382083, 0.0011700407124382083, 0.0011700407124382083]",0.002,7,1
0,3,"[-2.557436098271637e-05, -1.5708066425719203, -1.6499716366524808e-06, 2.1024341247510847e-05, -6.024037496388246e-06, -8.885060445606996e-06]","[0.0, 0.0018422221764922142, 3.999716500402428e-05, 0.0, 0.0, 4.240288944856729e-06]","[0.0017550569605681327, -1.5690412698343283, 0.0017550569605681327, 0.0017550569605681327, 0.0017550569605681327, 0.0017550569605681327]","[0.0017550569605681327, -1.5690412698343283, 0.0017550569605681327, 0.0017550569605681327, 0.0017550569605681327, 0.0017550569605681327]",0.002,7,1
0,4,"[2.6045270260510733e-06, -1.5707439781511603, 2.938905824834137e-05, 3.366052593989366e-05, -1.889864076787262e-05, 2.7179718017578125e-05]","[0.0023508742451667786, 0.0026738529559224844, 0.0025373566895723343, 0.002970429603010416, 0.0020155473612248898, 0.003395462641492486]","[0.0023400682790039656, -1.5684562585158925, 0.0023400682790039656, 0.0023400682790039656, 0.0023400682790039656, 0.0023400682790039656]","[0.0023400682790039656, -1.5684562585158925, 0.0023400682790039656, 0.0023400682790039656, 0.0023400682790039656, 0.0023400682790039656]",0.002,7,1
0,5,"[2.6045270260510733e-06, -1.5707439781511603, 2.938905824834137e-05, 3.366052593989366e-05, -1.889864076787262e-05, 2.7179718017578125e-05]","[0.0023508742451667786, 0.0026738529559224844, 0.0025373566895723343, 0.002970429603010416, 0.0020155473612248898, 0.003395462641492486]","[0.0029250730245358814, -1.5678712537703607, 0.0029250730245358814, 0.0029250730245358814, 0.0029250730245358814, 0.0029250730245358814]","[0.0029250730245358814, -1.5678712537703607, 0.0029250730245358814, 0.0029250730245358814, 0.0029250730245358814, 0.0029250730245358814]",0.002,7,1
0,6,"[4.0246326534543186e-05, -1.5708567104735316, -2.357125049456954e-05, 4.0932292602491316e-05, 2.7168571250513196e-05, -1.0315571920216371e-05]","[0.0023048955481499434, 0.0034466430079191923, 0.0030760536901652813, 0.0030029271729290485, 0.0036828196607530117, 0.0034990892745554447]","[0.0035100695539725195, -1.567286257240924, 0.0035100695539725195, 0.0035100695539725195, 0.0035100695539725195, 0.0035100695539725195]","[0.0035100695539725195, -1.567286257240924, 0.0035100695539725195, 0.0035100695539725195, 0.0035100695539725195, 0.0035100695539725195]",0.002,7,1
0,7,"[2.6226043701171875e-06, -1.5708066425719203, 2.080598940068512e-05, 3.8071269653272566e-05, -2.3190175191700746e-05, 6.493186810985208e-05]","[0.00224017514847219, 0.0035018830094486475, 0.003732144832611084, 0.002966561121866107, 0.004376263357698917, 0.0035460074432194233]","[0.004095056224145594, -1.566701270570751, 0.004095056224145594, 0.004095056224145594, 0.004095056224145594, 0.004095056224145594]","[0.004095056224145594, -1.566701270570751, 0.004095056224145594, 0.004095056224145594, 0.004095056224145594, 0.004095056224145594]",0.002,7,1
0,8,"[9.952977052307688e-06, -1.5707994900145472, -3.592550638131797e-05, 5.726396527094835e-05, -3.511110414677887e-05, 5.1241921028122306e-05]","[0.0022070242557674646, 0.003717601066455245, 0.004452964290976524, 0.0040640635415911674, 0.004163363948464394, 0.004012003540992737]","[0.004680031391914515, -1.5661162954029821, 0.004680031391914515, 0.004680031391914515, 0.004680031391914515, 0.004680031391914515]","[0.004680031391914515, -1.5661162954029821, 0.004680031391914515, 0.004680031391914515, 0.004680031391914515, 0.004680031391914515]",0.002,7,1
0,9,"[3.114984428975731e-05, -1.5707455704290005, 3.2726918355763246e-05, 9.755670513911241e-05, 4.220008850097656e-05, 2.7170495741302148e-05]","[0.004314883146435022, 0.004457676317542791, 0.005210810340940952, 0.004769247490912676, 0.004378263372927904, 0.004687659442424774]","[0.0052649934141709995, -1.5655313333807255, 0.0052649934141709995, 0.0052649934141709995, 0.0052649934141709995, 0.0052649934141709995]","[0.0052649934141709995, -1.5655313333807255, 0.0052649934141709995, 0.0052649934141709995, 0.0052649934141709995, 0.0052649934141709995]",0.002,7,1
0,10,"[7.606494182255119e-05, -1.5707289819368562, 2.080598940068512e-05, 9.755670513911241e-05, 0.00011567497131181881, 6.318092346191406e-05]","[0.0058160144835710526, 0.008532215841114521, 0.007057709153741598, 0.006169990170747042, 0.0067855012603104115, 0.0064194160513579845]","[0.005849940647843686, -1.564946386147053, 0.005849940647843686, 0.005849940647843686, 0.005849940647843686, 0.005849940647843686]","[0.005849940647843686, -1.564946386147053, 0.005849940647843686, 0.005849940647843686, 0.005849940647843686, 0.005849940647843686]",0.002,7,1
0,11,"[7.930040010251105e-05, -1.5706883755086274, 6.562868227177887e-05, 8.11058231811046e-05, 0.00010253750951960683, 3.0303001040010713e-05]","[0.006407495588064194, 0.010681726969778538, 0.009474819526076317, 0.0075410581193864346, 0.00833781436085701, 0.009101072326302528]","[0.006434871449902759, -1.5643614553449938, 0.006434871449902759, 0.006434871449902759, 0.006434871449902759, 0.006434871449902759]","[0.006434871449902759, -1.5643614553449938, 0.006434871449902759, 0.006434871449902759, 0.006434871449902759, 0.006434871449902759]",0.002,7,1
0,12,"[9.283268445869908e-05, -1.570768185023855, 9.423891176396637e-05, 0.00010494768109126085, 0.00010686127643566579, 0.00011108502076240256]","[0.007864933460950851, 0.012509872205555439, 0.012252804823219776, 0.010102917440235615, 0.00948530063033104, 0.010749743320047855]","[0.007019784177364551, -1.563776542617532, 0.007019784177364551, 0.007019784177364551, 0.007019784177364551, 0.007019784177364551]","[0.007019784177364551, -1.563776542617532, 0.007019784177364551, 0.007019784177364551, 0.007019784177364551, 0.007019784177364551]",0.002,7,1
0,13,"[0.00012892730592284352, -1.5707065352074387, 0.00010282198061162262, 0.00013022005047602647, 0.0001349926315015182, 5.233097181189805e-05]","[0.009556270204484463, 0.014545832760632038, 0.012698881328105927, 0.011911802925169468, 0.011946792714297771, 0.012183533981442451]","[0.007604677187296164, -1.5631916496076004, 0.007604677187296164, 0.007604677187296164, 0.007604677187296164, 0.007604677187296164]","[0.007604677187296164, -1.5631916496076004, 0.007604677187296164, 0.007604677187296164, 0.007604677187296164, 0.007604677187296164]",0.002,7,1
0,14,"[5.180285734240897e-05, -1.5706825742275505, 0.0001214186297815445, 0.00014869749035639757, 7.767877104924992e-05, 0.00017270565149374306]","[0.011371434666216373, 0.016134660691022873, 0.0161233302205801, 0.014343861490488052, 0.013683732599020004, 0.014700925908982754]","[0.008189548836820083, -1.5626067779580766, 0.008189548836820083, 0.008189548836820083, 0.008189548836820083, 0.008189548836820083]","[0.008189548836820083, -1.5626067779580766, 0.008189548836820083, 0.008189548836820083, 0.008189548836820083, 0.008189548836820083]",0.002,7,1
0,15,"[0.0001345689524896443, -1.570691601755545, 0.0001786390887659195, 0.000156088466308546, 0.0001460282801417634, 0.00022062778589315712]","[0.01333175040781498, 0.018676111474633217, 0.018112698569893837, 0.016777601093053818, 0.016346557065844536, 0.015535498969256878]","[0.008774397483118796, -1.5620219293117779, 0.008774397483118796, 0.008774397483118796, 0.008774397483118796, 0.008774397483118796]","[0.008774397483118796, -1.5620219293117779, 0.008774397483118796, 0.008774397483118796, 0.008774397483118796, 0.008774397483118796]",0.002,7,1
0,16,"[0.00021724803082179278, -1.5706631885007774, 0.00019056001772099762, 0.00020591794934077257, 0.0002772556326817721, 0.0002519937988836318]","[0.01592710241675377, 0.020532045513391495, 0.020879222080111504, 0.01957537978887558, 0.018347226083278656, 0.02009955234825611]","[0.0093592214834394, -1.561437105311457, 0.0093592214834394, 0.0093592214834394, 0.0093592214834394, 0.0093592214834394]","[0.0093592214834394, -1.561437105311457, 0.0093592214834394, 0.0093592214834394, 0.0093592214834394, 0.0093592214834394]",0.002,7,1
0,17,"[0.00019635439093690366, -1.570549158296064, 0.00023061433901006012, 0.00022403776135249132, 0.00030019856058061123, 0.00023382189101539552]","[0.016957437619566917, 0.021150503307580948, 0.022690117359161377, 0.02105037495493889, 0.019947271794080734, 0.021667439490556717]","[0.009944019195098217, -1.5608523075997984, 0.009944019195098217, 0.009944019195098217, 0.009944019195098217, 0.009944019195098217]","[0.009944019195098217, -1.5608523075997984, 0.009944019195098217, 0.009944019195098217, 0.009944019195098217, 0.009944019195098217]",0.002,7,1
0,18,"[0.00020478486840147525, -1.5705581826080852, 0.0002625624286096695, 0.00024346887554926866, 0.0002751966239884496, 0.00034075474832206964]","[0.01963432878255844, 0.021883664652705193, 0.023173710331320763, 0.02069650962948799, 0.020493946969509125, 0.02036198601126671]","[0.010528788975485414, -1.560267537819411, 0.010528788975485414, 0.010528788975485414, 0.010528788975485414, 0.010528788975485414]","[0.010528788975485414, -1.560267537819411, 0.010528788975485414, 0.010528788975485414, 0.010528788975485414, 0.010528788975485414]",0.002,7,1
0,19,"[0.0003418822307139635, -1.5705130762692825, 0.0003464857684534195, 0.0003380018421630382, 0.0003190040588378906, 0.00029390357667580247]","[0.021253354847431183, 0.02333253249526024, 0.02398991398513317, 0.020455827936530113, 0.018581749871373177, 0.019296975806355476]","[0.01111352918206961, -1.559682797612827, 0.01111352918206961, 0.01111352918206961, 0.01111352918206961, 0.01111352918206961]","[0.01111352918206961, -1.559682797612827, 0.01111352918206961, 0.01111352918206961, 0.01111352918206961, 0.01111352918206961]",0.002,7,1
0,20,"[0.0003614354063756764, -1.5704620520158024, 0.0003450552569788101, 0.0003647047230224132, 0.00036342148086987436, 0.0003795775701291859]","[0.020049892365932465, 0.02542899362742901, 0.02544030174612999, 0.020957106724381447, 0.019865725189447403, 0.019956596195697784]","[0.011698238172402493, -1.559098088622494, 0.011698238172402493, 0.011698238172402493, 0.011698238172402493, 0.011698238172402493]","[0.011698238172402493, -1.559098088622494, 0.011698238172402493, 0.011698238172402493, 0.011698238172402493, 0.011698238172402493]",0.002,7,1
0,21,"[0.00038363682688213885, -1.5704307121089478, 0.00043183961977177887, 0.00040559350933833116, 0.00046073817065916955, 0.00046976946759968996]","[0.023960759863257408, 0.02695651352405548, 0.02695048227906227, 0.0214513149112463, 0.020818594843149185, 0.020268874242901802]","[0.012282914304123434, -1.5585134124907731, 0.012282914304123434, 0.012282914304123434, 0.012282914304123434, 0.012282914304123434]","[0.012282914304123434, -1.5585134124907731, 0.012282914304123434, 0.012282914304123434, 0.012282914304123434, 0.012282914304123434]",0.002,7,1
0,22,"[0.00043920028838329017, -1.5703976078114756, 0.0005071798907678726, 0.00048582136120600694, 0.00042270091944374144, 0.0004726002225652337]","[0.02693989686667919, 0.028260832652449608, 0.02892214059829712, 0.02303732931613922, 0.021893464028835297, 0.021573860198259354]","[0.012867555934964097, -1.5579287708599325, 0.012867555934964097, 0.012867555934964097, 0.012867555934964097, 0.012867555934964097]","[0.012867555934964097, -1.5579287708599325, 0.012867555934964097, 0.012867555934964097, 0.012867555934964097, 0.012867555934964097]",0.002,7,1
0,23,"[0.0005128525663167238, -1.5702669531204556, 0.0005133787738245132, 0.000525041217468214, 0.0005124034942127764, 0.0005041074473410845]","[0.027482472360134125, 0.03032686747610569, 0.03039087913930416, 0.024382567033171654, 0.023820379748940468, 0.024159446358680725]","[0.01345216142275306, -1.5573441653721436, 0.01345216142275306, 0.01345216142275306, 0.01345216142275306, 0.01345216142275306]","[0.01345216142275306, -1.5573441653721436, 0.01345216142275306, 0.01345216142275306, 0.01345216142275306, 0.01345216142275306]",0.002,7,1
0,24,"[0.0005351395811885595, -1.5702956123025906, 0.0006058851825159195, 0.0005399423786620616, 0.0005605713231489062, 0.0005684804636985064]","[0.029033759608864784, 0.03190965950489044, 0.03210978955030441, 0.02556784264743328, 0.025700276717543602, 0.02575134113430977]","[0.01403672912542041, -1.5567595976694761, 0.01403672912542041, 0.01403672912542041, 0.01403672912542041, 0.01403672912542041]","[0.01403672912542041, -1.5567595976694761, 0.01403672912542041, 0.01403672912542041, 0.01403672912542041, 0.01403672912542041]",0.002,7,1
0,25,"[0.0006447716732509434, -1.5701515406584186, 0.0006616751300256851, 0.0006581979938964366, 0.0006538419984281063, 0.0005955815431661904]","[0.0304733794182539, 0.03443794697523117, 0.0344388373196125, 0.02722259797155857, 0.027860695496201515, 0.027269281446933746]","[0.014621257401002376, -1.5561750693938943, 0.014621257401002376, 0.014621257401002376, 0.014621257401002376, 0.014621257401002376]","[0.014621257401002376, -1.5561750693938943, 0.014621257401002376, 0.014621257401002376, 0.014621257401002376, 0.014621257401002376]",0.002,7,1
0,26,"[0.0006550431135110557, -1.5700885185254556, 0.0007799307452600601, 0.0007185178944091319, 0.0006847850163467228, 0.0006795835215598345]","[0.033312730491161346, 0.03764234483242035, 0.0359114371240139, 0.029619496315717697, 0.029966875910758972, 0.030419087037444115]","[0.015205744607645925, -1.5555905821872507, 0.015205744607645925, 0.015205744607645925, 0.015205744607645925, 0.015205744607645925]","[0.015205744607645925, -1.5555905821872507, 0.015205744607645925, 0.015205744607645925, 0.015205744607645925, 0.015205744607645925]",0.002,7,1
0,27,"[0.0007693426450714469, -1.570049593490996, 0.0008638540851038101, 0.0007495123096923351, 0.0007820057217031717, 0.0007348060607910156]","[0.036234162747859955, 0.03823554143309593, 0.039043646305799484, 0.032495345920324326, 0.03185880929231644, 0.03290426358580589]","[0.015790189103613395, -1.5550061376912832, 0.015790189103613395, 0.015790189103613395, 0.015790189103613395, 0.015790189103613395]","[0.015790189103613395, -1.5550061376912832, 0.015790189103613395, 0.015790189103613395, 0.015790189103613395, 0.015790189103613395]",0.002,7,1
0,28,"[0.0007962984964251518, -1.5699491239832533, 0.000890080128804982, 0.0008669334598998546, 0.0008618085994385183, 0.0007827281951904297]","[0.03839714825153351, 0.041416384279727936, 0.04191624000668526, 0.03611166402697563, 0.03409150242805481, 0.03374411165714264]","[0.016374589247287068, -1.5544217375476095, 0.016374589247287068, 0.016374589247287068, 0.016374589247287068, 0.016374589247287068]","[0.016374589247287068, -1.5544217375476095, 0.016374589247287068, 0.016374589247287068, 0.016374589247287068, 0.016374589247287068]",0.002,7,1
0,29,"[0.0009419618872925639, -1.5698487142547783, 0.0010736624347131851, 0.0009054380604247569, 0.0007953286403790116, 0.0008879373199306428]","[0.04039105400443077, 0.04591941460967064, 0.04295052960515022, 0.03702148050069809, 0.03690267726778984, 0.035127609968185425]","[0.016958943397173833, -1.5538373833977228, 0.016958943397173833, 0.016958943397173833, 0.016958943397173833, 0.016958943397173833]","[0.016958943397173833, -1.5538373833977228, 0.016958943397173833, 0.016958943397173833, 0.016958943397173833, 0.016958943397173833]",0.002,7,1
0,30,"[0.0009643837111070752, -1.5697480353158717, 0.0010879675494592789, 0.0009820896336059093, 0.0009734617196954787, 0.0009522080654278398]","[0.0436067208647728, 0.04551970586180687, 0.04697094485163689, 0.037993915379047394, 0.04032398387789726, 0.038900379091501236]","[0.017543249911909743, -1.5532530768829869, 0.017543249911909743, 0.017543249911909743, 0.017543249911909743, 0.017543249911909743]","[0.017543249911909743, -1.5532530768829869, 0.017543249911909743, 0.017543249911909743, 0.017543249911909743, 0.017543249911909743]",0.002,7,1
0,31,"[0.0010768615175038576, -1.569680451797769, 0.0011795202838342789, 0.0010451513477782726, 0.0010379502782598138, 0.0010812500258907676]","[0.04607124254107475, 0.04985584691166878, 0.05002891272306442, 0.041407033801078796, 0.042899999767541885, 0.04234469681978226]","[0.018127507150264666, -1.5526688196446319, 0.018127507150264666, 0.018127507150264666, 0.018127507150264666, 0.018127507150264666]","[0.018127507150264666, -1.5526688196446319, 0.018127507150264666, 0.018127507150264666, 0.018127507150264666, 0.018127507150264666]",0.002,7,1
0,32,"[0.0011113595683127642, -1.569584581801184, 0.0013120810138147476, 0.0011297899433593273, 0.0011102252174168825, 0.001124644884839654]","[0.04831714928150177, 0.052645787596702576, 0.049550481140613556, 0.04489403963088989, 0.045952826738357544, 0.04537529870867729]","[0.018711713471146876, -1.5520846133237496, 0.018711713471146876, 0.018711713471146876, 0.018711713471146876, 0.018711713471146876]","[0.018711713471146876, -1.5520846133237496, 0.018711713471146876, 0.018711713471146876, 0.018711713471146876, 0.018711713471146876]",0.002,7,1
0,33,"[0.0012568584643304348, -1.5694344364204262, 0.0013960043536584976, 0.0012582975574950694, 0.0012510416563600302, 0.0012657830957323313]","[0.05139739066362381, 0.057806193828582764, 0.05347045138478279, 0.049519214779138565, 0.049406684935092926, 0.048402462154626846]","[0.019295867233607666, -1.551500459561289, 0.019295867233607666, 0.019295867233607666, 0.019295867233607666, 0.019295867233607666]","[0.019295867233607666, -1.551500459561289, 0.019295867233607666, 0.019295867233607666, 0.019295867233607666, 0.019295867233607666]",0.002,7,1
0,34,"[0.0013499697670340538, -1.5693282165196543, 0.0015171209918420914, 0.0013794141956786632, 0.0013667447492480278, 0.0013406703947111964]","[0.05357726663351059, 0.05648883432149887, 0.05742302164435387, 0.05182335153222084, 0.05197092145681381, 0.05200226604938507]","[0.019879966796845963, -1.5509163599980507, 0.019879966796845963, 0.019879966796845963, 0.019879966796845963, 0.019879966796845963]","[0.019879966796845963, -1.5509163599980507, 0.019879966796845963, 0.019879966796845963, 0.019879966796845963, 0.019879966796845963]",0.002,7,1
0,35,"[0.0015360345132648945, -1.5692244883724307, 0.0016363302813928726, 0.0014288860508422374, 0.0014007091522216797, 0.0015073823742568493]","[0.05750659853219986, 0.06098467856645584, 0.06046187877655029, 0.05265916511416435, 0.05548936501145363, 0.05604524910449982]","[0.020464010520212926, -1.5503323162746836, 0.020464010520212926, 0.020464010520212926, 0.020464010520212926, 0.020464010520212926]","[0.020464010520212926, -1.5503323162746836, 0.020464010520212926, 0.020464010520212926, 0.020464010520212926, 0.020464010520212926]",0.002,7,1
0,36,"[0.0016333024250343442, -1.5691210150583466, 0.0017440954791467789, 0.001589341754577589, 0.0015220256755128503, 0.0015658213524147868]","[0.060806285589933395, 0.06509668380022049, 0.06053977459669113, 0.05722229555249214, 0.058206140995025635, 0.058621931821107864]","[0.02104799676321656, -1.5497483300316799, 0.02104799676321656, 0.02104799676321656, 0.02104799676321656, 0.02104799676321656]","[0.02104799676321656, -1.5497483300316799, 0.02104799676321656, 0.02104799676321656, 0.02104799676321656, 0.02104799676321656]",0.002,7,1
0,37,"[0.001750527648255229, -1.5690011539594089, 0.0018566290484827164, 0.001627965564392042, 0.001740646781399846, 0.0017424303805455565]","[0.06321639567613602, 0.06835643947124481, 0.06580258905887604, 0.06056850403547287, 0.0627153292298317, 0.06423348933458328]","[0.02163192388552632, -1.5491644029093703, 0.02163192388552632, 0.02163192388552632, 0.02163192388552632, 0.02163192388552632]","[0.02163192388552632, -1.5491644029093703, 0.02163192388552632, 0.02163192388552632, 0.02163192388552632, 0.02163192388552632]",0.002,7,1
0,38,"[0.0018734349869191647, -1.5688059437419106, 0.001996819172994435, 0.0017930704304198741, 0.0018358005909249187, 0.001850636093877256]","[0.0662589743733406, 0.0710996687412262, 0.06825907528400421, 0.06379526108503342, 0.06534293293952942, 0.06486416608095169]","[0.022215790246977733, -1.5485805365479188, 0.022215790246977733, 0.022215790246977733, 0.022215790246977733, 0.022215790246977733]","[0.022215790246977733, -1.5485805365479188, 0.022215790246977733, 0.022215790246977733, 0.022215790246977733, 0.022215790246977733]",0.002,7,1
0,39,"[0.0020053547341376543, -1.5686636714129527, 0.0021317640887659195, 0.0019289690205077648, 0.002002049470320344, 0.001953919418156147]","[0.07002595067024231, 0.07484131306409836, 0.07116321474313736, 0.06889461725950241, 0.06685513257980347, 0.0671810656785965]","[0.02279959420757699, -1.5479967325873196, 0.02279959420757699, 0.02279959420757699, 0.02279959420757699, 0.02279959420757699]","[0.02279959420757699, -1.5479967325873196, 0.02279959420757699, 0.02279959420757699, 0.02279959420757699, 0.02279959420757699]",0.002,7,1
0,40,"[0.0021944178733974695, -1.5685647642570366, 0.00231343904604131, 0.002089543933532667, 0.0020673570688813925, 0.0021011349745094776]","[0.07221443951129913, 0.07690291851758957, 0.07419958710670471, 0.07141982764005661, 0.07083258032798767, 0.07333185523748398]","[0.02338333412750555, -1.547412992667391, 0.02338333412750555, 0.02338333412750555, 0.02338333412750555, 0.02338333412750555]","[0.02338333412750555, -1.547412992667391, 0.02338333412750555, 0.02338333412750555, 0.02338333412750555, 0.02338333412750555]",0.002,7,1
0,41,"[0.002310000592842698, -1.5684087467710306, 0.002465073262349904, 0.002217693919799757, 0.002256301697343588, 0.0021860599517822266]","[0.07940679788589478, 0.08084675669670105, 0.07712919265031815, 0.07413811981678009, 0.07733573764562607, 0.07500346750020981]","[0.023967008367124766, -1.5468293184277717, 0.023967008367124766, 0.023967008367124766, 0.023967008367124766, 0.023967008367124766]","[0.023967008367124766, -1.5468293184277717, 0.023967008367124766, 0.023967008367124766, 0.023967008367124766, 0.023967008367124766]",0.002,7,1
0,42,"[0.0024705608375370502, -1.5681610189243038, 0.0025776068316858414, 0.0024109321781615733, 0.002433683956041932, 0.002409748500213027]","[0.07736048102378845, 0.08384668827056885, 0.07905851304531097, 0.0784059688448906, 0.07809983938932419, 0.07850800454616547]","[0.024550615286980458, -1.546245711507916, 0.024550615286980458, 0.024550615286980458, 0.024550615286980458, 0.024550615286980458]","[0.024550615286980458, -1.546245711507916, 0.024550615286980458, 0.024550615286980458, 0.024550615286980458, 0.024550615286980458]",0.002,7,1
0,43,"[0.0026670899242162704, -1.5679989951061835, 0.0027697722064417007, 0.002554340953491163, 0.002597289625555277, 0.002582104178145528]","[0.08363645523786545, 0.08648748695850372, 0.0842287540435791, 0.08207714557647705, 0.08219899982213974, 0.08241836726665497]","[0.025134153247807548, -1.545662173547089, 0.025134153247807548, 0.025134153247807548, 0.025134153247807548, 0.025134153247807548]","[0.025134153247807548, -1.545662173547089, 0.025134153247807548, 0.025134153247807548, 0.025134153247807548, 0.025134153247807548]",0.002,7,1
0,44,"[0.0028094209264963865, -1.567855082485341, 0.00294667879213506, 0.0026969152637938976, 0.0027000720147043467, 0.0027878982946276665]","[0.08992037177085876, 0.09190085530281067, 0.08940163254737854, 0.086370088160038, 0.08599772304296494, 0.08624167740345001]","[0.025717620610534668, -1.5450787061843618, 0.025717620610534668, 0.025717620610534668, 0.025717620610534668, 0.025717620610534668]","[0.025717620610534668, -1.5450787061843618, 0.025717620610534668, 0.025717620610534668, 0.025717620610534668, 0.025717620610534668]",0.002,7,1
0,45,"[0.0030269967392086983, -1.5676706428970029, 0.0031550566302698257, 0.0028766828724364757, 0.0028894252609461546, 0.0029378088656812906]","[0.09099218249320984, 0.09177177399396896, 0.0901198610663414, 0.09055101871490479, 0.09045852720737457, 0.08972128480672836]","[0.026301015736288732, -1.544495311058608, 0.026301015736288732, 0.026301015736288732, 0.026301015736288732, 0.026301015736288732]","[0.026301015736288732, -1.544495311058608, 0.026301015736288732, 0.026301015736288732, 0.026301015736288732, 0.026301015736288732]",0.002,7,1
0,46,"[0.003194962628185749, -1.5674712118091811, 0.00339681306947881, 0.003082438106201124, 0.003147212788462639, 0.0031671856995671988]","[0.09588902443647385, 0.09770403057336807, 0.09446144104003906, 0.09385762363672256, 0.09576054662466049, 0.09369779378175735]","[0.026884336986399547, -1.543911989808497, 0.026884336986399547, 0.026884336986399547, 0.026884336986399547, 0.026884336986399547]","[0.026884336986399547, -1.543911989808497, 0.026884336986399547, 0.026884336986399547, 0.026884336986399547, 0.026884336986399547]",0.002,7,1
0,47,"[0.0034201915841549635, -1.5672627501520147, 0.0035856405841272476, 0.0032605367847899913, 0.0033261082135140896, 0.003337909234687686]","[0.09995085746049881, 0.09992317110300064, 0.09904563426971436, 0.09766359627246857, 0.09587952494621277, 0.09741882979869843]","[0.027467582722404453, -1.543328744072492, 0.027467582722404453, 0.027467582722404453, 0.027467582722404453, 0.027467582722404453]","[0.027467582722404453, -1.543328744072492, 0.027467582722404453, 0.027467582722404453, 0.027467582722404453, 0.027467582722404453]",0.002,7,1
0,48,"[0.003636198816820979, -1.5670617630570014, 0.003690544758931935, 0.003489537830017042, 0.003536575473845005, 0.003501357976347208]","[0.10341250896453857, 0.10442554205656052, 0.1030731126666069, 0.10195502638816833, 0.10144198685884476, 0.10153970867395401]","[0.028050751306052873, -1.5427455754888437, 0.028050751306052873, 0.028050751306052873, 0.028050751306052873, 0.028050751306052873]","[0.028050751306052873, -1.5427455754888437, 0.028050751306052873, 0.028050751306052873, 0.028050751306052873, 0.028050751306052873]",0.002,7,1
0,49,"[0.003843121463432908, -1.5668713206290086, 0.003918472920553029, 0.003705425853393507, 0.003731706878170371, 0.003724684240296483]","[0.10745425522327423, 0.1077999621629715, 0.10640816390514374, 0.1065225601196289, 0.10413528978824615, 0.10549326241016388]","[0.02863384109931096, -1.5421624856955856, 0.02863384109931096, 0.02863384109931096, 0.02863384109931096, 0.02863384109931096]","[0.02863384109931096, -1.5421624856955856, 0.02863384109931096, 0.02863384109931096, 0.02863384109931096, 0.02863384109931096]",0.002,7,1
0,50,"[0.004073969554156065, -1.5666295572048803, 0.004173103963033498, 0.003954334849975538, 0.0040062908083200455, 0.003978187218308449]","[0.11019211262464523, 0.11113113164901733, 0.10993652790784836, 0.11060395836830139, 0.10925502330064774, 0.10904683917760849]","[0.029216850464366173, -1.5415794763305304, 0.029216850464366173, 0.029216850464366173, 0.029216850464366173, 0.029216850464366173]","[0.029216850464366173, -1.5415794763305304, 0.029216850464366173, 0.029216850464366173, 0.029216850464366173, 0.029216850464366173]",0.002,7,1
0,51,"[0.004336648620665073, -1.5664045370979984, 0.004376236592428029, 0.004170342082641554, 0.004230348858982325, 0.004181935451924801]","[0.1166740208864212, 0.1153319701552391, 0.11223192512989044, 0.11447837203741074, 0.11497677862644196, 0.11316800862550735]","[0.029799777763631855, -1.5409965490312647, 0.029799777763631855, 0.029799777763631855, 0.029799777763631855, 0.029799777763631855]","[0.029799777763631855, -1.5409965490312647, 0.029799777763631855, 0.029799777763631855, 0.029799777763631855, 0.029799777763631855]",0.002,7,1
0,52,"[0.004617288708686829, -1.5661528457752247, 0.004593674336568654, 0.004431172008178663, 0.004454431589692831, 0.004417673218995333]","[0.1179918721318245, 0.11922943592071533, 0.11826614290475845, 0.11931207776069641, 0.11752244830131531, 0.11599211394786835]","[0.030382621359751904, -1.5404137054351446, 0.030382621359751904, 0.030382621359751904, 0.030382621359751904, 0.030382621359751904]","[0.030382621359751904, -1.5404137054351446, 0.030382621359751904, 0.030382621359751904, 0.030382621359751904, 0.030382621359751904]",0.002,7,1
0,53,"[0.004840829875320196, -1.5659127047150214, 0.004874054585592091, 0.004682345981262159, 0.00469470489770174, 0.004673828836530447]","[0.1235792338848114, 0.12220567464828491, 0.12191542983055115, 0.12324265390634537, 0.12166047096252441, 0.12356197088956833]","[0.030965379615605294, -1.5398309471792913, 0.030965379615605294, 0.030965379615605294, 0.030965379615605294, 0.030965379615605294]","[0.030965379615605294, -1.5398309471792913, 0.030965379615605294, 0.030965379615605294, 0.030965379615605294, 0.030965379615605294]",0.002,7,1
0,54,"[0.0050974260084331036, -1.5657300569913168, 0.005184475575582326, 0.004908724422119093, 0.0049428511410951614, 0.004951457027345896]","[0.1281145066022873, 0.12895677983760834, 0.12493293732404709, 0.12743668258190155, 0.1271701604127884, 0.12709268927574158]","[0.031548050894310724, -1.5392482759005859, 0.031548050894310724, 0.031548050894310724, 0.031548050894310724, 0.031548050894310724]","[0.031548050894310724, -1.5392482759005859, 0.031548050894310724, 0.031548050894310724, 0.031548050894310724, 0.031548050894310724]",0.002,7,1
0,55,"[0.005415389314293861, -1.5654226045920332, 0.005402866994039357, 0.005258603686950636, 0.0052487812936306, 0.005144455004483461]","[0.13210050761699677, 0.12988974153995514, 0.13018035888671875, 0.1315189152956009, 0.13190299272537231, 0.13166140019893646]","[0.03213063355923119, -1.5386656932356653, 0.03213063355923119, 0.03213063355923119, 0.03213063355923119, 0.03213063355923119]","[0.03213063355923119, -1.5386656932356653, 0.03213063355923119, 0.03213063355923119, 0.03213063355923119, 0.03213063355923119]",0.002,7,1
0,56,"[0.005649571772664785, -1.5651990266381581, 0.005676094685689748, 0.005502863521240187, 0.005491231102496386, 0.005507675465196371]","[0.13607287406921387, 0.13495102524757385, 0.1363345980644226, 0.1372147500514984, 0.13635484874248505, 0.13632170855998993]","[0.03271312597397859, -1.538083200820918, 0.03271312597397859, 0.03271312597397859, 0.03271312597397859, 0.03271312597397859]","[0.03271312597397859, -1.538083200820918, 0.03271312597397859, 0.03271312597397859, 0.03271312597397859, 0.03271312597397859]",0.002,7,1
0,57,"[0.0058924476616084576, -1.5648763163811346, 0.005955521260396779, 0.005778236980102491, 0.00577798904851079, 0.005700769368559122]","[0.14024114608764648, 0.14019230008125305, 0.13854649662971497, 0.139156773686409, 0.13884882628917694, 0.1397339403629303]","[0.03329552650241833, -1.5375008002924782, 0.03329552650241833, 0.03329552650241833, 0.03329552650241833, 0.03329552650241833]","[0.03329552650241833, -1.5375008002924782, 0.03329552650241833, 0.03329552650241833, 0.03329552650241833, 0.03329552650241833]",0.002,7,1
0,58,"[0.006242041010409594, -1.5646094342558463, 0.006223980580465138, 0.0060618358799438, 0.006044158712029457, 0.006007297895848751]","[0.14449752867221832, 0.14423881471157074, 0.1426532119512558, 0.14387944340705872, 0.14510023593902588, 0.144117534160614]","[0.03387783350867391, -1.5369184932862225, 0.03387783350867391, 0.03387783350867391, 0.03387783350867391, 0.03387783350867391]","[0.03387783350867391, -1.5369184932862225, 0.03387783350867391, 0.03387783350867391, 0.03387783350867391, 0.03387783350867391]",0.002,7,1
0,59,"[0.006558658089488745, -1.564321553134807, 0.006475273762838185, 0.0063819128223876476, 0.006358039565384388, 0.006343787536025047]","[0.14786840975284576, 0.14833112061023712, 0.14864765107631683, 0.14703315496444702, 0.15076099336147308, 0.15108883380889893]","[0.034460045357131514, -1.536336281437765, 0.034460045357131514, 0.034460045357131514, 0.034460045357131514, 0.034460045357131514]","[0.034460045357131514, -1.536336281437765, 0.034460045357131514, 0.034460045357131514, 0.034460045357131514, 0.034460045357131514]",0.002,7,1
0,60,"[0.006842305883765221, -1.5639629343389352, 0.006841484700338185, 0.006726785297058058, 0.006699146702885628, 0.006669043097645044]","[0.15261773765087128, 0.15319137275218964, 0.15333425998687744, 0.15239471197128296, 0.15365959703922272, 0.1540118157863617]","[0.0350421604124446, -1.5357541663824519, 0.0350421604124446, 0.0350421604124446, 0.0350421604124446, 0.0350421604124446]","[0.0350421604124446, -1.5357541663824519, 0.0350421604124446, 0.0350421604124446, 0.0350421604124446, 0.0350421604124446]",0.002,7,1
0,61,"[0.007166160270571709, -1.5636797433583816, 0.007202927266256154, 0.006952448482177687, 0.007008625194430351, 0.006948104593902826]","[0.15978483855724335, 0.15841369330883026, 0.15575265884399414, 0.15662236511707306, 0.15601882338523865, 0.15890613198280334]","[0.03562417703953853, -1.535172149755358, 0.03562417703953853, 0.03562417703953853, 0.03562417703953853, 0.03562417703953853]","[0.03562417703953853, -1.535172149755358, 0.03562417703953853, 0.03562417703953853, 0.03562417703953853, 0.03562417703953853]",0.002,7,1
0,62,"[0.007489961571991444, -1.563367483937629, 0.007494274769918263, 0.007296009654663038, 0.007332880049943924, 0.007295905612409115]","[0.1613638699054718, 0.1647820919752121, 0.1613261103630066, 0.1623491495847702, 0.1603214591741562, 0.1643090546131134]","[0.03620609360361513, -1.5345902331912815, 0.03620609360361513, 0.03620609360361513, 0.03620609360361513, 0.03620609360361513]","[0.03620609360361513, -1.5345902331912815, 0.03620609360361513, 0.03620609360361513, 0.03620609360361513, 0.03620609360361513]",0.002,7,1
0,63,"[0.007830861955881119, -1.563010433488973, 0.0077813307391565445, 0.007636352176330519, 0.0076412418857216835, 0.007607731502503157]","[0.16609875857830048, 0.16682185232639313, 0.1680147498846054, 0.16788992285728455, 0.16459380090236664, 0.16866832971572876]","[0.03678790847015727, -1.5340084183247393, 0.03678790847015727, 0.03678790847015727, 0.03678790847015727, 0.03678790847015727]","[0.03678790847015727, -1.5340084183247393, 0.03678790847015727, 0.03678790847015727, 0.03678790847015727, 0.03678790847015727]",0.002,7,1
0,64,"[0.008140217512845993, -1.5627375378138204, 0.008220974599019826, 0.008083506221435499, 0.008002055808901787, 0.00795618537813425]","[0.17020675539970398, 0.17079640924930573, 0.17188839614391327, 0.17055723071098328, 0.1704259067773819, 0.1731826812028885]","[0.037369620004933476, -1.5334267067899632, 0.037369620004933476, 0.037369620004933476, 0.037369620004933476, 0.037369620004933476]","[0.037369620004933476, -1.5334267067899632, 0.037369620004933476, 0.037369620004933476, 0.037369620004933476, 0.037369620004933476]",0.002,7,1
0,65,"[0.008469680324196815, -1.5623686297661443, 0.008523289357320607, 0.008418365115783644, 0.008354940451681614, 0.008242354728281498]","[0.17691674828529358, 0.17672325670719147, 0.17608723044395447, 0.1753665953874588, 0.1754712611436844, 0.17827533185482025]","[0.03795122657400253, -1.532845100220894, 0.03795122657400253, 0.03795122657400253, 0.03795122657400253, 0.03795122657400253]","[0.03795122657400253, -1.532845100220894, 0.03795122657400253, 0.03795122657400253, 0.03795122657400253, 0.03795122657400253]",0.002,7,1
0,66,"[0.008876379579305649, -1.562032862832286, 0.008899990712301076, 0.008827729816101026, 0.008740833960473537, 0.008659830316901207]","[0.18060050904750824, 0.18135687708854675, 0.18014682829380035, 0.18008725345134735, 0.18133176863193512, 0.18214212357997894]","[0.038532726543718046, -1.5322636002511785, 0.038532726543718046, 0.038532726543718046, 0.038532726543718046, 0.038532726543718046]","[0.038532726543718046, -1.5322636002511785, 0.038532726543718046, 0.038532726543718046, 0.038532726543718046, 0.038532726543718046]",0.002,7,1
0,67,"[0.009298472665250301, -1.5616728600910683, 0.009249035512105763, 0.009090347880981398, 0.009133716113865376, 0.0090025020763278]","[0.1837066262960434, 0.1840468943119049, 0.18274135887622833, 0.1840687394142151, 0.18758052587509155, 0.18598632514476776]","[0.039114118280733065, -1.5316822085141635, 0.039114118280733065, 0.039114118280733065, 0.039114118280733065, 0.039114118280733065]","[0.039114118280733065, -1.5316822085141635, 0.039114118280733065, 0.039114118280733065, 0.039114118280733065, 0.039114118280733065]",0.002,7,1
0,68,"[0.00956911500543356, -1.5613113970360537, 0.009646240864888966, 0.00951330244030757, 0.009432084858417511, 0.00940774567425251]","[0.1889050304889679, 0.1868116408586502, 0.18527542054653168, 0.18815982341766357, 0.18930689990520477, 0.19245418906211853]","[0.039695400152004616, -1.5311009266428919, 0.039695400152004616, 0.039695400152004616, 0.039695400152004616, 0.039695400152004616]","[0.039695400152004616, -1.5311009266428919, 0.039695400152004616, 0.039695400152004616, 0.039695400152004616, 0.039695400152004616]",0.002,7,1
0,69,"[0.010011779144406319, -1.5609198047644277, 0.010034863148824513, 0.009841843242309523, 0.009832261130213737, 0.009807481430470943]","[0.1934451311826706, 0.19213996827602386, 0.19205066561698914, 0.19290973246097565, 0.19361914694309235, 0.19566264748573303]","[0.04027657052479833, -1.5305197562700983, 0.04027657052479833, 0.04027657052479833, 0.04027657052479833, 0.04027657052479833]","[0.04027657052479833, -1.5305197562700983, 0.04027657052479833, 0.04027657052479833, 0.04027657052479833, 0.04027657052479833]",0.002,7,1
0,70,"[0.010379312559962273, -1.5605104531026264, 0.010386292134420216, 0.0103115278431396, 0.010261906310915947, 0.010249213315546513]","[0.19811995327472687, 0.1974421739578247, 0.19670799374580383, 0.1986241638660431, 0.19937707483768463, 0.20022574067115784]","[0.04085762776669305, -1.5299386990282036, 0.04085762776669305, 0.04085762776669305, 0.04085762776669305, 0.04085762776669305]","[0.04085762776669305, -1.5299386990282036, 0.04085762776669305, 0.04085762776669305, 0.04085762776669305, 0.04085762776669305]",0.002,7,1
0,71,"[0.010791965760290623, -1.5601775239086528, 0.010782543812887013, 0.010736389751098585, 0.010669839568436146, 0.010584051720798016]","[0.20204812288284302, 0.2022065669298172, 0.20103353261947632, 0.2034406065940857, 0.2041207104921341, 0.205093115568161]","[0.041438570245585345, -1.5293577565493113, 0.041438570245585345, 0.041438570245585345, 0.041438570245585345, 0.041438570245585345]","[0.041438570245585345, -1.5293577565493113, 0.041438570245585345, 0.041438570245585345, 0.041438570245585345, 0.041438570245585345]",0.002,7,1
0,72,"[0.011157849803566933, -1.5597140186331053, 0.011224095021383107, 0.011138601894042921, 0.011082337237894535, 0.011003879830241203]","[0.20626218616962433, 0.20864035189151764, 0.2040913999080658, 0.20743101835250854, 0.20641086995601654, 0.2094828188419342]","[0.04201939632969416, -1.5287769304652024, 0.04201939632969416, 0.04201939632969416, 0.04201939632969416, 0.04201939632969416]","[0.04201939632969416, -1.5287769304652024, 0.04201939632969416, 0.04201939632969416, 0.04201939632969416, 0.04201939632969416]",0.002,7,1
0,73,"[0.011657727882266045, -1.55927753195677, 0.011677090321676076, 0.0115780073353271, 0.011514351703226566, 0.0114649822935462]","[0.21047121286392212, 0.21371440589427948, 0.20870591700077057, 0.21167340874671936, 0.21092593669891357, 0.21553772687911987]","[0.04260010438756538, -1.528196222407331, 0.04260010438756538, 0.04260010438756538, 0.04260010438756538, 0.04260010438756538]","[0.04260010438756538, -1.528196222407331, 0.04260010438756538, 0.04260010438756538, 0.04260010438756538, 0.04260010438756538]",0.002,7,1
0,74,"[0.012028238736093044, -1.5588861008039494, 0.012072388325826466, 0.012011452312133741, 0.01195538230240345, 0.011843317188322544]","[0.21663716435432434, 0.21593134105205536, 0.2138039469718933, 0.2174350619316101, 0.21747368574142456, 0.22028076648712158]","[0.043180692788076395, -1.52761563400682, 0.043180692788076395, 0.043180692788076395, 0.043180692788076395, 0.043180692788076395]","[0.043180692788076395, -1.52761563400682, 0.043180692788076395, 0.043180692788076395, 0.043180692788076395, 0.043180692788076395]",0.002,7,1
0,75,"[0.012545662932097912, -1.5584915925613423, 0.0125048796283167, 0.012478752727172804, 0.0123670669272542, 0.012282638810575008]","[0.22309809923171997, 0.22250717878341675, 0.21850131452083588, 0.22111275792121887, 0.22351235151290894, 0.22583158314228058]","[0.0437611599004407, -1.527035166894456, 0.0437611599004407, 0.0437611599004407, 0.0437611599004407, 0.0437611599004407]","[0.0437611599004407, -1.527035166894456, 0.0437611599004407, 0.0437611599004407, 0.0437611599004407, 0.0437611599004407]",0.002,7,1
0,76,"[0.01296105608344078, -1.5580220448649307, 0.012925450001851857, 0.012966795558593702, 0.012794924899935722, 0.01277567632496357]","[0.22649948298931122, 0.22869694232940674, 0.22326871752738953, 0.2257455438375473, 0.22762155532836914, 0.2306474894285202]","[0.04434150409421247, -1.526454822700684, 0.04434150409421247, 0.04434150409421247, 0.04434150409421247, 0.04434150409421247]","[0.04434150409421247, -1.526454822700684, 0.04434150409421247, 0.04434150409421247, 0.04434150409421247, 0.04434150409421247]",0.002,7,1
0,77,"[0.013397588394582272, -1.5575326776928087, 0.013414684926168263, 0.013367338771484327, 0.013275985606014729, 0.013226892799139023]","[0.229472815990448, 0.23258201777935028, 0.22783638536930084, 0.22995319962501526, 0.2324930876493454, 0.23672476410865784]","[0.04492172373929114, -1.5258746030556054, 0.04492172373929114, 0.04492172373929114, 0.04492172373929114, 0.04492172373929114]","[0.04492172373929114, -1.5258746030556054, 0.04492172373929114, 0.04492172373929114, 0.04492172373929114, 0.04492172373929114]",0.002,7,1
0,78,"[0.013955775648355484, -1.5570575876957555, 0.013863865529195607, 0.013922615642211866, 0.013702993281185627, 0.013716591522097588]","[0.23432055115699768, 0.2379298210144043, 0.23204223811626434, 0.23368476331233978, 0.2376721203327179, 0.24036289751529694]","[0.04550181720592597, -1.5252945095889705, 0.04550181720592597, 0.04550181720592597, 0.04550181720592597, 0.04550181720592597]","[0.04550181720592597, -1.5252945095889705, 0.04550181720592597, 0.04550181720592597, 0.04550181720592597, 0.04550181720592597]",0.002,7,1
0,79,"[0.01441011019051075, -1.5565567959896107, 0.014324490224019826, 0.014360828990600538, 0.014216030016541481, 0.014208822511136532]","[0.24012112617492676, 0.24307399988174438, 0.24023176729679108, 0.23850701749324799, 0.2431638538837433, 0.24576258659362793]","[0.04608178286472068, -1.524714543930176, 0.04608178286472068, 0.04608178286472068, 0.04608178286472068, 0.04608178286472068]","[0.04608178286472068, -1.524714543930176, 0.04608178286472068, 0.04608178286472068, 0.04608178286472068, 0.04608178286472068]",0.002,7,1
0,80,"[0.014919102191925049, -1.5561382093331595, 0.01477986971010381, 0.014907045955322218, 0.014721187762916088, 0.014716479927301407]","[0.2448752373456955, 0.24809977412223816, 0.24476772546768188, 0.2434500753879547, 0.2464124709367752, 0.24897007644176483]","[0.046661619086637914, -1.5241347077082585, 0.046661619086637914, 0.046661619086637914, 0.046661619086637914, 0.046661619086637914]","[0.046661619086637914, -1.5241347077082585, 0.046661619086637914, 0.046661619086637914, 0.046661619086637914, 0.046661619086637914]",0.002,7,1
0,81,"[0.015320918522775173, -1.5556323782405634, 0.015305344258443654, 0.015359922046325636, 0.015213530510663986, 0.015210834331810474]","[0.24748733639717102, 0.25398343801498413, 0.24695080518722534, 0.24700573086738586, 0.25024986267089844, 0.25143519043922424]","[0.04724132424300397, -1.5235550025518927, 0.04724132424300397, 0.04724132424300397, 0.04724132424300397, 0.04724132424300397]","[0.04724132424300397, -1.5235550025518927, 0.04724132424300397, 0.04724132424300397, 0.04724132424300397, 0.04724132424300397]",0.002,7,1
0,82,"[0.01588774472475052, -1.5550925874016066, 0.015830341969625294, 0.015875621432922316, 0.015729263424873352, 0.015733100473880768]","[0.25280144810676575, 0.2591744363307953, 0.25144848227500916, 0.2521621584892273, 0.2559075355529785, 0.2582443654537201]","[0.04782089670551321, -1.5229754300893834, 0.04782089670551321, 0.04782089670551321, 0.04782089670551321, 0.04782089670551321]","[0.04782089670551321, -1.5229754300893834, 0.04782089670551321, 0.04782089670551321, 0.04782089670551321, 0.04782089670551321]",0.002,7,1
0,83,"[0.016456646844744682, -1.554647672255971, 0.016315285359517873, 0.01633565008129878, 0.016224820166826248, 0.016181599348783493]","[0.258567214012146, 0.26145267486572266, 0.257472962141037, 0.2570419907569885, 0.26147913932800293, 0.2634068727493286]","[0.04840033484623275, -1.5223959919486638, 0.04840033484623275, 0.04840033484623275, 0.04840033484623275, 0.04840033484623275]","[0.04840033484623275, -1.5223959919486638, 0.04840033484623275, 0.04840033484623275, 0.04840033484623275, 0.04840033484623275]",0.002,7,1
0,84,"[0.016956137493252754, -1.5540564090809603, 0.016806904469625294, 0.01684658109631343, 0.01680755615234375, 0.016801156103610992]","[0.26199230551719666, 0.265457421541214, 0.2643663287162781, 0.26013416051864624, 0.26524320244789124, 0.2672453224658966]","[0.04897963703760701, -1.5218166897572896, 0.04897963703760701, 0.04897963703760701, 0.04897963703760701, 0.04897963703760701]","[0.04897963703760701, -1.5218166897572896, 0.04897963703760701, 0.04897963703760701, 0.04897963703760701, 0.04897963703760701]",0.002,7,1
0,85,"[0.01750110648572445, -1.5535163090429087, 0.017397705708638966, 0.01738683759655757, 0.017302298918366432, 0.017290860414505005]","[0.26851779222488403, 0.27009648084640503, 0.2656163275241852, 0.26455020904541016, 0.2697235345840454, 0.27240225672721863]","[0.04955880165246223, -1.5212375251424344, 0.04955880165246223, 0.04955880165246223, 0.04955880165246223, 0.04955880165246223]","[0.04955880165246223, -1.5212375251424344, 0.04955880165246223, 0.04955880165246223, 0.04955880165246223, 0.04955880165246223]",0.002,7,1
0,86,"[0.01798223704099655, -1.5529556565782805, 0.017847839985982716, 0.017964168185852003, 0.01783154532313347, 0.017875956371426582]","[0.2725294828414917, 0.27284061908721924, 0.27190735936164856, 0.271214097738266, 0.2740764915943146, 0.27584341168403625]","[0.05013782706401114, -1.5206584997308854, 0.05013782706401114, 0.05013782706401114, 0.05013782706401114, 0.05013782706401114]","[0.05013782706401114, -1.5206584997308854, 0.05013782706401114, 0.05013782706401114, 0.05013782706401114, 0.05013782706401114]",0.002,7,1
0,87,"[0.018588276579976082, -1.5524785493365307, 0.01844197908510381, 0.01845328390087886, 0.018342629075050354, 0.0184562299400568]","[0.2760678231716156, 0.2784826159477234, 0.2775704860687256, 0.27504032850265503, 0.2785281836986542, 0.2809576392173767]","[0.050716711645857414, -1.5200796151490392, 0.050716711645857414, 0.050716711645857414, 0.050716711645857414, 0.050716711645857414]","[0.050716711645857414, -1.5200796151490392, 0.050716711645857414, 0.050716711645857414, 0.050716711645857414, 0.050716711645857414]",0.002,7,1
0,88,"[0.019151031970977783, -1.5519008331796904, 0.019022289906637013, 0.019015832538268995, 0.019006438553333282, 0.019024500623345375]","[0.2811231017112732, 0.28189074993133545, 0.282320499420166, 0.2807336151599884, 0.28434741497039795, 0.28330114483833313]","[0.05129545377200032, -1.5195008730228963, 0.05129545377200032, 0.05129545377200032, 0.05129545377200032, 0.05129545377200032]","[0.05129545377200032, -1.5195008730228963, 0.05129545377200032, 0.05129545377200032, 0.05129545377200032, 0.05129545377200032]",0.002,7,1
0,89,"[0.019721459597349167, -1.5512633819929142, 0.019553486500875294, 0.019626422519348097, 0.019468044862151146, 0.01958606205880642]","[0.28490975499153137, 0.28653886914253235, 0.28771016001701355, 0.2852932810783386, 0.29006248712539673, 0.28888818621635437]","[0.051874051816839274, -1.5189222749780573, 0.051874051816839274, 0.051874051816839274, 0.051874051816839274, 0.051874051816839274]","[0.051874051816839274, -1.5189222749780573, 0.051874051816839274, 0.051874051816839274, 0.051874051816839274, 0.051874051816839274]",0.002,7,1
0,90,"[0.020243873819708824, -1.5506664377501984, 0.020154301320211232, 0.020208759898803663, 0.020060736685991287, 0.020147060975432396]","[0.2901709973812103, 0.29217058420181274, 0.2932528555393219, 0.28940409421920776, 0.2954501211643219, 0.2935294210910797]","[0.05245250415517839, -1.5183438226397181, 0.05245250415517839, 0.05245250415517839, 0.05245250415517839, 0.05245250415517839]","[0.05245250415517839, -1.5183438226397181, 0.05245250415517839, 0.05245250415517839, 0.05245250415517839, 0.05245250415517839]",0.002,7,1
0,91,"[0.02087145857512951, -1.550096609895565, 0.02070171037782842, 0.020703836078308058, 0.020713072270154953, 0.02079653926193714]","[0.2968035042285919, 0.297918438911438, 0.2967197299003601, 0.2948117256164551, 0.29816609621047974, 0.2963068187236786]","[0.053030809162231005, -1.5177655176326657, 0.053030809162231005, 0.053030809162231005, 0.053030809162231005, 0.053030809162231005]","[0.053030809162231005, -1.5177655176326657, 0.053030809162231005, 0.053030809162231005, 0.053030809162231005, 0.053030809162231005]",0.002,7,1
0,92,"[0.02149534970521927, -1.5495046519539137, 0.021385018025533498, 0.02130250513043208, 0.021293379366397858, 0.021329732611775398]","[0.29845890402793884, 0.3003130257129669, 0.3014334440231323, 0.30130141973495483, 0.3034187853336334, 0.30112558603286743]","[0.05360896521362437, -1.517187361581272, 0.05360896521362437, 0.05360896521362437, 0.05360896521362437, 0.05360896521362437]","[0.05360896521362437, -1.517187361581272, 0.05360896521362437, 0.05360896521362437, 0.05360896521362437, 0.05360896521362437]",0.002,7,1
0,93,"[0.02208217978477478, -1.5489254661700507, 0.0219500700580042, 0.021929784412048292, 0.021959606558084488, 0.02202027477324009]","[0.3038002550601959, 0.30595219135284424, 0.3066679835319519, 0.3078281879425049, 0.30702924728393555, 0.30501335859298706]","[0.054186970685404054, -1.5166093561094924, 0.054186970685404054, 0.054186970685404054, 0.054186970685404054, 0.054186970685404054]","[0.054186970685404054, -1.5166093561094924, 0.054186970685404054, 0.054186970685404054, 0.054186970685404054, 0.054186970685404054]",0.002,7,1
0,94,"[0.02277526631951332, -1.5482521795532485, 0.022603813801900685, 0.022465987796447706, 0.02257045917212963, 0.022636139765381813]","[0.3077087104320526, 0.30796095728874207, 0.3107844293117523, 0.3125256597995758, 0.310824990272522, 0.31027281284332275]","[0.054764823954038644, -1.516031502840858, 0.054764823954038644, 0.054764823954038644, 0.054764823954038644, 0.054764823954038644]","[0.054764823954038644, -1.516031502840858, 0.054764823954038644, 0.054764823954038644, 0.054764823954038644, 0.054764823954038644]",0.002,7,1
0,95,"[0.023315582424402237, -1.547633010228612, 0.023199383412496388, 0.02309660493817134, 0.02319151908159256, 0.023213017731904984]","[0.3128024637699127, 0.3111494481563568, 0.315426766872406, 0.3167632818222046, 0.31699898838996887, 0.3133610188961029]","[0.0553425233964242, -1.5154538033984724, 0.0553425233964242, 0.0553425233964242, 0.0553425233964242, 0.0553425233964242]","[0.0553425233964242, -1.5154538033984724, 0.0553425233964242, 0.0553425233964242, 0.0553425233964242, 0.0553425233964242]",0.002,7,1
0,96,"[0.024032702669501305, -1.5469503042152901, 0.023840252553121388, 0.02370111524548335, 0.02385646477341652, 0.02385305054485798]","[0.3159080147743225, 0.31721335649490356, 0.3163067698478699, 0.32118549942970276, 0.3224946856498718, 0.3191102147102356]","[0.055920067389888854, -1.5148762594050078, 0.055920067389888854, 0.055920067389888854, 0.055920067389888854, 0.055920067389888854]","[0.055920067389888854, -1.5148762594050078, 0.055920067389888854, 0.055920067389888854, 0.055920067389888854, 0.055920067389888854]",0.002,7,1
0,97,"[0.02463497593998909, -1.5462944351932784, 0.02447063127626592, 0.024379058475158644, 0.024476531893014908, 0.02452954091131687]","[0.3211425840854645, 0.3193958103656769, 0.32140493392944336, 0.32633405923843384, 0.3245905637741089, 0.3231136202812195]","[0.05649745431219742, -1.5142988724826991, 0.05649745431219742, 0.05649745431219742, 0.05649745431219742, 0.05649745431219742]","[0.05649745431219742, -1.5142988724826991, 0.05649745431219742, 0.05649745431219742, 0.05649745431219742, 0.05649745431219742]",0.002,7,1
0,98,"[0.02530643902719021, -1.5456396278790017, 0.02513152757753545, 0.025048061008117628, 0.025132274255156517, 0.02519107796251774]","[0.326285183429718, 0.3241633176803589, 0.3272627592086792, 0.330890417098999, 0.3299957513809204, 0.3280958831310272]","[0.05707468254155584, -1.5137216442533408, 0.05707468254155584, 0.05707468254155584, 0.05707468254155584, 0.05707468254155584]","[0.05707468254155584, -1.5137216442533408, 0.05707468254155584, 0.05707468254155584, 0.05707468254155584, 0.05707468254155584]",0.002,7,1
0,99,"[0.02591564506292343, -1.5449745778790493, 0.025804821644918263, 0.025717659587524366, 0.025768613442778587, 0.025865569710731506]","[0.32920488715171814, 0.32753950357437134, 0.3287215530872345, 0.3364414572715759, 0.3341416120529175, 0.32906216382980347]","[0.05765175045661585, -1.5131445763382807, 0.05765175045661585, 0.05765175045661585, 0.05765175045661585, 0.05765175045661585]","[0.05765175045661585, -1.5131445763382807, 0.05765175045661585, 0.05765175045661585, 0.05765175045661585, 0.05765175045661585]",0.002,7,1
0,100,"[0.026579156517982483, -1.5443242781660338, 0.026464764271871388, 0.02631620943035884, 0.02646980993449688, 0.026562998071312904]","[0.3338342308998108, 0.3322873115539551, 0.33488819003105164, 0.33970120549201965, 0.33708491921424866, 0.33324477076530457]","[0.058228656436479447, -1.5125676703584172, 0.058228656436479447, 0.058228656436479447, 0.058228656436479447, 0.058228656436479447]","[0.058228656436479447, -1.5125676703584172, 0.058228656436479447, 0.058228656436479447, 0.058228656436479447, 0.058228656436479447]",0.002,7,1
0,101,"[0.02724681980907917, -1.5435270101628085, 0.027193371449605763, 0.027006550426147413, 0.027178708463907242, 0.027208728715777397]","[0.3379940688610077, 0.33559370040893555, 0.3394952118396759, 0.34491774439811707, 0.3398793339729309, 0.3389252722263336]","[0.0588053988607035, -1.511990927934193, 0.0588053988607035, 0.0588053988607035, 0.0588053988607035, 0.0588053988607035]","[0.0588053988607035, -1.511990927934193, 0.0588053988607035, 0.0588053988607035, 0.0588053988607035, 0.0588053988607035]",0.002,7,1
0,102,"[0.027823010459542274, -1.5428918090513726, 0.027832810078756154, 0.027687473888061476, 0.027878347784280777, 0.027885207906365395]","[0.34362849593162537, 0.34023317694664, 0.34396883845329285, 0.34679967164993286, 0.3431026339530945, 0.3431823253631592]","[0.0593819761093043, -1.5114143506855922, 0.0593819761093043, 0.0593819761093043, 0.0593819761093043, 0.0593819761093043]","[0.0593819761093043, -1.5114143506855922, 0.0593819761093043, 0.0593819761093043, 0.0593819761093043, 0.0593819761093043]",0.002,7,1
0,103,"[0.02854308672249317, -1.5422075272402544, 0.028524223958150685, 0.02842227994885249, 0.02854226715862751, 0.028652004897594452]","[0.3445136547088623, 0.34370139241218567, 0.34706082940101624, 0.3508579432964325, 0.34997910261154175, 0.34680530428886414]","[0.059958386562762055, -1.5108379402321346, 0.059958386562762055, 0.059958386562762055, 0.059958386562762055, 0.059958386562762055]","[0.059958386562762055, -1.5108379402321346, 0.059958386562762055, 0.059958386562762055, 0.059958386562762055, 0.059958386562762055]",0.002,7,1
0,104,"[0.02921776846051216, -1.5413908802768965, 0.029211346303121388, 0.029123588199279737, 0.02930719032883644, 0.029314132407307625]","[0.34982749819755554, 0.3475886881351471, 0.35150080919265747, 0.35594379901885986, 0.353445440530777, 0.3512643575668335]","[0.06053462860202547, -1.5102616981928711, 0.06053462860202547, 0.06053462860202547, 0.06053462860202547, 0.06053462860202547]","[0.06053462860202547, -1.5102616981928711, 0.06053462860202547, 0.06053462860202547, 0.06053462860202547, 0.06053462860202547]",0.002,7,1
0,105,"[0.029901379719376564, -1.5407043409398575, 0.029969040547506154, 0.029794974918029737, 0.030026543885469437, 0.030024565756320953]","[0.35728731751441956, 0.3505360782146454, 0.3577077388763428, 0.3615023195743561, 0.3578142523765564, 0.3519481122493744]","[0.061110700608516366, -1.5096856261863802, 0.061110700608516366, 0.061110700608516366, 0.061110700608516366, 0.061110700608516366]","[0.061110700608516366, -1.5096856261863802, 0.061110700608516366, 0.061110700608516366, 0.061110700608516366, 0.061110700608516366]",0.002,7,1
0,106,"[0.03064875118434429, -1.5399849575809021, 0.03071767488588506, 0.030589981670043898, 0.03076849691569805, 0.030757511034607887]","[0.36058613657951355, 0.35492315888404846, 0.35889312624931335, 0.36461466550827026, 0.3608941435813904, 0.3569728434085846]","[0.061686600964134086, -1.5091097258307624, 0.061686600964134086, 0.061686600964134086, 0.061686600964134086, 0.061686600964134086]","[0.061686600964134086, -1.5091097258307624, 0.061686600964134086, 0.061686600964134086, 0.061686600964134086, 0.061686600964134086]",0.002,7,1
0,107,"[0.03141186758875847, -1.5392962929657479, 0.031429592763082326, 0.03129093229260249, 0.03153721243143082, 0.031530242413282394]","[0.36348769068717957, 0.3551665246486664, 0.362765371799469, 0.36854201555252075, 0.36457109451293945, 0.36271825432777405]","[0.06226232805126016, -1.5085339987436364, 0.06226232805126016, 0.06226232805126016, 0.06226232805126016, 0.06226232805126016]","[0.06226232805126016, -1.5085339987436364, 0.06226232805126016, 0.06226232805126016, 0.06226232805126016, 0.06226232805126016]",0.002,7,1
0,108,"[0.032077010720968246, -1.538551465874054, 0.03214389482607061, 0.03207675992932124, 0.032294243574142456, 0.03226634860038757]","[0.3683433532714844, 0.36316752433776855, 0.36617833375930786, 0.373478502035141, 0.36751076579093933, 0.3649766743183136]","[0.06283788025276278, -1.5079584465421338, 0.06283788025276278, 0.06283788025276278, 0.06283788025276278, 0.06283788025276278]","[0.06283788025276278, -1.5079584465421338, 0.06283788025276278, 0.06283788025276278, 0.06283788025276278, 0.06283788025276278]",0.002,7,1
0,109,"[0.0328553207218647, -1.5377754730037232, 0.03287965456117803, 0.032825155849121046, 0.033014506101608276, 0.03294823318719864]","[0.37256237864494324, 0.3638451397418976, 0.3689808249473572, 0.3780931234359741, 0.37277376651763916, 0.36873456835746765]","[0.06341325595200138, -1.5073830708428952, 0.06341325595200138, 0.06341325595200138, 0.06341325595200138, 0.06341325595200138]","[0.06341325595200138, -1.5073830708428952, 0.06341325595200138, 0.06341325595200138, 0.06341325595200138, 0.06341325595200138]",0.002,7,1
0,110,"[0.03354841098189354, -1.5371058259955426, 0.03368121782411748, 0.03364817678417964, 0.03372648358345032, 0.03366140276193619]","[0.37424924969673157, 0.3709052503108978, 0.3725931644439697, 0.3792058229446411, 0.37442415952682495, 0.37234562635421753]","[0.06398845353283117, -1.5068078732620653, 0.06398845353283117, 0.06398845353283117, 0.06398845353283117, 0.06398845353283117]","[0.06398845353283117, -1.5068078732620653, 0.06398845353283117, 0.06398845353283117, 0.06398845353283117, 0.06398845353283117]",0.002,7,1
0,111,"[0.03431451693177223, -1.5362610270133992, 0.03443271318544561, 0.03436975061383052, 0.03451080620288849, 0.03445931896567345]","[0.37738037109375, 0.37095779180526733, 0.3764454424381256, 0.38052302598953247, 0.3778398036956787, 0.37474727630615234]","[0.06456347137960762, -1.5062328554152888, 0.06456347137960762, 0.06456347137960762, 0.06456347137960762, 0.06456347137960762]","[0.06456347137960762, -1.5062328554152888, 0.06456347137960762, 0.06456347137960762, 0.06456347137960762, 0.06456347137960762]",0.002,7,1
0,112,"[0.03509867936372757, -1.535575085585453, 0.035238091145650685, 0.03521375238385005, 0.035200633108615875, 0.03525333106517792]","[0.3819907307624817, 0.3788248300552368, 0.37871143221855164, 0.38508865237236023, 0.3797861933708191, 0.3792306184768677]","[0.06513830787719112, -1.5056580189177053, 0.06513830787719112, 0.06513830787719112, 0.06513830787719112, 0.06513830787719112]","[0.06513830787719112, -1.5056580189177053, 0.06513830787719112, 0.06513830787719112, 0.06513830787719112, 0.06513830787719112]",0.002,7,1
0,113,"[0.035905871540308, -1.5347656954875966, 0.03596479097475225, 0.03596500932659907, 0.03609292581677437, 0.03597510978579521]","[0.38473308086395264, 0.3809488117694855, 0.38297608494758606, 0.38721638917922974, 0.3846249580383301, 0.38165709376335144]","[0.06571296141095137, -1.5050833653839453, 0.06571296141095137, 0.06571296141095137, 0.06571296141095137, 0.06571296141095137]","[0.06571296141095137, -1.5050833653839453, 0.06571296141095137, 0.06571296141095137, 0.06571296141095137, 0.06571296141095137]",0.002,7,1
0,114,"[0.036699771881103516, -1.5340093572488804, 0.036753479634420216, 0.036725087756774855, 0.03679186478257179, 0.0367518812417984]","[0.3884415328502655, 0.3859356939792633, 0.3872629404067993, 0.3897673487663269, 0.387555330991745, 0.38563692569732666]","[0.06628743036677205, -1.5045088964281246, 0.06628743036677205, 0.06628743036677205, 0.06628743036677205, 0.06628743036677205]","[0.06628743036677205, -1.5045088964281246, 0.06628743036677205, 0.06628743036677205, 0.06628743036677205, 0.06628743036677205]",0.002,7,1
0,115,"[0.03749888017773628, -1.533225593422987, 0.03756553331484014, 0.037553830737731886, 0.0376620888710022, 0.037449900060892105]","[0.39328497648239136, 0.3900039494037628, 0.3882594108581543, 0.3902665972709656, 0.3901114761829376, 0.39113083481788635]","[0.06686171313105525, -1.5039346136638414, 0.06686171313105525, 0.06686171313105525, 0.06686171313105525, 0.06686171313105525]","[0.06686171313105525, -1.5039346136638414, 0.06686171313105525, 0.06686171313105525, 0.06686171313105525, 0.06686171313105525]",0.002,7,1
0,116,"[0.03823051229119301, -1.5324549686959763, 0.03831607500185186, 0.038324161166809034, 0.03838863968849182, 0.03829179331660271]","[0.3945969343185425, 0.3933940827846527, 0.3931247591972351, 0.3938857316970825, 0.3930150270462036, 0.39289915561676025]","[0.0674358080907261, -1.5033605187041705, 0.0674358080907261, 0.0674358080907261, 0.0674358080907261, 0.0674358080907261]","[0.0674358080907261, -1.5033605187041705, 0.0674358080907261, 0.0674358080907261, 0.0674358080907261, 0.0674358080907261]",0.002,7,1
0,117,"[0.03904956206679344, -1.5316755597344418, 0.039116684590474904, 0.039219780559204054, 0.039112646132707596, 0.03904585540294647]","[0.3973352313041687, 0.3974769115447998, 0.3990110754966736, 0.3985408842563629, 0.3957228660583496, 0.3969477713108063]","[0.06800971363323713, -1.5027866131616594, 0.06800971363323713, 0.06800971363323713, 0.06800971363323713, 0.06800971363323713]","[0.06800971363323713, -1.5027866131616594, 0.06800971363323713, 0.06800971363323713, 0.06800971363323713, 0.06800971363323713]",0.002,7,1
0,118,"[0.039874762296676636, -1.5308529895595093, 0.03992778459657842, 0.04000703870739741, 0.03994956612586975, 0.03987564146518707]","[0.39958643913269043, 0.39912500977516174, 0.3978479504585266, 0.40239542722702026, 0.39903730154037476, 0.4014721214771271]","[0.06858342814657303, -1.5022128986483234, 0.06858342814657303, 0.06858342814657303, 0.06858342814657303, 0.06858342814657303]","[0.06858342814657303, -1.5022128986483234, 0.06858342814657303, 0.06858342814657303, 0.06858342814657303, 0.06858342814657303]",0.002,7,1
0,119,"[0.04066702350974083, -1.5300911527923127, 0.04072696367372686, 0.04077701150860591, 0.04071363806724548, 0.04065024107694626]","[0.40515097975730896, 0.40499159693717957, 0.4039800763130188, 0.4043157994747162, 0.40232783555984497, 0.4048491418361664]","[0.06915695001925502, -1.5016393767756415, 0.06915695001925502, 0.06915695001925502, 0.06915695001925502, 0.06915695001925502]","[0.06915695001925502, -1.5016393767756415, 0.06915695001925502, 0.06915695001925502, 0.06915695001925502, 0.06915695001925502]",0.002,7,1
0,120,"[0.04146044701337814, -1.5293074001422902, 0.04149085680116826, 0.04161612569775386, 0.0415668785572052, 0.04146258533000946]","[0.4049179255962372, 0.40675297379493713, 0.4078616201877594, 0.40401023626327515, 0.40441253781318665, 0.4089755713939667]","[0.06973027764034544, -1.501066049154551, 0.06973027764034544, 0.06973027764034544, 0.06973027764034544, 0.06973027764034544]","[0.06973027764034544, -1.501066049154551, 0.06973027764034544, 0.06973027764034544, 0.06973027764034544, 0.06973027764034544]",0.002,7,1
0,121,"[0.04228891059756279, -1.5284665499678631, 0.04233247438539678, 0.042477889651916456, 0.042350802570581436, 0.042191244661808014]","[0.4091048538684845, 0.4081098437309265, 0.40681904554367065, 0.40472647547721863, 0.4080559015274048, 0.4113747477531433]","[0.0703034093994522, -1.5004929173954444, 0.0703034093994522, 0.0703034093994522, 0.0703034093994522, 0.0703034093994522]","[0.0703034093994522, -1.5004929173954444, 0.0703034093994522, 0.0703034093994522, 0.0703034093994522, 0.0703034093994522]",0.002,7,1
0,122,"[0.04310731217265129, -1.527664714758732, 0.043134514485494435, 0.04327671110119624, 0.04311353340744972, 0.043027788400650024]","[0.4130164384841919, 0.4132736921310425, 0.40799400210380554, 0.4099622666835785, 0.41257959604263306, 0.4160751402378082]","[0.0708763436867334, -1.499919983108163, 0.0708763436867334, 0.0708763436867334, 0.0708763436867334, 0.0708763436867334]","[0.0708763436867334, -1.499919983108163, 0.0708763436867334, 0.0708763436867334, 0.0708763436867334, 0.0708763436867334]",0.002,7,1
0,123,"[0.04387542977929115, -1.5268442419222374, 0.04402476945985967, 0.04412953435864253, 0.04398772120475769, 0.04390666261315346]","[0.4129538834095001, 0.4127224087715149, 0.41285935044288635, 0.41232889890670776, 0.4148210883140564, 0.4193658232688904]","[0.07144907889290184, -1.4993472479019947, 0.07144907889290184, 0.07144907889290184, 0.07144907889290184, 0.07144907889290184]","[0.07144907889290184, -1.4993472479019947, 0.07144907889290184, 0.07144907889290184, 0.07144907889290184, 0.07144907889290184]",0.002,7,1
0,124,"[0.04480421170592308, -1.5260299865952511, 0.044838730488912404, 0.04506496965374751, 0.04478779435157776, 0.04466418921947479]","[0.4210653305053711, 0.4169762134552002, 0.4153910279273987, 0.41474926471710205, 0.41747426986694336, 0.4227724075317383]","[0.07202161340922941, -1.498774713385667, 0.07202161340922941, 0.07202161340922941, 0.07202161340922941, 0.07202161340922941]","[0.07202161340922941, -1.498774713385667, 0.07202161340922941, 0.07202161340922941, 0.07202161340922941, 0.07202161340922941]",0.002,7,1
0,125,"[0.0456453375518322, -1.5251978312483807, 0.04563504854311162, 0.04587809621777339, 0.04560799524188042, 0.045527197420597076]","[0.41776391863822937, 0.4207671582698822, 0.42091092467308044, 0.415783166885376, 0.4214227497577667, 0.42655354738235474]","[0.0725939456275518, -1.4982023811673448, 0.0725939456275518, 0.0725939456275518, 0.0725939456275518, 0.0725939456275518]","[0.0725939456275518, -1.4982023811673448, 0.0725939456275518, 0.0725939456275518, 0.0725939456275518, 0.0725939456275518]",0.002,7,1
0,126,"[0.04648533836007118, -1.5243536581150074, 0.04645377794374639, 0.046651049251220655, 0.04650554060935974, 0.0464213602244854]","[0.4252943694591522, 0.42451971769332886, 0.42284587025642395, 0.41745734214782715, 0.42235130071640015, 0.42798447608947754]","[0.07316607394027289, -1.4976302528546237, 0.07316607394027289, 0.07316607394027289, 0.07316607394027289, 0.07316607394027289]","[0.07316607394027289, -1.4976302528546237, 0.07316607394027289, 0.07316607394027289, 0.07316607394027289, 0.07316607394027289]",0.002,7,1
0,127,"[0.04736464470624924, -1.5234977801195164, 0.04730445543398076, 0.047459765071533155, 0.04724740982055664, 0.047301847487688065]","[0.4278309643268585, 0.42754870653152466, 0.42587438225746155, 0.4220737814903259, 0.4263102114200592, 0.42951998114585876]","[0.0737379967403693, -1.4970583300545273, 0.0737379967403693, 0.0737379967403693, 0.0737379967403693, 0.0737379967403693]","[0.0737379967403693, -1.4970583300545273, 0.0737379967403693, 0.0737379967403693, 0.0737379967403693, 0.0737379967403693]",0.002,7,1
0,128,"[0.0481748953461647, -1.5226541620543976, 0.04814130464662725, 0.04837731897320552, 0.0482025220990181, 0.048070162534713745]","[0.4292761981487274, 0.4283144474029541, 0.4258483350276947, 0.4219754636287689, 0.42775604128837585, 0.43334510922431946]","[0.0743097124213949, -1.4964866143735016, 0.0743097124213949, 0.0743097124213949, 0.0743097124213949, 0.0743097124213949]","[0.0743097124213949, -1.4964866143735016, 0.0743097124213949, 0.0743097124213949, 0.0743097124213949, 0.0743097124213949]",0.002,7,1
0,129,"[0.04907670617103577, -1.521826696848013, 0.04893857637514287, 0.049170060748718214, 0.04904761537909508, 0.049002353101968765]","[0.4298710525035858, 0.42855241894721985, 0.4279864728450775, 0.4234192371368408, 0.43060263991355896, 0.43480992317199707]","[0.07488121937748536, -1.4959151074174113, 0.07488121937748536, 0.07488121937748536, 0.07488121937748536, 0.07488121937748536]","[0.07488121937748536, -1.4959151074174113, 0.07488121937748536, 0.07488121937748536, 0.07488121937748536, 0.07488121937748536]",0.002,7,1
0,130,"[0.04988539218902588, -1.5210503985038777, 0.049835983906881154, 0.05000214158978267, 0.049830108880996704, 0.04986293613910675]","[0.43251147866249084, 0.4301360845565796, 0.43217846751213074, 0.4270131587982178, 0.4338815212249756, 0.43615058064460754]","[0.07545251600336256, -1.495343810791534, 0.07545251600336256, 0.07545251600336256, 0.07545251600336256, 0.07545251600336256]","[0.07545251600336256, -1.495343810791534, 0.07545251600336256, 0.07545251600336256, 0.07545251600336256, 0.07545251600336256]",0.002,7,1
0,131,"[0.05078059807419777, -1.5201427575996895, 0.05068809190859014, 0.050863905543945265, 0.0507514588534832, 0.050700776278972626]","[0.43569889664649963, 0.4298778474330902, 0.4327986240386963, 0.4299132823944092, 0.43695709109306335, 0.43783798813819885]","[0.07602360069433926, -1.4947727261005572, 0.07602360069433926, 0.07602360069433926, 0.07602360069433926, 0.07602360069433926]","[0.07602360069433926, -1.4947727261005572, 0.07602360069433926, 0.07602360069433926, 0.07602360069433926, 0.07602360069433926]",0.002,7,1
0,132,"[0.051732297986745834, -1.5192329374006768, 0.05158073106874639, 0.05171601354565425, 0.051621634513139725, 0.051613807678222656]","[0.438384473323822, 0.4341488778591156, 0.43693697452545166, 0.43559712171554565, 0.4397570490837097, 0.4409281313419342]","[0.07659447184632341, -1.4942018549485732, 0.07659447184632341, 0.07659447184632341, 0.07659447184632341, 0.07659447184632341]","[0.07659447184632341, -1.4942018549485732, 0.07659447184632341, 0.07659447184632341, 0.07659447184632341, 0.07659447184632341]",0.002,7,1
0,133,"[0.05256519094109535, -1.5183818240514775, 0.05246478716005498, 0.05255131303753657, 0.05247923359274864, 0.05254589393734932]","[0.4398144781589508, 0.4352056682109833, 0.4379524290561676, 0.43831998109817505, 0.4403097629547119, 0.4424494802951813]","[0.07716512785582286, -1.4936311989390738, 0.07716512785582286, 0.07716512785582286, 0.07716512785582286, 0.07716512785582286]","[0.07716512785582286, -1.4936311989390738, 0.07716512785582286, 0.07716512785582286, 0.07716512785582286, 0.07716512785582286]",0.002,7,1
0,134,"[0.053434502333402634, -1.5175005731037636, 0.05326301256288701, 0.05335025369610591, 0.053353309631347656, 0.05345820263028145]","[0.4437059760093689, 0.43805158138275146, 0.44012635946273804, 0.4437260627746582, 0.44262781739234924, 0.4436238408088684]","[0.07773556711994968, -1.4930607596749468, 0.07773556711994968, 0.07773556711994968, 0.07773556711994968, 0.07773556711994968]","[0.07773556711994968, -1.4930607596749468, 0.07773556711994968, 0.07773556711994968, 0.07773556711994968, 0.07773556711994968]",0.002,7,1
0,135,"[0.05429954081773758, -1.516639807527401, 0.05421048799623662, 0.0542110639759521, 0.054286446422338486, 0.054328177124261856]","[0.4438968300819397, 0.4372321367263794, 0.4403708875179291, 0.4437265396118164, 0.44579440355300903, 0.4441833794116974]","[0.07830578803642478, -1.4924905387584717, 0.07830578803642478, 0.07830578803642478, 0.07830578803642478, 0.07830578803642478]","[0.07830578803642478, -1.4924905387584717, 0.07830578803642478, 0.07830578803642478, 0.07830578803642478, 0.07830578803642478]",0.002,7,1
0,136,"[0.05523238703608513, -1.515764409010746, 0.054975334797994435, 0.055109067554138136, 0.05517479404807091, 0.05524738132953644]","[0.4461383521556854, 0.43651044368743896, 0.4417765438556671, 0.4455554783344269, 0.448482483625412, 0.44642525911331177]","[0.0788757890035824, -1.491920537791314, 0.0788757890035824, 0.0788757890035824, 0.0788757890035824, 0.0788757890035824]","[0.0788757890035824, -1.491920537791314, 0.0788757890035824, 0.0788757890035824, 0.0788757890035824, 0.0788757890035824]",0.002,7,1
0,137,"[0.05620778352022171, -1.514851016258337, 0.05600577989687139, 0.055964990253112745, 0.05605435371398926, 0.05613086372613907]","[0.44743967056274414, 0.43797099590301514, 0.4451809823513031, 0.44776013493537903, 0.4510827362537384, 0.44672971963882446]","[0.07944556842037453, -1.491350758374522, 0.07944556842037453, 0.07944556842037453, 0.07944556842037453, 0.07944556842037453]","[0.07944556842037453, -1.491350758374522, 0.07944556842037453, 0.07944556842037453, 0.07944556842037453, 0.07944556842037453]",0.002,7,1
0,138,"[0.05702687427401543, -1.5139446345022698, 0.056807819996969044, 0.05688564359631343, 0.057004086673259735, 0.057100750505924225]","[0.4510061740875244, 0.4399765729904175, 0.44594308733940125, 0.451860636472702, 0.4529312551021576, 0.44783541560173035]","[0.08001512468637552, -1.490781202108521, 0.08001512468637552, 0.08001512468637552, 0.08001512468637552, 0.08001512468637552]","[0.08001512468637552, -1.490781202108521, 0.08001512468637552, 0.08001512468637552, 0.08001512468637552, 0.08001512468637552]",0.002,7,1
0,139,"[0.0579894594848156, -1.5130856719664116, 0.05777436891664678, 0.05781559526409907, 0.057868532836437225, 0.05796752870082855]","[0.4535636603832245, 0.44248539209365845, 0.4491608142852783, 0.4547114968299866, 0.45260313153266907, 0.4508129060268402]","[0.08058445620178649, -1.49021187059311, 0.08058445620178649, 0.08058445620178649, 0.08058445620178649, 0.08058445620178649]","[0.08058445620178649, -1.49021187059311, 0.08058445620178649, 0.08058445620178649, 0.08058445620178649, 0.08058445620178649]",0.002,7,1
0,140,"[0.058858633041381836, -1.512167067532875, 0.05859595934023076, 0.05870191633190913, 0.0588420070707798, 0.0589376762509346]","[0.4546409845352173, 0.444325715303421, 0.44919896125793457, 0.45728814601898193, 0.45304569602012634, 0.45163047313690186]","[0.08115356136743981, -1.4896427654274567, 0.08115356136743981, 0.08115356136743981, 0.08115356136743981, 0.08115356136743981]","[0.08115356136743981, -1.4896427654274567, 0.08115356136743981, 0.08115356136743981, 0.08115356136743981, 0.08115356136743981]",0.002,7,1
0,141,"[0.059728723019361496, -1.5112927120975037, 0.05951577821840459, 0.05959837018933101, 0.059717144817113876, 0.05984973534941673]","[0.4543079733848572, 0.4453907608985901, 0.4524022936820984, 0.4594847559928894, 0.4544360935688019, 0.45324844121932983]","[0.08172243858480373, -1.489073888210093, 0.08172243858480373, 0.08172243858480373, 0.08172243858480373, 0.08172243858480373]","[0.08172243858480373, -1.489073888210093, 0.08172243858480373, 0.08172243858480373, 0.08172243858480373, 0.08172243858480373]",0.002,7,1
0,142,"[0.06059588864445686, -1.510350403641798, 0.06044036546816045, 0.060532136554382276, 0.06064608320593834, 0.06075672805309296]","[0.4580681622028351, 0.4460919201374054, 0.454033225774765, 0.4605756998062134, 0.45601940155029297, 0.45276108384132385]","[0.08229108625598669, -1.4885052405389099, 0.08229108625598669, 0.08229108625598669, 0.08229108625598669, 0.08229108625598669]","[0.08229108625598669, -1.4885052405389099, 0.08229108625598669, 0.08229108625598669, 0.08229108625598669, 0.08229108625598669]",0.002,7,1
0,143,"[0.061540063470602036, -1.5094227951816102, 0.06136066118349248, 0.06139127790417476, 0.06164101883769035, 0.061704203486442566]","[0.4571886658668518, 0.44870617985725403, 0.4534565806388855, 0.4610777497291565, 0.45758455991744995, 0.45448538661003113]","[0.0828595027837419, -1.4879368240111546, 0.0828595027837419, 0.0828595027837419, 0.0828595027837419, 0.0828595027837419]","[0.0828595027837419, -1.4879368240111546, 0.0828595027837419, 0.0828595027837419, 0.0828595027837419, 0.0828595027837419]",0.002,7,1
0,144,"[0.06246991083025932, -1.5084948514452954, 0.0622637907611292, 0.06232719003643794, 0.06249137967824936, 0.06259074062108994]","[0.4595089852809906, 0.45027241110801697, 0.45627090334892273, 0.46079951524734497, 0.4593535363674164, 0.4548095464706421]","[0.08342768657147188, -1.4873686402234247, 0.08342768657147188, 0.08342768657147188, 0.08342768657147188, 0.08342768657147188]","[0.08342768657147188, -1.4873686402234247, 0.08342768657147188, 0.08342768657147188, 0.08342768657147188, 0.08342768657147188]",0.002,7,1
0,145,"[0.06336567550897598, -1.5076514568975945, 0.06322127977480108, 0.0632743078419189, 0.06343980878591537, 0.06353539973497391]","[0.4602080285549164, 0.4511229991912842, 0.4565090537071228, 0.4616647958755493, 0.4592835307121277, 0.45636534690856934]","[0.0839956360232328, -1.4868006907716638, 0.0839956360232328, 0.0839956360232328, 0.0839956360232328, 0.0839956360232328]","[0.0839956360232328, -1.4868006907716638, 0.0839956360232328, 0.0839956360232328, 0.0839956360232328, 0.0839956360232328]",0.002,7,1
0,146,"[0.06432466953992844, -1.5066535037807007, 0.06414872804750615, 0.06422476350750728, 0.06442362070083618, 0.06443847715854645]","[0.4627636969089508, 0.45103752613067627, 0.4587327241897583, 0.46492552757263184, 0.4604205787181854, 0.45704230666160583]","[0.08456334954373909, -1.4862329772511575, 0.08456334954373909, 0.08456334954373909, 0.08456334954373909, 0.08456334954373909]","[0.08456334954373909, -1.4862329772511575, 0.08456334954373909, 0.08456334954373909, 0.08456334954373909, 0.08456334954373909]",0.002,7,1
0,147,"[0.06522280722856522, -1.5057393994978447, 0.06508380571474248, 0.06517927228894038, 0.065330870449543, 0.06532342731952667]","[0.46224650740623474, 0.4553949236869812, 0.45825234055519104, 0.4669420123100281, 0.461245596408844, 0.4582769572734833]","[0.08513082553836789, -1.4856655012565287, 0.08513082553836789, 0.08513082553836789, 0.08513082553836789, 0.08513082553836789]","[0.08513082553836789, -1.4856655012565287, 0.08513082553836789, 0.08513082553836789, 0.08513082553836789, 0.08513082553836789]",0.002,7,1
0,148,"[0.06612832099199295, -1.5047856208733101, 0.06608754793276006, 0.06614951669659419, 0.06625988334417343, 0.06628002226352692]","[0.46345192193984985, 0.4573807716369629, 0.46003416180610657, 0.46838897466659546, 0.4596269428730011, 0.459116667509079]","[0.08569806241316345, -1.4850982643817332, 0.08569806241316345, 0.08569806241316345, 0.08569806241316345, 0.08569806241316345]","[0.08569806241316345, -1.4850982643817332, 0.08569806241316345, 0.08569806241316345, 0.08569806241316345, 0.08569806241316345]",0.002,7,1
0,149,"[0.06702929735183716, -1.5039065343192597, 0.06698209444154912, 0.06710784017529292, 0.0672215074300766, 0.06716292351484299]","[0.4632909893989563, 0.4586865305900574, 0.46025994420051575, 0.46721774339675903, 0.4593780040740967, 0.45848479866981506]","[0.08626505857484176, -1.4845312682200549, 0.08626505857484176, 0.08626505857484176, 0.08626505857484176, 0.08626505857484176]","[0.08626505857484176, -1.4845312682200549, 0.08626505857484176, 0.08626505857484176, 0.08626505857484176, 0.08626505857484176]",0.002,7,1
0,150,"[0.06800946593284607, -1.502965809111931, 0.06791526476015264, 0.06805591165509028, 0.06815674155950546, 0.06813784688711166]","[0.4629018008708954, 0.4618775248527527, 0.46206310391426086, 0.4671480059623718, 0.46224936842918396, 0.4609074592590332]","[0.08683181243079487, -1.4839645143641016, 0.08683181243079487, 0.08683181243079487, 0.08683181243079487, 0.08683181243079487]","[0.08683181243079487, -1.4839645143641016, 0.08683181243079487, 0.08683181243079487, 0.08683181243079487, 0.08683181243079487]",0.002,7,1
