Arnibjarnst/BoxLift/logs/ur_rtde/trajectory_dur=5.0_delay=0.2_gain=200_lh=0.1_real.csv
arm_idx,step,actual_q,actual_qd,target_q,expected_q,loop_time,robot_mode,safety_mode
0,-1,"[0.02945885993540287, -1.5413924504867573, 0.029375378285543263, 0.029578133220336866, 0.029622582718729973, 0.029564369469881058]","[-0.04822201654314995, -0.049227699637413025, -0.0494527630507946, -0.045303136110305786, -0.04551519826054573, -0.04526333883404732]","[0.0, -1.5707963267948966, 0.0, 0.0, 0.0, 0.0]","[0.0, -1.5707963267948966, 0.0, 0.0, 0.0, 0.0]",0.002,7,1
0,-1,"[0.0285878274589777, -1.5423164379647751, 0.02850228944887334, 0.028729482288024855, 0.028770117089152336, 0.028691714629530907]","[-0.0621805302798748, -0.06289505958557129, -0.06368368119001389, -0.063139908015728, -0.06195453181862831, -0.06209206208586693]","[0.0, -1.5707963267948966, 0.0, 0.0, 0.0, 0.0]","[0.0, -1.5707963267948966, 0.0, 0.0, 0.0, 0.0]",0.002,7,1
0,-1,"[0.02745785191655159, -1.5434744370034714, 0.027366463338033498, 0.027681513423583937, 0.0275870393961668, 0.027570048347115517]","[-0.07781361788511276, -0.07708544284105301, -0.07777657359838486, -0.08028218150138855, -0.07766339182853699, -0.07809187471866608]","[0.0, -1.5707963267948966, 0.0, 0.0, 0.0, 0.0]","[0.0, -1.5707963267948966, 0.0, 0.0, 0.0, 0.0]",0.002,7,1
0,-1,"[0.026411591097712517, -1.5445018459907551, 0.0263751188861292, 0.026536985034606886, 0.026524409651756287, 0.026502419263124466]","[-0.09106048941612244, -0.08764372766017914, -0.08917949348688126, -0.09241057187318802, -0.09081946313381195, -0.09013040363788605]","[0.0, -1.5707963267948966, 0.0, 0.0, 0.0, 0.0]","[0.0, -1.5707963267948966, 0.0, 0.0, 0.0, 0.0]",0.002,7,1
0,-1,"[0.025229157879948616, -1.545638834392168, 0.02511912981142217, 0.025402827853820753, 0.025275690481066704, 0.025293685495853424]","[-0.10103953629732132, -0.09951071441173553, -0.10177796334028244, -0.1037006676197052, -0.10276009887456894, -0.10334374755620956]","[0.0, -1.5707963267948966, 0.0, 0.0, 0.0, 0.0]","[0.0, -1.5707963267948966, 0.0, 0.0, 0.0, 0.0]",0.002,7,1
0,-1,"[0.02145625464618206, -1.549480040823557, 0.02139598528017217, 0.021649761790893507, 0.021482104435563087, 0.021417781710624695]","[-0.1342635601758957, -0.13028836250305176, -0.13236616551876068, -0.13557811081409454, -0.1355140060186386, -0.132515087723732]","[0.0, -1.5707963267948966, 0.0, 0.0, 0.0, 0.0]","[0.0, -1.5707963267948966, 0.0, 0.0, 0.0, 0.0]",0.002,7,1
0,-1,"[0.019186824560165405, -1.5517913003316899, 0.019151989613668263, 0.019264979953430128, 0.019153941422700882, 0.019160090014338493]","[-0.15109145641326904, -0.1468115746974945, -0.14721491932868958, -0.15424513816833496, -0.14919798076152802, -0.1465078890323639]","[0.0, -1.5707963267948966, 0.0, 0.0, 0.0, 0.0]","[0.0, -1.5707963267948966, 0.0, 0.0, 0.0, 0.0]",0.002,7,1
0,-1,"[0.017258696258068085, -1.5536407598159094, 0.017258946095601857, 0.017429156894348097, 0.01727401651442051, 0.017304202541708946]","[-0.16085468232631683, -0.1594807654619217, -0.1597587913274765, -0.16726458072662354, -0.16244010627269745, -0.16018572449684143]","[0.0, -1.5707963267948966, 0.0, 0.0, 0.0, 0.0]","[0.0, -1.5707963267948966, 0.0, 0.0, 0.0, 0.0]",0.002,7,1
0,-1,"[0.014219777658581734, -1.5564949030852695, 0.01430064836610967, 0.01428787290539546, 0.014301289804279804, 0.014224277809262276]","[-0.17222219705581665, -0.1307494342327118, -0.15271778404712677, -0.16803760826587677, -0.1711530238389969, -0.1673240065574646]","[0.0, -1.5707963267948966, 0.0, 0.0, 0.0, 0.0]","[0.0, -1.5707963267948966, 0.0, 0.0, 0.0, 0.0]",0.002,7,1
0,-1,"[0.009916098788380623, -1.5606112343123932, 0.010002915059224904, 0.009917064304016066, 0.009992714039981365, 0.010009120218455791]","[-0.13945235311985016, -0.1412365734577179, -0.1413998156785965, -0.13905473053455353, -0.14408628642559052, -0.14227670431137085]","[0.0, -1.5707963267948966, 0.0, 0.0, 0.0, 0.0]","[0.0, -1.5707963267948966, 0.0, 0.0, 0.0, 0.0]",0.002,7,1
0,-1,"[0.008052829653024673, -1.5624655832401295, 0.00818950334657842, 0.008072300548217726, 0.008117134682834148, 0.008129751309752464]","[-0.12648797035217285, -0.1283763349056244, -0.12722927331924438, -0.1260533630847931, -0.13031089305877686, -0.12945248186588287]","[0.0, -1.5707963267948966, 0.0, 0.0, 0.0, 0.0]","[0.0, -1.5707963267948966, 0.0, 0.0, 0.0, 0.0]",0.002,7,1
0,-1,"[0.005665042903274298, -1.5648036047681053, 0.005768601094381154, 0.005695148105285597, 0.005816748831421137, 0.005857615265995264]","[-0.10713329166173935, -0.11157762259244919, -0.10915125161409378, -0.10613981634378433, -0.10744126886129379, -0.11107071489095688]","[0.0, -1.5707963267948966, 0.0, 0.0, 0.0, 0.0]","[0.0, -1.5707963267948966, 0.0, 0.0, 0.0, 0.0]",0.002,7,1
0,-1,"[0.00391894718632102, -1.5666017586230119, 0.004000012074605763, 0.0039039093204955577, 0.003984990995377302, 0.003949665930122137]","[-0.08845642954111099, -0.09308301657438278, -0.09122602641582489, -0.08821555227041245, -0.09050368517637253, -0.09265268594026566]","[0.0, -1.5707963267948966, 0.0, 0.0, 0.0, 0.0]","[0.0, -1.5707963267948966, 0.0, 0.0, 0.0, 0.0]",0.002,7,1
0,-1,"[0.003199048573151231, -1.5673593327267845, 0.0032685438739221695, 0.0032343107410888194, 0.003328374121338129, 0.0033654924482107162]","[-0.08145353943109512, -0.08660265803337097, -0.08223804831504822, -0.07969915121793747, -0.081018827855587, -0.08235428482294083]","[0.0, -1.5707963267948966, 0.0, 0.0, 0.0, 0.0]","[0.0, -1.5707963267948966, 0.0, 0.0, 0.0, 0.0]",0.002,7,1
0,-1,"[0.0020257981959730387, -1.5685784630807866, 0.0021079222308557632, 0.0021259027668456554, 0.002130574779585004, 0.002146868733689189]","[-0.06503273546695709, -0.07112184166908264, -0.06689353287220001, -0.06424769014120102, -0.06541363894939423, -0.06842700392007828]","[0.0, -1.5707963267948966, 0.0, 0.0, 0.0, 0.0]","[0.0, -1.5707963267948966, 0.0, 0.0, 0.0, 0.0]",0.002,7,1
0,-1,"[0.001035710796713829, -1.5696912992610415, 0.0010688940631311539, 0.0011142927357177257, 0.0011422893730923533, 0.0011500284308567643]","[-0.04672433063387871, -0.05114179849624634, -0.047615863382816315, -0.04689747095108032, -0.048402998596429825, -0.0496378168463707]","[0.0, -1.5707963267948966, 0.0, 0.0, 0.0, 0.0]","[0.0, -1.5707963267948966, 0.0, 0.0, 0.0, 0.0]",0.002,7,1
0,-1,"[0.00015991178224794567, -1.5706871373152644, 8.70863543909195e-05, 0.00022403776135249132, 0.00024957870482467115, 0.00023842148948460817]","[-0.021318232640624046, -0.024401376023888588, -0.022150713950395584, -0.021378984674811363, -0.021563617512583733, -0.020103005692362785]","[0.0, -1.5707963267948966, 0.0, 0.0, 0.0, 0.0]","[0.0, -1.5707963267948966, 0.0, 0.0, 0.0, 0.0]",0.002,7,1
0,-1,"[-1.5560780660450746e-05, -1.5709268055357875, -3.281390672782436e-05, 2.114355053706163e-05, 0.00012975477147847414, 7.510185241699219e-05]","[-0.004229992162436247, -0.004364245105534792, -0.004231743980199099, -0.004601236432790756, -0.004572467412799597, -0.004531166050583124]","[0.0, -1.5707963267948966, 0.0, 0.0, 0.0, 0.0]","[0.0, -1.5707963267948966, 0.0, 0.0, 0.0, 0.0]",0.002,7,1
0,-1,"[7.601958350278437e-05, -1.5709768734373988, -0.00012599420733749866, 6.477415051264757e-05, 9.976721048587933e-05, 6.318092346191406e-05]","[0.006438670214265585, 0.006015583872795105, 0.007354212459176779, 0.007669070735573769, 0.008053532801568508, 0.004783692304044962]","[0.0, -1.5707963267948966, 0.0, 0.0, 0.0, 0.0]","[0.0, -1.5707963267948966, 0.0, 0.0, 0.0, 0.0]",0.002,7,1
0,-1,"[4.1384973883396015e-05, -1.5708896122374476, -9.634244634071365e-05, -6.274586059618059e-06, 0.0001206765155075118, 7.510185241699219e-05]","[0.0019809026271104813, -0.00345135061070323, 0.001792791299521923, 0.0005231065442785621, 0.0001971369347302243, 0.001061977818608284]","[0.0, -1.5707963267948966, 0.0, 0.0, 0.0, 0.0]","[0.0, -1.5707963267948966, 0.0, 0.0, 0.0, 0.0]",0.002,7,1
0,-1,"[6.241127266548574e-05, -1.5708023510374964, -4.538738721748814e-05, 5.285322155756944e-05, 0.00010697841935325414, 3.7570276617771015e-05]","[1.5010091374279e-05, 0.0031406660564243793, 0.0007953846943564713, -1.0439697717412599e-10, 6.383745976279442e-09, 0.00012706905545201153]","[0.0, -1.5707963267948966, 0.0, 0.0, 0.0, 0.0]","[0.0, -1.5707963267948966, 0.0, 0.0, 0.0, 0.0]",0.002,7,1
0,-1,"[1.750247974996455e-05, -1.5708195171751917, 2.557436098271637e-05, 1.0891551635694441e-05, 3.761601692531258e-05, 4.227493627695367e-05]","[1.1743823334442246e-18, 0.0013077592011541128, 0.0009144432260654867, -0.00033817748771980405, -0.001133542857132852, 5.294086236062867e-08]","[0.0, -1.5707963267948966, 0.0, 0.0, 0.0, 0.0]","[0.0, -1.5707963267948966, 0.0, 0.0, 0.0, 0.0]",0.002,7,1
0,-1,"[2.032425436482299e-05, -1.5708052120604457, -1.4781951904296875e-05, 7.383405651850694e-05, 5.272674752632156e-05, 5.8660229115048423e-05]","[2.2188729371815055e-37, 0.0003238403587602079, 0.00024017159012146294, -0.0006510199164040387, -0.0004157474613748491, -0.000627064669970423]","[0.0, -1.5707963267948966, 0.0, 0.0, 0.0, 0.0]","[0.0, -1.5707963267948966, 0.0, 0.0, 0.0, 0.0]",0.002,7,1
0,-1,"[4.8785102990223095e-05, -1.5708023510374964, 4.9893056051075746e-05, 2.2812480590772566e-05, 6.336545629892498e-05, 5.4030417231842875e-05]","[0.0, -0.00012417924881447107, 1.5843272649362916e-06, -0.0005574159440584481, -0.0010897584725171328, -0.0005235249409452081]","[0.0, -1.5707963267948966, 0.0, 0.0, 0.0, 0.0]","[0.0, -1.5707963267948966, 0.0, 0.0, 0.0, 0.0]",0.002,7,1
0,-1,"[5.782677908428013e-05, -1.5708056888976039, -1.937238084792625e-05, 7.434482238721785e-06, 4.665851520258002e-05, 2.255916660942603e-05]","[0.0, -0.00012844419688917696, 1.239570472965574e-19, -0.00044143086415715516, -0.0005904497811570764, -0.0006582826026715338]","[0.0, -1.5707963267948966, 0.0, 0.0, 0.0, 0.0]","[0.0, -1.5707963267948966, 0.0, 0.0, 0.0, 0.0]",0.002,7,1
0,-1,"[0.00010314018436474726, -1.5707906049541016, 5.990663637334137e-05, 1.542150463862413e-05, 1.8358230590820312e-05, 1.0728836059570312e-05]","[0.0, -0.00010605945863062516, 1.74566830181823e-36, -0.0006276213680393994, -0.0007702035363763571, -0.0006187570979818702]","[0.0, -1.5707963267948966, 0.0, 0.0, 0.0, 0.0]","[0.0, -1.5707963267948966, 0.0, 0.0, 0.0, 0.0]",0.002,7,1
0,-1,"[8.066455484367907e-05, -1.570753080490551, -4.078817437402904e-05, 1.542150463862413e-05, 3.0279159545898438e-05, -1.255665914356996e-06]","[0.0, -7.620852835235874e-16, -0.0, -0.0005747394752688706, -0.0006151707493700087, -0.0008488661842420697]","[0.0, -1.5707963267948966, 0.0, 0.0, 0.0, 0.0]","[0.0, -1.5707963267948966, 0.0, 0.0, 0.0, 0.0]",0.002,7,1
0,-1,"[4.141831595916301e-05, -1.57076984086628, 2.271333803349762e-05, 2.114355053706163e-05, 9.441376278118696e-06, 7.958411515573971e-06]","[0.0, 0.00023280642926692963, 0.00018312256725039333, -0.0003535138093866408, -0.0004192604392301291, -0.0005293750436976552]","[0.0, -1.5707963267948966, 0.0, 0.0, 0.0, 0.0]","[0.0, -1.5707963267948966, 0.0, 0.0, 0.0, 0.0]",0.002,7,1
0,-1,"[7.922124495962635e-05, -1.5707980595030726, 7.993379701787262e-05, -9.016399719286028e-06, 2.744416633504443e-05, 4.8489571781829e-05]","[0.0, -0.00017263686459045857, 0.00013718230184167624, -0.00027316983323544264, -0.00029958688537590206, -0.00033354837796650827]","[0.0, -1.5707963267948966, 0.0, 0.0, 0.0, 0.0]","[0.0, -1.5707963267948966, 0.0, 0.0, 0.0, 0.0]",0.002,7,1
0,-1,"[9.288072760682553e-05, -1.570843359033102, -4.815792999579571e-05, 2.4481410644483503e-05, 4.383277700981125e-05, -2.9865895406544496e-05]","[0.0, -0.0005391440936364233, 8.12226498965174e-05, -0.0001705208414932713, -0.0002568642667029053, -0.00029064001864753664]","[0.0, -1.5707963267948966, 0.0, 0.0, 0.0, 0.0]","[0.0, -1.5707963267948966, 0.0, 0.0, 0.0, 0.0]",0.002,7,1
0,-1,"[0.00010470557026565075, -1.5708805523314417, 4.593526021778871e-06, 1.6271557612412835e-07, -1.7468129293263246e-05, -8.885060445606996e-06]","[0.0, -0.0004517576307989657, 7.249743794091046e-05, -0.0001480738283134997, -0.00022478341998066753, -0.0002647865912877023]","[0.0, -1.5707963267948966, 0.0, 0.0, 0.0, 0.0]","[0.0, -1.5707963267948966, 0.0, 0.0, 0.0, 0.0]",0.002,7,1
0,-1,"[4.137015639571473e-05, -1.57079061394764, -7.436275154759642e-06, 1.3752574584913191e-05, -6.500874654591371e-06, -5.547200338185121e-06]","[0.0, -1.1536219979291218e-08, 7.95703090261668e-05, -0.00016408736701123416, -0.0001252257206942886, -0.00020458889775909483]","[0.0, -1.5707963267948966, 0.0, 0.0, 0.0, 0.0]","[0.0, -1.5707963267948966, 0.0, 0.0, 0.0, 0.0]",0.002,7,1
0,-1,"[6.415319512598217e-05, -1.5707872866435828, -7.424235263897572e-06, -4.644811663823134e-05, -1.1269246236622621e-05, -2.9865895406544496e-05]","[0.0, 0.0009547323570586741, 2.6095560315297917e-05, -0.0001387931260978803, -0.00012229246203787625, -0.00017064460553228855]","[0.0, -1.5707963267948966, 0.0, 0.0, 0.0, 0.0]","[0.0, -1.5707963267948966, 0.0, 0.0, 0.0, 0.0]",0.002,7,1
0,-1,"[5.510795017471537e-05, -1.570841451684469, 4.178682436162262e-05, 1.542150463862413e-05, 2.0123538888583425e-06, 1.072883515007561e-05]","[0.0, 0.0003098469751421362, 4.138010990573093e-05, -0.0001358106965199113, -0.00013560379738919437, -9.846174361882731e-05]","[0.0, -1.5707963267948966, 0.0, 0.0, 0.0, 0.0]","[0.0, -1.5707963267948966, 0.0, 0.0, 0.0, 0.0]",0.002,7,1
0,-1,"[3.6900280974805355e-05, -1.5708023510374964, -3.6288303817855194e-05, -4.2037372924852434e-05, -4.7985707418263246e-05, 7.958411515573971e-06]","[0.0, -0.00018992784316651523, 8.69173266693224e-09, -0.00015722958778496832, -0.00015126819198485464, -7.576097414130345e-05]","[0.0, -1.5707963267948966, 0.0, 0.0, 0.0, 0.0]","[0.0, -1.5707963267948966, 0.0, 0.0, 0.0, 0.0]",0.002,7,1
0,-1,"[4.599644671543501e-05, -1.5708524189391078, -4.078817437402904e-05, -3.27390483398915e-05, -3.129640688115387e-05, 1.52587890625e-05]","[-7.031374843791127e-05, -0.00014201887825038284, 9.12356606616818e-24, -0.00021013699006289244, -0.00011920760152861476, -6.676916382275522e-05]","[0.0, -1.5707963267948966, 0.0, 0.0, 0.0, 0.0]","[0.0, -1.5707963267948966, 0.0, 0.0, 0.0, 0.0]",0.002,7,1
0,-1,"[-1.5560780660450746e-05, -1.5707741822064527, 6.80128680627945e-05, -2.558649096684462e-05, -3.987947572881012e-05, 4.848956814385019e-05]","[-0.0002827113203238696, -3.0506625003923205e-10, 1.284864574924068e-40, -0.00017753707652445883, -9.625743405194953e-05, -5.89033734286204e-05]","[0.0, -1.5707963267948966, 0.0, 0.0, 0.0, 0.0]","[0.0, -1.5707963267948966, 0.0, 0.0, 0.0, 0.0]",0.002,7,1
0,-1,"[1.7478465451858938e-05, -1.570782970540069, 3.4634266988575746e-05, -7.228260376024309e-06, -2.843538393193512e-05, -2.080598940068512e-05]","[-0.00021062156883999705, 3.1536623623651394e-07, -0.0, -0.00012157461605966091, -7.407424709526822e-05, -4.978086508344859e-05]","[0.0, -1.5707963267948966, 0.0, 0.0, 0.0, 0.0]","[0.0, -1.5707963267948966, 0.0, 0.0, 0.0, 0.0]",0.002,7,1
0,-1,"[5.509889524546452e-05, -1.5708476505675257, 4.116688863575746e-06, -2.081811938481337e-05, -1.7468129293263246e-05, 2.7179718017578125e-05]","[-0.00018039476708509028, -0.0006516548455692828, -0.0, -9.923113975673914e-05, -6.360436964314431e-05, -7.010031436586789e-17]","[0.0, -1.5707963267948966, 0.0, 0.0, 0.0, 0.0]","[0.0, -1.5707963267948966, 0.0, 0.0, 0.0, 0.0]",0.002,7,1
0,-1,"[6.246566772460938e-05, -1.5708261928954066, 1.3653432027638246e-05, -2.6983073730946217e-06, 6.021213630447164e-05, -2.9865895406544496e-05]","[-0.00014700555766467005, -0.00030231080017983913, -0.0, -9.088234946830198e-05, -5.940608025412075e-05, -8.318570431080503e-23]","[0.0, -1.5707963267948966, 0.0, 0.0, 0.0, 0.0]","[0.0, -1.5707963267948966, 0.0, 0.0, 0.0, 0.0]",0.002,7,1
0,-1,"[7.157405343605205e-05, -1.570778583014846, 1.3653432027638246e-05, -4.465997729496962e-05, -2.557436098271637e-05, 3.62396240234375e-05]","[-0.00020183096057735384, 0.00010902095527853817, -0.0, -8.38281775941141e-05, -5.572772352024913e-05, -9.871369578137576e-29]","[0.0, -1.5707963267948966, 0.0, 0.0, 0.0, 0.0]","[0.0, -1.5707963267948966, 0.0, 0.0, 0.0, 0.0]",0.002,7,1
0,-1,"[4.303455352783203e-05, -1.5707698429872217, -2.38538359553786e-05, -4.465997729496962e-05, 2.8996944820391946e-05, -6.0383473531544496e-05]","[-0.0006202441873028874, 0.00017587166803423315, -0.0, -6.676329940091819e-05, -5.3731528169009835e-05, -2.747734208094421e-32]","[0.0, -1.5707963267948966, 0.0, 0.0, 0.0, 0.0]","[0.0, -1.5707963267948966, 0.0, 0.0, 0.0, 0.0]",0.002,7,1
0,-1,"[-1.985231508427887e-05, -1.570745573626784, -4.815792999579571e-05, 1.661359753413194e-05, 1.1016865755664185e-05, -8.885060445606996e-06]","[0.00034469005186110735, 0.00042971246875822544, -0.0, -6.046958878869191e-05, -2.513370600354392e-05, -1.390060050640932e-40]","[0.0, -1.5707963267948966, 0.0, 0.0, 0.0, 0.0]","[0.0, -1.5707963267948966, 0.0, 0.0, 0.0, 0.0]",0.002,7,1
0,-1,"[1.4543533325195312e-05, -1.5707621258555555, 8.885060445606996e-06, -1.9149189331102434e-05, 2.86102294921875e-06, 1.2554644854390062e-05]","[1.3882436562857005e-17, 0.0002116611140081659, -0.0, -5.459948079078458e-05, -8.301997767902209e-15, -0.0]","[0.0, -1.5707963267948966, 0.0, 0.0, 0.0, 0.0]","[0.0, -1.5707963267948966, 0.0, 0.0, 0.0, 0.0]",0.002,7,1
0,-1,"[5.208607035456225e-05, -1.5708562336363734, -3.2959767850115895e-05, 3.0203456542921003e-05, 4.8224937927443534e-05, 1.9776820408878848e-05]","[1.0861555576456688e-30, -9.837663674261421e-05, -0.0, -5.0325812480878085e-05, -4.199938688974273e-23, -0.0]","[0.0, -1.5707963267948966, 0.0, 0.0, 0.0, 0.0]","[0.0, -1.5707963267948966, 0.0, 0.0, 0.0, 0.0]",0.002,7,1
0,-1,"[7.609219755977392e-05, -1.5708185635008753, 8.885060445606996e-06, -2.081811938481337e-05, 2.7489482818054967e-05, 7.958411515573971e-06]","[6.333869058748173e-42, -0.00011113438085885718, -0.0, -5.905950728468667e-11, -3.2541494113248544e-30, -0.0]","[0.0, -1.5707963267948966, 0.0, 0.0, 0.0, 0.0]","[0.0, -1.5707963267948966, 0.0, 0.0, 0.0, 0.0]",0.002,7,1
0,-1,"[6.417099939426407e-05, -1.5708228550352992, 8.885060445606996e-06, -4.191816363530165e-05, -1.7468129293263246e-05, -2.557436098271637e-05]","[0.0, -2.996545163114206e-07, -0.0, -4.20734160560438e-31, -0.0, -0.0]","[0.0, -1.5707963267948966, 0.0, 0.0, 0.0, 0.0]","[0.0, -1.5707963267948966, 0.0, 0.0, 0.0, 0.0]",0.002,7,1
0,-1,"[-6.500874654591371e-06, -1.5708281002440394, 2.9865895406544496e-05, 5.476057019038194e-05, -1.3176594869435121e-05, -2.9865895406544496e-05]","[0.0, -3.1454234465570575e-22, -0.0, -1.3897377519941373e-40, -0.0, -0.0]","[0.0, -1.5707963267948966, 0.0, 0.0, 0.0, 0.0]","[0.0, -1.5707963267948966, 0.0, 0.0, 0.0, 0.0]",0.002,7,1
0,-1,"[3.3941389119718224e-05, -1.5707819069651414, -2.1020634449087083e-05, 1.661359753413194e-05, -1.3176594869435121e-05, -4.655519594365387e-05]","[0.0, -3.3016990842463614e-37, -0.0, -0.0, -0.0, -0.0]","[0.0, -1.5707963267948966, 0.0, 0.0, 0.0, 0.0]","[0.0, -1.5707963267948966, 0.0, 0.0, 0.0, 0.0]",0.002,7,1
0,-1,"[-1.0792409078419496e-05, -1.5708142719664515, 1.794496645146637e-05, 3.0203456542921003e-05, -6.848970522099762e-05, 3.337860107421875e-06]","[0.0, 0.0, -0.0, -0.0, -0.0, -0.0]","[0.0, -1.5707963267948966, 0.0, 0.0, 0.0, 0.0]","[0.0, -1.5707963267948966, 0.0, 0.0, 0.0, 0.0]",0.002,7,1
0,1,"[5.510795017471537e-05, -1.570841451684469, 2.080598940068512e-05, 2.9249782226514753e-05, -6.372133363896637e-05, -1.794496645146637e-05]","[0.0, 0.0, -0.0, -0.0, -0.0, -0.0]","[0.08765894793109064, -1.4831373788638058, 0.08765894793109064, 0.08765894793109064, 0.08765894793109064, 0.08765894793109064]","[0.08765894793109064, -1.4831373788638058, 0.08765894793109064, 0.08765894793109064, 0.08765894793109064, 0.08765894793109064]",0.002,7,1
0,2,"[5.779364437330514e-05, -1.5704432342939363, 0.00017720857729131012, 0.00018243371929926866, 0.0002135634422302246, 0.0001955875486601144]","[0.06108713522553444, 0.2782801687717438, 0.19876135885715485, 0.11069042235612869, 0.08693218231201172, 0.09301210939884186]","[0.08850819476859928, -1.4822881320262973, 0.08850819476859928, 0.08850819476859928, 0.08850819476859928, 0.08850819476859928]","[0.08850819476859928, -1.4822881320262973, 0.08850819476859928, 0.08850819476859928, 0.08850819476859928, 0.08850819476859928]",0.002,7,1
0,3,"[0.00019794941181316972, -1.5700649633402755, 0.00046235719789677887, 0.00036994993176264757, 0.00041487812995910645, 0.0004475961613934487]","[0.08442585915327072, 0.3704086244106293, 0.24037587642669678, 0.17223060131072998, 0.1447598934173584, 0.15293088555335999]","[0.08935688209272531, -1.4814394447021713, 0.08935688209272531, 0.08935688209272531, 0.08935688209272531, 0.08935688209272531]","[0.08935688209272531, -1.4814394447021713, 0.08935688209272531, 0.08935688209272531, 0.08935688209272531, 0.08935688209272531]",0.002,7,1
0,4,"[0.0004036760365124792, -1.5693200701246788, 0.0009649435626428726, 0.0006666618534545421, 0.000819087028503418, 0.0008104181033559144]","[0.10790962725877762, 0.41209498047828674, 0.2447482943534851, 0.18877580761909485, 0.17028605937957764, 0.17879144847393036]","[0.09020500453840717, -1.4805913222564895, 0.09020500453840717, 0.09020500453840717, 0.09020500453840717, 0.09020500453840717]","[0.09020500453840717, -1.4805913222564895, 0.09020500453840717, 0.09020500453840717, 0.09020500453840717, 0.09020500453840717]",0.002,7,1
0,5,"[0.0007625579601153731, -1.5685431917994102, 0.0014422575580042007, 0.0009021002003173351, 0.001208454486913979, 0.0012244939571246505]","[0.1405991166830063, 0.4224168360233307, 0.2505715489387512, 0.18843761086463928, 0.190256729722023, 0.19254212081432343]","[0.09105255674415423, -1.4797437700507423, 0.09105255674415423, 0.09105255674415423, 0.09105255674415423, 0.09105255674415423]","[0.09105255674415423, -1.4797437700507423, 0.09105255674415423, 0.09105255674415423, 0.09105255674415423, 0.09105255674415423]",0.002,7,1
0,6,"[0.0013708138139918447, -1.567688241634034, 0.0021970907794397476, 0.0014199453541259288, 0.0015946030616760254, 0.0016159767983481288]","[0.1819566786289215, 0.4197758734226227, 0.2799738645553589, 0.20478284358978271, 0.21419377624988556, 0.21182186901569366]","[0.09189953335208066, -1.4788967934428159, 0.09189953335208066, 0.09189953335208066, 0.09189953335208066, 0.09189953335208066]","[0.09189953335208066, -1.4788967934428159, 0.09189953335208066, 0.09189953335208066, 0.09189953335208066, 0.09189953335208066]",0.002,7,1
0,7,"[0.0020093610510230064, -1.5672064940775563, 0.0029605070697229507, 0.0021890836903075694, 0.001878860522992909, 0.002071595285087824]","[0.22886545956134796, 0.3908597230911255, 0.30772101879119873, 0.2367711216211319, 0.23984023928642273, 0.2351478934288025]","[0.0927459290079393, -1.4780503977869572, 0.0927459290079393, 0.0927459290079393, 0.0927459290079393, 0.0927459290079393]","[0.0927459290079393, -1.4780503977869572, 0.0927459290079393, 0.0927459290079393, 0.0927459290079393, 0.0927459290079393]",0.002,7,1
0,8,"[0.002645506989210844, -1.5666094359806557, 0.0035732428180139664, 0.0031422811695556163, 0.0024437010288238525, 0.0026055050548166037]","[0.28510358929634094, 0.3291461765766144, 0.3129579424858093, 0.2783319652080536, 0.2564111053943634, 0.260475218296051]","[0.09359173836115567, -1.4772045884337408, 0.09359173836115567, 0.09359173836115567, 0.09359173836115567, 0.09359173836115567]","[0.09359173836115567, -1.4772045884337408, 0.09359173836115567, 0.09359173836115567, 0.09359173836115567, 0.09359173836115567]",0.002,7,1
0,9,"[0.003195960307493806, -1.5661417444101353, 0.003916565571920216, 0.003600164050720167, 0.0028439697343856096, 0.0032085375860333443]","[0.3247919976711273, 0.2798127830028534, 0.280689001083374, 0.3183485269546509, 0.2791435420513153, 0.2871706783771515]","[0.09443695606486147, -1.476359370730035, 0.09443695606486147, 0.09443695606486147, 0.09443695606486147, 0.09443695606486147]","[0.09443695606486147, -1.476359370730035, 0.09443695606486147, 0.09443695606486147, 0.09443695606486147, 0.09443695606486147]",0.002,7,1
0,10,"[0.0037987357936799526, -1.5657759972712775, 0.004343334828512013, 0.003999038333557081, 0.0036247912794351578, 0.0038082695100456476]","[0.33788326382637024, 0.2592349052429199, 0.24924898147583008, 0.33038872480392456, 0.3001583516597748, 0.30941450595855713]","[0.09528157677592872, -1.4755147500189678, 0.09528157677592872, 0.09528157677592872, 0.09528157677592872, 0.09528157677592872]","[0.09528157677592872, -1.4755147500189678, 0.09528157677592872, 0.09528157677592872, 0.09528157677592872, 0.09528157677592872]",0.002,7,1
0,11,"[0.004528374411165714, -1.5652568324333807, 0.004731003438131154, 0.004514022464416456, 0.004457129631191492, 0.004456472583115101]","[0.3486368954181671, 0.24232234060764313, 0.2915992736816406, 0.32788825035095215, 0.33474570512771606, 0.3306388556957245]","[0.09612559515500335, -1.4746707316398933, 0.09612559515500335, 0.09612559515500335, 0.09612559515500335, 0.09612559515500335]","[0.09612559515500335, -1.4746707316398933, 0.09612559515500335, 0.09612559515500335, 0.09612559515500335, 0.09612559515500335]",0.002,7,1
0,12,"[0.005141794681549072, -1.5647431391156097, 0.005283657704488576, 0.004834337825439405, 0.005191904958337545, 0.005204210057854652]","[0.36879393458366394, 0.23078536987304688, 0.32411885261535645, 0.3258631229400635, 0.3696814179420471, 0.3564080595970154]","[0.09696900586653895, -1.4738273209283577, 0.09696900586653895, 0.09696900586653895, 0.09696900586653895, 0.09696900586653895]","[0.09696900586653895, -1.4738273209283577, 0.09696900586653895, 0.09696900586653895, 0.09696900586653895, 0.09696900586653895]",0.002,7,1
0,13,"[0.005904314573854208, -1.5642637524618586, 0.0061143080340784195, 0.005615635509155226, 0.006101330742239952, 0.005933237262070179]","[0.3858287036418915, 0.26020345091819763, 0.3344017565250397, 0.33363932371139526, 0.3963874578475952, 0.37514302134513855]","[0.09781180357883058, -1.4729845232160659, 0.09781180357883058, 0.09781180357883058, 0.09781180357883058, 0.09781180357883058]","[0.09781180357883058, -1.4729845232160659, 0.09781180357883058, 0.09781180357883058, 0.09781180357883058, 0.09781180357883058]",0.002,7,1
0,14,"[0.006686060223728418, -1.5636635392769058, 0.006958309804097951, 0.006547852153442335, 0.006832982413470745, 0.0067593795247375965]","[0.4028346836566925, 0.32331258058547974, 0.3646918833255768, 0.36525291204452515, 0.4177126884460449, 0.39730486273765564]","[0.09865398296404841, -1.472142343830848, 0.09865398296404841, 0.09865398296404841, 0.09865398296404841, 0.09865398296404841]","[0.09865398296404841, -1.472142343830848, 0.09865398296404841, 0.09865398296404841, 0.09865398296404841, 0.09865398296404841]",0.002,7,1
0,15,"[0.0076071168296039104, -1.5628864954090496, 0.007767979298726857, 0.007672472591064405, 0.007509840186685324, 0.00755123607814312]","[0.42670881748199463, 0.35609114170074463, 0.39918771386146545, 0.41107165813446045, 0.4245315492153168, 0.42086976766586304]","[0.0994955386982715, -1.4713007880966251, 0.0994955386982715, 0.0994955386982715, 0.0994955386982715, 0.0994955386982715]","[0.0994955386982715, -1.4713007880966251, 0.0994955386982715, 0.0994955386982715, 0.0994955386982715, 0.0994955386982715]",0.002,7,1
0,16,"[0.008628950454294682, -1.5620980870774765, 0.00869924226869756, 0.008782668704650831, 0.008389989845454693, 0.00839794147759676]","[0.4485222101211548, 0.37422820925712585, 0.4234852194786072, 0.4555591642856598, 0.43045705556869507, 0.4415540099143982]","[0.10033646546152125, -1.4704598613333753, 0.10033646546152125, 0.10033646546152125, 0.10033646546152125, 0.10033646546152125]","[0.10033646546152125, -1.4704598613333753, 0.10033646546152125, 0.10033646546152125, 0.10033646546152125, 0.10033646546152125]",0.002,7,1
0,17,"[0.009698586538434029, -1.561358463285007, 0.009559456502095998, 0.009596748942993116, 0.009321861900389194, 0.009393894113600254]","[0.4732781648635864, 0.3884193003177643, 0.4392784833908081, 0.48537883162498474, 0.45154812932014465, 0.4616362750530243]","[0.10117675793779526, -1.4696195688571012, 0.10117675793779526, 0.10117675793779526, 0.10117675793779526, 0.10117675793779526]","[0.10117675793779526, -1.4696195688571012, 0.10117675793779526, 0.10117675793779526, 0.10117675793779526, 0.10117675793779526]",0.002,7,1
0,18,"[0.010542764328420162, -1.5604714521071692, 0.010377232228414357, 0.010351820583007765, 0.010352443903684616, 0.01029849424958229]","[0.4924001097679138, 0.40820014476776123, 0.4520769417285919, 0.4878291189670563, 0.47374531626701355, 0.47804567217826843]","[0.10201641081510086, -1.4687799159797956, 0.10201641081510086, 0.10201641081510086, 0.10201641081510086, 0.10201641081510086]","[0.10201641081510086, -1.4687799159797956, 0.10201641081510086, 0.10201641081510086, 0.10201641081510086, 0.10201641081510086]",0.002,7,1
0,19,"[0.011350163258612156, -1.5595915953493495, 0.011315647755758107, 0.011214061374328566, 0.011346416547894478, 0.01127842627465725]","[0.5040137767791748, 0.42990249395370483, 0.4655055105686188, 0.4809897541999817, 0.4986870288848877, 0.49151650071144104]","[0.10285541878548858, -1.467940908009408, 0.10285541878548858, 0.10285541878548858, 0.10285541878548858, 0.10285541878548858]","[0.10285541878548858, -1.467940908009408, 0.10285541878548858, 0.10285541878548858, 0.10285541878548858, 0.10285541878548858]",0.002,7,1
0,20,"[0.012317688204348087, -1.5587153446725388, 0.012279335652486623, 0.012274904842040968, 0.01231472473591566, 0.012278735637664795]","[0.5086667537689209, 0.4484286308288574, 0.4817723333835602, 0.4842399060726166, 0.5193522572517395, 0.5081528425216675]","[0.10369377654508585, -1.4671025502498107, 0.10369377654508585, 0.10369377654508585, 0.10369377654508585, 0.10369377654508585]","[0.10369377654508585, -1.4671025502498107, 0.10369377654508585, 0.10369377654508585, 0.10369377654508585, 0.10369377654508585]",0.002,7,1
0,21,"[0.013387780636548996, -1.557747922172286, 0.013365093861715138, 0.013425989741943312, 0.013339447788894176, 0.01330270804464817]","[0.5192075371742249, 0.4674803614616394, 0.49599573016166687, 0.5054141283035278, 0.5315326452255249, 0.5228942036628723]","[0.10453147879413045, -1.466264848000766, 0.10453147879413045, 0.10453147879413045, 0.10453147879413045, 0.10453147879413045]","[0.10453147879413045, -1.466264848000766, 0.10453147879413045, 0.10453147879413045, 0.10453147879413045, 0.10453147879413045]",0.002,7,1
0,22,"[0.01463541854172945, -1.5566645136899133, 0.014386479054586232, 0.014611764545104933, 0.0144736897200346, 0.014399218373000622]","[0.537045419216156, 0.4919522702693939, 0.5147920250892639, 0.5334925651550293, 0.541308581829071, 0.5411669611930847]","[0.10536852023700408, -1.4654278065578925, 0.10536852023700408, 0.10536852023700408, 0.10536852023700408, 0.10536852023700408]","[0.10536852023700408, -1.4654278065578925, 0.10536852023700408, 0.10536852023700408, 0.10536852023700408, 0.10536852023700408]",0.002,7,1
0,23,"[0.015814846381545067, -1.555595041518547, 0.015477959309713185, 0.01573733865704341, 0.015478934161365032, 0.015424038283526897]","[0.5615217089653015, 0.5153349041938782, 0.5338481664657593, 0.5591884851455688, 0.5514190793037415, 0.5558822154998779]","[0.1062048955822657, -1.464591431212631, 0.1062048955822657, 0.1062048955822657, 0.1062048955822657, 0.1062048955822657]","[0.1062048955822657, -1.464591431212631, 0.1062048955822657, 0.1062048955822657, 0.1062048955822657, 0.1062048955822657]",0.002,7,1
0,24,"[0.016937727108597755, -1.5544167321971436, 0.016641918812887013, 0.016836686725280714, 0.016636382788419724, 0.016605354845523834]","[0.5787922143936157, 0.5322924852371216, 0.5508211851119995, 0.5725722908973694, 0.5646464824676514, 0.5702820420265198]","[0.10704059954268516, -1.4637557272522115, 0.10704059954268516, 0.10704059954268516, 0.10704059954268516, 0.10704059954268516]","[0.10704059954268516, -1.4637557272522115, 0.10704059954268516, 0.10704059954268516, 0.10704059954268516, 0.10704059954268516]",0.002,7,1
0,25,"[0.0179522056132555, -1.5533182502589007, 0.017760578786031544, 0.018036647433898878, 0.017748286947607994, 0.017769504338502884]","[0.5854079723358154, 0.549461841583252, 0.5644865036010742, 0.5783208012580872, 0.5780799984931946, 0.5836613178253174]","[0.10787562683527654, -1.46292069995962, 0.10787562683527654, 0.10787562683527654, 0.10787562683527654, 0.10787562683527654]","[0.10787562683527654, -1.46292069995962, 0.10787562683527654, 0.10787562683527654, 0.10787562683527654, 0.10787562683527654]",0.002,7,1
0,26,"[0.019138412550091743, -1.5521091383746644, 0.018868748341695607, 0.01910678922619624, 0.018951158970594406, 0.018978174775838852]","[0.5899328589439392, 0.5644744038581848, 0.5777957439422607, 0.5877018570899963, 0.5917956233024597, 0.5937605500221252]","[0.1087099721813315, -1.462086354613565, 0.1087099721813315, 0.1087099721813315, 0.1087099721813315, 0.1087099721813315]","[0.1087099721813315, -1.462086354613565, 0.1087099721813315, 0.1087099721813315, 0.1087099721813315, 0.1087099721813315]",0.002,7,1
0,27,"[0.020332662388682365, -1.550881053586938, 0.020017925892965138, 0.02024631082501216, 0.020206766203045845, 0.020160842686891556]","[0.5995827317237854, 0.5780666470527649, 0.5890569686889648, 0.596918523311615, 0.6042401790618896, 0.6059168577194214]","[0.10954363030645263, -1.461252696488444, 0.10954363030645263, 0.10954363030645263, 0.10954363030645263, 0.10954363030645263]","[0.10954363030645263, -1.461252696488444, 0.10954363030645263, 0.10954363030645263, 0.10954363030645263, 0.10954363030645263]",0.002,7,1
0,28,"[0.021537629887461662, -1.549624565323331, 0.02127248445619756, 0.021355195636413526, 0.021420469507575035, 0.021430160850286484]","[0.6110815405845642, 0.5959600806236267, 0.5976170301437378, 0.6050795316696167, 0.6179268956184387, 0.6186718940734863]","[0.11037659594058698, -1.4604197308543097, 0.11037659594058698, 0.11037659594058698, 0.11037659594058698, 0.11037659594058698]","[0.11037659594058698, -1.4604197308543097, 0.11037659594058698, 0.11037659594058698, 0.11037659594058698, 0.11037659594058698]",0.002,7,1
0,29,"[0.0228206068277359, -1.5483354062638064, 0.02250987688173467, 0.022510095233581495, 0.022718539461493492, 0.022724062204360962]","[0.6218737959861755, 0.6084673404693604, 0.6096320748329163, 0.6124528050422668, 0.629820704460144, 0.624868631362915]","[0.11120886381805924, -1.4595874629768373, 0.11120886381805924, 0.11120886381805924, 0.11120886381805924, 0.11120886381805924]","[0.11120886381805924, -1.4595874629768373, 0.11120886381805924, 0.11120886381805924, 0.11120886381805924, 0.11120886381805924]",0.002,7,1
0,30,"[0.02407854050397873, -1.5470012103072186, 0.02377349535097295, 0.023851676578185987, 0.024001264944672585, 0.023964399471879005]","[0.6355276107788086, 0.6188511252403259, 0.6205238103866577, 0.6228170394897461, 0.637596070766449, 0.6328800916671753]","[0.11204042867760493, -1.4587558981172917, 0.11204042867760493, 0.11204042867760493, 0.11204042867760493, 0.11204042867760493]","[0.11204042867760493, -1.4587558981172917, 0.11204042867760493, 0.11204042867760493, 0.11204042867760493, 0.11204042867760493]",0.002,7,1
0,31,"[0.025331562384963036, -1.5456744500300665, 0.02505952516664678, 0.02514915048565669, 0.025197673588991165, 0.025313088670372963]","[0.6441863179206848, 0.6308066248893738, 0.6327195763587952, 0.6389321684837341, 0.6439962983131409, 0.6429049968719482]","[0.11287128526240384, -1.4579250415324927, 0.11287128526240384, 0.11287128526240384, 0.11287128526240384, 0.11287128526240384]","[0.11287128526240384, -1.4579250415324927, 0.11287128526240384, 0.11287128526240384, 0.11287128526240384, 0.11287128526240384]",0.002,7,1
0,32,"[0.026605894789099693, -1.544327826505043, 0.026360813771383107, 0.026450319881103468, 0.026514140889048576, 0.0265637319535017]","[0.6499843597412109, 0.6444467306137085, 0.6417732834815979, 0.6578676104545593, 0.6490762829780579, 0.6480608582496643]","[0.11370142832011325, -1.4570948984747834, 0.11370142832011325, 0.11370142832011325, 0.11370142832011325, 0.11370142832011325]","[0.11370142832011325, -1.4570948984747834, 0.11370142832011325, 0.11370142832011325, 0.11370142832011325, 0.11370142832011325]",0.002,7,1
0,33,"[0.02790234424173832, -1.5429623884013672, 0.02765828767885381, 0.02780394136395259, 0.027933308854699135, 0.027911828830838203]","[0.659406840801239, 0.6520667672157288, 0.6578389406204224, 0.6706210374832153, 0.656663179397583, 0.6569411754608154]","[0.11453085260290095, -1.4562654741919956, 0.11453085260290095, 0.11453085260290095, 0.11453085260290095, 0.11453085260290095]","[0.11453085260290095, -1.4562654741919956, 0.11453085260290095, 0.11453085260290095, 0.11453085260290095, 0.11453085260290095]",0.002,7,1
0,34,"[0.029182346537709236, -1.5415622194162388, 0.029012028370992482, 0.029079361552856398, 0.02921476401388645, 0.029259679839015007]","[0.664750874042511, 0.6606928110122681, 0.6640686988830566, 0.6741705536842346, 0.6654615998268127, 0.666822075843811]","[0.11535955286747862, -1.4554367739274179, 0.11535955286747862, 0.11535955286747862, 0.11535955286747862, 0.11535955286747862]","[0.11535955286747862, -1.4554367739274179, 0.11535955286747862, 0.11535955286747862, 0.11535955286747862, 0.11535955286747862]",0.002,7,1
0,35,"[0.03040163218975067, -1.5401896809092541, 0.030343357716695607, 0.030328555698059034, 0.030645055696368217, 0.03063489869236946]","[0.673940122127533, 0.6671781539916992, 0.6723138093948364, 0.6749854683876038, 0.6769112944602966, 0.6712473034858704]","[0.11618752387513484, -1.4546088029197617, 0.11618752387513484, 0.11618752387513484, 0.11618752387513484, 0.11618752387513484]","[0.11618752387513484, -1.4546088029197617, 0.11618752387513484, 0.11618752387513484, 0.11618752387513484, 0.11618752387513484]",0.002,7,1
0,36,"[0.03174499049782753, -1.538871021275856, 0.031723801289693654, 0.03172092020001216, 0.032009027898311615, 0.03198300674557686]","[0.6783469915390015, 0.672636866569519, 0.6721866130828857, 0.678876519203186, 0.6827653050422668, 0.678301990032196]","[0.11701476039176834, -1.4537815664031282, 0.11701476039176834, 0.11701476039176834, 0.11701476039176834, 0.11701476039176834]","[0.11701476039176834, -1.4537815664031282, 0.11701476039176834, 0.11701476039176834, 0.11701476039176834, 0.11701476039176834]",0.002,7,1
0,37,"[0.03313182294368744, -1.53742245331917, 0.03310090700258428, 0.03314034521069331, 0.03342264145612717, 0.033393438905477524]","[0.6847635507583618, 0.6770505905151367, 0.6781702041625977, 0.6885119676589966, 0.6887578964233398, 0.6846828460693359]","[0.11784125718792089, -1.4529550696069757, 0.11784125718792089, 0.11784125718792089, 0.11784125718792089, 0.11784125718792089]","[0.11784125718792089, -1.4529550696069757, 0.11784125718792089, 0.11784125718792089, 0.11784125718792089, 0.11784125718792089]",0.002,7,1
0,38,"[0.03451278433203697, -1.5360285614481946, 0.03452903429140264, 0.03462199747051997, 0.034786567091941833, 0.034713469445705414]","[0.6888204216957092, 0.684086263179779, 0.684868335723877, 0.6959043741226196, 0.6933324933052063, 0.686659574508667]","[0.11866700903881057, -1.452129317756086, 0.11866700903881057, 0.11866700903881057, 0.11866700903881057, 0.11866700903881057]","[0.11866700903881057, -1.452129317756086, 0.11866700903881057, 0.11866700903881057, 0.11866700903881057, 0.11866700903881057]",0.002,7,1
0,39,"[0.035890597850084305, -1.5346305047026654, 0.03593284288515264, 0.036111517543456984, 0.03615773096680641, 0.03616061061620712]","[0.6956639885902405, 0.6888603568077087, 0.6919659376144409, 0.7056022882461548, 0.6949962973594666, 0.6926916241645813]","[0.11949201072436472, -1.451304316070532, 0.11949201072436472, 0.11949201072436472, 0.11949201072436472, 0.11949201072436472]","[0.11949201072436472, -1.451304316070532, 0.11949201072436472, 0.11949201072436472, 0.11949201072436472, 0.11949201072436472]",0.002,7,1
0,40,"[0.03732524812221527, -1.5331958469799538, 0.03738624254335576, 0.03756539403881831, 0.03758148476481438, 0.03747187927365303]","[0.6999425888061523, 0.6946780681610107, 0.7010816931724548, 0.7120276689529419, 0.6984232068061829, 0.6998878121376038]","[0.12031625702925285, -1.4504800697656437, 0.12031625702925285, 0.12031625702925285, 0.12031625702925285, 0.12031625702925285]","[0.12031625702925285, -1.4504800697656437, 0.12031625702925285, 0.12031625702925285, 0.12031625702925285, 0.12031625702925285]",0.002,7,1
0,41,"[0.03875938057899475, -1.5318132166615506, 0.03876048723329717, 0.039018316859863234, 0.038978662341833115, 0.03886444866657257]","[0.702663779258728, 0.7004154324531555, 0.7050266265869141, 0.7120867967605591, 0.7026395201683044, 0.7029020190238953]","[0.1211397427429197, -1.4496565840519768, 0.1211397427429197, 0.1211397427429197, 0.1211397427429197, 0.1211397427429197]","[0.1211397427429197, -1.4496565840519768, 0.1211397427429197, 0.1211397427429197, 0.1211397427429197, 0.1211397427429197]",0.002,7,1
0,42,"[0.040208980441093445, -1.5303199787488957, 0.04022342363466436, 0.04037992536511226, 0.040352962911129, 0.04023214429616928]","[0.7076910138130188, 0.7076508402824402, 0.7085738182067871, 0.7115203738212585, 0.708700954914093, 0.7095068693161011]","[0.12196246265961823, -1.4488338641352783, 0.12196246265961823, 0.12196246265961823, 0.12196246265961823, 0.12196246265961823]","[0.12196246265961823, -1.4488338641352783, 0.12196246265961823, 0.12196246265961823, 0.12196246265961823, 0.12196246265961823]",0.002,7,1
0,43,"[0.04155069589614868, -1.5289534081569691, 0.04165631929506475, 0.04183630525555415, 0.04178609699010849, 0.04166515916585922]","[0.7129445672035217, 0.7127238512039185, 0.7127062082290649, 0.7098739743232727, 0.7119168639183044, 0.7134496569633484]","[0.12278441157844236, -1.4480119152164541, 0.12278441157844236, 0.12278441157844236, 0.12278441157844236, 0.12278441157844236]","[0.12278441157844236, -1.4480119152164541, 0.12278441157844236, 0.12278441157844236, 0.12278441157844236, 0.12278441157844236]",0.002,7,1
0,44,"[0.04292780160903931, -1.527485617702343, 0.04304629961122686, 0.043352170581481886, 0.043154098093509674, 0.04305529594421387]","[0.7147411704063416, 0.7196382284164429, 0.7137855291366577, 0.7115982174873352, 0.7171493172645569, 0.7179185748100281]","[0.12360558430336005, -1.4471907424915365, 0.12360558430336005, 0.12360558430336005, 0.12360558430336005, 0.12360558430336005]","[0.12360558430336005, -1.4471907424915365, 0.12360558430336005, 0.12360558430336005, 0.12360558430336005, 0.12360558430336005]",0.002,7,1
0,45,"[0.04434552788734436, -1.525990569298603, 0.04451162019838506, 0.044792338008544874, 0.04461190849542618, 0.044461689889431]","[0.7141172289848328, 0.7189317345619202, 0.7165267467498779, 0.7168250679969788, 0.7166212201118469, 0.7208308577537537]","[0.12442597564324599, -1.4463703511516506, 0.12442597564324599, 0.12442597564324599, 0.12442597564324599, 0.12442597564324599]","[0.12442597564324599, -1.4463703511516506, 0.12442597564324599, 0.12442597564324599, 0.12442597564324599, 0.12442597564324599]",0.002,7,1
0,46,"[0.045817092061042786, -1.5245899644545098, 0.04591352144350225, 0.04631106435742183, 0.04602427035570145, 0.04588121548295021]","[0.7126685380935669, 0.7208855748176575, 0.7201091647148132, 0.719212532043457, 0.7220042943954468, 0.724280834197998]","[0.12524558041191447, -1.445550746382982, 0.12524558041191447, 0.12524558041191447, 0.12524558041191447, 0.12524558041191447]","[0.12524558041191447, -1.445550746382982, 0.12524558041191447, 0.12524558041191447, 0.12524558041191447, 0.12524558041191447]",0.002,7,1
0,47,"[0.04730122163891792, -1.5231482249549408, 0.0473559538470667, 0.04767434179272456, 0.04745367541909218, 0.04735052213072777]","[0.7204400300979614, 0.726090133190155, 0.7210715413093567, 0.7198413610458374, 0.7244383692741394, 0.7271243333816528]","[0.1260643934281522, -1.4447319333667443, 0.1260643934281522, 0.1260643934281522, 0.1260643934281522, 0.1260643934281522]","[0.1260643934281522, -1.4447319333667443, 0.1260643934281522, 0.1260643934281522, 0.1260643934281522, 0.1260643934281522]",0.002,7,1
0,48,"[0.048724979162216187, -1.5216856610826035, 0.048816982899801076, 0.049061699504516554, 0.04889821633696556, 0.048780880868434906]","[0.7247191071510315, 0.7295573949813843, 0.7238110899925232, 0.717939555644989, 0.7267968058586121, 0.7317425012588501]","[0.12688240951575097, -1.4439139172791455, 0.12688240951575097, 0.12688240951575097, 0.12688240951575097, 0.12688240951575097]","[0.12688240951575097, -1.4439139172791455, 0.12688240951575097, 0.12688240951575097, 0.12688240951575097, 0.12688240951575097]",0.002,7,1
0,49,"[0.0501427948474884, -1.5202557940832158, 0.05016166368593389, 0.05052094041790767, 0.05027199536561966, 0.05026834085583687]","[0.7242844104766846, 0.7285454869270325, 0.7259173393249512, 0.717870831489563, 0.7290630340576172, 0.7322365641593933]","[0.12769962350354055, -1.443096703291356, 0.12769962350354055, 0.12769962350354055, 0.12769962350354055, 0.12769962350354055]","[0.12769962350354055, -1.443096703291356, 0.12769962350354055, 0.12769962350354055, 0.12769962350354055, 0.12769962350354055]",0.002,7,1
0,50,"[0.05160088837146759, -1.5188196089914818, 0.05166322389711553, 0.05192236482586665, 0.051772329956293106, 0.05170565843582153]","[0.7249704599380493, 0.7262080907821655, 0.726239800453186, 0.7211298942565918, 0.7287034392356873, 0.7303236126899719]","[0.12851603022542116, -1.4422802965694754, 0.12851603022542116, 0.12851603022542116, 0.12851603022542116, 0.12851603022542116]","[0.12851603022542116, -1.4422802965694754, 0.12851603022542116, 0.12851603022542116, 0.12851603022542116, 0.12851603022542116]",0.002,7,1
0,51,"[0.053033262491226196, -1.5173503843000908, 0.05313140550722295, 0.053317709560058546, 0.0531916581094265, 0.053218089044094086]","[0.7222047448158264, 0.7264987230300903, 0.7282728552818298, 0.7256792187690735, 0.7300642132759094, 0.7341428995132446]","[0.12933162452039626, -1.4414647022745002, 0.12933162452039626, 0.12933162452039626, 0.12933162452039626, 0.12933162452039626]","[0.12933162452039626, -1.4414647022745002, 0.12933162452039626, 0.12933162452039626, 0.12933162452039626, 0.12933162452039626]",0.002,7,1
0,52,"[0.05451139435172081, -1.515817304407694, 0.05453807512392217, 0.05474965154614253, 0.054756298661231995, 0.054727211594581604]","[0.7248119115829468, 0.7255703210830688, 0.7289233207702637, 0.7298526763916016, 0.7293864488601685, 0.7320666909217834]","[0.13014640123260515, -1.4406499255622913, 0.13014640123260515, 0.13014640123260515, 0.13014640123260515, 0.13014640123260515]","[0.13014640123260515, -1.4406499255622913, 0.13014640123260515, 0.13014640123260515, 0.13014640123260515, 0.13014640123260515]",0.002,7,1
0,53,"[0.05593708157539368, -1.5143959198943158, 0.05601197877992803, 0.0561486917683105, 0.05622360110282898, 0.05619179084897041]","[0.7269402742385864, 0.722028374671936, 0.726803719997406, 0.7282142043113708, 0.732771635055542, 0.7310400009155273]","[0.13096035521135554, -1.439835971583541, 0.13096035521135554, 0.13096035521135554, 0.13096035521135554, 0.13096035521135554]","[0.13096035521135554, -1.439835971583541, 0.13096035521135554, 0.13096035521135554, 0.13096035521135554, 0.13096035521135554]",0.002,7,1
0,54,"[0.05741444602608681, -1.5129357811859627, 0.057473007832662404, 0.057445092792175245, 0.05768265575170517, 0.057679902762174606]","[0.7295125126838684, 0.7197092175483704, 0.7269366383552551, 0.7268050312995911, 0.7335990071296692, 0.7288194298744202]","[0.13177348131115624, -1.4390228454837404, 0.13177348131115624, 0.13177348131115624, 0.13177348131115624, 0.13177348131115624]","[0.13177348131115624, -1.4390228454837404, 0.13177348131115624, 0.13177348131115624, 0.13177348131115624, 0.13177348131115624]",0.002,7,1
0,55,"[0.05891294777393341, -1.5115585637143631, 0.05893546739687139, 0.05899588643994136, 0.05907044559717178, 0.059224870055913925]","[0.7299463748931885, 0.7204047441482544, 0.7259526252746582, 0.7267026901245117, 0.7319754958152771, 0.7286546230316162]","[0.1325857743917494, -1.4382105524031472, 0.1325857743917494, 0.1325857743917494, 0.1325857743917494, 0.1325857743917494]","[0.1325857743917494, -1.4382105524031472, 0.1325857743917494, 0.1325857743917494, 0.1325857743917494, 0.1325857743917494]",0.002,7,1
0,56,"[0.06038573384284973, -1.5101499569467087, 0.060374085103170216, 0.060486360187194776, 0.06060663238167763, 0.060636721551418304]","[0.7306270599365234, 0.7171868085861206, 0.7259756326675415, 0.7304075360298157, 0.7304133772850037, 0.7279765605926514]","[0.13339722931814335, -1.4373990974767532, 0.13339722931814335, 0.13339722931814335, 0.13339722931814335, 0.13339722931814335]","[0.13339722931814335, -1.4373990974767532, 0.13339722931814335, 0.13339722931814335, 0.13339722931814335, 0.13339722931814335]",0.002,7,1
0,57,"[0.061785779893398285, -1.5086933274618168, 0.06185323396791631, 0.061972303981445265, 0.062072671949863434, 0.062189824879169464]","[0.7315945625305176, 0.7153366208076477, 0.7254632711410522, 0.7365095615386963, 0.7285940051078796, 0.7281700372695923]","[0.13420784096064478, -1.4365884858342517, 0.13420784096064478, 0.13420784096064478, 0.13420784096064478, 0.13420784096064478]","[0.13420784096064478, -1.4365884858342517, 0.13420784096064478, 0.13420784096064478, 0.13420784096064478, 0.13420784096064478]",0.002,7,1
0,58,"[0.06324318051338196, -1.5073316183737298, 0.06328326860536748, 0.06341950475659175, 0.06362174451351166, 0.06360722333192825]","[0.727189302444458, 0.709681510925293, 0.7228412628173828, 0.7360302209854126, 0.7273107171058655, 0.7276979088783264]","[0.13501760419489134, -1.4357787226000052, 0.13501760419489134, 0.13501760419489134, 0.13501760419489134, 0.13501760419489134]","[0.13501760419489134, -1.4357787226000052, 0.13501760419489134, 0.13501760419489134, 0.13501760419489134, 0.13501760419489134]",0.002,7,1
0,59,"[0.06466297060251236, -1.5058719900301476, 0.06471759477724248, 0.06489626943554683, 0.06511054188013077, 0.0650407001376152]","[0.7274779677391052, 0.7063089609146118, 0.72054123878479, 0.7320341467857361, 0.7255229353904724, 0.7241479158401489]","[0.13582651390188397, -1.4349698128930126, 0.13582651390188397, 0.13582651390188397, 0.13582651390188397, 0.13582651390188397]","[0.13582651390188397, -1.4349698128930126, 0.13582651390188397, 0.13582651390188397, 0.13582651390188397, 0.13582651390188397]",0.002,7,1
0,60,"[0.06620200723409653, -1.5044642326286812, 0.06622821489442998, 0.06633917867626948, 0.06652659177780151, 0.06647669523954391]","[0.7253309488296509, 0.7068815231323242, 0.7176815271377563, 0.7250550389289856, 0.7250507473945618, 0.7209014892578125]","[0.13663456496801923, -1.4341617618268774, 0.13663456496801923, 0.13663456496801923, 0.13663456496801923, 0.13663456496801923]","[0.13663456496801923, -1.4341617618268774, 0.13663456496801923, 0.13663456496801923, 0.13663456496801923, 0.13663456496801923]",0.002,7,1
0,61,"[0.06767935305833817, -1.5030736562660714, 0.0675895849810999, 0.06784860670056148, 0.06800197064876556, 0.0678994283080101]","[0.7258198857307434, 0.7046304941177368, 0.7153271436691284, 0.7215205430984497, 0.7214911580085754, 0.7165289521217346]","[0.13744175228512176, -1.4333545745097749, 0.13744175228512176, 0.13744175228512176, 0.13744175228512176, 0.13744175228512176]","[0.13744175228512176, -1.4333545745097749, 0.13744175228512176, 0.13744175228512176, 0.13744175228512176, 0.13744175228512176]",0.002,7,1
0,62,"[0.06916850060224533, -1.5016677317074318, 0.06907350221742803, 0.06936697542156978, 0.06937466561794281, 0.06937982887029648]","[0.7217057943344116, 0.7032055258750916, 0.7125259041786194, 0.7218692302703857, 0.7177627682685852, 0.7173795104026794]","[0.13824807075047635, -1.4325482560444203, 0.13824807075047635, 0.13824807075047635, 0.13824807075047635, 0.13824807075047635]","[0.13824807075047635, -1.4325482560444203, 0.13824807075047635, 0.13824807075047635, 0.13824807075047635, 0.13824807075047635]",0.002,7,1
0,63,"[0.07059663534164429, -1.5002541628530999, 0.07048589388002569, 0.07077984392132564, 0.07081025093793869, 0.07071936875581741]","[0.7214156985282898, 0.700700581073761, 0.7135094404220581, 0.7217223048210144, 0.7136826515197754, 0.7179180979728699]","[0.1390535152668604, -1.4317428115280362, 0.1390535152668604, 0.1390535152668604, 0.1390535152668604, 0.1390535152668604]","[0.1390535152668604, -1.4317428115280362, 0.1390535152668604, 0.1390535152668604, 0.1390535152668604, 0.1390535152668604]",0.002,7,1
0,64,"[0.07204917073249817, -1.4987617668560524, 0.07195121446718389, 0.07231847822155757, 0.07217928022146225, 0.07210422307252884]","[0.7197755575180054, 0.7019094228744507, 0.7133062481880188, 0.7198099493980408, 0.7133176922798157, 0.717678964138031]","[0.1398580807425761, -1.4309382460523206, 0.1398580807425761, 0.1398580807425761, 0.1398580807425761, 0.1398580807425761]","[0.1398580807425761, -1.4309382460523206, 0.1398580807425761, 0.1398580807425761, 0.1398580807425761, 0.1398580807425761]",0.002,7,1
0,65,"[0.073460154235363, -1.4974271667054673, 0.07340413728822881, 0.07380919038739009, 0.07365679740905762, 0.07356186956167221]","[0.7180543541908264, 0.6999273300170898, 0.7098089456558228, 0.7161169052124023, 0.709071934223175, 0.7133356332778931]","[0.14066176209148248, -1.430134564703414, 0.14066176209148248, 0.14066176209148248, 0.14066176209148248, 0.14066176209148248]","[0.14066176209148248, -1.430134564703414, 0.14066176209148248, 0.14066176209148248, 0.14066176209148248, 0.14066176209148248]",0.002,7,1
0,66,"[0.07488028705120087, -1.496088334625103, 0.07481986681093389, 0.07520811140026851, 0.07506968826055527, 0.07492753863334656]","[0.714287281036377, 0.6979312896728516, 0.7080255746841431, 0.7136682271957397, 0.7108631134033203, 0.7141590714454651]","[0.14146455423302773, -1.4293317725618688, 0.14146455423302773, 0.14146455423302773, 0.14146455423302773, 0.14146455423302773]","[0.14146455423302773, -1.4293317725618688, 0.14146455423302773, 0.14146455423302773, 0.14146455423302773, 0.14146455423302773]",0.002,7,1
0,67,"[0.07626176625490189, -1.49467986941848, 0.076179329548971, 0.07666174947705073, 0.07646595686674118, 0.07634862512350082]","[0.7089307904243469, 0.6937307119369507, 0.7008310556411743, 0.7056061625480652, 0.7091630697250366, 0.7123705148696899]","[0.14226645209228123, -1.4285298747026154, 0.14226645209228123, 0.14226645209228123, 0.14226645209228123, 0.14226645209228123]","[0.14226645209228123, -1.4285298747026154, 0.14226645209228123, 0.14226645209228123, 0.14226645209228123, 0.14226645209228123]",0.002,7,1
0,68,"[0.07769495248794556, -1.4932690498283883, 0.07757550874818975, 0.07802645742382808, 0.07782453298568726, 0.0777154490351677]","[0.7070504426956177, 0.6936314105987549, 0.701063871383667, 0.6988633871078491, 0.7058001160621643, 0.7085113525390625]","[0.14306745059996573, -1.427728876194931, 0.14306745059996573, 0.14306745059996573, 0.14306745059996573, 0.14306745059996573]","[0.14306745059996573, -1.427728876194931, 0.14306745059996573, 0.14306745059996573, 0.14306745059996573, 0.14306745059996573]",0.002,7,1
0,69,"[0.07913181930780411, -1.4919076424888154, 0.07896310487856084, 0.07944552480664058, 0.0792069211602211, 0.07919793576002121]","[0.7038238644599915, 0.6941553354263306, 0.6966018676757812, 0.6959025263786316, 0.7061826586723328, 0.706718921661377]","[0.14386754469248916, -1.4269287821024075, 0.14386754469248916, 0.14386754469248916, 0.14386754469248916, 0.14386754469248916]","[0.14386754469248916, -1.4269287821024075, 0.14386754469248916, 0.14386754469248916, 0.14386754469248916, 0.14386754469248916]",0.002,7,1
0,70,"[0.08052492886781693, -1.4905341205051919, 0.08034831682314092, 0.08083538591351314, 0.08063410222530365, 0.08057546615600586]","[0.7023847103118896, 0.6899695992469788, 0.6946684122085571, 0.6912641525268555, 0.7015143632888794, 0.7049387693405151]","[0.14466672931197697, -1.4261295974829196, 0.14466672931197697, 0.14466672931197697, 0.14466672931197697, 0.14466672931197697]","[0.14466672931197697, -1.4261295974829196, 0.14466672931197697, 0.14466672931197697, 0.14466672931197697, 0.14466672931197697]",0.002,7,1
0,71,"[0.08197788149118423, -1.489138813023903, 0.08174401918520147, 0.0821726757236938, 0.0820087268948555, 0.08195225894451141]","[0.6998790502548218, 0.6906659603118896, 0.6915385723114014, 0.6897198557853699, 0.6979079246520996, 0.7006168365478516]","[0.14546499940630384, -1.4253313273885928, 0.14546499940630384, 0.14546499940630384, 0.14546499940630384, 0.14546499940630384]","[0.14546499940630384, -1.4253313273885928, 0.14546499940630384, 0.14546499940630384, 0.14546499940630384, 0.14546499940630384]",0.002,7,1
0,72,"[0.08333727717399597, -1.4878130045584221, 0.08311301866640264, 0.08354715883221431, 0.08342061191797256, 0.08340101689100266]","[0.6967624425888062, 0.6855242252349854, 0.6912369132041931, 0.6896419525146484, 0.6956830024719238, 0.6978830695152283]","[0.14626234992912576, -1.4245339768657708, 0.14626234992912576, 0.14626234992912576, 0.14626234992912576, 0.14626234992912576]","[0.14626234992912576, -1.4245339768657708, 0.14626234992912576, 0.14626234992912576, 0.14626234992912576, 0.14626234992912576]",0.002,7,1
0,73,"[0.0847901776432991, -1.4863838788918038, 0.08448583284486944, 0.08481626092877192, 0.08480983972549438, 0.08484950661659241]","[0.6909865736961365, 0.6839901804924011, 0.6898755431175232, 0.6875672936439514, 0.6919143199920654, 0.6948292255401611]","[0.14705877583991184, -1.4237375509549848, 0.14705877583991184, 0.14705877583991184, 0.14705877583991184, 0.14705877583991184]","[0.14705877583991184, -1.4237375509549848, 0.14705877583991184, 0.14705877583991184, 0.14705877583991184, 0.14705877583991184]",0.002,7,1
0,74,"[0.08611826598644257, -1.4850103643587609, 0.08587676683534795, 0.08616439878430171, 0.08620622754096985, 0.08622609823942184]","[0.6891922354698181, 0.6796651482582092, 0.6873839497566223, 0.6849271655082703, 0.689441442489624, 0.6891347169876099]","[0.1478542721039762, -1.4229420546909204, 0.1478542721039762, 0.1478542721039762, 0.1478542721039762, 0.1478542721039762]","[0.1478542721039762, -1.4229420546909204, 0.1478542721039762, 0.1478542721039762, 0.1478542721039762, 0.1478542721039762]",0.002,7,1
0,75,"[0.08749649673700333, -1.4836150345257302, 0.08718711534609014, 0.08741681158032222, 0.0875527411699295, 0.08766686916351318]","[0.6868096590042114, 0.6741206049919128, 0.6791123747825623, 0.6809558868408203, 0.6870806813240051, 0.685673713684082]","[0.14864883369250992, -1.4221474931023868, 0.14864883369250992, 0.14864883369250992, 0.14864883369250992, 0.14864883369250992]","[0.14864883369250992, -1.4221474931023868, 0.14864883369250992, 0.14864883369250992, 0.14864883369250992, 0.14864883369250992]",0.002,7,1
0,76,"[0.088869608938694, -1.4822358948043366, 0.08858758607973272, 0.0887959438511352, 0.08898220211267471, 0.08901228755712509]","[0.6814729571342468, 0.6714188456535339, 0.6729038953781128, 0.678939163684845, 0.683588445186615, 0.6777697801589966]","[0.1494424555826126, -1.421353871212284, 0.1494424555826126, 0.1494424555826126, 0.1494424555826126, 0.1494424555826126]","[0.1494424555826126, -1.421353871212284, 0.1494424555826126, 0.1494424555826126, 0.1494424555826126, 0.1494424555826126]",0.002,7,1
0,77,"[0.09025759249925613, -1.4808814537576218, 0.08992940584291631, 0.09014205514874263, 0.09027794003486633, 0.09041963517665863]","[0.6776750087738037, 0.6660909652709961, 0.673056960105896, 0.6793936491012573, 0.676256000995636, 0.674243688583374]","[0.1502351327573243, -1.4205611940375722, 0.1502351327573243, 0.1502351327573243, 0.1502351327573243, 0.1502351327573243]","[0.1502351327573243, -1.4205611940375722, 0.1502351327573243, 0.1502351327573243, 0.1502351327573243, 0.1502351327573243]",0.002,7,1
0,78,"[0.09155310690402985, -1.4795255449465294, 0.09127265611757451, 0.09152094900097651, 0.09170272946357727, 0.09178029745817184]","[0.6769708395004272, 0.6647787094116211, 0.6718959212303162, 0.6782969236373901, 0.6712477803230286, 0.6715530753135681]","[0.15102686020565723, -1.4197694665892393, 0.15102686020565723, 0.15102686020565723, 0.15102686020565723, 0.15102686020565723]","[0.15102686020565723, -1.4197694665892393, 0.15102686020565723, 0.15102686020565723, 0.15102686020565723, 0.15102686020565723]",0.002,7,1
0,79,"[0.09279269725084305, -1.4781144645861168, 0.09259254137148076, 0.09280888616528316, 0.09312704205513, 0.09316844493150711]","[0.6730771064758301, 0.6599211096763611, 0.6672038435935974, 0.6764440536499023, 0.6668446063995361, 0.6657810211181641]","[0.1518176329226273, -1.4189786938722693, 0.1518176329226273, 0.1518176329226273, 0.1518176329226273, 0.1518176329226273]","[0.1518176329226273, -1.4189786938722693, 0.1518176329226273, 0.1518176329226273, 0.1518176329226273, 0.1518176329226273]",0.002,7,1
0,80,"[0.09413275867700577, -1.4768510472825547, 0.09389335313905889, 0.09414784490551753, 0.09436207264661789, 0.09443919360637665]","[0.6648281812667847, 0.6539037227630615, 0.6643540859222412, 0.6707987785339355, 0.6636411547660828, 0.6619485020637512]","[0.15260744590928588, -1.4181888808856107, 0.15260744590928588, 0.15260744590928588, 0.15260744590928588, 0.15260744590928588]","[0.15260744590928588, -1.4181888808856107, 0.15260744590928588, 0.15260744590928588, 0.15260744590928588, 0.15260744590928588]",0.002,7,1
0,81,"[0.09545259177684784, -1.4755366903594513, 0.09527093568910772, 0.09547380983319087, 0.09576503932476044, 0.09570208936929703]","[0.6606801152229309, 0.6508610248565674, 0.6583576202392578, 0.667120099067688, 0.6604228019714355, 0.6577775478363037]","[0.1533962941727514, -1.4174000326221452, 0.1533962941727514, 0.1533962941727514, 0.1533962941727514, 0.1533962941727514]","[0.1533962941727514, -1.4174000326221452, 0.1533962941727514, 0.1533962941727514, 0.1533962941727514, 0.1533962941727514]",0.002,7,1
0,82,"[0.09682880342006683, -1.474181407397129, 0.09664804140199834, 0.0968664127537231, 0.09708358347415924, 0.09708364307880402]","[0.6560212969779968, 0.6522015333175659, 0.6566712260246277, 0.6579364538192749, 0.6573653221130371, 0.6514928936958313]","[0.1541841727262409, -1.4166121540686556, 0.1541841727262409, 0.1541841727262409, 0.1541841727262409, 0.1541841727262409]","[0.1541841727262409, -1.4166121540686556, 0.1541841727262409, 0.1541841727262409, 0.1541841727262409, 0.1541841727262409]",0.002,7,1
0,83,"[0.09807493537664413, -1.4728952509215851, 0.09790975252260381, 0.09822301446881099, 0.09839892387390137, 0.09828703105449677]","[0.6545017957687378, 0.6499724984169006, 0.6512386202812195, 0.6551293134689331, 0.6519144773483276, 0.6470257043838501]","[0.1549710765891015, -1.415825250205795, 0.1549710765891015, 0.1549710765891015, 0.1549710765891015, 0.1549710765891015]","[0.1549710765891015, -1.415825250205795, 0.1549710765891015, 0.1549710765891015, 0.1549710765891015, 0.1549710765891015]",0.002,7,1
0,84,"[0.09940987080335617, -1.471562997703888, 0.0992048422442835, 0.09957580148663325, 0.09961117058992386, 0.09956569224596024]","[0.6473886966705322, 0.6480490565299988, 0.6488333344459534, 0.6505511999130249, 0.6463678479194641, 0.6450070142745972]","[0.1557570007868419, -1.4150393260080547, 0.1557570007868419, 0.1557570007868419, 0.1557570007868419, 0.1557570007868419]","[0.1557570007868419, -1.4150393260080547, 0.1557570007868419, 0.1557570007868419, 0.1557570007868419, 0.1557570007868419]",0.002,7,1
0,85,"[0.10078468173742294, -1.4702325251749535, 0.10058290163149053, 0.10084061204876704, 0.10088910162448883, 0.10085966438055038]","[0.6449127793312073, 0.6445170640945435, 0.6464692950248718, 0.6450639963150024, 0.6396917700767517, 0.6403812170028687]","[0.1565419403511639, -1.4142543864437327, 0.1565419403511639, 0.1565419403511639, 0.1565419403511639, 0.1565419403511639]","[0.1565419403511639, -1.4142543864437327, 0.1565419403511639, 0.1565419403511639, 0.1565419403511639, 0.1565419403511639]",0.002,7,1
0,86,"[0.10204057395458221, -1.468920962219574, 0.10187894502748662, 0.10220293580975337, 0.10219596326351166, 0.10205747932195663]","[0.639490008354187, 0.6449346542358398, 0.6452775597572327, 0.6412352919578552, 0.6372361183166504, 0.6382210850715637]","[0.15732589031999372, -1.413470436474903, 0.15732589031999372, 0.15732589031999372, 0.15732589031999372, 0.15732589031999372]","[0.15732589031999372, -1.413470436474903, 0.15732589031999372, 0.15732589031999372, 0.15732589031999372, 0.15732589031999372]",0.002,7,1
0,87,"[0.10326965153217316, -1.4676277351430436, 0.10317451158632451, 0.1034594017216186, 0.10343910753726959, 0.10331656783819199]","[0.6356350779533386, 0.6440116167068481, 0.6386411190032959, 0.6376782655715942, 0.6335828304290771, 0.6354105472564697]","[0.15810884573751346, -1.412687481057383, 0.15810884573751346, 0.15810884573751346, 0.15810884573751346, 0.15810884573751346]","[0.15810884573751346, -1.412687481057383, 0.15810884573751346, 0.15810884573751346, 0.15810884573751346, 0.15810884573751346]",0.002,7,1
0,88,"[0.10453712940216064, -1.4664180886796494, 0.1044533888446253, 0.10479740678753657, 0.10465316474437714, 0.10460399836301804]","[0.6325360536575317, 0.6393352746963501, 0.6373147368431091, 0.6311885118484497, 0.6289525628089905, 0.63286954164505]","[0.1588908016541923, -1.4119055251407042, 0.1588908016541923, 0.1588908016541923, 0.1588908016541923, 0.1588908016541923]","[0.1588908016541923, -1.4119055251407042, 0.1588908016541923, 0.1588908016541923, 0.1588908016541923, 0.1588908016541923]",0.002,7,1
0,89,"[0.10572125017642975, -1.4651459169438859, 0.10568505922426397, 0.10603336870159907, 0.10584534704685211, 0.10582610219717026]","[0.6255975365638733, 0.6376050710678101, 0.6304341554641724, 0.6284929513931274, 0.6259142160415649, 0.630440354347229]","[0.159671753126818, -1.4111245736680786, 0.159671753126818, 0.159671753126818, 0.159671753126818, 0.159671753126818]","[0.159671753126818, -1.4111245736680786, 0.159671753126818, 0.159671753126818, 0.159671753126818, 0.159671753126818]",0.002,7,1
0,90,"[0.10698971897363663, -1.4638915371945878, 0.10699922243227178, 0.10733406125988765, 0.10712052881717682, 0.1070222407579422]","[0.62225741147995, 0.6322122812271118, 0.6270883679389954, 0.6204498410224915, 0.6208900809288025, 0.6244211196899414]","[0.16045169521852784, -1.4103446315763688, 0.16045169521852784, 0.16045169521852784, 0.16045169521852784, 0.16045169521852784]","[0.16045169521852784, -1.4103446315763688, 0.16045169521852784, 0.16045169521852784, 0.16045169521852784, 0.16045169521852784]",0.002,7,1
0,91,"[0.10821923613548279, -1.4626025942019005, 0.10824567476381475, 0.10856048643078609, 0.1083364486694336, 0.10825381428003311]","[0.6123093962669373, 0.6284444332122803, 0.6229837536811829, 0.6134362816810608, 0.6192448139190674, 0.6224340796470642]","[0.16123062299884008, -1.4095657037960565, 0.16123062299884008, 0.16123062299884008, 0.16123062299884008, 0.16123062299884008]","[0.16123062299884008, -1.4095657037960565, 0.16123062299884008, 0.16123062299884008, 0.16123062299884008, 0.16123062299884008]",0.002,7,1
0,92,"[0.10944712907075882, -1.461347111766674, 0.10943490663637334, 0.10976593076672359, 0.10953904688358307, 0.10949666798114777]","[0.6140359044075012, 0.6286638975143433, 0.6167336106300354, 0.6084825396537781, 0.6162771582603455, 0.6162782907485962]","[0.16200853154368505, -1.4087877952512116, 0.16200853154368505, 0.16200853154368505, 0.16200853154368505, 0.16200853154368505]","[0.16200853154368505, -1.4087877952512116, 0.16200853154368505, 0.16200853154368505, 0.16200853154368505, 0.16200853154368505]",0.002,7,1
0,93,"[0.11070309579372406, -1.46012086540971, 0.11066991487611944, 0.11103682100262446, 0.11074235290288925, 0.11069533973932266]","[0.6089136600494385, 0.6269985437393188, 0.6154890060424805, 0.6031842231750488, 0.6111745834350586, 0.614975094795227]","[0.16278541593543633, -1.4080109108594603, 0.16278541593543633, 0.16278541593543633, 0.16278541593543633, 0.16278541593543633]","[0.16278541593543633, -1.4080109108594603, 0.16278541593543633, 0.16278541593543633, 0.16278541593543633, 0.16278541593543633]",0.002,7,1
0,94,"[0.1118679866194725, -1.4588526052287598, 0.11189490953554326, 0.1121947008320312, 0.11198537796735764, 0.11187133938074112]","[0.603765070438385, 0.6219667792320251, 0.6124902963638306, 0.5990719795227051, 0.6069208979606628, 0.6094979643821716]","[0.1635612712629417, -1.4072350555319548, 0.1635612712629417, 0.1635612712629417, 0.1635612712629417, 0.1635612712629417]","[0.1635612712629417, -1.4072350555319548, 0.1635612712629417, 0.1635612712629417, 0.1635612712629417, 0.1635612712629417]",0.002,7,1
0,95,"[0.11301087588071823, -1.4576365438154717, 0.1131051222430628, 0.1133388715931396, 0.11316995322704315, 0.11317901313304901]","[0.5992251634597778, 0.6169745326042175, 0.6088734865188599, 0.5980917811393738, 0.6023588180541992, 0.6048950552940369]","[0.16433609262155432, -1.4064602341733423, 0.16433609262155432, 0.16433609262155432, 0.16433609262155432, 0.16433609262155432]","[0.16433609262155432, -1.4064602341733423, 0.16433609262155432, 0.16433609262155432, 0.16433609262155432, 0.16433609262155432]",0.002,7,1
0,96,"[0.11423321813344955, -1.456348517244198, 0.11429435411562139, 0.11445872365917964, 0.11438493430614471, 0.11439032852649689]","[0.5932091474533081, 0.6108531951904297, 0.603650689125061, 0.5916457772254944, 0.5995108485221863, 0.6003627777099609]","[0.1651098751131637, -1.405686451681733, 0.1651098751131637, 0.1651098751131637, 0.1651098751131637, 0.1651098751131637]","[0.1651098751131637, -1.405686451681733, 0.1651098751131637, 0.1651098751131637, 0.1651098751131637, 0.1651098751131637]",0.002,7,1
0,97,"[0.11546950787305832, -1.4551780757359047, 0.11551314989198858, 0.11555568754162593, 0.11561642587184906, 0.11552712321281433]","[0.5886986255645752, 0.6103695631027222, 0.6010844111442566, 0.5888111591339111, 0.5948019027709961, 0.59773850440979]","[0.1658826138462266, -1.40491371294867, 0.1658826138462266, 0.1658826138462266, 0.1658826138462266, 0.1658826138462266]","[0.1658826138462266, -1.40491371294867, 0.1658826138462266, 0.1658826138462266, 0.1658826138462266, 0.1658826138462266]",0.002,7,1
0,98,"[0.11666889488697052, -1.4540171188167115, 0.11669046083559209, 0.11666791021313472, 0.11670297384262085, 0.1167915016412735]","[0.5858187675476074, 0.604457437992096, 0.5957848429679871, 0.5845648646354675, 0.592155396938324, 0.591871976852417]","[0.166654303935798, -1.4041420228590986, 0.166654303935798, 0.166654303935798, 0.166654303935798, 0.166654303935798]","[0.166654303935798, -1.4041420228590986, 0.166654303935798, 0.166654303935798, 0.166654303935798, 0.166654303935798]",0.002,7,1
0,99,"[0.11775161325931549, -1.4527478751591225, 0.11793834367860967, 0.11790232240643306, 0.11799030750989914, 0.11798731982707977]","[0.5845688581466675, 0.5965239405632019, 0.5914106369018555, 0.5809143781661987, 0.5878950357437134, 0.5861676931381226]","[0.16742494050356208, -1.4033713862913344, 0.16742494050356208, 0.16742494050356208, 0.16742494050356208, 0.16742494050356208]","[0.16742494050356208, -1.4033713862913344, 0.16742494050356208, 0.16742494050356208, 0.16742494050356208, 0.16742494050356208]",0.002,7,1
0,100,"[0.11900141835212708, -1.4516275164536019, 0.11908179918398076, 0.11903779088940425, 0.11907453835010529, 0.1191592812538147]","[0.5819514989852905, 0.5876445174217224, 0.5845537185668945, 0.5803271532058716, 0.5829687714576721, 0.5800568461418152]","[0.1681945186778629, -1.4026018081170337, 0.1681945186778629, 0.1681945186778629, 0.1681945186778629, 0.1681945186778629]","[0.1681945186778629, -1.4026018081170337, 0.1681945186778629, 0.1681945186778629, 0.1681945186778629, 0.1681945186778629]",0.002,7,1
0,101,"[0.12018144875764847, -1.4503969860127945, 0.12021333376039678, 0.1201365429111938, 0.12029136717319489, 0.12035080045461655]","[0.5760816335678101, 0.5827987790107727, 0.5842549800872803, 0.5804993510246277, 0.5753805041313171, 0.5762268900871277]","[0.16896303359373518, -1.4018332932011615, 0.16896303359373518, 0.16896303359373518, 0.16896303359373518, 0.16896303359373518]","[0.16896303359373518, -1.4018332932011615, 0.16896303359373518, 0.16896303359373518, 0.16896303359373518, 0.16896303359373518]",0.002,7,1
0,102,"[0.12125124037265778, -1.4492518839291115, 0.12136441866029912, 0.12127224981274409, 0.12146908044815063, 0.12152335047721863]","[0.5730321407318115, 0.5778286457061768, 0.5773868560791016, 0.5793508291244507, 0.5714240074157715, 0.5706738829612732]","[0.16973048039293528, -1.4010658464019612, 0.16973048039293528, 0.16973048039293528, 0.16973048039293528, 0.16973048039293528]","[0.16973048039293528, -1.4010658464019612, 0.16973048039293528, 0.16973048039293528, 0.16973048039293528, 0.16973048039293528]",0.002,7,1
0,103,"[0.12240342795848846, -1.448101171558239, 0.12254506746401006, 0.12241022169079585, 0.12259489297866821, 0.12265930324792862]","[0.5708913207054138, 0.5734792947769165, 0.5740450620651245, 0.5740395188331604, 0.5690000653266907, 0.5644720792770386]","[0.17049685422397173, -1.4002994725709248, 0.17049685422397173, 0.17049685422397173, 0.17049685422397173, 0.17049685422397173]","[0.17049685422397173, -1.4002994725709248, 0.17049685422397173, 0.17049685422397173, 0.17049685422397173, 0.17049685422397173]",0.002,7,1
0,104,"[0.12347099930047989, -1.4469282937100907, 0.12357789674867803, 0.12356524049725337, 0.12373122572898865, 0.12379118800163269]","[0.5664893984794617, 0.5651676058769226, 0.569293200969696, 0.5697178840637207, 0.5635212063789368, 0.5607578754425049]","[0.17126215024213584, -1.3995341765527607, 0.17126215024213584, 0.17126215024213584, 0.17126215024213584, 0.17126215024213584]","[0.17126215024213584, -1.3995341765527607, 0.17126215024213584, 0.17126215024213584, 0.17126215024213584, 0.17126215024213584]",0.002,7,1
0,105,"[0.12456148117780685, -1.4458650437048455, 0.12482101122011358, 0.12459604322399898, 0.12490507960319519, 0.12495847046375275]","[0.562608003616333, 0.5596445202827454, 0.5626676082611084, 0.5641640424728394, 0.5591810345649719, 0.5555272102355957]","[0.1720263636095325, -1.398769963185364, 0.1720263636095325, 0.1720263636095325, 0.1720263636095325, 0.1720263636095325]","[0.1720263636095325, -1.398769963185364, 0.1720263636095325, 0.1720263636095325, 0.1720263636095325, 0.1720263636095325]",0.002,7,1
0,106,"[0.12570494413375854, -1.4447321903756638, 0.1259101072894495, 0.125729961986206, 0.12606796622276306, 0.1260361671447754]","[0.556864857673645, 0.5526347160339355, 0.5581879615783691, 0.560271143913269, 0.5528666973114014, 0.5523743629455566]","[0.1727894894951107, -1.3980068372997858, 0.1727894894951107, 0.1727894894951107, 0.1727894894951107, 0.1727894894951107]","[0.1727894894951107, -1.3980068372997858, 0.1727894894951107, 0.1727894894951107, 0.1727894894951107, 0.1727894894951107]",0.002,7,1
0,107,"[0.12683741748332977, -1.4436295342496415, 0.12697869936098272, 0.12684790670361323, 0.12713144719600677, 0.12710940837860107]","[0.5549250245094299, 0.5477690100669861, 0.5535473227500916, 0.557044506072998, 0.5492405295372009, 0.548466682434082]","[0.17355152307469404, -1.3972448037202025, 0.17355152307469404, 0.17355152307469404, 0.17355152307469404, 0.17355152307469404]","[0.17355152307469404, -1.3972448037202025, 0.17355152307469404, 0.17355152307469404, 0.17355152307469404, 0.17355152307469404]",0.002,7,1
0,108,"[0.1279337853193283, -1.442570538525917, 0.12806588808168584, 0.12799005090679927, 0.12818482518196106, 0.12820936739444733]","[0.5511773228645325, 0.5465488433837891, 0.5516598224639893, 0.5504843592643738, 0.5445885062217712, 0.5430718660354614]","[0.17431245953101113, -1.3964838672638855, 0.17431245953101113, 0.17431245953101113, 0.17431245953101113, 0.17431245953101113]","[0.17431245953101113, -1.3964838672638855, 0.17431245953101113, 0.17431245953101113, 0.17431245953101113, 0.17431245953101113]",0.002,7,1
0,109,"[0.1290547102689743, -1.4415001583150406, 0.12921077409853154, 0.12915114938702388, 0.1293090283870697, 0.12928174436092377]","[0.549180269241333, 0.5395092368125916, 0.5439068675041199, 0.5464193224906921, 0.54001384973526, 0.5371207594871521]","[0.17507229405372643, -1.3957240327411702, 0.17507229405372643, 0.17507229405372643, 0.17507229405372643, 0.17507229405372643]","[0.17507229405372643, -1.3957240327411702, 0.17507229405372643, 0.17507229405372643, 0.17507229405372643, 0.17507229405372643]",0.002,7,1
0,110,"[0.13015170395374298, -1.4404077690890809, 0.13027888933290654, 0.1302690941044311, 0.13032010197639465, 0.13035108149051666]","[0.5429062247276306, 0.5372860431671143, 0.5361502766609192, 0.5453148484230042, 0.5335424542427063, 0.5353590250015259]","[0.17583102183946997, -1.3949653049554267, 0.17583102183946997, 0.17583102183946997, 0.17583102183946997, 0.17583102183946997]","[0.17583102183946997, -1.3949653049554267, 0.17583102183946997, 0.17583102183946997, 0.17583102183946997, 0.17583102183946997]",0.002,7,1
0,111,"[0.13128721714019775, -1.4393734198859711, 0.13142806688417608, 0.13138477384533687, 0.13138623535633087, 0.13140416145324707]","[0.5366241931915283, 0.5300885438919067, 0.5328666567802429, 0.5408254861831665, 0.5304235816001892, 0.5308828949928284]","[0.17658863809186856, -1.394207688703028, 0.17658863809186856, 0.17658863809186856, 0.17658863809186856, 0.17658863809186856]","[0.17658863809186856, -1.394207688703028, 0.17658863809186856, 0.17658863809186856, 0.17658863809186856, 0.17658863809186856]",0.002,7,1
0,112,"[0.13234782218933105, -1.4382712554982682, 0.1324084440814417, 0.13243524610485835, 0.13246528804302216, 0.13246464729309082]","[0.5342724323272705, 0.5279263854026794, 0.5293399095535278, 0.534263014793396, 0.5265937447547913, 0.5287501811981201]","[0.17734513802157542, -1.3934511887733212, 0.17734513802157542, 0.17734513802157542, 0.17734513802157542, 0.17734513802157542]","[0.17734513802157542, -1.3934511887733212, 0.17734513802157542, 0.17734513802157542, 0.17734513802157542, 0.17734513802157542]",0.002,7,1
0,113,"[0.13342289626598358, -1.4373170745423813, 0.13347131410707647, 0.13346890985455317, 0.1334824115037918, 0.1334737241268158]","[0.5305864214897156, 0.5239915251731873, 0.5276520848274231, 0.5250585079193115, 0.5245046019554138, 0.5233014225959778]","[0.17810051684630074, -1.3926958099485958, 0.17810051684630074, 0.17810051684630074, 0.17810051684630074, 0.17810051684630074]","[0.17810051684630074, -1.3926958099485958, 0.17810051684630074, 0.17810051684630074, 0.17810051684630074, 0.17810051684630074]",0.002,7,1
0,114,"[0.13445830345153809, -1.4362476033023377, 0.1345456282245081, 0.13455168783154292, 0.13445621728897095, 0.13449274003505707]","[0.5270546674728394, 0.5247032046318054, 0.5211712718009949, 0.5186185836791992, 0.5209444761276245, 0.5220956802368164]","[0.17885476979084194, -1.3919415570040545, 0.17885476979084194, 0.17885476979084194, 0.17885476979084194, 0.17885476979084194]","[0.17885476979084194, -1.3919415570040545, 0.17885476979084194, 0.17885476979084194, 0.17885476979084194, 0.17885476979084194]",0.002,7,1
0,115,"[0.13549281656742096, -1.43526183188472, 0.13554221788515264, 0.1357089716145019, 0.13549770414829254, 0.13550034165382385]","[0.5220072269439697, 0.5157263875007629, 0.5153577327728271, 0.5160041451454163, 0.5175616145133972, 0.5172199010848999]","[0.17960789208711384, -1.3911884347077828, 0.17960789208711384, 0.17960789208711384, 0.17960789208711384, 0.17960789208711384]","[0.17960789208711384, -1.3911884347077828, 0.17960789208711384, 0.17960789208711384, 0.17960789208711384, 0.17960789208711384]",0.002,7,1
0,116,"[0.13653501868247986, -1.434245155458786, 0.13666993776430303, 0.13668124258007808, 0.13651978969573975, 0.13648919761180878]","[0.5153651237487793, 0.5149703621864319, 0.5107322335243225, 0.5137037038803101, 0.5124590396881104, 0.5152556300163269]","[0.18035987897417868, -1.3904364478207178, 0.18035987897417868, 0.18035987897417868, 0.18035987897417868, 0.18035987897417868]","[0.18035987897417868, -1.3904364478207178, 0.18035987897417868, 0.18035987897417868, 0.18035987897417868, 0.18035987897417868]",0.002,7,1
0,117,"[0.13759495317935944, -1.433291272526123, 0.13756925264467412, 0.13778106748547359, 0.1375921219587326, 0.137474924325943]","[0.5126820206642151, 0.5074223279953003, 0.5096265077590942, 0.5115796327590942, 0.5106306672096252, 0.5120916366577148]","[0.18111072569827633, -1.3896856010966203, 0.18111072569827633, 0.18111072569827633, 0.18111072569827633, 0.18111072569827633]","[0.18111072569827633, -1.3896856010966203, 0.18111072569827633, 0.18111072569827633, 0.18111072569827633, 0.18111072569827633]",0.002,7,1
0,118,"[0.13858847320079803, -1.4322413367084046, 0.13860112825502569, 0.1387588220783691, 0.1385105550289154, 0.13853831589221954]","[0.5071728229522705, 0.50517338514328, 0.5044061541557312, 0.5031406283378601, 0.5089758038520813, 0.5111005902290344]","[0.1818604275128543, -1.3889358992820422, 0.1818604275128543, 0.1818604275128543, 0.1818604275128543, 0.1818604275128543]","[0.1818604275128543, -1.3889358992820422, 0.1818604275128543, 0.1818604275128543, 0.1818604275128543, 0.1818604275128543]",0.002,7,1
0,119,"[0.1395695060491562, -1.4312484127334137, 0.13960820833315069, 0.13972191392864985, 0.13953052461147308, 0.13949036598205566]","[0.5044846534729004, 0.5028608441352844, 0.5027798414230347, 0.49756893515586853, 0.5047893524169922, 0.506131649017334]","[0.18260897967859785, -1.3881873471162987, 0.18260897967859785, 0.18260897967859785, 0.18260897967859785, 0.18260897967859785]","[0.18260897967859785, -1.3881873471162987, 0.18260897967859785, 0.18260897967859785, 0.18260897967859785, 0.18260897967859785]",0.002,7,1
0,120,"[0.14060261845588684, -1.430274875169136, 0.14055425325502569, 0.14079169809307857, 0.14053842425346375, 0.14054493606090546]","[0.49944791197776794, 0.4986436367034912, 0.49827057123184204, 0.495101660490036, 0.5020776391029358, 0.5035723447799683]","[0.1833563774634597, -1.3874399493314369, 0.1833563774634597, 0.1833563774634597, 0.1833563774634597, 0.1833563774634597]","[0.1833563774634597, -1.3874399493314369, 0.1833563774634597, 0.1833563774634597, 0.1833563774634597, 0.1833563774634597]",0.002,7,1
0,121,"[0.14160864055156708, -1.4293290090611954, 0.14160567918886358, 0.14176492273297114, 0.1415099948644638, 0.14150558412075043]","[0.49568232893943787, 0.4948185086250305, 0.4947774112224579, 0.4911687970161438, 0.49754416942596436, 0.49915939569473267]","[0.1841026161426903, -1.3866937106522061, 0.1841026161426903, 0.1841026161426903, 0.1841026161426903, 0.1841026161426903]","[0.1841026161426903, -1.3866937106522061, 0.1841026161426903, 0.1841026161426903, 0.1841026161426903, 0.1841026161426903]",0.002,7,1
0,122,"[0.1425328254699707, -1.428286762242653, 0.14251834550966436, 0.14270977556195064, 0.1424850970506668, 0.14249829947948456]","[0.4929245412349701, 0.49163439869880676, 0.4895693361759186, 0.48817178606987, 0.49486735463142395, 0.49589020013809204]","[0.18484769099886728, -1.3859486357960293, 0.18484769099886728, 0.18484769099886728, 0.18484769099886728, 0.18484769099886728]","[0.18484769099886728, -1.3859486357960293, 0.18484769099886728, 0.18484769099886728, 0.18484769099886728, 0.18484769099886728]",0.002,7,1
0,123,"[0.14359915256500244, -1.427369089131691, 0.14350682893861944, 0.14362697183575435, 0.1434648334980011, 0.14351263642311096]","[0.48739901185035706, 0.48861682415008545, 0.4859403073787689, 0.4824472963809967, 0.49121853709220886, 0.49168139696121216]","[0.18559159732192573, -1.3852047294729708, 0.18559159732192573, 0.18559159732192573, 0.18559159732192573, 0.18559159732192573]","[0.18559159732192573, -1.3852047294729708, 0.18559159732192573, 0.18559159732192573, 0.18559159732192573, 0.18559159732192573]",0.002,7,1
0,124,"[0.14447948336601257, -1.4263978463462372, 0.1443875471698206, 0.14455048620190425, 0.14436493813991547, 0.14442209899425507]","[0.48555871844291687, 0.48427605628967285, 0.48525840044021606, 0.47895511984825134, 0.48911425471305847, 0.4894792437553406]","[0.1863343304091875, -1.384461996385709, 0.1863343304091875, 0.1863343304091875, 0.1863343304091875, 0.1863343304091875]","[0.1863343304091875, -1.384461996385709, 0.1863343304091875, 0.1863343304091875, 0.1863343304091875, 0.1863343304091875]",0.002,7,1
0,125,"[0.14548039436340332, -1.4253559571555634, 0.1453340689288538, 0.145480676288269, 0.14538472890853882, 0.1454123556613922]","[0.4825115501880646, 0.48104846477508545, 0.4802476465702057, 0.47686970233917236, 0.48616036772727966, 0.48568907380104065]","[0.18707588556539143, -1.3837204412295052, 0.18707588556539143, 0.18707588556539143, 0.18707588556539143, 0.18707588556539143]","[0.18707588556539143, -1.3837204412295052, 0.18707588556539143, 0.18707588556539143, 0.18707588556539143, 0.18707588556539143]",0.002,7,1
0,126,"[0.1464710384607315, -1.4244746577790757, 0.1462944189654749, 0.14636401712384028, 0.14632534980773926, 0.14640633761882782]","[0.4786950647830963, 0.47762733697891235, 0.4787781238555908, 0.4744536578655243, 0.4833117425441742, 0.4824046194553375]","[0.18781625810272246, -1.382980068692174, 0.18781625810272246, 0.18781625810272246, 0.18781625810272246, 0.18781625810272246]","[0.18781625810272246, -1.382980068692174, 0.18781625810272246, 0.18781625810272246, 0.18781625810272246, 0.18781625810272246]",0.002,7,1
0,127,"[0.14740566909313202, -1.423448161487915, 0.1472709814654749, 0.1473901706882934, 0.1473478078842163, 0.1473289132118225]","[0.4752752184867859, 0.4742068648338318, 0.4760187268257141, 0.4735824167728424, 0.47890132665634155, 0.4780203700065613]","[0.18855544334084182, -1.3822408834540547, 0.18855544334084182, 0.18855544334084182, 0.18855544334084182, 0.18855544334084182]","[0.18855544334084182, -1.3822408834540547, 0.18855544334084182, 0.18855544334084182, 0.18855544334084182, 0.18855544334084182]",0.002,7,1
0,128,"[0.14835187792778015, -1.4225807052901764, 0.14819652238954717, 0.1482822138020019, 0.1483411192893982, 0.1483282446861267]","[0.47377151250839233, 0.46948662400245667, 0.4719795882701874, 0.4724174439907074, 0.47565868496894836, 0.4750978350639343]","[0.1892934366069163, -1.3815028901879802, 0.1892934366069163, 0.1892934366069163, 0.1892934366069163, 0.1892934366069163]","[0.1892934366069163, -1.3815028901879802, 0.1892934366069163, 0.1892934366069163, 0.1892934366069163, 0.1892934366069163]",0.002,7,1
0,129,"[0.14927425980567932, -1.421616570358612, 0.14917308488954717, 0.14913873254742427, 0.14921844005584717, 0.1493467390537262]","[0.4695203900337219, 0.4653978943824768, 0.46520906686782837, 0.4711182117462158, 0.4714924395084381, 0.4718238413333893]","[0.19003023323564783, -1.3807660935592487, 0.19003023323564783, 0.19003023323564783, 0.19003023323564783, 0.19003023323564783]","[0.19003023323564783, -1.3807660935592487, 0.19003023323564783, 0.19003023323564783, 0.19003023323564783, 0.19003023323564783]",0.002,7,1
0,130,"[0.15024861693382263, -1.4207042020610352, 0.15006715456117803, 0.15007464467968745, 0.15022306144237518, 0.15026608109474182]","[0.46588194370269775, 0.4609447419643402, 0.4637789726257324, 0.46945202350616455, 0.46892717480659485, 0.46774089336395264]","[0.19076582856930302, -1.3800304982255935, 0.19076582856930302, 0.19076582856930302, 0.19076582856930302, 0.19076582856930302]","[0.19076582856930302, -1.3800304982255935, 0.19076582856930302, 0.19076582856930302, 0.19076582856930302, 0.19076582856930302]",0.002,7,1
0,131,"[0.15110111236572266, -1.419778437619545, 0.15098792711366826, 0.15101043760266109, 0.1510874330997467, 0.1511949747800827]","[0.4628719389438629, 0.45998528599739075, 0.4617846608161926, 0.46708816289901733, 0.4668111205101013, 0.46208655834198]","[0.19150021795774258, -1.379296108837154, 0.19150021795774258, 0.19150021795774258, 0.19150021795774258, 0.19150021795774258]","[0.19150021795774258, -1.379296108837154, 0.19150021795774258, 0.19150021795774258, 0.19150021795774258, 0.19150021795774258]",0.002,7,1
0,132,"[0.15212112665176392, -1.4187921446612854, 0.15190345445741826, 0.15188340723004146, 0.1521180272102356, 0.1521572470664978]","[0.46073514223098755, 0.45494526624679565, 0.46086716651916504, 0.46459338068962097, 0.46173396706581116, 0.4588932693004608]","[0.19223339675845078, -1.3785629300364457, 0.19223339675845078, 0.19223339675845078, 0.19223339675845078, 0.19223339675845078]","[0.19223339675845078, -1.3785629300364457, 0.19223339675845078, 0.19223339675845078, 0.19223339675845078, 0.19223339675845078]",0.002,7,1
0,133,"[0.1530037224292755, -1.4178616267493744, 0.152839485798971, 0.1528267103382568, 0.15301115810871124, 0.15308260917663574]","[0.4580661654472351, 0.4535253942012787, 0.4591706395149231, 0.4620610177516937, 0.4586738049983978, 0.45667749643325806]","[0.19296536033656458, -1.377830966458332, 0.19296536033656458, 0.19296536033656458, 0.19296536033656458, 0.19296536033656458]","[0.19296536033656458, -1.377830966458332, 0.19296536033656458, 0.19296536033656458, 0.19296536033656458, 0.19296536033656458]",0.002,7,1
0,134,"[0.15381278097629547, -1.416942836051323, 0.15374356905092412, 0.15377144395794673, 0.15390677750110626, 0.15402843058109283]","[0.4556516408920288, 0.4516787827014923, 0.45428335666656494, 0.462179958820343, 0.453938364982605, 0.4545131325721741]","[0.19369610406490334, -1.377100222729993, 0.19369610406490334, 0.19369610406490334, 0.19369610406490334, 0.19369610406490334]","[0.19369610406490334, -1.377100222729993, 0.19369610406490334, 0.19369610406490334, 0.19369610406490334, 0.19369610406490334]",0.002,7,1
0,135,"[0.15476445853710175, -1.4160270255855103, 0.15469676653017217, 0.1546516853519897, 0.15484897792339325, 0.15492931008338928]","[0.4527035653591156, 0.44677865505218506, 0.45379889011383057, 0.4603877663612366, 0.44985881447792053, 0.44874486327171326]","[0.19442562332399757, -1.376370703470899, 0.19442562332399757, 0.19442562332399757, 0.19442562332399757, 0.19442562332399757]","[0.19442562332399757, -1.376370703470899, 0.19442562332399757, 0.19442562332399757, 0.19442562332399757, 0.19442562332399757]",0.002,7,1
0,136,"[0.1556064784526825, -1.4151572448066254, 0.15567142168153936, 0.15548352777447505, 0.15572984516620636, 0.15582402050495148]","[0.44830361008644104, 0.4447583556175232, 0.44882500171661377, 0.4557991027832031, 0.4475667476654053, 0.4459078907966614]","[0.1951539135021186, -1.375642413292778, 0.1951539135021186, 0.1951539135021186, 0.1951539135021186, 0.1951539135021186]","[0.1951539135021186, -1.375642413292778, 0.1951539135021186, 0.1951539135021186, 0.1951539135021186, 0.1951539135021186]",0.002,7,1
0,137,"[0.15652327239513397, -1.4142642629197617, 0.1564562956439417, 0.15641216814007564, 0.15665794909000397, 0.15667438507080078]","[0.44677427411079407, 0.44199228286743164, 0.44693925976753235, 0.45202985405921936, 0.44450676441192627, 0.44274619221687317]","[0.19588096999530732, -1.3749153567995893, 0.19588096999530732, 0.19588096999530732, 0.19588096999530732, 0.19588096999530732]","[0.19588096999530732, -1.3749153567995893, 0.19588096999530732, 0.19588096999530732, 0.19588096999530732, 0.19588096999530732]",0.002,7,1
0,138,"[0.15741612017154694, -1.4133564096740265, 0.15734798112978154, 0.1573595243641357, 0.15760330855846405, 0.15758827328681946]","[0.4443845748901367, 0.4426337480545044, 0.44354674220085144, 0.4499819278717041, 0.44276273250579834, 0.4396623373031616]","[0.19660678820740363, -1.374189538587493, 0.19660678820740363, 0.19660678820740363, 0.19660678820740363, 0.19660678820740363]","[0.19660678820740363, -1.374189538587493, 0.19660678820740363, 0.19660678820740363, 0.19660678820740363, 0.19660678820740363]",0.002,7,1
0,139,"[0.15825121104717255, -1.412488431935646, 0.15829927126039678, 0.15825359403576655, 0.15844318270683289, 0.1585010439157486]","[0.44350406527519226, 0.4398782253265381, 0.44132938981056213, 0.44433677196502686, 0.43854084610939026, 0.4366437792778015]","[0.19733136355007524, -1.3734649632448213, 0.19733136355007524, 0.19733136355007524, 0.19733136355007524, 0.19733136355007524]","[0.19733136355007524, -1.3734649632448213, 0.19733136355007524, 0.19733136355007524, 0.19733136355007524, 0.19733136355007524]",0.002,7,1
0,140,"[0.15916800498962402, -1.4115905177644272, 0.15920001665224248, 0.1591474252888183, 0.15930071473121643, 0.15934239327907562]","[0.43929746747016907, 0.43569043278694153, 0.4392901360988617, 0.44399604201316833, 0.43418964743614197, 0.4332467019557953]","[0.19805469144284696, -1.3727416353520496, 0.19805469144284696, 0.19805469144284696, 0.19805469144284696, 0.19805469144284696]","[0.19805469144284696, -1.3727416353520496, 0.19805469144284696, 0.19805469144284696, 0.19805469144284696, 0.19805469144284696]",0.002,7,1
0,141,"[0.1600819081068039, -1.410709948544838, 0.1600568930255335, 0.16010765611614985, 0.16019481420516968, 0.1602233499288559]","[0.43484118580818176, 0.4376468360424042, 0.4348609149456024, 0.44174861907958984, 0.4320669174194336, 0.4309081733226776]","[0.19877676731312927, -1.3720195594817672, 0.19877676731312927, 0.19877676731312927, 0.19877676731312927, 0.19877676731312927]","[0.19877676731312927, -1.3720195594817672, 0.19877676731312927, 0.19877676731312927, 0.19877676731312927, 0.19877676731312927]",0.002,7,1
0,142,"[0.16094617545604706, -1.409882904296257, 0.1609252134906214, 0.16090492784466548, 0.16105057299137115, 0.1610766053199768]","[0.43509435653686523, 0.4332408308982849, 0.434249609708786, 0.4386304020881653, 0.4303279519081116, 0.42798271775245667]","[0.19949758659624753, -1.371298740198649, 0.19949758659624753, 0.19949758659624753, 0.19949758659624753, 0.19949758659624753]","[0.19949758659624753, -1.371298740198649, 0.19949758659624753, 0.19949758659624753, 0.19949758659624753, 0.19949758659624753]",0.002,7,1
0,143,"[0.16182264685630798, -1.408998654489853, 0.16188317934145147, 0.16184930383648677, 0.1618804782629013, 0.16191880404949188]","[0.43067046999931335, 0.43320977687835693, 0.4333653151988983, 0.43217581510543823, 0.42592766880989075, 0.4273454248905182]","[0.20021714473547073, -1.3705791820594257, 0.20021714473547073, 0.20021714473547073, 0.20021714473547073, 0.20021714473547073]","[0.20021714473547073, -1.3705791820594257, 0.20021714473547073, 0.20021714473547073, 0.20021714473547073, 0.20021714473547073]",0.002,7,1
0,144,"[0.16269774734973907, -1.4081289631179352, 0.16272145906557256, 0.16270439207043452, 0.16274558007717133, 0.16273075342178345]","[0.427327036857605, 0.43010470271110535, 0.4305569529533386, 0.42715775966644287, 0.4249715209007263, 0.4229542911052704]","[0.20093543718204032, -1.3698608896128563, 0.20093543718204032, 0.20093543718204032, 0.20093543718204032, 0.20093543718204032]","[0.20093543718204032, -1.3698608896128563, 0.20093543718204032, 0.20093543718204032, 0.20093543718204032, 0.20093543718204032]",0.002,7,1
0,145,"[0.16352544724941254, -1.4072963309339066, 0.16363078752626592, 0.16360501825299067, 0.1636396199464798, 0.16358989477157593]","[0.425537645816803, 0.4306388199329376, 0.42861834168434143, 0.42310819029808044, 0.42254653573036194, 0.42073556780815125]","[0.20165245939519896, -1.3691438673996976, 0.20165245939519896, 0.20165245939519896, 0.20165245939519896, 0.20165245939519896]","[0.20165245939519896, -1.3691438673996976, 0.20165245939519896, 0.20165245939519896, 0.20165245939519896, 0.20165245939519896]",0.002,7,1
0,146,"[0.1643860936164856, -1.4064636540463944, 0.16442901292909795, 0.16443590700115962, 0.1644105613231659, 0.16440825164318085]","[0.42396873235702515, 0.4275922179222107, 0.42372190952301025, 0.42147642374038696, 0.4195793569087982, 0.41973596811294556]","[0.2023682068422192, -1.3684281199526773, 0.2023682068422192, 0.2023682068422192, 0.2023682068422192, 0.2023682068422192]","[0.2023682068422192, -1.3684281199526773, 0.2023682068422192, 0.2023682068422192, 0.2023682068422192, 0.2023682068422192]",0.002,7,1
0,147,"[0.16518108546733856, -1.4055371892503281, 0.16526538530458623, 0.16529838621105952, 0.16519814729690552, 0.1652497500181198]","[0.42115798592567444, 0.4258618950843811, 0.4220174551010132, 0.42018377780914307, 0.4176863133907318, 0.4180793762207031]","[0.2030826749984321, -1.3677136517964645, 0.2030826749984321, 0.2030826749984321, 0.2030826749984321, 0.2030826749984321]","[0.2030826749984321, -1.3677136517964645, 0.2030826749984321, 0.2030826749984321, 0.2030826749984321, 0.2030826749984321]",0.002,7,1
0,148,"[0.16598016023635864, -1.4047168356231232, 0.16608935991396123, 0.16613440095867915, 0.16611342132091522, 0.16600535809993744]","[0.4170376658439636, 0.4245879650115967, 0.4230555295944214, 0.4175606071949005, 0.4143485724925995, 0.41802820563316345]","[0.20379585934725608, -1.3670004674476406, 0.20379585934725608, 0.20379585934725608, 0.20379585934725608, 0.20379585934725608]","[0.20379585934725608, -1.3670004674476406, 0.20379585934725608, 0.20379585934725608, 0.20379585934725608, 0.20379585934725608]",0.002,7,1
0,149,"[0.1668083816766739, -1.4038834136775513, 0.16698724428285772, 0.16700343667950435, 0.16686025261878967, 0.16683240234851837]","[0.41489115357398987, 0.4217067062854767, 0.41702696681022644, 0.4148294925689697, 0.41396358609199524, 0.41536226868629456]","[0.20450775538022495, -1.3662885714146715, 0.20450775538022495, 0.20450775538022495, 0.20450775538022495, 0.20450775538022495]","[0.20450775538022495, -1.3662885714146715, 0.20450775538022495, 0.20450775538022495, 0.20450775538022495, 0.20450775538022495]",0.002,7,1
0,150,"[0.16764120757579803, -1.4030948889306565, 0.16772920290102178, 0.1678507763096313, 0.1676865965127945, 0.1676696240901947]","[0.41298437118530273, 0.4215560853481293, 0.413714200258255, 0.40966707468032837, 0.41422370076179504, 0.4142591655254364]","[0.20521835859701704, -1.3655779681978795, 0.20521835859701704, 0.20521835859701704, 0.20521835859701704, 0.20521835859701704]","[0.20521835859701704, -1.3655779681978795, 0.20521835859701704, 0.20521835859701704, 0.20521835859701704, 0.20521835859701704]",0.002,7,1
0,151,"[0.16847404837608337, -1.4022496205619355, 0.16858274141420537, 0.16867785036053462, 0.1684664934873581, 0.16839373111724854]","[0.41022953391075134, 0.41548123955726624, 0.41294053196907043, 0.40597468614578247, 0.4114587903022766, 0.41289281845092773]","[0.20592766450548317, -1.3648686622894135, 0.20592766450548317, 0.20592766450548317, 0.20592766450548317, 0.20592766450548317]","[0.20592766450548317, -1.3648686622894135, 0.20592766450548317, 0.20592766450548317, 0.20592766450548317, 0.20592766450548317]",0.002,7,1
0,152,"[0.169314906001091, -1.4014760714820405, 0.16943723360170537, 0.16951160013165278, 0.16932807862758636, 0.1692604422569275]","[0.40886691212654114, 0.4127751588821411, 0.408616840839386, 0.402949720621109, 0.40996214747428894, 0.4109964668750763]","[0.20663566862167526, -1.3641606581732213, 0.20663566862167526, 0.20663566862167526, 0.20663566862167526, 0.20663566862167526]","[0.20663566862167526, -1.3641606581732213, 0.20663566862167526, 0.20663566862167526, 0.20663566862167526, 0.20663566862167526]",0.002,7,1
0,153,"[0.1701614409685135, -1.4006849539330979, 0.1701911131488245, 0.17031602441754146, 0.17011961340904236, 0.17003662884235382]","[0.4058171510696411, 0.4100472331047058, 0.4078807532787323, 0.40087923407554626, 0.40753427147865295, 0.4115692675113678]","[0.20734236646987475, -1.3634539603250218, 0.20734236646987475, 0.20734236646987475, 0.20734236646987475, 0.20734236646987475]","[0.20734236646987475, -1.3634539603250218, 0.20734236646987475, 0.20734236646987475, 0.20734236646987475, 0.20734236646987475]",0.002,7,1
0,154,"[0.17095144093036652, -1.3998845380595704, 0.17102033296693975, 0.17109803735699458, 0.17088401317596436, 0.17077717185020447]","[0.4038793742656708, 0.408413827419281, 0.404894083738327, 0.3994709849357605, 0.40420782566070557, 0.40916892886161804]","[0.20804775358262065, -1.362748573212276, 0.20804775358262065, 0.20804775358262065, 0.20804775358262065, 0.20804775358262065]","[0.20804775358262065, -1.362748573212276, 0.20804775358262065, 0.20804775358262065, 0.20804775358262065, 0.20804775358262065]",0.002,7,1
