Arnibjarnst/BoxLift/logs/ur_rtde/trajectory_dur=5.0_delay=0.0_gain=100_lh=0.1_real.csv
arm_idx,step,actual_q,actual_qd,target_q,expected_q,loop_time,robot_mode,safety_mode
0,-1,"[-0.027189556752340138, -1.5979839764037074, -0.027203688398003578, -0.027206258182861376, -0.027216259633199513, -0.02721578279604131]","[0.0361839160323143, 0.035712018609046936, 0.03666359558701515, 0.03668586164712906, 0.035828959196805954, 0.03586655855178833]","[0.0, -1.5707963267948966, 0.0, 0.0, 0.0, 0.0]","[0.0, -1.5707963267948966, 0.0, 0.0, 0.0, 0.0]",0.002,7,1
0,-1,"[-0.02646810213197881, -1.5971752605833949, -0.026415353640913963, -0.026548699741699266, -0.02653056779970342, -0.026547733937398732]","[0.050528351217508316, 0.052274543792009354, 0.0509301982820034, 0.05173812061548233, 0.05265258625149727, 0.05044528841972351]","[0.0, -1.5707963267948966, 0.0, 0.0, 0.0, 0.0]","[0.0, -1.5707963267948966, 0.0, 0.0, 0.0, 0.0]",0.002,7,1
0,-1,"[-0.025693718587056935, -1.5963283977904261, -0.025655601173639297, -0.025697306995727587, -0.025691811238424123, -0.025720898305074513]","[0.06561966985464096, 0.0658176988363266, 0.0629468634724617, 0.0676989033818245, 0.06882933527231216, 0.0669076070189476]","[0.0, -1.5707963267948966, 0.0, 0.0, 0.0, 0.0]","[0.0, -1.5707963267948966, 0.0, 0.0, 0.0, 0.0]",0.002,7,1
0,-1,"[-0.024468247090474904, -1.5951734981932582, -0.024511579424142838, -0.024432496433593798, -0.024465862904683888, -0.024492565785543263]","[0.08437056839466095, 0.08007204532623291, 0.08138201385736465, 0.08305734395980835, 0.08449731022119522, 0.08653334528207779]","[0.0, -1.5707963267948966, 0.0, 0.0, 0.0, 0.0]","[0.0, -1.5707963267948966, 0.0, 0.0, 0.0, 0.0]",0.002,7,1
0,-1,"[-0.022933785115377248, -1.59376921276235, -0.02301746793091297, -0.022906379108764696, -0.022973362599508107, -0.022994343434469044]","[0.0986858382821083, 0.09521526098251343, 0.096567802131176, 0.09859367460012436, 0.09813942015171051, 0.10057615488767624]","[0.0, -1.5707963267948966, 0.0, 0.0, 0.0, 0.0]","[0.0, -1.5707963267948966, 0.0, 0.0, 0.0, 0.0]",0.002,7,1
0,-1,"[-0.021976296101705373, -1.5927063427367152, -0.02197122946381569, -0.02186496675524907, -0.0219348112689417, -0.021933857594625294]","[0.106322281062603, 0.10732906311750412, 0.10645689815282822, 0.10737302154302597, 0.10858761519193649, 0.10992196202278137]","[0.0, -1.5707963267948966, 0.0, 0.0, 0.0, 0.0]","[0.0, -1.5707963267948966, 0.0, 0.0, 0.0, 0.0]",0.002,7,1
0,-1,"[-0.020801846181051076, -1.5915328464903773, -0.020773185417056084, -0.02072806776080327, -0.02073556581606084, -0.02081185976137334]","[0.11756937205791473, 0.11814086884260178, 0.1194441169500351, 0.11584459245204926, 0.11902625858783722, 0.12282238155603409]","[0.0, -1.5707963267948966, 0.0, 0.0, 0.0, 0.0]","[0.0, -1.5707963267948966, 0.0, 0.0, 0.0, 0.0]",0.002,7,1
0,-1,"[-0.019764248524801076, -1.5906063518919886, -0.01984834112226963, -0.019725994472839403, -0.0197528044330042, -0.01977092424501592]","[0.1277027726173401, 0.12623251974582672, 0.12533923983573914, 0.12464474141597748, 0.1280525177717209, 0.12922368943691254]","[0.0, -1.5707963267948966, 0.0, 0.0, 0.0, 0.0]","[0.0, -1.5707963267948966, 0.0, 0.0, 0.0, 0.0]",0.002,7,1
0,-1,"[-0.018187824879781544, -1.5889936886229457, -0.018252775073051453, -0.018102959995605516, -0.018277470265523732, -0.018236939107076466]","[0.13828925788402557, 0.1389734297990799, 0.13711176812648773, 0.13552416861057281, 0.13869601488113403, 0.1393813192844391]","[0.0, -1.5707963267948966, 0.0, 0.0, 0.0, 0.0]","[0.0, -1.5707963267948966, 0.0, 0.0, 0.0, 0.0]",0.002,7,1
0,-1,"[-0.016439263020650685, -1.5872913799681605, -0.016502998769283295, -0.016411976223327684, -0.016485039387838185, -0.016410175954000294]","[0.1513001173734665, 0.15313170850276947, 0.1496390849351883, 0.1480463445186615, 0.15117521584033966, 0.1507912576198578]","[0.0, -1.5707963267948966, 0.0, 0.0, 0.0, 0.0]","[0.0, -1.5707963267948966, 0.0, 0.0, 0.0, 0.0]",0.002,7,1
0,-1,"[-0.013575379048482716, -1.5844222507872523, -0.013650184497237206, -0.013549045925476122, -0.01365214983095342, -0.013537232075826466]","[0.16996809840202332, 0.1641196459531784, 0.1683051735162735, 0.16550114750862122, 0.1671610027551651, 0.16704779863357544]","[0.0, -1.5707963267948966, 0.0, 0.0, 0.0, 0.0]","[0.0, -1.5707963267948966, 0.0, 0.0, 0.0, 0.0]",0.002,7,1
0,-1,"[-0.010811630879537404, -1.5817104778685511, -0.010908064432442188, -0.010860876446106005, -0.01080638567079717, -0.0107653776751917]","[0.1435360163450241, 0.1628333330154419, 0.1535407155752182, 0.14469145238399506, 0.14939625561237335, 0.14639581739902496]","[0.0, -1.5707963267948966, 0.0, 0.0, 0.0, 0.0]","[0.0, -1.5707963267948966, 0.0, 0.0, 0.0, 0.0]",0.002,7,1
0,-1,"[-0.007108036671773732, -1.577940126458639, -0.00727873295545578, -0.0072245162776489735, -0.007081333790914357, -0.007023159657613576]","[0.11975613236427307, 0.12148647755384445, 0.11972589045763016, 0.12385601550340652, 0.11962258070707321, 0.11802171915769577]","[0.0, -1.5707963267948966, 0.0, 0.0, 0.0, 0.0]","[0.0, -1.5707963267948966, 0.0, 0.0, 0.0, 0.0]",0.002,7,1
0,-1,"[-0.005544964467183888, -1.5763985119261683, -0.005676316097378731, -0.00559432924304204, -0.005428616200582326, -0.005495850239888966]","[0.10613155364990234, 0.10523893684148788, 0.10791482031345367, 0.10874246060848236, 0.1068064272403717, 0.10468348115682602]","[0.0, -1.5707963267948966, 0.0, 0.0, 0.0, 0.0]","[0.0, -1.5707963267948966, 0.0, 0.0, 0.0, 0.0]",0.002,7,1
0,-1,"[-0.004411045704976857, -1.5751415691771449, -0.004480451811105013, -0.004392103557922411, -0.004337612782613576, -0.004258457814351857]","[0.09173864126205444, 0.09325685352087021, 0.0960427075624466, 0.09440553933382034, 0.09211595356464386, 0.09006810188293457]","[0.0, -1.5707963267948966, 0.0, 0.0, 0.0, 0.0]","[0.0, -1.5707963267948966, 0.0, 0.0, 0.0, 0.0]",0.002,7,1
0,-1,"[-0.0029872099505823257, -1.5737058124937953, -0.003055477747693658, -0.003063039188720751, -0.0029671827899377945, -0.002957169209615529]","[0.07859683781862259, 0.07987014949321747, 0.08112060278654099, 0.07916982471942902, 0.07846851646900177, 0.07569151371717453]","[0.0, -1.5707963267948966, 0.0, 0.0, 0.0, 0.0]","[0.0, -1.5707963267948966, 0.0, 0.0, 0.0, 0.0]",0.002,7,1
0,-1,"[-0.0025027433978479507, -1.5730778179564417, -0.0023936110083013773, -0.002432898884155321, -0.0023711363421838882, -0.002327744160787404]","[0.07162299752235413, 0.07017864286899567, 0.0761050134897232, 0.07188479602336884, 0.07093912363052368, 0.06969902664422989]","[0.0, -1.5707963267948966, 0.0, 0.0, 0.0, 0.0]","[0.0, -1.5707963267948966, 0.0, 0.0, 0.0, 0.0]",0.002,7,1
0,-1,"[-0.0018428007708948257, -1.5724626980223597, -0.0017809867858886719, -0.0017548364451904774, -0.001710240040914357, -0.0017340818988245132]","[0.06252270191907883, 0.05977652221918106, 0.06243058294057846, 0.06101171672344208, 0.0581764355301857, 0.058102644979953766]","[0.0, -1.5707963267948966, 0.0, 0.0, 0.0, 0.0]","[0.0, -1.5707963267948966, 0.0, 0.0, 0.0, 0.0]",0.002,7,1
0,-1,"[-0.0011795202838342789, -1.5718237362303675, -0.0011036933865398169, -0.0011521142772217274, -0.001069370900289357, -0.0011270681964319351]","[0.050167690962553024, 0.0494622103869915, 0.0503215454518795, 0.04907916858792305, 0.046904388815164566, 0.04645051434636116]","[0.0, -1.5707963267948966, 0.0, 0.0, 0.0, 0.0]","[0.0, -1.5707963267948966, 0.0, 0.0, 0.0, 0.0]",0.002,7,1
0,-1,"[-0.00048524538149052887, -1.5711175403990687, -0.00038615171797573566, -0.00040872514758305556, -0.00040084520448857575, -0.00041467348207646637]","[0.030734052881598473, 0.02987559325993061, 0.03148145228624344, 0.031078491359949112, 0.03012048453092575, 0.029232922941446304]","[0.0, -1.5707963267948966, 0.0, 0.0, 0.0, 0.0]","[0.0, -1.5707963267948966, 0.0, 0.0, 0.0, 0.0]",0.002,7,1
0,-1,"[-0.00014001527895146637, -1.5708533726134242, -7.931899017421529e-05, -0.00011761606250004775, -0.00016194978822881012, -0.00011665025819951325]","[0.016689447686076164, 0.014408948831260204, 0.016940653324127197, 0.01652873121201992, 0.015479608438909054, 0.014934146776795387]","[0.0, -1.5707963267948966, 0.0, 0.0, 0.0, 0.0]","[0.0, -1.5707963267948966, 0.0, 0.0, 0.0, 0.0]",0.002,7,1
0,-1,"[-5.7522450582325746e-05, -1.5708276234068812, 1.0315571920216371e-05, -7.183969531254775e-05, -6.276765932256012e-05, -5.6568776265919496e-05]","[-0.006074847187846899, -0.0058930120430886745, -0.006670300383120775, -0.005915217567235231, -0.007678773254156113, -0.005584033206105232]","[0.0, -1.5707963267948966, 0.0, 0.0, 0.0, 0.0]","[0.0, -1.5707963267948966, 0.0, 0.0, 0.0, 0.0]",0.002,7,1
0,-1,"[-2.4143849508106996e-05, -1.5708080730833949, -5.9983016399201006e-05, -0.00010211885485844618, -9.900728334599762e-05, -3.8448964254200746e-05]","[-5.164088601183892e-10, -0.009221663698554039, -0.002174683380872011, -5.4278673569663205e-12, -0.00015275663463398814, -0.0002006430586334318]","[0.0, -1.5707963267948966, 0.0, 0.0, 0.0, 0.0]","[0.0, -1.5707963267948966, 0.0, 0.0, 0.0, 0.0]",0.002,7,1
0,-1,"[-1.985231508427887e-05, -1.570878644982809, -9.27348155528307e-05, -7.6608066894579e-05, -5.8476124898731996e-05, -5.6568776265919496e-05]","[-4.0403562299247694e-23, -0.0035650674253702164, -0.0007283286540769041, 0.0008491189801134169, -7.26866873981824e-12, -5.6346172641497105e-05]","[0.0, -1.5707963267948966, 0.0, 0.0, 0.0, 0.0]","[0.0, -1.5707963267948966, 0.0, 0.0, 0.0, 0.0]",0.002,7,1
0,-1,"[-2.748170961552887e-05, -1.570841451684469, -6.889653013786301e-05, -6.850183520512587e-05, -7.325807680302887e-05, -3.987947572881012e-05]","[0.0, -0.00021776430367026478, -0.0002825846604537219, 0.000809007731731981, 0.000903270673006773, -1.8587160338785674e-20]","[0.0, -1.5707963267948966, 0.0, 0.0, 0.0, 0.0]","[0.0, -1.5707963267948966, 0.0, 0.0, 0.0, 0.0]",0.002,7,1
0,-1,"[-1.985231508427887e-05, -1.570834299127096, 1.9375477926075746e-05, -2.367914233403212e-05, -4.116688863575746e-06, -6.896654237920075e-05]","[0.0, -0.00011005884152837098, -0.0002079538389807567, 0.0005641529569402337, 0.00105077656917274, 0.00046465962077490985]","[0.0, -1.5707963267948966, 0.0, 0.0, 0.0, 0.0]","[0.0, -1.5707963267948966, 0.0, 0.0, 0.0, 0.0]",0.002,7,1
0,-1,"[-4.5124684469044496e-05, -1.570803781548971, -3.910064697265625e-05, -2.9997234680223528e-05, -1.2699757711231996e-05, -4.178682436162262e-05]","[7.139403169276193e-05, -6.500910239992663e-05, -0.0001332057436229661, 0.0005789925344288349, 0.0005389688303694129, 0.000608334259595722]","[0.0, -1.5707963267948966, 0.0, 0.0, 0.0, 0.0]","[0.0, -1.5707963267948966, 0.0, 0.0, 0.0, 0.0]",0.002,7,1
0,-1,"[-2.8912221090138246e-05, -1.5708533726134242, -1.397967935190536e-06, -1.4619236328172747e-05, -8.408223287403871e-06, -1.3653432027638246e-05]","[0.0002753947919700295, -7.417645247187465e-05, -0.00011603233724599704, 0.0004025511152576655, 0.0007891839486546814, 0.0006787402089685202]","[0.0, -1.5707963267948966, 0.0, 0.0, 0.0, 0.0]","[0.0, -1.5707963267948966, 0.0, 0.0, 0.0, 0.0]",0.002,7,1
0,-1,"[-6.181398500615387e-05, -1.570845743218893, -1.8266253391630016e-05, -2.820909533696181e-05, -1.0792409078419496e-05, -7.468858827763825e-05]","[0.00030909921042621136, -5.2276365750003606e-05, -9.953389235306531e-05, 0.0002532591170165688, 0.0004278666456229985, 0.0003876269329339266]","[0.0, -1.5707963267948966, 0.0, 0.0, 0.0, 0.0]","[0.0, -1.5707963267948966, 0.0, 0.0, 0.0, 0.0]",0.002,7,1
0,-1,"[-1.699129213506012e-05, -1.5708428821959437, -7.482751971110702e-05, -7.228260376024309e-06, -2.652803529912262e-05, -2.843538393193512e-05]","[0.00025064978399313986, 2.7670548661262728e-05, -8.962159336078912e-05, 0.00019230577163398266, 0.0002693105780053884, 0.0003096099535468966]","[0.0, -1.5707963267948966, 0.0, 0.0, 0.0, 0.0]","[0.0, -1.5707963267948966, 0.0, 0.0, 0.0, 0.0]",0.002,7,1
0,-1,"[-5.7522450582325746e-05, -1.570834299127096, -1.480859373259591e-05, -3.27390483398915e-05, -8.804002870732575e-05, -5.3707753316700746e-05]","[0.00023453726316802204, 6.26154724159278e-05, -2.444917663524393e-05, 0.00014562834985554218, 0.00018314161570742726, 0.00022043741773813963]","[0.0, -1.5707963267948966, 0.0, 0.0, 0.0, 0.0]","[0.0, -1.5707963267948966, 0.0, 0.0, 0.0, 0.0]",0.002,7,1
0,-1,"[-3.797212709599762e-05, -1.570850511590475, -1.4790803106734529e-05, -4.656732592778212e-05, -6.372133363896637e-05, 4.76837158203125e-06]","[0.0007725644973106682, 5.564753519138321e-05, -2.1785785065731034e-05, 0.00013671406486537308, 0.00016769229841884226, 0.00020283227786421776]","[0.0, -1.5707963267948966, 0.0, 0.0, 0.0, 0.0]","[0.0, -1.5707963267948966, 0.0, 0.0, 0.0, 0.0]",0.002,7,1
0,-1,"[7.1015356297721155e-06, -1.57086243251943, -3.163513611070812e-05, 2.785319946241316e-06, 2.7502059310791083e-05, -2.271333803349762e-05]","[0.000189300742931664, 3.264886624942953e-11, -8.633791584770033e-15, 0.00010663169814506546, 0.0001433997822459787, 0.0001779346348484978]","[0.0, -1.5707963267948966, 0.0, 0.0, 0.0, 0.0]","[0.0, -1.5707963267948966, 0.0, 0.0, 0.0, 0.0]",0.002,7,1
0,-1,"[-3.0199159795074593e-07, -1.5708309612669886, -4.6512977860402316e-05, 1.661359753413194e-05, -3.892580141240387e-05, 4.083340900251642e-05]","[-1.5415210340846697e-12, 3.4270968099118446e-26, -9.062747728907489e-30, 9.391506318934262e-05, 0.0001148359733633697, 0.00014083618589211255]","[0.0, -1.5707963267948966, 0.0, 0.0, 0.0, 0.0]","[0.0, -1.5707963267948966, 0.0, 0.0, 0.0, 0.0]",0.002,7,1
0,-1,"[-3.320375551396637e-05, -1.5708757839598597, -8.387228444917127e-05, -1.9149189331102434e-05, -2.652803529912262e-05, -2.080598940068512e-05]","[-2.1709017633923853e-29, 0.00014678831212222576, -0.0, 8.280610927613452e-05, 0.00011206299677724019, 0.0001330720551777631]","[0.0, -1.5707963267948966, 0.0, 0.0, 0.0, 0.0]","[0.0, -1.5707963267948966, 0.0, 0.0, 0.0, 0.0]",0.002,7,1
0,-1,"[-1.6514454976856996e-05, -1.570867200891012, -2.2643818738288246e-05, -3.7269001342821184e-05, 1.8358230590820312e-05, -2.9865895406544496e-05]","[0.0, 3.958351929653908e-13, -0.0, 6.993690476519987e-05, 8.683602209202945e-05, 0.00011737281602108851]","[0.0, -1.5707963267948966, 0.0, 0.0, 0.0, 0.0]","[0.0, -1.5707963267948966, 0.0, 0.0, 0.0, 0.0]",0.002,7,1
0,-1,"[3.814697265625e-06, -1.5708548031248988, -4.357063880888745e-05, -2.820909533696181e-05, 4.38690185546875e-05, 7.943086529849097e-06]","[0.0, 3.0969933418902457e-26, -0.0, 1.3769695019621997e-12, 7.80503178248182e-05, 0.00010535091132624075]","[0.0, -1.5707963267948966, 0.0, 0.0, 0.0, 0.0]","[0.0, -1.5707963267948966, 0.0, 0.0, 0.0, 0.0]",0.002,7,1
0,-1,"[-1.6514454976856996e-05, -1.5708476505675257, -6.747794395778328e-05, -4.2037372924852434e-05, 3.478833968983963e-05, 7.946252480905969e-06]","[0.0, 1.806067785692372e-37, -0.0, 1.0668880544185478e-19, 7.18210794730112e-05, 9.684835094958544e-05]","[0.0, -1.5707963267948966, 0.0, 0.0, 0.0, 0.0]","[0.0, -1.5707963267948966, 0.0, 0.0, 0.0, 0.0]",0.002,7,1
0,-1,"[-2.4143849508106996e-05, -1.5708462200560511, -5.868435437150765e-06, -3.7269001342821184e-05, 1.1089558029198088e-05, -1.794496645146637e-05]","[0.0, 0.0006001052679494023, -0.0, 2.300968877949289e-30, 6.4143052441068e-05, 8.638948202133179e-05]","[0.0, -1.5707963267948966, 0.0, 0.0, 0.0, 0.0]","[0.0, -1.5707963267948966, 0.0, 0.0, 0.0, 0.0]",0.002,7,1
0,-1,"[-2.557436098271637e-05, -1.5708805523314417, -3.160831329296343e-05, 1.661359753413194e-05, 4.3950494728051126e-05, -3.892580141240387e-05]","[0.0, 1.1169889830853208e-06, -0.0, 0.0, 3.9014683139975553e-14, 7.953056073949083e-13]","[0.0, -1.5707963267948966, 0.0, 0.0, 0.0, 0.0]","[0.0, -1.5707963267948966, 0.0, 0.0, 0.0, 0.0]",0.002,7,1
0,-1,"[-4.655519594365387e-05, -1.5708261928954066, -5.5500877351732925e-05, -7.228260376024309e-06, 4.832116246689111e-05, -1.3653432027638246e-05]","[0.0, 2.110433416761951e-25, -0.0, 0.0, 5.493962609843845e-26, 1.119931923468816e-24]","[0.0, -1.5707963267948966, 0.0, 0.0, 0.0, 0.0]","[0.0, -1.5707963267948966, 0.0, 0.0, 0.0, 0.0]",0.002,7,1
0,-1,"[-2.557436098271637e-05, -1.5708476505675257, -6.446833140216768e-05, 3.366052593989366e-05, 3.358221147209406e-05, 5.75255871808622e-05]","[0.0, 1.2307379755995068e-36, 5.4559397540288046e-05, 0.0, 4.2567710402007015e-33, 8.67733237757231e-32]","[0.0, -1.5707963267948966, 0.0, 0.0, 0.0, 0.0]","[0.0, -1.5707963267948966, 0.0, 0.0, 0.0, 0.0]",0.002,7,1
0,-1,"[3.245961488573812e-05, -1.5707860926616668, -5.903963938180823e-06, 5.464136090083116e-05, 1.9460499061096925e-06, -3.4634266988575746e-05]","[0.0, 2.532671715016477e-06, 4.740154690807685e-05, 0.0, 5.051368474333421e-39, 1.0297100969304394e-37]","[0.0, -1.5707963267948966, 0.0, 0.0, 0.0, 0.0]","[0.0, -1.5707963267948966, 0.0, 0.0, 0.0, 0.0]",0.002,7,1
0,-1,"[-9.361897603810121e-06, -1.5708009205260218, -5.901223630644381e-06, -9.016399719286028e-06, -1.0792409078419496e-05, -4.655519594365387e-05]","[0.0, 6.725363346049562e-05, 5.900265387026593e-05, 0.0, 0.0, 8.407790785948902e-45]","[0.0, -1.5707963267948966, 0.0, 0.0, 0.0, 0.0]","[0.0, -1.5707963267948966, 0.0, 0.0, 0.0, 0.0]",0.002,7,1
0,-1,"[-3.320375551396637e-05, -1.5708142719664515, -1.460491148463916e-06, 2.9130572936963972e-05, 1.837615855038166e-05, 3.621578071033582e-05]","[0.0, 5.360651994124055e-05, 5.296874951454811e-05, 0.0, 0.0, 0.0]","[0.0, -1.5707963267948966, 0.0, 0.0, 0.0, 0.0]","[0.0, -1.5707963267948966, 0.0, 0.0, 0.0, 0.0]",0.002,7,1
0,-1,"[-2.557436098271637e-05, -1.5708686314024867, -2.7188658350496553e-05, 4.2720431945753035e-05, 4.66823585156817e-05, -8.885060445606996e-06]","[0.0, 4.665867891162634e-05, 4.823725248570554e-05, 0.0, 0.0, 0.0]","[0.0, -1.5707963267948966, 0.0, 0.0, 0.0, 0.0]","[0.0, -1.5707963267948966, 0.0, 0.0, 0.0, 0.0]",0.002,7,1
0,-1,"[-3.0199159795074593e-07, -1.570812841454977, -3.910064697265625e-05, -2.081811938481337e-05, 1.5605448425048962e-05, -2.557436098271637e-05]","[0.0, 1.8916309272754006e-05, -6.526612528232018e-17, 2.4168065823355206e-14, 0.0, 0.0]","[0.0, -1.5707963267948966, 0.0, 0.0, 0.0, 0.0]","[0.0, -1.5707963267948966, 0.0, 0.0, 0.0, 0.0]",0.002,7,1
0,-1,"[-6.276765932256012e-05, -1.5708352528014125, -3.4666059946175665e-05, -1.1758213378953997e-05, 5.291506749927066e-05, 7.906534847279545e-06]","[0.0, 3.174028097419068e-05, -9.191337265873319e-34, 5.212351099593522e-25, 0.0, 0.0]","[0.0, -1.5707963267948966, 0.0, 0.0, 0.0, 0.0]","[0.0, -1.5707963267948966, 0.0, 0.0, 0.0, 0.0]",0.002,7,1
0,-1,"[-3.0199159795074593e-07, -1.5707725414088891, -7.34143250156194e-05, 2.114355053706163e-05, 3.4761429560603574e-05, 4.836844891542569e-05]","[0.0, 4.246760727255605e-05, -0.0, 2.63690180487218e-33, 0.0, 0.0]","[0.0, -1.5707963267948966, 0.0, 0.0, 0.0, 0.0]","[0.0, -1.5707963267948966, 0.0, 0.0, 0.0, 0.0]",0.002,7,1
0,-1,"[1.1625467777776066e-05, -1.5708848438658656, -0.00010073357407236472, 2.114355053706163e-05, -1.7468129293263246e-05, -1.794496645146637e-05]","[0.0, 3.937139263143763e-05, -0.0, 3.1291246942096744e-39, 0.0, 0.0]","[0.0, -1.5707963267948966, 0.0, 0.0, 0.0, 0.0]","[0.0, -1.5707963267948966, 0.0, 0.0, 0.0, 0.0]",0.002,7,1
0,-1,"[2.7909496566280723e-05, -1.5707980595030726, -9.313849659520201e-06, -9.016399719286028e-06, -2.4143849508106996e-05, 1.52587890625e-05]","[0.0, 3.252432361477986e-05, -0.0, 0.0, 0.0, 0.0]","[0.0, -1.5707963267948966, 0.0, 0.0, 0.0, 0.0]","[0.0, -1.5707963267948966, 0.0, 0.0, 0.0, 0.0]",0.002,7,1
0,1,"[2.051193587249145e-05, -1.5708219013609828, -6.436082912841812e-05, -1.6288166381883684e-05, 6.41865563011379e-06, -8.885060445606996e-06]","[0.0, 1.2440748832887039e-05, -0.0, 0.0, 0.0, 0.0]","[0.0008776483039858048, -1.5699186784909107, 0.0008776483039858048, 0.0008776483039858048, 0.0008776483039858048, 0.0008776483039858048]","[0.0008776483039858048, -1.5699186784909107, 0.0008776483039858048, 0.0008776483039858048, 0.0008776483039858048, 0.0008776483039858048]",0.002,7,1
0,2,"[-3.7495289937794496e-05, -1.5707886976054688, -9.278099241782911e-06, -4.367237426805559e-06, 3.0243301807786338e-05, -2.9865895406544496e-05]","[0.0, 2.4047483748290688e-05, -0.0, 0.0, 0.0, 0.0]","[0.001755291059830304, -1.5690410357350661, 0.001755291059830304, 0.001755291059830304, 0.001755291059830304, 0.001755291059830304]","[0.001755291059830304, -1.5690410357350661, 0.001755291059830304, 0.001755291059830304, 0.001755291059830304, 0.001755291059830304]",0.002,7,1
0,3,"[-6.753603090459137e-05, -1.5707975826659144, -8.527502359356731e-05, 1.661359753413194e-05, -3.5587941304981996e-05, 2.894837234634906e-05]","[0.0, 0.00012515262642409652, -0.0, 0.0, 0.0, 0.0]","[0.0026329227194272654, -1.5681634040754693, 0.0026329227194272654, 0.0026329227194272654, 0.0026329227194272654, 0.0026329227194272654]","[0.0026329227194272654, -1.5681634040754693, 0.0026329227194272654, 0.0026329227194272654, 0.0026329227194272654, 0.0026329227194272654]",0.002,7,1
0,4,"[1.1536120837263297e-05, -1.5708233318724574, 6.024037496388246e-06, 1.3752574584913191e-05, 1.5581130355712958e-05, 2.7179718017578125e-05]","[0.0, 0.002765509532764554, 0.002129219938069582, 0.0, 0.0, 1.1707738849509042e-06]","[0.003510537734740602, -1.567285789060156, 0.003510537734740602, 0.003510537734740602, 0.003510537734740602, 0.003510537734740602]","[0.003510537734740602, -1.567285789060156, 0.003510537734740602, 0.003510537734740602, 0.003510537734740602, 0.003510537734740602]",0.002,7,1
0,5,"[-5.5615101949513246e-05, -1.5707975826659144, 0.0, 2.9130572936963972e-05, 3.924369957530871e-05, 1.52587890625e-05]","[0.002279764274135232, 0.0019399031298235059, 0.0019136805785819888, 0.0017021059757098556, 0.004056356381624937, 0.0006724877748638391]","[0.004388130557839446, -1.566408196237057, 0.004388130557839446, 0.004388130557839446, 0.004388130557839446, 0.004388130557839446]","[0.004388130557839446, -1.566408196237057, 0.004388130557839446, 0.004388130557839446, 0.004388130557839446, 0.004388130557839446]",0.002,7,1
0,6,"[2.6226043701171875e-06, -1.570762170562677, 2.7004872457325746e-05, 4.832326855463975e-05, -2.209340230763246e-06, 1.976489875232801e-05]","[0.004083473701030016, 0.006949952337890863, 0.004052764270454645, 0.00529705174267292, 0.00632302463054657, 0.00411596754565835]","[0.00526569564093322, -1.5655306311539634, 0.00526569564093322, 0.00526569564093322, 0.00526569564093322, 0.00526569564093322]","[0.00526569564093322, -1.5655306311539634, 0.00526569564093322, 0.00526569564093322, 0.00526569564093322, 0.00526569564093322]",0.002,7,1
0,7,"[2.6226043701171875e-06, -1.5708276234068812, 5.418459047490387e-05, -1.7446330566883717e-06, 2.287980169057846e-05, 4.846548836212605e-05]","[0.004050783812999725, 0.008517944253981113, 0.006441308185458183, 0.006111661903560162, 0.006447300314903259, 0.006564301438629627]","[0.006143227436406706, -1.56465309935849, 0.006143227436406706, 0.006143227436406706, 0.006143227436406706, 0.006143227436406706]","[0.006143227436406706, -1.56465309935849, 0.006143227436406706, 0.006143227436406706, 0.006143227436406706, 0.006143227436406706]",0.002,7,1
0,8,"[-5.5615101949513246e-05, -1.5707740377241244, -2.8519987154140836e-06, 2.7342433593702253e-05, 7.5334552093409e-05, 4.395961877889931e-05]","[0.00425858236849308, 0.006933161988854408, 0.005943876691162586, 0.004726878833025694, 0.006277773529291153, 0.006776977796107531]","[0.007020720396855121, -1.5637756063980415, 0.007020720396855121, 0.007020720396855121, 0.007020720396855121, 0.007020720396855121]","[0.007020720396855121, -1.5637756063980415, 0.007020720396855121, 0.007020720396855121, 0.007020720396855121, 0.007020720396855121]",0.002,7,1
0,9,"[6.397318793460727e-05, -1.5707426177544512, -1.1876069947902579e-05, 5.571424450678819e-05, 3.3950709621421993e-07, 7.224990986287594e-05]","[0.005535938311368227, 0.007595252711325884, 0.006487365812063217, 0.005007297266274691, 0.0073102121241390705, 0.00648557860404253]","[0.007898168975119177, -1.5628981578197774, 0.007898168975119177, 0.007898168975119177, 0.007898168975119177, 0.007898168975119177]","[0.007898168975119177, -1.5628981578197774, 0.007898168975119177, 0.007898168975119177, 0.007898168975119177, 0.007898168975119177]",0.002,7,1
0,10,"[6.246566772460938e-05, -1.570750049475766, -4.177348455414176e-05, 9.31459614257335e-05, 5.892821718589403e-05, 6.318092346191406e-05]","[0.008239250630140305, 0.01150092389434576, 0.009069650433957577, 0.008450198918581009, 0.009243937209248543, 0.00868227519094944]","[0.008775567624320156, -1.5620207591705764, 0.008775567624320156, 0.008775567624320156, 0.008775567624320156, 0.008775567624320156]","[0.008775567624320156, -1.5620207591705764, 0.008775567624320156, 0.008775567624320156, 0.008775567624320156, 0.008775567624320156]",0.002,7,1
0,11,"[5.79423904127907e-05, -1.5707185195463644, 5.704561342412262e-05, 0.00013856470074458116, 0.00015205764793790877, 7.049345731502399e-05]","[0.009777079336345196, 0.013884412124752998, 0.012442843988537788, 0.012331853620707989, 0.012250512838363647, 0.011585934087634087]","[0.00965291079789497, -1.5611434159970017, 0.00965291079789497, 0.00965291079789497, 0.00965291079789497, 0.00965291079789497]","[0.00965291079789497, -1.5611434159970017, 0.00965291079789497, 0.00965291079789497, 0.00965291079789497, 0.00965291079789497]",0.002,7,1
0,12,"[6.68197390041314e-05, -1.5707111015402297, 8.088747133427887e-05, 0.00011698781933588975, 0.00015204869851004332, 0.0001351741375401616]","[0.011259062215685844, 0.015903612598776817, 0.014808333478868008, 0.01504223607480526, 0.014189519919455051, 0.015069101005792618]","[0.010530192949631223, -1.5602661338452652, 0.010530192949631223, 0.010530192949631223, 0.010530192949631223, 0.010530192949631223]","[0.010530192949631223, -1.5602661338452652, 0.010530192949631223, 0.010530192949631223, 0.010530192949631223, 0.010530192949631223]",0.002,7,1
0,13,"[0.0001688741467660293, -1.5706826013377686, 9.709993471318512e-05, 0.00016514837231440538, 0.000192630774108693, 0.00014710426330566406]","[0.01341899111866951, 0.018084470182657242, 0.018599150702357292, 0.017289122566580772, 0.016661083325743675, 0.017986176535487175]","[0.011407408533702281, -1.5593889182611942, 0.011407408533702281, 0.011407408533702281, 0.011407408533702281, 0.011407408533702281]","[0.011407408533702281, -1.5593889182611942, 0.011407408533702281, 0.011407408533702281, 0.011407408533702281, 0.011407408533702281]",0.002,7,1
0,14,"[0.0001301407755818218, -1.570613501859345, 0.00015718141664677887, 0.00022785245861811632, 0.00019860267639160156, 0.00019955348398070782]","[0.01576794683933258, 0.021690145134925842, 0.020773660391569138, 0.019804159179329872, 0.019651373848319054, 0.019761359319090843]","[0.012284552004702319, -1.5585117747901942, 0.012284552004702319, 0.012284552004702319, 0.012284552004702319, 0.012284552004702319]","[0.012284552004702319, -1.5585117747901942, 0.012284552004702319, 0.012284552004702319, 0.012284552004702319, 0.012284552004702319]",0.002,7,1
0,15,"[0.0001871075655799359, -1.5706150990484566, 0.000207249318258107, 0.00029437124218745225, 0.00021786046272609383, 0.0002684774808585644]","[0.018215207383036613, 0.022894110530614853, 0.023148030042648315, 0.02132841944694519, 0.021029973402619362, 0.02204187773168087]","[0.01316161781768138, -1.5576347089772151, 0.01316161781768138, 0.01316161781768138, 0.01316161781768138, 0.01316161781768138]","[0.01316161781768138, -1.5576347089772151, 0.01316161781768138, 0.01316161781768138, 0.01316161781768138, 0.01316161781768138]",0.002,7,1
0,16,"[0.000214031693758443, -1.5705866468964196, 0.000226322804586232, 0.00032798826184077257, 0.0002754275919869542, 0.00025494248257018626]","[0.01981550082564354, 0.023599375039339066, 0.024317985400557518, 0.022280341014266014, 0.02215651422739029, 0.02215154841542244]","[0.01403860042818044, -1.556757726366716, 0.01403860042818044, 0.01403860042818044, 0.01403860042818044, 0.01403860042818044]","[0.01403860042818044, -1.556757726366716, 0.01403860042818044, 0.01403860042818044, 0.01403860042818044, 0.01403860042818044]",0.002,7,1
0,17,"[0.00027548943762667477, -1.57051761195574, 0.0002611319171350601, 0.00036184370007319444, 0.0003490998933557421, 0.00036183474003337324]","[0.022322621196508408, 0.024798093363642693, 0.02594546601176262, 0.022808870300650597, 0.020355980843305588, 0.021971456706523895]","[0.014915494292266438, -1.55588083250263, 0.014915494292266438, 0.014915494292266438, 0.014915494292266438, 0.014915494292266438]","[0.014915494292266438, -1.55588083250263, 0.014915494292266438, 0.014915494292266438, 0.014915494292266438, 0.014915494292266438]",0.002,7,1
0,18,"[0.00034006190253421664, -1.5704981130296183, 0.00030166307558232575, 0.0003556448170165538, 0.00042735590250231326, 0.00040509761311113834]","[0.02226356416940689, 0.026331502944231033, 0.028087317943572998, 0.023989250883460045, 0.02135704830288887, 0.02203778550028801]","[0.015792293866567334, -1.5550040329283292, 0.015792293866567334, 0.015792293866567334, 0.015792293866567334, 0.015792293866567334]","[0.015792293866567334, -1.5550040329283292, 0.015792293866567334, 0.015792293866567334, 0.015792293866567334, 0.015792293866567334]",0.002,7,1
0,19,"[0.00041338062146678567, -1.5704172564477012, 0.0003736654864709976, 0.00036756574597163194, 0.0003819522971753031, 0.00040828154305927455]","[0.02641291357576847, 0.027162641286849976, 0.029826244339346886, 0.024308498948812485, 0.02283225953578949, 0.022387657314538956]","[0.01666899360830715, -1.5541273331865895, 0.01666899360830715, 0.01666899360830715, 0.01666899360830715, 0.01666899360830715]","[0.01666899360830715, -1.5541273331865895, 0.01666899360830715, 0.01666899360830715, 0.01666899360830715, 0.01666899360830715]",0.002,7,1
0,20,"[0.0004644774307962507, -1.5703736614126065, 0.00044280687441045075, 0.0005150276371459483, 0.00045565987238660455, 0.0004981288220733404]","[0.02978684939444065, 0.029389893636107445, 0.03115531988441944, 0.025010107085108757, 0.024888619780540466, 0.024554863572120667]","[0.017545587975341018, -1.5532507388195556, 0.017545587975341018, 0.017545587975341018, 0.017545587975341018, 0.017545587975341018]","[0.017545587975341018, -1.5532507388195556, 0.017545587975341018, 0.017545587975341018, 0.017545587975341018, 0.017545587975341018]",0.002,7,1
0,21,"[0.0005366434925235808, -1.5703135019324073, 0.0005224386798303726, 0.0004922586628417491, 0.0005411090678535402, 0.0004949569702148438]","[0.030475538223981857, 0.0321289487183094, 0.03270773962140083, 0.02657705917954445, 0.02699103206396103, 0.027370672672986984]","[0.018422071426190196, -1.5523742553687063, 0.018422071426190196, 0.018422071426190196, 0.018422071426190196, 0.018422071426190196]","[0.018422071426190196, -1.5523742553687063, 0.018422071426190196, 0.018422071426190196, 0.018422071426190196, 0.018422071426190196]",0.002,7,1
0,22,"[0.0005844287807121873, -1.570286588077881, 0.0006783644305627945, 0.0005399423786620616, 0.0006478614523075521, 0.0005548000335693359]","[0.03218429163098335, 0.03472524881362915, 0.03537335619330406, 0.02877255529165268, 0.029217982664704323, 0.029257481917738914]","[0.019298438420077113, -1.5514978883748194, 0.019298438420077113, 0.019298438420077113, 0.019298438420077113, 0.019298438420077113]","[0.019298438420077113, -1.5514978883748194, 0.019298438420077113, 0.019298438420077113, 0.019298438420077113, 0.019298438420077113]",0.002,7,1
0,23,"[0.0005650497623719275, -1.5702009319541794, 0.0006545225726526382, 0.0005954939075927257, 0.0006735210190527141, 0.000643461593426764]","[0.03420892730355263, 0.03828001022338867, 0.038024984300136566, 0.03134094923734665, 0.03200933337211609, 0.031470149755477905]","[0.020174683416960392, -1.550621643377936, 0.020174683416960392, 0.020174683416960392, 0.020174683416960392, 0.020174683416960392]","[0.020174683416960392, -1.550621643377936, 0.020174683416960392, 0.020174683416960392, 0.020174683416960392, 0.020174683416960392]",0.002,7,1
0,24,"[0.0007450571283698082, -1.5701336567620565, 0.0007713476764124039, 0.0006840664097289562, 0.0006794839282520115, 0.0007365295896306634]","[0.0388386994600296, 0.04041065648198128, 0.03983181342482567, 0.03497905656695366, 0.034698236733675, 0.03566199168562889]","[0.021050800877569876, -1.5497455259173267, 0.021050800877569876, 0.021050800877569876, 0.021050800877569876, 0.021050800877569876]","[0.021050800877569876, -1.5497455259173267, 0.021050800877569876, 0.021050800877569876, 0.021050800877569876, 0.021050800877569876]",0.002,7,1
0,25,"[0.0008214162080548704, -1.5700676841409695, 0.0008433500873010757, 0.0007907587238769054, 0.0007650317857041955, 0.0007936565671116114]","[0.041525982320308685, 0.04334042966365814, 0.04389490932226181, 0.039253540337085724, 0.0367962121963501, 0.03841479867696762]","[0.021926785263441637, -1.5488695415314548, 0.021926785263441637, 0.021926785263441637, 0.021926785263441637, 0.021926785263441637]","[0.021926785263441637, -1.5488695415314548, 0.021926785263441637, 0.021926785263441637, 0.021926785263441637, 0.021926785263441637]",0.002,7,1
0,26,"[0.0008876495412550867, -1.5699011637810436, 0.0008991400348108414, 0.0008864837833861827, 0.000864637375343591, 0.000851621909532696]","[0.044422853738069534, 0.04806359112262726, 0.04707998037338257, 0.04153144359588623, 0.039702050387859344, 0.03887537121772766]","[0.022802631036952997, -1.5479936957579437, 0.022802631036952997, 0.022802631036952997, 0.022802631036952997, 0.022802631036952997]","[0.022802631036952997, -1.5479936957579437, 0.022802631036952997, 0.022802631036952997, 0.022802631036952997, 0.022802631036952997]",0.002,7,1
0,27,"[0.0009266138076782227, -1.5698005800698702, 0.0009987990008752945, 0.0009296375462035655, 0.000945604348089546, 0.0009404134470969439]","[0.046913158148527145, 0.04848897084593773, 0.04866107925772667, 0.042067211121320724, 0.0431506521999836, 0.042099129408597946]","[0.023678332661357517, -1.5471179941335391, 0.023678332661357517, 0.023678332661357517, 0.023678332661357517, 0.023678332661357517]","[0.023678332661357517, -1.5471179941335391, 0.023678332661357517, 0.023678332661357517, 0.023678332661357517, 0.023678332661357517]",0.002,7,1
0,28,"[0.0010690679773688316, -1.569678863077872, 0.0011575857745569351, 0.001061840648315382, 0.0010416869772598147, 0.0010574620682746172]","[0.049944136291742325, 0.052267976105213165, 0.053423188626766205, 0.045928794890642166, 0.046330682933330536, 0.04694047197699547]","[0.024553884600820034, -1.5462424421940766, 0.024553884600820034, 0.024553884600820034, 0.024553884600820034, 0.024553884600820034]","[0.024553884600820034, -1.5462424421940766, 0.024553884600820034, 0.024553884600820034, 0.024553884600820034, 0.024553884600820034]",0.002,7,1
0,29,"[0.0011904999846592546, -1.5696130731706326, 0.0012729803668420914, 0.0011253791996459483, 0.001158983213827014, 0.0011411384912207723]","[0.052736587822437286, 0.05635556951165199, 0.05534246191382408, 0.049109142273664474, 0.05040447413921356, 0.05020289495587349]","[0.025429281320451615, -1.545367045474445, 0.025429281320451615, 0.025429281320451615, 0.025429281320451615, 0.025429281320451615]","[0.025429281320451615, -1.545367045474445, 0.025429281320451615, 0.025429281320451615, 0.025429281320451615, 0.025429281320451615]",0.002,7,1
0,30,"[0.0012608905090019107, -1.5694886573222284, 0.0013597647296350601, 0.0012703376957396983, 0.001234001130796969, 0.0012493530521169305]","[0.05629482492804527, 0.06237464398145676, 0.0575188510119915, 0.054585736244916916, 0.05394911393523216, 0.05331338569521904]","[0.02630451728634456, -1.544491809508552, 0.02630451728634456, 0.02630451728634456, 0.02630451728634456, 0.02630451728634456]","[0.02630451728634456, -1.544491809508552, 0.02630451728634456, 0.02630451728634456, 0.02630451728634456, 0.02630451728634456]",0.002,7,1
0,31,"[0.001372056663967669, -1.5694271725700055, 0.0014308134662073257, 0.001420899028442335, 0.0013178522931411862, 0.0013570730807259679]","[0.05915823578834534, 0.060626909136772156, 0.06177710369229317, 0.05666395649313927, 0.05724858120083809, 0.0571807436645031]","[0.027179586965607412, -1.543616739829289, 0.027179586965607412, 0.027179586965607412, 0.027179586965607412, 0.027179586965607412]","[0.027179586965607412, -1.543616739829289, 0.027179586965607412, 0.027179586965607412, 0.027179586965607412, 0.027179586965607412]",0.002,7,1
0,32,"[0.0015041045844554901, -1.5692109702252601, 0.0015748182879846695, 0.0014983850666503429, 0.0014955406077206135, 0.001489361748099327]","[0.06346996128559113, 0.06734785437583923, 0.06688565760850906, 0.05936356633901596, 0.060797952115535736, 0.06167587265372276]","[0.02805448482639989, -1.5427418419684966, 0.02805448482639989, 0.02805448482639989, 0.02805448482639989, 0.02805448482639989]","[0.02805448482639989, -1.5427418419684966, 0.02805448482639989, 0.02805448482639989, 0.02805448482639989, 0.02805448482639989]",0.002,7,1
0,33,"[0.0016854628920555115, -1.5691333006000896, 0.0017440954791467789, 0.001641674632690382, 0.0016231004847213626, 0.0015881607541814446]","[0.06719488650560379, 0.07143218070268631, 0.06661219894886017, 0.06365691125392914, 0.06414669007062912, 0.06487204134464264]","[0.028929205337967896, -1.5418671214569286, 0.028929205337967896, 0.028929205337967896, 0.028929205337967896, 0.028929205337967896]","[0.028929205337967896, -1.5418671214569286, 0.028929205337967896, 0.028929205337967896, 0.028929205337967896, 0.028929205337967896]",0.002,7,1
0,34,"[0.0017725129146128893, -1.568951516678073, 0.0019066969500940445, 0.0017358499714354991, 0.0017615623073652387, 0.001733340322971344]","[0.07019636780023575, 0.07524561136960983, 0.07274986058473587, 0.06748765707015991, 0.06948920339345932, 0.07078944891691208]","[0.029803742970678452, -1.540992583824218, 0.029803742970678452, 0.029803742970678452, 0.029803742970678452, 0.029803742970678452]","[0.029803742970678452, -1.540992583824218, 0.029803742970678452, 0.029803742970678452, 0.029803742970678452, 0.029803742970678452]",0.002,7,1
0,35,"[0.0019122023368254304, -1.5688166085495432, 0.002049271260396779, 0.0019264656254271983, 0.0019250755431130528, 0.0018640197813510895]","[0.07413829863071442, 0.07869288325309753, 0.07554977387189865, 0.07149603217840195, 0.07037988305091858, 0.07085873186588287]","[0.03067809219605467, -1.5401182345988418, 0.03067809219605467, 0.03067809219605467, 0.03067809219605467, 0.03067809219605467]","[0.03067809219605467, -1.5401182345988418, 0.03067809219605467, 0.03067809219605467, 0.03067809219605467, 0.03067809219605467]",0.002,7,1
0,36,"[0.002092208480462432, -1.5686397462016721, 0.002202335988179982, 0.0020251709171752452, 0.0020528885070234537, 0.0020319120958447456]","[0.07701767235994339, 0.08147218078374863, 0.07880451530218124, 0.07457255572080612, 0.07397761195898056, 0.0753302276134491]","[0.0315522474868107, -1.539244079308086, 0.0315522474868107, 0.0315522474868107, 0.0315522474868107, 0.0315522474868107]","[0.0315522474868107, -1.539244079308086, 0.0315522474868107, 0.0315522474868107, 0.0315522474868107, 0.0315522474868107]",0.002,7,1
0,37,"[0.0022735223174095154, -1.5684417938212682, 0.0023539702044885757, 0.002223773593566847, 0.0022095164749771357, 0.0022013916168361902]","[0.08215264976024628, 0.08502298593521118, 0.0822557583451271, 0.0784684494137764, 0.08156164735555649, 0.08068124204874039]","[0.03242620331688668, -1.5383701234780098, 0.03242620331688668, 0.03242620331688668, 0.03242620331688668, 0.03242620331688668]","[0.03242620331688668, -1.5383701234780098, 0.03242620331688668, 0.03242620331688668, 0.03242620331688668, 0.03242620331688668]",0.002,7,1
0,38,"[0.0024593595881015062, -1.5682962003960093, 0.0025356451617639664, 0.0023824411579589366, 0.0023986168671399355, 0.002362046157941222]","[0.08398186415433884, 0.08915086090564728, 0.08596935868263245, 0.08311211317777634, 0.08292859047651291, 0.08266127109527588]","[0.033299954161483625, -1.537496372633413, 0.033299954161483625, 0.033299954161483625, 0.033299954161483625, 0.033299954161483625]","[0.033299954161483625, -1.537496372633413, 0.033299954161483625, 0.033299954161483625, 0.033299954161483625, 0.033299954161483625]",0.002,7,1
0,39,"[0.0025765353348106146, -1.568119123145454, 0.0026782194720667007, 0.00253097593273921, 0.0025129204150289297, 0.0025748733896762133]","[0.08803357928991318, 0.09235112369060516, 0.08971676975488663, 0.08733469992876053, 0.08751041442155838, 0.08709444105625153]","[0.03417349449709842, -1.5366228322977982, 0.03417349449709842, 0.03417349449709842, 0.03417349449709842, 0.03417349449709842]","[0.03417349449709842, -1.5366228322977982, 0.03417349449709842, 0.03417349449709842, 0.03417349449709842, 0.03417349449709842]",0.002,7,1
0,40,"[0.0028598702047020197, -1.5679317154320707, 0.0028875509845178726, 0.0027182537266234874, 0.002776107983663678, 0.002714402275159955]","[0.09656178206205368, 0.09872539341449738, 0.09354665130376816, 0.09182782471179962, 0.09226754307746887, 0.09141961485147476]","[0.03504681880155869, -1.5357495079933379, 0.03504681880155869, 0.03504681880155869, 0.03504681880155869, 0.03504681880155869]","[0.03504681880155869, -1.5357495079933379, 0.03504681880155869, 0.03504681880155869, 0.03504681880155869, 0.03504681880155869]",0.002,7,1
0,41,"[0.003035334637388587, -1.5677137880450864, 0.0031078497516077164, 0.0029426056095580577, 0.0028975585009902716, 0.002922798041254282]","[0.09765028208494186, 0.09851635992527008, 0.09887769818305969, 0.09620504081249237, 0.09662455320358276, 0.09572190791368484]","[0.035919921554057724, -1.5348764052408388, 0.035919921554057724, 0.035919921554057724, 0.035919921554057724, 0.035919921554057724]","[0.035919921554057724, -1.5348764052408388, 0.035919921554057724, 0.035919921554057724, 0.035919921554057724, 0.035919921554057724]",0.002,7,1
0,42,"[0.0031943870708346367, -1.5675147897894313, 0.003358189259664357, 0.0031520563312987804, 0.003148656338453293, 0.0031056106090545654]","[0.10253562778234482, 0.10473982244729996, 0.10027144104242325, 0.09958486258983612, 0.10237167775630951, 0.10014350712299347]","[0.03679279723518938, -1.5340035295597072, 0.03679279723518938, 0.03679279723518938, 0.03679279723518938, 0.03679279723518938]","[0.03679279723518938, -1.5340035295597072, 0.03679279723518938, 0.03679279723518938, 0.03679279723518938, 0.03679279723518938]",0.002,7,1
0,43,"[0.003441951470449567, -1.5673015311225136, 0.0035823027240198257, 0.003317995662353468, 0.0033742880914360285, 0.003358992747962475]","[0.10734853893518448, 0.10707417130470276, 0.10610291361808777, 0.10575983673334122, 0.10250954329967499, 0.10418418049812317]","[0.03766544032698294, -1.5331308864679136, 0.03766544032698294, 0.03766544032698294, 0.03766544032698294, 0.03766544032698294]","[0.03766544032698294, -1.5331308864679136, 0.03766544032698294, 0.03766544032698294, 0.03766544032698294, 0.03766544032698294]",0.002,7,1
0,44,"[0.0036670451518148184, -1.5670947935762634, 0.003674332295553029, 0.0035663086124877452, 0.0035335994325578213, 0.0035587595775723457]","[0.1111767441034317, 0.11129380017518997, 0.11043471843004227, 0.10807763785123825, 0.10943328589200974, 0.10907771438360214]","[0.03853784531293808, -1.5322584814819584, 0.03853784531293808, 0.03853784531293808, 0.03853784531293808, 0.03853784531293808]","[0.03853784531293808, -1.5322584814819584, 0.03853784531293808, 0.03853784531293808, 0.03853784531293808, 0.03853784531293808]",0.002,7,1
0,45,"[0.0038949288427829742, -1.5669044170393427, 0.003956143056051076, 0.003727837199829054, 0.00379791553132236, 0.0037744836881756783]","[0.11559238284826279, 0.11658134311437607, 0.11437327414751053, 0.11535704880952835, 0.11208789795637131, 0.11245749890804291]","[0.03941000667805963, -1.531386320116837, 0.03941000667805963, 0.03941000667805963, 0.03941000667805963, 0.03941000667805963]","[0.03941000667805963, -1.531386320116837, 0.03941000667805963, 0.03941000667805963, 0.03941000667805963, 0.03941000667805963]",0.002,7,1
0,46,"[0.004179767798632383, -1.5666088376059015, 0.004234139119283498, 0.004051609630248976, 0.004002375993877649, 0.00400513643398881]","[0.119867242872715, 0.12013395130634308, 0.11869768798351288, 0.11797947436571121, 0.11746133863925934, 0.1169164851307869]","[0.04028191890889251, -1.530514407886004, 0.04028191890889251, 0.04028191890889251, 0.04028191890889251, 0.04028191890889251]","[0.04028191890889251, -1.530514407886004, 0.04028191890889251, 0.04028191890889251, 0.04028191890889251, 0.04028191890889251]",0.002,7,1
0,47,"[0.004436562303453684, -1.5663705116933961, 0.004516426716939748, 0.004306836719177198, 0.004295196384191513, 0.0042869471944868565]","[0.12342159450054169, 0.12410299479961395, 0.12181389331817627, 0.12236163020133972, 0.12182487547397614, 0.12155579775571823]","[0.041153576493556596, -1.52964275030134, 0.041153576493556596, 0.041153576493556596, 0.041153576493556596, 0.041153576493556596]","[0.041153576493556596, -1.52964275030134, 0.041153576493556596, 0.041153576493556596, 0.041153576493556596, 0.041153576493556596]",0.002,7,1
0,48,"[0.004716822411864996, -1.5661258881776412, 0.00469381013979131, 0.0045351225086669444, 0.004528143908828497, 0.0045044030994176865]","[0.13144056499004364, 0.12737998366355896, 0.12788033485412598, 0.1267210692167282, 0.1263851523399353, 0.1264866292476654]","[0.0420249739217815, -1.528771352873115, 0.0420249739217815, 0.0420249739217815, 0.0420249739217815, 0.0420249739217815]","[0.0420249739217815, -1.528771352873115, 0.0420249739217815, 0.0420249739217815, 0.0420249739217815, 0.0420249739217815]",0.002,7,1
0,49,"[0.00495991762727499, -1.5658244232511898, 0.004959885274068654, 0.00489000856365962, 0.004836204461753368, 0.004767119884490967]","[0.13178926706314087, 0.1318802833557129, 0.131397545337677, 0.1302238553762436, 0.13090620934963226, 0.13116304576396942]","[0.04289610568494145, -1.527900221109955, 0.04289610568494145, 0.04289610568494145, 0.04289610568494145, 0.04289610568494145]","[0.04289610568494145, -1.527900221109955, 0.04289610568494145, 0.04289610568494145, 0.04289610568494145, 0.04289610568494145]",0.002,7,1
0,50,"[0.005235887132585049, -1.5656307202628632, 0.005189243947164357, 0.0050914722630004405, 0.005161010194569826, 0.005042997654527426]","[0.13780227303504944, 0.1358431577682495, 0.1359301507472992, 0.13712984323501587, 0.13631895184516907, 0.13806751370429993]","[0.04376696627609011, -1.5270293605188066, 0.04376696627609011, 0.04376696627609011, 0.04376696627609011, 0.04376696627609011]","[0.04376696627609011, -1.5270293605188066, 0.04376696627609011, 0.04376696627609011, 0.04376696627609011, 0.04376696627609011]",0.002,7,1
0,51,"[0.005462678149342537, -1.5652800978026171, 0.005470101033345998, 0.005411429996154737, 0.005400221794843674, 0.005350182764232159]","[0.1422145813703537, 0.14258632063865662, 0.13949093222618103, 0.13982127606868744, 0.14243580400943756, 0.1411840170621872]","[0.044637550189995365, -1.5261587766049012, 0.044637550189995365, 0.044637550189995365, 0.044637550189995365, 0.044637550189995365]","[0.044637550189995365, -1.5261587766049012, 0.044637550189995365, 0.044637550189995365, 0.044637550189995365, 0.044637550189995365]",0.002,7,1
0,52,"[0.005788241047412157, -1.565050263689347, 0.005795780812398732, 0.005666061038635206, 0.005686924327164888, 0.0056727551855146885]","[0.14597085118293762, 0.14510217308998108, 0.14635801315307617, 0.14405474066734314, 0.1449558585882187, 0.14539580047130585]","[0.045507851923174164, -1.5252884748717224, 0.045507851923174164, 0.045507851923174164, 0.045507851923174164, 0.045507851923174164]","[0.045507851923174164, -1.5252884748717224, 0.045507851923174164, 0.045507851923174164, 0.045507851923174164, 0.045507851923174164]",0.002,7,1
0,53,"[0.006088126916438341, -1.5647086061402042, 0.0061410109149377945, 0.005962176913879347, 0.0059751723892986774, 0.0058970642276108265]","[0.15030820667743683, 0.15015289187431335, 0.15016762912273407, 0.14976562559604645, 0.15104877948760986, 0.15167564153671265]","[0.04637786597392728, -1.5244184608209692, 0.04637786597392728, 0.04637786597392728, 0.04637786597392728, 0.04637786597392728]","[0.04637786597392728, -1.5244184608209692, 0.04637786597392728, 0.04637786597392728, 0.04637786597392728, 0.04637786597392728]",0.002,7,1
0,54,"[0.006440545432269573, -1.5644579858383914, 0.006446663533345998, 0.006306334132812452, 0.006278510205447674, 0.006251329090446234]","[0.15474671125411987, 0.1546691358089447, 0.15454131364822388, 0.1527753323316574, 0.1537216454744339, 0.154561385512352]","[0.04724758684237411, -1.5235487399525225, 0.04724758684237411, 0.04724758684237411, 0.04724758684237411, 0.04724758684237411]","[0.04724758684237411, -1.5235487399525225, 0.04724758684237411, 0.04724758684237411, 0.04724758684237411, 0.04724758684237411]",0.002,7,1
0,55,"[0.006757170893251896, -1.5641579169644793, 0.006807629262105763, 0.006615324611328077, 0.006647425703704357, 0.006571844220161438]","[0.15945304930210114, 0.15906845033168793, 0.15915624797344208, 0.15808795392513275, 0.16056494414806366, 0.1597665250301361]","[0.04811700903048741, -1.5226793177644091, 0.04811700903048741, 0.04811700903048741, 0.04811700903048741, 0.04811700903048741]","[0.04811700903048741, -1.5226793177644091, 0.04811700903048741, 0.04811700903048741, 0.04811700903048741, 0.04811700903048741]",0.002,7,1
0,56,"[0.00707219960168004, -1.563774138023593, 0.007016960774556935, 0.0069040495106200694, 0.006952772848308086, 0.006887937895953655]","[0.1662895679473877, 0.16634482145309448, 0.16262005269527435, 0.16277332603931427, 0.16307513415813446, 0.16460175812244415]","[0.0489861270421281, -1.5218101997527684, 0.0489861270421281, 0.0489861270421281, 0.0489861270421281, 0.0489861270421281]","[0.0489861270421281, -1.5218101997527684, 0.0489861270421281, 0.0489861270421281, 0.0489861270421281, 0.0489861270421281]",0.002,7,1
0,57,"[0.007483029738068581, -1.5634637268124898, 0.007377449666158498, 0.007303043002746534, 0.007242417428642511, 0.007252371869981289]","[0.16840873658657074, 0.1685757339000702, 0.16822756826877594, 0.16794492304325104, 0.16658025979995728, 0.1709471195936203]","[0.04985493538307995, -1.5209413914118166, 0.04985493538307995, 0.04985493538307995, 0.04985493538307995, 0.04985493538307995]","[0.04985493538307995, -1.5209413914118166, 0.04985493538307995, 0.04985493538307995, 0.04985493538307995, 0.04985493538307995]",0.002,7,1
0,58,"[0.007744182366877794, -1.5631063969670613, 0.0077355543719690445, 0.007719917888305616, 0.00760295195505023, 0.0075684902258217335]","[0.17325080931186676, 0.17316986620426178, 0.17577658593654633, 0.17369283735752106, 0.17175954580307007, 0.17542216181755066]","[0.05072342856108438, -1.520072898233812, 0.05072342856108438, 0.05072342856108438, 0.05072342856108438, 0.05072342856108438]","[0.05072342856108438, -1.520072898233812, 0.05072342856108438, 0.05072342856108438, 0.05072342856108438, 0.05072342856108438]",0.002,7,1
0,59,"[0.0081627257168293, -1.56274633136157, 0.008125130330220998, 0.00802723943676753, 0.007923148572444916, 0.007903104647994041]","[0.17785434424877167, 0.17763173580169678, 0.17823560535907745, 0.17626889050006866, 0.17825005948543549, 0.17989057302474976]","[0.05159160108587512, -1.5192047257090215, 0.05159160108587512, 0.05159160108587512, 0.05159160108587512, 0.05159160108587512]","[0.05159160108587512, -1.5192047257090215, 0.05159160108587512, 0.05159160108587512, 0.05159160108587512, 0.05159160108587512]",0.002,7,1
0,60,"[0.008444692008197308, -1.5624123628116031, 0.008588139210836232, 0.008384867305419874, 0.008304641582071781, 0.008270778693258762]","[0.18418794870376587, 0.18361704051494598, 0.1830756664276123, 0.18222475051879883, 0.18306605517864227, 0.18506629765033722]","[0.05245944746921293, -1.5183368793256837, 0.05245944746921293, 0.05245944746921293, 0.05245944746921293, 0.05245944746921293]","[0.05245944746921293, -1.5183368793256837, 0.05245944746921293, 0.05245944746921293, 0.05245944746921293, 0.05245944746921293]",0.002,7,1
0,61,"[0.00887809507548809, -1.5620055257207532, 0.008901421223775685, 0.00879017888989253, 0.008698337711393833, 0.008622393943369389]","[0.18912971019744873, 0.18798434734344482, 0.1871442198753357, 0.18665890395641327, 0.18898136913776398, 0.18958254158496857]","[0.05332696222492035, -1.5174693645699762, 0.05332696222492035, 0.05332696222492035, 0.05332696222492035, 0.05332696222492035]","[0.05332696222492035, -1.5174693645699762, 0.05332696222492035, 0.05332696222492035, 0.05332696222492035, 0.05332696222492035]",0.002,7,1
0,62,"[0.009266722947359085, -1.5616545474952837, 0.00929433504213506, 0.009105845088622999, 0.009019918739795685, 0.00905572809278965]","[0.19191516935825348, 0.19271336495876312, 0.19009307026863098, 0.19153356552124023, 0.1946372240781784, 0.19410769641399384]","[0.05419413986891631, -1.5166021869259803, 0.05419413986891631, 0.05419413986891631, 0.05419413986891631, 0.05419413986891631]","[0.05419413986891631, -1.5166021869259803, 0.05419413986891631, 0.05419413986891631, 0.05419413986891631, 0.05419413986891631]",0.002,7,1
0,63,"[0.009695589542388916, -1.5612616690671821, 0.009645764027730763, 0.009578509921691847, 0.009458581916987896, 0.009451163001358509]","[0.19690370559692383, 0.1947961151599884, 0.19321781396865845, 0.19567684829235077, 0.19729436933994293, 0.20065978169441223]","[0.05506097491925081, -1.5157353518756458, 0.05506097491925081, 0.05506097491925081, 0.05506097491925081, 0.05506097491925081]","[0.05506097491925081, -1.5157353518756458, 0.05506097491925081, 0.05506097491925081, 0.05506097491925081, 0.05506097491925081]",0.002,7,1
0,64,"[0.010066297836601734, -1.5608838650262733, 0.0100939909564417, 0.009977503413818312, 0.009896515868604183, 0.009823006577789783]","[0.2016400843858719, 0.2008550614118576, 0.1998463124036789, 0.1998143196105957, 0.20130883157253265, 0.2042703479528427]","[0.055927461896139626, -1.514868864898757, 0.055927461896139626, 0.055927461896139626, 0.055927461896139626, 0.055927461896139626]","[0.055927461896139626, -1.514868864898757, 0.055927461896139626, 0.055927461896139626, 0.055927461896139626, 0.055927461896139626]",0.002,7,1
0,65,"[0.01049568597227335, -1.560471111243107, 0.010476414357320607, 0.01037864267315669, 0.010326323099434376, 0.010243481956422329]","[0.2055971622467041, 0.20566995441913605, 0.204622283577919, 0.20497040450572968, 0.2070716768503189, 0.20799334347248077]","[0.056793595321998874, -1.5140027314728977, 0.056793595321998874, 0.056793595321998874, 0.056793595321998874, 0.056793595321998874]","[0.056793595321998874, -1.5140027314728977, 0.056793595321998874, 0.056793595321998874, 0.056793595321998874, 0.056793595321998874]",0.002,7,1
0,66,"[0.01091220136731863, -1.5600919577157875, 0.010839764271871388, 0.010790033931396437, 0.010720696300268173, 0.010675238445401192]","[0.21239584684371948, 0.21032586693763733, 0.2087756097316742, 0.2096790224313736, 0.21217121183872223, 0.2128172218799591]","[0.057659369721479704, -1.5131369570734168, 0.057659369721479704, 0.057659369721479704, 0.057659369721479704, 0.057659369721479704]","[0.057659369721479704, -1.5131369570734168, 0.057659369721479704, 0.057659369721479704, 0.057659369721479704, 0.057659369721479704]",0.002,7,1
0,67,"[0.011366626247763634, -1.559622348552086, 0.011248413716451466, 0.01123921453442378, 0.011173884384334087, 0.011111363768577576]","[0.21600686013698578, 0.21441729366779327, 0.21195554733276367, 0.21443669497966766, 0.2154947817325592, 0.21836575865745544]","[0.05852477962150289, -1.5122715471733936, 0.05852477962150289, 0.05852477962150289, 0.05852477962150289, 0.05852477962150289]","[0.05852477962150289, -1.5122715471733936, 0.05852477962150289, 0.05852477962150289, 0.05852477962150289, 0.05852477962150289]",0.002,7,1
0,68,"[0.011738885194063187, -1.5591902977651735, 0.011762921010152638, 0.011723323459289503, 0.011597010307013988, 0.011556101962924004]","[0.2199072390794754, 0.22008302807807922, 0.21641786396503448, 0.2189050167798996, 0.22269657254219055, 0.22401666641235352]","[0.05938981955129341, -1.5114065072436031, 0.05938981955129341, 0.05938981955129341, 0.05938981955129341, 0.05938981955129341]","[0.05938981955129341, -1.5114065072436031, 0.05938981955129341, 0.05938981955129341, 0.05938981955129341, 0.05938981955129341]",0.002,7,1
0,69,"[0.012203797698020935, -1.5588201063549896, 0.012191597615377248, 0.012194796199462843, 0.012054914608597755, 0.011970942839980125]","[0.22488375008106232, 0.22410860657691956, 0.2211509793996811, 0.2237033098936081, 0.2297932505607605, 0.22899402678012848]","[0.060254484042415055, -1.5105418427524815, 0.060254484042415055, 0.060254484042415055, 0.060254484042415055, 0.060254484042415055]","[0.060254484042415055, -1.5105418427524815, 0.060254484042415055, 0.060254484042415055, 0.060254484042415055, 0.060254484042415055]",0.002,7,1
0,70,"[0.012618061155080795, -1.5583249370432277, 0.012693707142965138, 0.012561603183410597, 0.012478180229663849, 0.012463824823498726]","[0.2306743711233139, 0.23062211275100708, 0.22648479044437408, 0.22769179940223694, 0.23223508894443512, 0.23414672911167145]","[0.06111876762880499, -1.5096775591660916, 0.06111876762880499, 0.06111876762880499, 0.06111876762880499, 0.06111876762880499]","[0.06111876762880499, -1.5096775591660916, 0.06111876762880499, 0.06111876762880499, 0.06111876762880499, 0.06111876762880499]",0.002,7,1
0,71,"[0.013123417273163795, -1.5578467485359688, 0.013108555470601857, 0.01308099805798335, 0.012986919842660427, 0.012968740426003933]","[0.23336157202720642, 0.23679855465888977, 0.2308233231306076, 0.23277588188648224, 0.23634237051010132, 0.2394743412733078]","[0.061982664846808304, -1.5088136619480883, 0.061982664846808304, 0.061982664846808304, 0.061982664846808304, 0.061982664846808304]","[0.061982664846808304, -1.5088136619480883, 0.061982664846808304, 0.061982664846808304, 0.061982664846808304, 0.061982664846808304]",0.002,7,1
0,72,"[0.013619832694530487, -1.5573526809788127, 0.01354390779604131, 0.013601823444030714, 0.013452892191708088, 0.0134451724588871]","[0.23816180229187012, 0.24128828942775726, 0.23505635559558868, 0.23620101809501648, 0.24229362607002258, 0.24384404718875885]","[0.06284617023521256, -1.507950156559684, 0.06284617023521256, 0.06284617023521256, 0.06284617023521256, 0.06284617023521256]","[0.06284617023521256, -1.507950156559684, 0.06284617023521256, 0.06284617023521256, 0.06284617023521256, 0.06284617023521256]",0.002,7,1
0,73,"[0.014128120616078377, -1.5569059367156406, 0.013999287282125294, 0.014042063350341749, 0.013941582292318344, 0.013899391517043114]","[0.24316531419754028, 0.24617992341518402, 0.24202923476696014, 0.24112313985824585, 0.24506305158138275, 0.24770131707191467]","[0.0637092783352823, -1.5070870484596142, 0.0637092783352823, 0.0637092783352823, 0.0637092783352823, 0.0637092783352823]","[0.0637092783352823, -1.5070870484596142, 0.0637092783352823, 0.0637092783352823, 0.0637092783352823, 0.0637092783352823]",0.002,7,1
0,74,"[0.01464552991092205, -1.5563889567605038, 0.014501873646871388, 0.014572544688842726, 0.014410913921892643, 0.014431529678404331]","[0.24883341789245605, 0.251419335603714, 0.24753181636333466, 0.2467784285545349, 0.25155961513519287, 0.2513484060764313]","[0.06457198369079356, -1.506224343104103, 0.06457198369079356, 0.06457198369079356, 0.06457198369079356, 0.06457198369079356]","[0.06457198369079356, -1.506224343104103, 0.06457198369079356, 0.06457198369079356, 0.06457198369079356, 0.06457198369079356]",0.002,7,1
0,75,"[0.015154189430177212, -1.5559294896996398, 0.015048805867330373, 0.015082998866699171, 0.014978333376348019, 0.014939917251467705]","[0.2536475360393524, 0.2527135908603668, 0.2512616515159607, 0.2513093054294586, 0.2546265721321106, 0.2562330961227417]","[0.06543428084806839, -1.5053620459468282, 0.06543428084806839, 0.06543428084806839, 0.06543428084806839, 0.06543428084806839]","[0.06543428084806839, -1.5053620459468282, 0.06543428084806839, 0.06543428084806839, 0.06543428084806839, 0.06543428084806839]",0.002,7,1
0,76,"[0.015616373158991337, -1.5553357072970648, 0.0155413786517542, 0.015543265933654737, 0.0154500100761652, 0.015422647818922997]","[0.2578161060810089, 0.2591061294078827, 0.25609105825424194, 0.2543789744377136, 0.25947806239128113, 0.260405957698822]","[0.06629616435600925, -1.5045001624388874, 0.06629616435600925, 0.06629616435600925, 0.06629616435600925, 0.06629616435600925]","[0.06629616435600925, -1.5045001624388874, 0.06629616435600925, 0.06629616435600925, 0.06629616435600925, 0.06629616435600925]",0.002,7,1
0,77,"[0.016189265996217728, -1.554849573676922, 0.01606160799135381, 0.016032858485839796, 0.015973730012774467, 0.01594286598265171]","[0.26175814867019653, 0.263875812292099, 0.2614116966724396, 0.25858625769615173, 0.26458844542503357, 0.2664037048816681]","[0.06715762876613363, -1.5036386980287628, 0.06715762876613363, 0.06715762876613363, 0.06715762876613363, 0.06715762876613363]","[0.06715762876613363, -1.5036386980287628, 0.06715762876613363, 0.06715762876613363, 0.06715762876613363, 0.06715762876613363]",0.002,7,1
0,78,"[0.016745550557971, -1.5543278467706223, 0.016548935567037404, 0.01661305009808345, 0.016487687826156616, 0.016527771949768066]","[0.26824772357940674, 0.2670200765132904, 0.26506704092025757, 0.2640407979488373, 0.2689240574836731, 0.2710398733615875]","[0.06801866863260826, -1.5027776581622883, 0.06801866863260826, 0.06801866863260826, 0.06801866863260826, 0.06801866863260826]","[0.06801866863260826, -1.5027776581622883, 0.06801866863260826, 0.06801866863260826, 0.06801866863260826, 0.06801866863260826]",0.002,7,1
0,79,"[0.017257262021303177, -1.553780249585845, 0.01702768007387334, 0.017117901439331007, 0.017054099589586258, 0.01707688719034195]","[0.2710111439228058, 0.27411025762557983, 0.26878270506858826, 0.26796790957450867, 0.27444136142730713, 0.2751721441745758]","[0.06887927851228377, -1.5019170482826127, 0.06887927851228377, 0.06887927851228377, 0.06887927851228377, 0.06887927851228377]","[0.06887927851228377, -1.5019170482826127, 0.06887927851228377, 0.06887927851228377, 0.06887927851228377, 0.06887927851228377]",0.002,7,1
0,80,"[0.01784846931695938, -1.5532732468894501, 0.01759797731508428, 0.017681999797485304, 0.017636729404330254, 0.017661938443779945]","[0.27501851320266724, 0.27619367837905884, 0.2725820541381836, 0.27259504795074463, 0.2782767713069916, 0.2801012396812439]","[0.06973945296472894, -1.5010568738301675, 0.06973945296472894, 0.06973945296472894, 0.06973945296472894, 0.06973945296472894]","[0.06973945296472894, -1.5010568738301675, 0.06973945296472894, 0.06973945296472894, 0.06973945296472894, 0.06973945296472894]",0.002,7,1
0,81,"[0.01839873194694519, -1.5526524645141144, 0.018142048512594044, 0.018170400256774855, 0.018167559057474136, 0.018209099769592285]","[0.2780955135822296, 0.28107643127441406, 0.2803193926811218, 0.2791823446750641, 0.2833530604839325, 0.28353285789489746]","[0.07059918655226517, -1.5001971402426313, 0.07059918655226517, 0.07059918655226517, 0.07059918655226517, 0.07059918655226517]","[0.07059918655226517, -1.5001971402426313, 0.07059918655226517, 0.07059918655226517, 0.07059918655226517, 0.07059918655226517]",0.002,7,1
0,82,"[0.018975568935275078, -1.5521081511727353, 0.01869374910463506, 0.01881365358319087, 0.01872445084154606, 0.018775710836052895]","[0.2839924991130829, 0.28692567348480225, 0.28445178270339966, 0.2851312756538391, 0.28903940320014954, 0.288016140460968]","[0.07145847384000081, -1.4993378529548957, 0.07145847384000081, 0.07145847384000081, 0.07145847384000081, 0.07145847384000081]","[0.07145847384000081, -1.4993378529548957, 0.07145847384000081, 0.07145847384000081, 0.07145847384000081, 0.07145847384000081]",0.002,7,1
0,83,"[0.019483773037791252, -1.5515115533820172, 0.019337002431051076, 0.019335075015685987, 0.019284138455986977, 0.01932981051504612]","[0.2903195023536682, 0.28995686769485474, 0.2895987927913666, 0.2907090187072754, 0.29330557584762573, 0.292386531829834]","[0.07231730939586554, -1.498479017399031, 0.07231730939586554, 0.07231730939586554, 0.07231730939586554, 0.07231730939586554]","[0.07231730939586554, -1.498479017399031, 0.07231730939586554, 0.07231730939586554, 0.07231730939586554, 0.07231730939586554]",0.002,7,1
0,84,"[0.020092260092496872, -1.550965256323554, 0.019933048878804982, 0.01988784849133296, 0.019917497411370277, 0.01994377002120018]","[0.2922540009021759, 0.29306891560554504, 0.2950085997581482, 0.295629620552063, 0.2973780930042267, 0.2973836660385132]","[0.07317568779064473, -1.497620639004252, 0.07317568779064473, 0.07317568779064473, 0.07317568779064473, 0.07317568779064473]","[0.07317568779064473, -1.497620639004252, 0.07317568779064473, 0.07317568779064473, 0.07317568779064473, 0.07317568779064473]",0.002,7,1
0,85,"[0.020732717588543892, -1.5503160760602732, 0.02054912248720342, 0.020508452052734327, 0.020512688905000687, 0.0205177441239357]","[0.2983034551143646, 0.2988561987876892, 0.2989385724067688, 0.3002755641937256, 0.3002108633518219, 0.3013453483581543]","[0.07403360359801374, -1.4967627231968827, 0.07403360359801374, 0.07403360359801374, 0.07403360359801374, 0.07403360359801374]","[0.07403360359801374, -1.4967627231968827, 0.07403360359801374, 0.07403360359801374, 0.07403360359801374, 0.07403360359801374]",0.002,7,1
0,86,"[0.02123614028096199, -1.5496830710074683, 0.02107125917543584, 0.021059079761169386, 0.021130185574293137, 0.021142886951565742]","[0.3023390769958496, 0.3030012249946594, 0.30475854873657227, 0.3036106526851654, 0.30637574195861816, 0.3052881956100464]","[0.0748910513945722, -1.4959052754003244, 0.0748910513945722, 0.0748910513945722, 0.0748910513945722, 0.0748910513945722]","[0.0748910513945722, -1.4959052754003244, 0.0748910513945722, 0.0748910513945722, 0.0748910513945722, 0.0748910513945722]",0.002,7,1
0,87,"[0.021896278485655785, -1.5490710244378825, 0.021704022084371388, 0.0217098432728271, 0.02171654999256134, 0.021773794665932655]","[0.30581897497177124, 0.3065364360809326, 0.3096538484096527, 0.31042686104774475, 0.3098662793636322, 0.30862727761268616]","[0.07574802575987832, -1.4950483010350182, 0.07574802575987832, 0.07574802575987832, 0.07574802575987832, 0.07574802575987832]","[0.07574802575987832, -1.4950483010350182, 0.07574802575987832, 0.07574802575987832, 0.07574802575987832, 0.07574802575987832]",0.002,7,1
0,88,"[0.02253245748579502, -1.5484842018089076, 0.022316757832662404, 0.022318287486694288, 0.02243812568485737, 0.0223991759121418]","[0.30821484327316284, 0.3114915192127228, 0.31060144305229187, 0.31423571705818176, 0.3147062063217163, 0.31216442584991455]","[0.07660452127648316, -1.4941918055184134, 0.07660452127648316, 0.07660452127648316, 0.07660452127648316, 0.07660452127648316]","[0.07660452127648316, -1.4941918055184134, 0.07660452127648316, 0.07660452127648316, 0.07660452127648316, 0.07660452127648316]",0.002,7,1
0,89,"[0.023178840056061745, -1.5478518933853884, 0.02294475237001592, 0.0229227977940063, 0.023061951622366905, 0.02305164746940136]","[0.3148486912250519, 0.3132341802120209, 0.3149343430995941, 0.3187583088874817, 0.3184446096420288, 0.3171738088130951]","[0.07746053252996489, -1.4933357942649317, 0.07746053252996489, 0.07746053252996489, 0.07746053252996489, 0.07746053252996489]","[0.07746053252996489, -1.4933357942649317, 0.07746053252996489, 0.07746053252996489, 0.07746053252996489, 0.07746053252996489]",0.002,7,1
0,90,"[0.023801956325769424, -1.5471378856203337, 0.023606125508443654, 0.02354971944775386, 0.02366017922759056, 0.023673273622989655]","[0.3185637891292572, 0.31603094935417175, 0.3180736005306244, 0.32286638021469116, 0.32359254360198975, 0.3212870955467224]","[0.07831605410896296, -1.4924802726859336, 0.07831605410896296, 0.07831605410896296, 0.07831605410896296, 0.07831605410896296]","[0.07831605410896296, -1.4924802726859336, 0.07831605410896296, 0.07831605410896296, 0.07831605410896296, 0.07831605410896296]",0.002,7,1
0,91,"[0.024518631398677826, -1.5465150897255917, 0.024250332509176076, 0.024215622539184523, 0.024348855018615723, 0.024342546239495277]","[0.3232008218765259, 0.3214553892612457, 0.3224024176597595, 0.3269638121128082, 0.3269742429256439, 0.3251302242279053]","[0.07917108060521237, -1.4916252461896842, 0.07917108060521237, 0.07917108060521237, 0.07917108060521237, 0.07917108060521237]","[0.07917108060521237, -1.4916252461896842, 0.07917108060521237, 0.07917108060521237, 0.07917108060521237, 0.07917108060521237]",0.002,7,1
0,92,"[0.02508862130343914, -1.5458431628397484, 0.02489787737001592, 0.024859948749206495, 0.024914750829339027, 0.025044303387403488]","[0.327399879693985, 0.32609573006629944, 0.3284522593021393, 0.33418530225753784, 0.3291492760181427, 0.3296620845794678]","[0.08002560661357781, -1.4907707201813187, 0.08002560661357781, 0.08002560661357781, 0.08002560661357781, 0.08002560661357781]","[0.08002560661357781, -1.4907707201813187, 0.08002560661357781, 0.08002560661357781, 0.08002560661357781, 0.08002560661357781]",0.002,7,1
0,93,"[0.025742415338754654, -1.5452041302672406, 0.025492493306295216, 0.02552609025921626, 0.025713205337524414, 0.0256767850369215]","[0.330878347158432, 0.33014175295829773, 0.33038750290870667, 0.3374426066875458, 0.33366233110427856, 0.33192598819732666]","[0.0808796267320879, -1.4899167000628086, 0.0808796267320879, 0.0808796267320879, 0.0808796267320879, 0.0808796267320879]","[0.0808796267320879, -1.4899167000628086, 0.0808796267320879, 0.0808796267320879, 0.0808796267320879, 0.0808796267320879]",0.002,7,1
0,94,"[0.026446713134646416, -1.5444888465902586, 0.026194397603170216, 0.026176257724426222, 0.026313267648220062, 0.026370743289589882]","[0.3352671265602112, 0.3345159888267517, 0.33610135316848755, 0.3423668146133423, 0.33848223090171814, 0.3351192772388458]","[0.08173313556196925, -1.4890631912329273, 0.08173313556196925, 0.08173313556196925, 0.08173313556196925, 0.08173313556196925]","[0.08173313556196925, -1.4890631912329273, 0.08173313556196925, 0.08173313556196925, 0.08173313556196925, 0.08173313556196925]",0.002,7,1
0,95,"[0.027077380567789078, -1.543793936525919, 0.026899639760152638, 0.026833100909851026, 0.02703085169196129, 0.027070965617895126]","[0.3398275375366211, 0.33735278248786926, 0.342215359210968, 0.34561818838119507, 0.3431365191936493, 0.3395697772502899]","[0.08258612770768066, -1.4882101990872159, 0.08258612770768066, 0.08258612770768066, 0.08258612770768066, 0.08258612770768066]","[0.08258612770768066, -1.4882101990872159, 0.08258612770768066, 0.08258612770768066, 0.08258612770768066, 0.08258612770768066]",0.002,7,1
0,96,"[0.027715638279914856, -1.5431281470558424, 0.02758485475649053, 0.02753083288159175, 0.02773679792881012, 0.027769464999437332]","[0.343516081571579, 0.34150978922843933, 0.3443562686443329, 0.3482331335544586, 0.34482672810554504, 0.3449908196926117]","[0.08343859777694718, -1.4873577290179494, 0.08343859777694718, 0.08343859777694718, 0.08343859777694718, 0.08343859777694718]","[0.08343859777694718, -1.4873577290179494, 0.08343859777694718, 0.08343859777694718, 0.08343859777694718, 0.08343859777694718]",0.002,7,1
0,97,"[0.028394479304552078, -1.5423951514861365, 0.028318230305806935, 0.028235598201415968, 0.028369827196002007, 0.028481701388955116]","[0.3465051054954529, 0.3465020954608917, 0.35173845291137695, 0.35201573371887207, 0.3505830764770508, 0.34818029403686523]","[0.08429054038079421, -1.4865057864141022, 0.08429054038079421, 0.08429054038079421, 0.08429054038079421, 0.08429054038079421]","[0.08429054038079421, -1.4865057864141022, 0.08429054038079421, 0.08429054038079421, 0.08429054038079421, 0.08429054038079421]",0.002,7,1
0,98,"[0.02911165915429592, -1.541632929151394, 0.02906495729555303, 0.028903527850768995, 0.029219523072242737, 0.02913540229201317]","[0.35209640860557556, 0.35102367401123047, 0.35259872674942017, 0.3592579662799835, 0.352828711271286, 0.35222160816192627]","[0.08514195013358164, -1.4856543766613148, 0.08514195013358164, 0.08514195013358164, 0.08514195013358164, 0.08514195013358164]","[0.08514195013358164, -1.4856543766613148, 0.08514195013358164, 0.08514195013358164, 0.08514195013358164, 0.08514195013358164]",0.002,7,1
0,99,"[0.02983398362994194, -1.540979330693819, 0.029738728200094044, 0.02961687623944087, 0.029835429042577744, 0.029855260625481606]","[0.35710591077804565, 0.35197538137435913, 0.35763224959373474, 0.3629164397716522, 0.3576592803001404, 0.35395151376724243]","[0.08599282165303773, -1.4848035051418589, 0.08599282165303773, 0.08599282165303773, 0.08599282165303773, 0.08599282165303773]","[0.08599282165303773, -1.4848035051418589, 0.08599282165303773, 0.08599282165303773, 0.08599282165303773, 0.08599282165303773]",0.002,7,1
0,100,"[0.03049902617931366, -1.5402375732413311, 0.030475441609517873, 0.030350490207336378, 0.03069336898624897, 0.030621718615293503]","[0.36202630400657654, 0.3575119972229004, 0.36254698038101196, 0.3679126799106598, 0.35898107290267944, 0.3578909933567047]","[0.08684314956029332, -1.4839531772346033, 0.08684314956029332, 0.08684314956029332, 0.08684314956029332, 0.08684314956029332]","[0.08684314956029332, -1.4839531772346033, 0.08684314956029332, 0.08684314956029332, 0.08684314956029332, 0.08684314956029332]",0.002,7,1
0,101,"[0.031238339841365814, -1.5394995485297223, 0.03119546571840459, 0.031111522311828566, 0.03138285130262375, 0.031324248760938644]","[0.3643484115600586, 0.35845494270324707, 0.36474844813346863, 0.37076035141944885, 0.3634015917778015, 0.36215347051620483]","[0.0876929284799157, -1.4831033983149808, 0.0876929284799157, 0.0876929284799157, 0.0876929284799157, 0.0876929284799157]","[0.0876929284799157, -1.4831033983149808, 0.0876929284799157, 0.0876929284799157, 0.0876929284799157, 0.0876929284799157]",0.002,7,1
0,102,"[0.03197794035077095, -1.5387719397297879, 0.031956020985738576, 0.03193490087475581, 0.03208548203110695, 0.03212962672114372]","[0.36896711587905884, 0.3635416328907013, 0.36908429861068726, 0.3744412064552307, 0.3665368854999542, 0.36582356691360474]","[0.08854215303994269, -1.482254173754954, 0.08854215303994269, 0.08854215303994269, 0.08854215303994269, 0.08854215303994269]","[0.08854215303994269, -1.482254173754954, 0.08854215303994269, 0.08854215303994269, 0.08854215303994269, 0.08854215303994269]",0.002,7,1
0,103,"[0.03271171823143959, -1.5380076964250584, 0.03269511858095342, 0.032663031215331984, 0.03281788527965546, 0.032807450741529465]","[0.3733902871608734, 0.3659427762031555, 0.37074434757232666, 0.3783486485481262, 0.3713887333869934, 0.36868682503700256]","[0.08939081787191647, -1.48140550892298, 0.08939081787191647, 0.08939081787191647, 0.08939081787191647, 0.08939081787191647]","[0.08939081787191647, -1.48140550892298, 0.08939081787191647, 0.08939081787191647, 0.08939081787191647, 0.08939081787191647]",0.002,7,1
0,104,"[0.03342338278889656, -1.5372684498182316, 0.03342134157289678, 0.0334436136433105, 0.033575836569070816, 0.03354420140385628]","[0.3741315007209778, 0.37153494358062744, 0.37331923842430115, 0.3792709410190582, 0.3735511600971222, 0.37333670258522034]","[0.09023891761091771, -1.4805574091839788, 0.09023891761091771, 0.09023891761091771, 0.09023891761091771, 0.09023891761091771]","[0.09023891761091771, -1.4805574091839788, 0.09023891761091771, 0.09023891761091771, 0.09023891761091771, 0.09023891761091771]",0.002,7,1
0,105,"[0.034165311604738235, -1.5365572360209008, 0.03426868120302373, 0.03425375997509761, 0.03434613719582558, 0.034311648458242416]","[0.37807363271713257, 0.3740070164203644, 0.37657105922698975, 0.3807668387889862, 0.3778054714202881, 0.37508246302604675]","[0.09108644689559922, -1.4797098798992974, 0.09108644689559922, 0.09108644689559922, 0.09108644689559922, 0.09108644689559922]","[0.09108644689559922, -1.4797098798992974, 0.09108644689559922, 0.09108644689559922, 0.09108644689559922, 0.09108644689559922]",0.002,7,1
0,106,"[0.03495997190475464, -1.5357487586191674, 0.035000149403707326, 0.03503493844952388, 0.03509574756026268, 0.035029299557209015]","[0.3809220790863037, 0.37912100553512573, 0.37756508588790894, 0.3847354054450989, 0.3784721791744232, 0.3777485191822052]","[0.09193340036822013, -1.4788629264266764, 0.09193340036822013, 0.09193340036822013, 0.09193340036822013, 0.09193340036822013]","[0.09193340036822013, -1.4788629264266764, 0.09193340036822013, 0.09193340036822013, 0.09193340036822013, 0.09193340036822013]",0.002,7,1
0,107,"[0.03575478866696358, -1.5349296753159543, 0.03579169908632451, 0.03585629045452876, 0.03592108190059662, 0.03580573946237564]","[0.3844509422779083, 0.3814886808395386, 0.3826574683189392, 0.3876924514770508, 0.3834967315196991, 0.383171945810318]","[0.09277977267467959, -1.478016554120217, 0.09277977267467959, 0.09277977267467959, 0.09277977267467959, 0.09277977267467959]","[0.09277977267467959, -1.478016554120217, 0.09277977267467959, 0.09277977267467959, 0.09277977267467959, 0.09277977267467959]",0.002,7,1
0,108,"[0.03653666749596596, -1.534195714896061, 0.03660470644106084, 0.03663746892895503, 0.03666956350207329, 0.03662460669875145]","[0.3912450969219208, 0.3860178589820862, 0.38755887746810913, 0.39107683300971985, 0.38657620549201965, 0.38578319549560547]","[0.09362555846455059, -1.4771707683303459, 0.09362555846455059, 0.09362555846455059, 0.09362555846455059, 0.09362555846455059]","[0.09362555846455059, -1.4771707683303459, 0.09362555846455059, 0.09362555846455059, 0.09362555846455059, 0.09362555846455059]",0.002,7,1
0,109,"[0.03734387829899788, -1.5333951462856312, 0.03740579286684209, 0.03741995870556636, 0.03746534138917923, 0.037395428866147995]","[0.39388570189476013, 0.3897947669029236, 0.39063718914985657, 0.3914569020271301, 0.389199435710907, 0.39093273878097534]","[0.09447075239111392, -1.4763255744037826, 0.09447075239111392, 0.09447075239111392, 0.09447075239111392, 0.09447075239111392]","[0.09447075239111392, -1.4763255744037826, 0.09447075239111392, 0.09447075239111392, 0.09447075239111392, 0.09447075239111392]",0.002,7,1
0,110,"[0.038150250911712646, -1.5326574568501492, 0.03818113008608037, 0.03820018350567622, 0.03819030895829201, 0.03817901760339737]","[0.39443814754486084, 0.3924166262149811, 0.3945104777812958, 0.39411020278930664, 0.39244940876960754, 0.3928624093532562]","[0.09531534911139185, -1.4754809776835047, 0.09531534911139185, 0.09531534911139185, 0.09531534911139185, 0.09531534911139185]","[0.09531534911139185, -1.4754809776835047, 0.09531534911139185, 0.09531534911139185, 0.09531534911139185, 0.09531534911139185]",0.002,7,1
0,111,"[0.03895718231797218, -1.5318281066468735, 0.03891927400697881, 0.03906075536694331, 0.03899843990802765, 0.038958948105573654]","[0.397168904542923, 0.3969883620738983, 0.397872656583786, 0.3984106779098511, 0.3937629163265228, 0.3959064781665802]","[0.09615934328618193, -1.4746369835087145, 0.09615934328618193, 0.09615934328618193, 0.09615934328618193, 0.09615934328618193]","[0.09615934328618193, -1.4746369835087145, 0.09615934328618193, 0.09615934328618193, 0.09615934328618193, 0.09615934328618193]",0.002,7,1
0,112,"[0.03972651809453964, -1.5310324554196377, 0.03976327577699834, 0.03983239709820552, 0.039747342467308044, 0.03971492126584053]","[0.40151920914649963, 0.3995344638824463, 0.3977978527545929, 0.4009626507759094, 0.39856716990470886, 0.3998967111110687]","[0.09700272958009082, -1.4737935972148057, 0.09700272958009082, 0.09700272958009082, 0.09700272958009082, 0.09700272958009082]","[0.09700272958009082, -1.4737935972148057, 0.09700272958009082, 0.09700272958009082, 0.09700272958009082, 0.09700272958009082]",0.002,7,1
0,113,"[0.04053768888115883, -1.5302411441555996, 0.04048043886293584, 0.04073171197857661, 0.04056587442755699, 0.04048557206988335]","[0.4029445946216583, 0.4031457006931305, 0.4025201201438904, 0.40172553062438965, 0.40324121713638306, 0.4039876163005829]","[0.09784550266156791, -1.4729508241333287, 0.09784550266156791, 0.09784550266156791, 0.09784550266156791, 0.09784550266156791]","[0.09784550266156791, -1.4729508241333287, 0.09784550266156791, 0.09784550266156791, 0.09784550266156791, 0.09784550266156791]",0.002,7,1
0,114,"[0.04139384627342224, -1.5294373382679005, 0.04137880006899053, 0.04152779161419673, 0.04139634221792221, 0.04132179543375969]","[0.4041760563850403, 0.40690305829048157, 0.40737485885620117, 0.40422528982162476, 0.404368132352829, 0.40726977586746216]","[0.09868765720293912, -1.4721086695919574, 0.09868765720293912, 0.09868765720293912, 0.09868765720293912, 0.09868765720293912]","[0.09868765720293912, -1.4721086695919574, 0.09868765720293912, 0.09868765720293912, 0.09868765720293912, 0.09868765720293912]",0.002,7,1
0,115,"[0.04214984178543091, -1.528646634226181, 0.04218417802919561, 0.042377157802246046, 0.04219347611069679, 0.04208504781126976]","[0.4104084372520447, 0.4086168110370636, 0.40788349509239197, 0.4054532051086426, 0.40859925746917725, 0.41200995445251465]","[0.09952918788044049, -1.471267138914456, 0.09952918788044049, 0.09952918788044049, 0.09952918788044049, 0.09952918788044049]","[0.09952918788044049, -1.471267138914456, 0.09952918788044049, 0.09952918788044049, 0.09952918788044049, 0.09952918788044049]",0.002,7,1
0,116,"[0.04295505955815315, -1.5278394569507618, 0.04298288026918584, 0.04318468152966304, 0.043017201125621796, 0.04292847588658333]","[0.412494421005249, 0.4130379259586334, 0.40962958335876465, 0.40778180956840515, 0.4120848774909973, 0.41436782479286194]","[0.10037008937425189, -1.4704262374206447, 0.10037008937425189, 0.10037008937425189, 0.10037008937425189, 0.10037008937425189]","[0.10037008937425189, -1.4704262374206447, 0.10037008937425189, 0.10037008937425189, 0.10037008937425189, 0.10037008937425189]",0.002,7,1
0,117,"[0.043869923800230026, -1.5270224784365674, 0.04383451143373662, 0.044047637576721144, 0.04385899007320404, 0.04370270296931267]","[0.4145691692829132, 0.4137037992477417, 0.4138934016227722, 0.4124353229999542, 0.4154982566833496, 0.41885456442832947]","[0.10121035636853062, -1.4695859704263659, 0.10121035636853062, 0.10121035636853062, 0.10121035636853062, 0.10121035636853062]","[0.10121035636853062, -1.4695859704263659, 0.10121035636853062, 0.10121035636853062, 0.10121035636853062, 0.10121035636853062]",0.002,7,1
0,118,"[0.044658031314611435, -1.5262493838420887, 0.04466754594911748, 0.044870300883911085, 0.044658977538347244, 0.044515177607536316]","[0.4182094931602478, 0.41651633381843567, 0.41461172699928284, 0.41447383165359497, 0.41723424196243286, 0.421152800321579]","[0.10204998355144514, -1.4687463432434513, 0.10204998355144514, 0.10204998355144514, 0.10204998355144514, 0.10204998355144514]","[0.10204998355144514, -1.4687463432434513, 0.10204998355144514, 0.10204998355144514, 0.10204998355144514, 0.10204998355144514]",0.002,7,1
0,119,"[0.045524418354034424, -1.5253402192941685, 0.04546243349184209, 0.04570095121350093, 0.0454474501311779, 0.04537132754921913]","[0.4184477925300598, 0.4197564721107483, 0.41943660378456116, 0.41567808389663696, 0.4217437207698822, 0.42387130856513977]","[0.10288896561520831, -1.4679073611796882, 0.10288896561520831, 0.10288896561520831, 0.10288896561520831, 0.10288896561520831]","[0.10288896561520831, -1.4679073611796882, 0.10288896561520831, 0.10288896561520831, 0.10288896561520831, 0.10288896561520831]",0.002,7,1
0,120,"[0.04633759707212448, -1.524568100725748, 0.04635650316347295, 0.04654221116986079, 0.04633907601237297, 0.04622263088822365]","[0.42336219549179077, 0.4233177900314331, 0.4209349751472473, 0.41662245988845825, 0.4239312410354614, 0.4278641939163208]","[0.10372729725611143, -1.4670690295387852, 0.10372729725611143, 0.10372729725611143, 0.10372729725611143, 0.10372729725611143]","[0.10372729725611143, -1.4670690295387852, 0.10372729725611143, 0.10372729725611143, 0.10372729725611143, 0.10372729725611143]",0.002,7,1
0,121,"[0.04719269648194313, -1.5236939017525692, 0.04713040987123662, 0.04740409433331294, 0.04716765508055687, 0.04714495316147804]","[0.4264700412750244, 0.4267524778842926, 0.42544302344322205, 0.42012083530426025, 0.4277321696281433, 0.4297064542770386]","[0.10456497317455739, -1.466231353620339, 0.10456497317455739, 0.10456497317455739, 0.10456497317455739, 0.10456497317455739]","[0.10456497317455739, -1.466231353620339, 0.10456497317455739, 0.10456497317455739, 0.10456497317455739, 0.10456497317455739]",0.002,7,1
0,122,"[0.0480106920003891, -1.5228283789804955, 0.047970120106832326, 0.04821102201428218, 0.04797773063182831, 0.04798303171992302]","[0.42857539653778076, 0.4283357858657837, 0.4265296757221222, 0.4218011498451233, 0.4292308986186981, 0.4327794909477234]","[0.10540198807509427, -1.4653943387198023, 0.10540198807509427, 0.10540198807509427, 0.10540198807509427, 0.10540198807509427]","[0.10540198807509427, -1.4653943387198023, 0.10540198807509427, 0.10540198807509427, 0.10540198807509427, 0.10540198807509427]",0.002,7,1
0,123,"[0.048904843628406525, -1.521966816192009, 0.04878265062441045, 0.04905204355206294, 0.04894821718335152, 0.048834752291440964]","[0.4320085644721985, 0.4288621246814728, 0.428438276052475, 0.42511147260665894, 0.4318581819534302, 0.43586429953575134]","[0.1062383366664489, -1.4645579901284476, 0.1062383366664489, 0.1062383366664489, 0.1062383366664489, 0.1062383366664489]","[0.1062383366664489, -1.4645579901284476, 0.1062383366664489, 0.1062383366664489, 0.1062383366664489, 0.1062383366664489]",0.002,7,1
0,124,"[0.049808938056230545, -1.5211716902307053, 0.04959232011903936, 0.04987136899914546, 0.049738094210624695, 0.049736328423023224]","[0.43175649642944336, 0.4305827021598816, 0.4311995208263397, 0.42798107862472534, 0.43464234471321106, 0.4372422695159912]","[0.10707401366156022, -1.4637223131333363, 0.10707401366156022, 0.10707401366156022, 0.10707401366156022, 0.10707401366156022]","[0.10707401366156022, -1.4637223131333363, 0.10707401366156022, 0.10707401366156022, 0.10707401366156022, 0.10707401366156022]",0.002,7,1
0,125,"[0.05060388147830963, -1.5203060780516644, 0.05052692094911748, 0.050741716022155714, 0.05061285197734833, 0.05063936114311218]","[0.4377460777759552, 0.4319473206996918, 0.4332248568534851, 0.4321388900279999, 0.4376137852668762, 0.4390069246292114]","[0.10790901377761274, -1.462887313017284, 0.10790901377761274, 0.10790901377761274, 0.10790901377761274, 0.10790901377761274]","[0.10790901377761274, -1.462887313017284, 0.10790901377761274, 0.10790901377761274, 0.10790901377761274, 0.10790901377761274]",0.002,7,1
0,126,"[0.0515194907784462, -1.5194047924927254, 0.05137473741640264, 0.051573558444641066, 0.051498785614967346, 0.051494330167770386]","[0.43839436769485474, 0.43447986245155334, 0.436347633600235, 0.43536749482154846, 0.4409732222557068, 0.4426785409450531]","[0.10874333173606994, -1.4620529950588266, 0.10874333173606994, 0.10874333173606994, 0.10874333173606994, 0.10874333173606994]","[0.10874333173606994, -1.4620529950588266, 0.10874333173606994, 0.10874333173606994, 0.10874333173606994, 0.10874333173606994]",0.002,7,1
0,127,"[0.052413806319236755, -1.5185332869044323, 0.052242581044332326, 0.05239789068188472, 0.05238015949726105, 0.05238857492804527]","[0.44120147824287415, 0.43780815601348877, 0.4404565095901489, 0.43798285722732544, 0.4433157444000244, 0.44333577156066895]","[0.1095769622627076, -1.461219364532189, 0.1095769622627076, 0.1095769622627076, 0.1095769622627076, 0.1095769622627076]","[0.1095769622627076, -1.461219364532189, 0.1095769622627076, 0.1095769622627076, 0.1095769622627076, 0.1095769622627076]",0.002,7,1
0,128,"[0.053329553455114365, -1.5176504862359543, 0.05313092867006475, 0.05324213087048335, 0.053277239203453064, 0.05327114090323448]","[0.443433940410614, 0.4387231171131134, 0.44296175241470337, 0.4431019127368927, 0.4450206160545349, 0.44536885619163513]","[0.1104099000876472, -1.4603864267072493, 0.1104099000876472, 0.1104099000876472, 0.1104099000876472, 0.1104099000876472]","[0.1104099000876472, -1.4603864267072493, 0.1104099000876472, 0.1104099000876472, 0.1104099000876472, 0.1104099000876472]",0.002,7,1
0,129,"[0.05420241504907608, -1.5167955954423924, 0.05399638811220342, 0.054187102908752394, 0.05417526885867119, 0.05420220270752907]","[0.44709837436676025, 0.4395492374897003, 0.4432128071784973, 0.4452703893184662, 0.4469153583049774, 0.446879506111145]","[0.11124213994538917, -1.4595541868495074, 0.11124213994538917, 0.11124213994538917, 0.11124213994538917, 0.11124213994538917]","[0.11124213994538917, -1.4595541868495074, 0.11124213994538917, 0.11124213994538917, 0.11124213994538917, 0.11124213994538917]",0.002,7,1
0,130,"[0.055084582418203354, -1.515862227683403, 0.054912869130269826, 0.055040164584777784, 0.05507039651274681, 0.055129751563072205]","[0.4478224515914917, 0.44049033522605896, 0.4444448947906494, 0.4483228921890259, 0.44903117418289185, 0.44751399755477905]","[0.11207367657484625, -1.4587226502200503, 0.11207367657484625, 0.11207367657484625, 0.11207367657484625, 0.11207367657484625]","[0.11207367657484625, -1.4587226502200503, 0.11207367657484625, 0.11207367657484625, 0.11207367657484625, 0.11207367657484625]",0.002,7,1
0,131,"[0.056043315678834915, -1.515012552296259, 0.055817429219381154, 0.055896325702331495, 0.05597948282957077, 0.05599023029208183]","[0.44843918085098267, 0.4415917992591858, 0.4459131956100464, 0.45100870728492737, 0.45249801874160767, 0.449362576007843]","[0.11290450471937667, -1.45789182207552, 0.11290450471937667, 0.11290450471937667, 0.11290450471937667, 0.11290450471937667]","[0.11290450471937667, -1.45789182207552, 0.11290450471937667, 0.11290450471937667, 0.11290450471937667, 0.11290450471937667]",0.002,7,1
0,132,"[0.05691806599497795, -1.5141149137965222, 0.05670053163637334, 0.056723399753234816, 0.05684159696102142, 0.05692384019494057]","[0.4534527659416199, 0.4428851008415222, 0.4456987977027893, 0.45434898138046265, 0.45567193627357483, 0.45089486241340637]","[0.11373461912681745, -1.4570617076680792, 0.11373461912681745, 0.11373461912681745, 0.11373461912681745, 0.11373461912681745]","[0.11373461912681745, -1.4570617076680792, 0.11373461912681745, 0.11373461912681745, 0.11373461912681745, 0.11373461912681745]",0.002,7,1
0,133,"[0.05783490091562271, -1.5131849397769948, 0.05760509172548467, 0.0576363044926147, 0.05770440772175789, 0.05783015862107277]","[0.4558756351470947, 0.4456600546836853, 0.4544914662837982, 0.4564320147037506, 0.455346018075943, 0.45286163687705994]","[0.11456401454951752, -1.456232312245379, 0.11456401454951752, 0.11456401454951752, 0.11456401454951752, 0.11456401454951752]","[0.11456401454951752, -1.456232312245379, 0.11456401454951752, 0.11456401454951752, 0.11456401454951752, 0.11456401454951752]",0.002,7,1
0,134,"[0.05873660743236542, -1.5122857813588162, 0.05848437944521123, 0.058603330249450636, 0.05865917354822159, 0.05879868194460869]","[0.4575705826282501, 0.4482424855232239, 0.45331981778144836, 0.4596298635005951, 0.457110196352005, 0.4546370208263397]","[0.11539268574437102, -1.4554036410505256, 0.11539268574437102, 0.11539268574437102, 0.11539268574437102, 0.11539268574437102]","[0.11539268574437102, -1.4554036410505256, 0.11539268574437102, 0.11539268574437102, 0.11539268574437102, 0.11539268574437102]",0.002,7,1
0,135,"[0.05965213105082512, -1.511390795265772, 0.05941611925234014, 0.05950550615277095, 0.059614863246679306, 0.05972207710146904]","[0.45791447162628174, 0.451416552066803, 0.4569612145423889, 0.462850958108902, 0.459717333316803, 0.4554477035999298]","[0.11622062747285028, -1.4545756993220462, 0.11622062747285028, 0.11622062747285028, 0.11622062747285028, 0.11622062747285028]","[0.11622062747285028, -1.4545756993220462, 0.11622062747285028, 0.11622062747285028, 0.11622062747285028, 0.11622062747285028]",0.002,7,1
0,136,"[0.06055474281311035, -1.5105202545276661, 0.06034547487367803, 0.06042270242657466, 0.06056047976016998, 0.0606413334608078]","[0.4613594710826874, 0.45260000228881836, 0.4586447477340698, 0.4658541977405548, 0.4599853754043579, 0.45730507373809814]","[0.11704783450103912, -1.4537484922938575, 0.11704783450103912, 0.11704783450103912, 0.11704783450103912, 0.11704783450103912]","[0.11704783450103912, -1.4537484922938575, 0.11704783450103912, 0.11704783450103912, 0.11704783450103912, 0.11704783450103912]",0.002,7,1
0,137,"[0.06143191084265709, -1.5095834259739895, 0.06128150621523076, 0.061305328006408644, 0.06152338162064552, 0.06155121698975563]","[0.4607871472835541, 0.4531145691871643, 0.459496408700943, 0.4670897424221039, 0.4619564712047577, 0.45879966020584106]","[0.11787430159966572, -1.4529220251952308, 0.11787430159966572, 0.11787430159966572, 0.11787430159966572, 0.11787430159966572]","[0.11787430159966572, -1.4529220251952308, 0.11787430159966572, 0.11787430159966572, 0.11787430159966572, 0.11787430159966572]",0.002,7,1
0,138,"[0.06239846721291542, -1.508650441919901, 0.06218845049013311, 0.062283797855041456, 0.06246797740459442, 0.06254065036773682]","[0.46353811025619507, 0.45527714490890503, 0.4607802927494049, 0.46638527512550354, 0.4627654552459717, 0.4597216546535492]","[0.11870002354413592, -1.4520963032507606, 0.11870002354413592, 0.11870002354413592, 0.11870002354413592, 0.11870002354413592]","[0.11870002354413592, -1.4520963032507606, 0.11870002354413592, 0.11870002354413592, 0.11870002354413592, 0.11870002354413592]",0.002,7,1
0,139,"[0.06326992809772491, -1.5077438962510605, 0.0631330649005335, 0.06323234617199702, 0.06339510530233383, 0.0634830966591835]","[0.464733362197876, 0.456533819437027, 0.46338218450546265, 0.46758943796157837, 0.4643998146057129, 0.4616329073905945]","[0.1195249951145661, -1.4512713316803305, 0.1195249951145661, 0.1195249951145661, 0.1195249951145661, 0.1195249951145661]","[0.1195249951145661, -1.4512713316803305, 0.1195249951145661, 0.1195249951145661, 0.1195249951145661, 0.1195249951145661]",0.002,7,1
0,140,"[0.06424246728420258, -1.5067245823195954, 0.0640481154071253, 0.06422071039166255, 0.06434130668640137, 0.06440703570842743]","[0.4685574769973755, 0.4583202302455902, 0.46583834290504456, 0.4702834188938141, 0.4658520817756653, 0.46403783559799194]","[0.12034921109581614, -1.4504471156990804, 0.12034921109581614, 0.12034921109581614, 0.12034921109581614, 0.12034921109581614]","[0.12034921109581614, -1.4504471156990804, 0.12034921109581614, 0.12034921109581614, 0.12034921109581614, 0.12034921109581614]",0.002,7,1
0,141,"[0.0651601180434227, -1.5058444079807778, 0.06504518190492803, 0.06513444959606929, 0.06530049443244934, 0.06536320596933365]","[0.46715235710144043, 0.4617014527320862, 0.46650272607803345, 0.4727031886577606, 0.46657899022102356, 0.46393918991088867]","[0.12117266627752252, -1.449623660517374, 0.12117266627752252, 0.12117266627752252, 0.12117266627752252, 0.12117266627752252]","[0.12117266627752252, -1.449623660517374, 0.12117266627752252, 0.12117266627752252, 0.12117266627752252, 0.12117266627752252]",0.002,7,1
0,142,"[0.06611406803131104, -1.5049446386149903, 0.06598884264101201, 0.0661199527927856, 0.06623608618974686, 0.06623734533786774]","[0.47079184651374817, 0.46419858932495117, 0.4671706259250641, 0.474862664937973, 0.4658864140510559, 0.46464449167251587]","[0.12199535545413111, -1.4488009713407655, 0.12199535545413111, 0.12199535545413111, 0.12199535545413111, 0.12199535545413111]","[0.12199535545413111, -1.4488009713407655, 0.12199535545413111, 0.12199535545413111, 0.12199535545413111, 0.12199535545413111]",0.002,7,1
0,143,"[0.06705208867788315, -1.503940039580204, 0.06693441072572881, 0.06705741464581294, 0.06716976314783096, 0.06716494262218475]","[0.47084370255470276, 0.46606460213661194, 0.46738481521606445, 0.4739058017730713, 0.4652869701385498, 0.4652169942855835]","[0.12281727342493026, -1.4479790533699664, 0.12281727342493026, 0.12281727342493026, 0.12281727342493026, 0.12281727342493026]","[0.12281727342493026, -1.4479790533699664, 0.12281727342493026, 0.12281727342493026, 0.12281727342493026, 0.12281727342493026]",0.002,7,1
0,144,"[0.06804045289754868, -1.5030196023038407, 0.06787377992738897, 0.06804828226055903, 0.06808114051818848, 0.06805498898029327]","[0.471492201089859, 0.4694410264492035, 0.4685170352458954, 0.47600239515304565, 0.46821245551109314, 0.46844547986984253]","[0.12363841499408351, -1.447157911800813, 0.12363841499408351, 0.12363841499408351, 0.12363841499408351, 0.12363841499408351]","[0.12363841499408351, -1.447157911800813, 0.12363841499408351, 0.12363841499408351, 0.12363841499408351, 0.12363841499408351]",0.002,7,1
0,145,"[0.06895674020051956, -1.5020411548069497, 0.06883317628969365, 0.06898777067150874, 0.06905525177717209, 0.06900933384895325]","[0.47157126665115356, 0.47104981541633606, 0.47075536847114563, 0.4724922180175781, 0.47054293751716614, 0.4695955514907837]","[0.1244587749706625, -1.446337551824234, 0.1244587749706625, 0.1244587749706625, 0.1244587749706625, 0.1244587749706625]","[0.1244587749706625, -1.446337551824234, 0.1244587749706625, 0.1244587749706625, 0.1244587749706625, 0.1244587749706625]",0.002,7,1
0,146,"[0.06993391364812851, -1.5011060175350686, 0.06982690492738897, 0.069927378291748, 0.07002808898687363, 0.06992410868406296]","[0.47513189911842346, 0.4725307524204254, 0.47265514731407166, 0.47090667486190796, 0.47244516015052795, 0.47213390469551086]","[0.12527834816867986, -1.4455179786262167, 0.12527834816867986, 0.12527834816867986, 0.12527834816867986, 0.12527834816867986]","[0.12527834816867986, -1.4455179786262167, 0.12527834816867986, 0.12527834816867986, 0.12527834816867986, 0.12527834816867986]",0.002,7,1
0,147,"[0.07091639190912247, -1.5001267430237313, 0.07075387636293584, 0.07090549051251216, 0.07096005976200104, 0.0708727240562439]","[0.4766218066215515, 0.4754808247089386, 0.47525665163993835, 0.4737403392791748, 0.47222834825515747, 0.4735560417175293]","[0.12609712940712178, -1.4446991973877747, 0.12609712940712178, 0.12609712940712178, 0.12609712940712178, 0.12609712940712178]","[0.12609712940712178, -1.4446991973877747, 0.12609712940712178, 0.12609712940712178, 0.12609712940712178, 0.12609712940712178]",0.002,7,1
0,148,"[0.07185108959674835, -1.4992002931288262, 0.07176810899843389, 0.07193688928570552, 0.0718756914138794, 0.07182347774505615]","[0.47615060210227966, 0.4788264334201813, 0.47974079847335815, 0.4764254093170166, 0.47289857268333435, 0.4758354723453522]","[0.12691511350998105, -1.4438812132849155, 0.12691511350998105, 0.12691511350998105, 0.12691511350998105, 0.12691511350998105]","[0.12691511350998105, -1.4438812132849155, 0.12691511350998105, 0.12691511350998105, 0.12691511350998105, 0.12691511350998105]",0.002,7,1
0,149,"[0.07272044569253922, -1.498236709540226, 0.072669808064596, 0.07299785196270747, 0.07280480116605759, 0.07272450625896454]","[0.47680845856666565, 0.47979748249053955, 0.4764564335346222, 0.47840362787246704, 0.47625741362571716, 0.47759461402893066]","[0.1277322953062895, -1.443064031488607, 0.1277322953062895, 0.1277322953062895, 0.1277322953062895, 0.1277322953062895]","[0.1277322953062895, -1.443064031488607, 0.1277322953062895, 0.1277322953062895, 0.1277322953062895, 0.1277322953062895]",0.002,7,1
0,150,"[0.07369709759950638, -1.4972946655801316, 0.07362062135805303, 0.07392136632885737, 0.07377882301807404, 0.07367285341024399]","[0.477427214384079, 0.4814806580543518, 0.47669458389282227, 0.4776928126811981, 0.4752908945083618, 0.4788076877593994]","[0.12854866963015096, -1.4422476571647456, 0.12854866963015096, 0.12854866963015096, 0.12854866963015096, 0.12854866963015096]","[0.12854866963015096, -1.4422476571647456, 0.12854866963015096, 0.12854866963015096, 0.12854866963015096, 0.12854866963015096]",0.002,7,1
0,151,"[0.07465656846761703, -1.4963326466134568, 0.0745771566974085, 0.07485715925183101, 0.07479669153690338, 0.07466032356023788]","[0.47809499502182007, 0.4822964072227478, 0.48096591234207153, 0.47567102313041687, 0.4784902334213257, 0.48143473267555237]","[0.12936423132077363, -1.4414320954741229, 0.12936423132077363, 0.12936423132077363, 0.12936423132077363, 0.12936423132077363]","[0.12936423132077363, -1.4414320954741229, 0.12936423132077363, 0.12936423132077363, 0.12936423132077363, 0.12936423132077363]",0.002,7,1
