Arnibjarnst/BoxLift/logs/ur_rtde/trajectory_dur=5.0_delay=0.0_ampl=20.0_real.csv
arm_idx,step,actual_q,expected_q,loop_time,robot_mode,safety_mode
0,-1,"[-0.001966301594869435, -1.5727611980833949, -0.0019502753857523203, -0.002014951114990282, -0.0019515196429651382, -0.0019033590899866226]","[0.0, -1.5707963267948966, 0.0, 0.0, 0.0, 0.0]",0.002,7,1
0,-1,"[-0.0006454626666467789, -1.5714441738524378, -0.0006437260890379548, -0.0006616872600098134, -0.0005644003497522476, -0.000630680714742482]","[0.0, -1.5707963267948966, 0.0, 0.0, 0.0, 0.0]",0.002,7,1
0,-1,"[-0.000226322804586232, -1.5710765324034632, -0.0002986931649502367, -0.0002544683269043446, -0.0002167860614221695, -0.00019437471498662262]","[0.0, -1.5707963267948966, 0.0, 0.0, 0.0, 0.0]",0.002,7,1
0,-1,"[-6.41981707971695e-05, -1.570916315118307, -0.00010199785174336284, -0.00010939062152104384, -6.977711812794496e-06, -7.56422625940445e-05]","[0.0, -1.5707963267948966, 0.0, 0.0, 0.0, 0.0]",0.002,7,1
0,-1,"[-8.279481996709137e-05, -1.5709344349303187, -0.00016380861052311957, -3.107011828618056e-05, -8.374849428349762e-05, -4.464784731084137e-05]","[0.0, -1.5707963267948966, 0.0, 0.0, 0.0, 0.0]",0.002,7,1
0,-1,"[-0.00016433397401982575, -1.5709225140013636, -0.00016382061585318297, -0.0001019996455688954, -8.994737734013825e-05, -9.757677187138825e-05]","[0.0, -1.5707963267948966, 0.0, 0.0, 0.0, 0.0]",0.002,7,1
0,-1,"[-9.328523744756012e-05, -1.5710631809630335, -0.0001950446458067745, -4.561365161137587e-05, -7.325807680302887e-05, -7.56422625940445e-05]","[0.0, -1.5707963267948966, 0.0, 0.0, 0.0, 0.0]",0.002,7,1
0,-1,"[-0.00010520616640263825, -1.571066518823141, -0.0002448284940328449, -0.00011845052752690322, -0.000115696583883107, -7.611909975224762e-05]","[0.0, -1.5707963267948966, 0.0, 0.0, 0.0, 0.0]",0.002,7,1
0,-1,"[-9.328523744756012e-05, -1.570949216882223, -0.00021200565970502794, -3.560007128911025e-05, -4.1309987203419496e-05, -8.5179005758107e-05]","[0.0, -1.5707963267948966, 0.0, 0.0, 0.0, 0.0]",0.002,7,1
0,-1,"[-0.0001099745379846695, -1.5710321865477503, -0.00018137267034035176, -7.303178820805556e-05, 4.76837158203125e-06, -3.0819569722950746e-05]","[0.0, -1.5707963267948966, 0.0, 0.0, 0.0, 0.0]",0.002,7,1
0,-1,"[-9.614626039677887e-05, -1.57096590618276, -0.00021197533351369202, -9.293973956303603e-05, -2.557436098271637e-05, -1.4607106344044496e-05]","[0.0, -1.5707963267948966, 0.0, 0.0, 0.0, 0.0]",0.002,7,1
0,-1,"[-0.000100437794820607, -1.5710231266417445, -0.00024491953081451356, -2.654016528325087e-05, -1.732503072560121e-06, -1.1746083394825746e-05]","[0.0, -1.5707963267948966, 0.0, 0.0, 0.0, 0.0]",0.002,7,1
0,-1,"[-0.00011426607240849762, -1.5709902248778285, -0.00022389626246877015, 3.0203456542921003e-05, -1.3176594869435121e-05, -2.080598940068512e-05]","[0.0, -1.5707963267948966, 0.0, 0.0, 0.0, 0.0]",0.002,7,1
0,-1,"[-0.000123325978414357, -1.5709644756712855, -0.00022387818899005651, -7.228260376024309e-06, -2.557436098271637e-05, -4.178682436162262e-05]","[0.0, -1.5707963267948966, 0.0, 0.0, 0.0, 0.0]",0.002,7,1
0,-1,"[-5.990663637334137e-05, -1.5709687672057093, -0.00021195717272348702, 4.692668579053816e-06, 2.002716064453125e-05, 3.337860107421875e-06]","[0.0, -1.5707963267948966, 0.0, 0.0, 0.0, 0.0]",0.002,7,1
0,-1,"[-0.00011903444399052887, -1.5709721050658167, -0.0001875779707916081, 4.692668579053816e-06, -4.560152162724762e-05, 2.8975209716008976e-05]","[0.0, -1.5707963267948966, 0.0, 0.0, 0.0, 0.0]",0.002,7,1
0,-1,"[-8.1364308492482e-05, -1.5708934269347132, -0.0001501550286775455, -1.1758213378953997e-05, -1.3176594869435121e-05, -1.3653432027638246e-05]","[0.0, -1.5707963267948966, 0.0, 0.0, 0.0, 0.0]",0.002,7,1
0,-1,"[-7.230440248662262e-05, -1.5708772144713343, -0.00015022441220935434, -4.367237426805559e-06, -1.732503072560121e-06, 1.9776820408878848e-05]","[0.0, -1.5707963267948966, 0.0, 0.0, 0.0, 0.0]",0.002,7,1
0,-1,"[-6.41981707971695e-05, -1.5709525547423304, -0.00011851787712657824, -7.228260376024309e-06, -2.175966371709137e-05, -2.9865895406544496e-05]","[0.0, -1.5707963267948966, 0.0, 0.0, 0.0, 0.0]",0.002,7,1
0,-1,"[-5.7522450582325746e-05, -1.5709406338133753, -0.00015191503916867077, -1.1758213378953997e-05, -6.705919374638825e-05, 7.946252480905969e-06]","[0.0, -1.5707963267948966, 0.0, 0.0, 0.0, 0.0]",0.002,7,1
0,-1,"[-9.042421449834137e-05, -1.5709072552123011, -0.00010935218597296625, -1.1758213378953997e-05, 1.5556812286376953e-05, -1.1746083394825746e-05]","[0.0, -1.5707963267948966, 0.0, 0.0, 0.0, 0.0]",0.002,7,1
0,-1,"[-2.4143849508106996e-05, -1.5708486042418421, -0.000153152592247352, -9.591997180180556e-05, 2.7462319849291816e-05, 1.0740757716121152e-05]","[0.0, -1.5707963267948966, 0.0, 0.0, 0.0, 0.0]",0.002,7,1
0,-1,"[-4.2263661519825746e-05, -1.570850511590475, -9.407548350282013e-05, -5.3719883300829e-05, 6.4373016357421875e-06, 2.9020768124610186e-05]","[0.0, -1.5707963267948966, 0.0, 0.0, 0.0, 0.0]",0.002,7,1
0,-1,"[-7.135072817021637e-05, -1.570855279962057, -0.00011230456584598869, -4.918993029789931e-05, -5.036989320927887e-05, 5.75919148104731e-05]","[0.0, -1.5707963267948966, 0.0, 0.0, 0.0, 0.0]",0.002,7,1
0,-1,"[-4.5124684469044496e-05, -1.5707886976054688, -2.5492190616205335e-05, 2.114355053706163e-05, -6.705919374638825e-05, 2.9038923457846977e-05]","[0.0, -1.5707963267948966, 0.0, 0.0, 0.0, 0.0]",0.002,7,1
0,-1,"[3.56888776877895e-05, -1.5708309612669886, -7.205978909041733e-05, -3.27390483398915e-05, -1.732503072560121e-06, -1.794496645146637e-05]","[0.0, -1.5707963267948966, 0.0, 0.0, 0.0, 0.0]",0.002,7,1
0,-1,"[-7.135072817021637e-05, -1.5708352528014125, -2.9971142794238403e-05, -3.7269001342821184e-05, 6.4373016357421875e-06, 4.543256727629341e-05]","[0.0, -1.5707963267948966, 0.0, 0.0, 0.0, 0.0]",0.002,7,1
0,-1,"[-2.8912221090138246e-05, -1.5707886976054688, -7.433379778376548e-06, -4.367237426805559e-06, -1.0792409078419496e-05, -7.788287561538709e-07]","[0.0, -1.5707963267948966, 0.0, 0.0, 0.0, 0.0]",0.002,7,1
0,-1,"[2.6408515623188578e-06, -1.5708161793150843, 8.885060445606996e-06, -2.081811938481337e-05, -2.557436098271637e-05, -8.885060445606996e-06]","[0.0, -1.5707963267948966, 0.0, 0.0, 0.0, 0.0]",0.002,7,1
0,-1,"[-4.2263661519825746e-05, -1.5708281002440394, 4.116688863575746e-06, -9.135609008836809e-06, 7.152557373046875e-06, -4.116688863575746e-06]","[0.0, -1.5707963267948966, 0.0, 0.0, 0.0, 0.0]",0.002,7,1
0,-1,"[-3.797212709599762e-05, -1.5707934659770508, -3.160419873893261e-05, 3.0203456542921003e-05, 1.5532492398051545e-05, -1.794496645146637e-05]","[0.0, -1.5707963267948966, 0.0, 0.0, 0.0, 0.0]",0.002,7,1
0,-1,"[-8.041063417607575e-05, -1.570755863100505, 4.178682436162262e-05, -3.7269001342821184e-05, -2.652803529912262e-05, -2.271333803349762e-05]","[0.0, -1.5707963267948966, 0.0, 0.0, 0.0, 0.0]",0.002,7,1
0,-1,"[-3.0199159795074593e-07, -1.5708309612669886, -1.4791005924053025e-05, 4.73695942382335e-05, -2.175966371709137e-05, 2.441837204969488e-05]","[0.0, -1.5707963267948966, 0.0, 0.0, 0.0, 0.0]",0.002,7,1
0,-1,"[-6.324449648076325e-05, -1.5707934659770508, -7.433379778376548e-06, 2.4481410644483503e-05, -4.1309987203419496e-05, -8.885060445606996e-06]","[0.0, -1.5707963267948966, 0.0, 0.0, 0.0, 0.0]",0.002,7,1
0,-1,"[-1.6514454976856996e-05, -1.5707975826659144, 5.418459047490387e-05, 2.114355053706163e-05, -8.408223287403871e-06, 3.3563799206604017e-06]","[0.0, -1.5707963267948966, 0.0, 0.0, 0.0, 0.0]",0.002,7,1
0,-1,"[2.6226043701171875e-06, -1.5708476505675257, -1.2014882486255374e-05, 1.2083644531202253e-05, -2.652803529912262e-05, 7.946252480905969e-06]","[0.0, -1.5707963267948966, 0.0, 0.0, 0.0, 0.0]",0.002,7,1
0,-1,"[-5.070363179981996e-06, -1.5708190403380335, 8.885060445606996e-06, 1.3752574584913191e-05, 3.190262941643596e-05, 1.070142025128007e-05]","[0.0, -1.5707963267948966, 0.0, 0.0, 0.0, 0.0]",0.002,7,1
0,-1,"[7.225145054690074e-06, -1.570778564815857, -1.642424103920348e-05, 2.5673503539991316e-05, 4.829120734939352e-05, 7.958411515573971e-06]","[0.0, -1.5707963267948966, 0.0, 0.0, 0.0, 0.0]",0.002,7,1
0,-1,"[1.6366608178941533e-05, -1.5708443127074183, -2.1020650819991715e-05, 2.9249782226514753e-05, -3.892580141240387e-05, -4.369417299443512e-05]","[0.0, -1.5707963267948966, 0.0, 0.0, 0.0, 0.0]",0.002,7,1
0,-1,"[-5.7522450582325746e-05, -1.5708476505675257, 1.794496645146637e-05, -1.6288166381883684e-05, -6.705919374638825e-05, 1.9797820641542785e-05]","[0.0, -1.5707963267948966, 0.0, 0.0, 0.0, 0.0]",0.002,7,1
0,-1,"[-3.0199159795074593e-07, -1.5708323917784632, -5.268194217933342e-05, -4.367237426805559e-06, -5.4661427633106996e-05, -4.116688863575746e-06]","[0.0, -1.5707963267948966, 0.0, 0.0, 0.0, 0.0]",0.002,7,1
0,-1,"[1.1703848031174857e-05, -1.5707860869227552, 3.4634266988575746e-05, 2.114355053706163e-05, -1.0792409078419496e-05, 4.543256727629341e-05]","[0.0, -1.5707963267948966, 0.0, 0.0, 0.0, 0.0]",0.002,7,1
0,-1,"[-6.2290822164357e-05, -1.570778564815857, 1.794496645146637e-05, 4.0932292602491316e-05, -6.024037496388246e-06, 6.052016033208929e-05]","[0.0, -1.5707963267948966, 0.0, 0.0, 0.0, 0.0]",0.002,7,1
0,-1,"[-5.895296205693512e-05, -1.5708066425719203, 1.3176594869435121e-05, 3.819047894282335e-05, 6.490801297331927e-06, 7.967671990627423e-06]","[0.0, -1.5707963267948966, 0.0, 0.0, 0.0, 0.0]",0.002,7,1
0,-1,"[-4.5124684469044496e-05, -1.5708567104735316, 8.885060445606996e-06, 2.5673503539991316e-05, 7.692826329730451e-05, 4.080613871337846e-05]","[0.0, -1.5707963267948966, 0.0, 0.0, 0.0, 0.0]",0.002,7,1
0,-1,"[-4.7032033101856996e-05, -1.5707975826659144, 5.513826479131012e-05, 1.2083644531202253e-05, -1.0792409078419496e-05, 5.757391772931442e-05]","[0.0, -1.5707963267948966, 0.0, 0.0, 0.0, 0.0]",0.002,7,1
0,1,"[-5.070363179981996e-06, -1.5708524189391078, 4.178682436162262e-05, -1.1758213378953997e-05, 4.83393669128418e-05, -1.794496645146637e-05]","[0.0008776483039858048, -1.5699186784909107, 0.0008776483039858048, 0.0008776483039858048, 0.0008776483039858048, 0.0008776483039858048]",0.002,7,1
0,2,"[-1.4130269185841371e-05, -1.5707975826659144, -2.3926666472107172e-05, -4.465997729496962e-05, 3.4749507904052734e-05, 4.548998913378455e-05]","[0.001755291059830304, -1.5690410357350661, 0.001755291059830304, 0.001755291059830304, 0.001755291059830304, 0.001755291059830304]",0.002,7,1
0,3,"[-6.658235658818512e-05, -1.5708066425719203, 5.990663637334137e-05, 4.692668579053816e-06, -3.5587941304981996e-05, 2.2489079128718004e-05]","[0.0026329227194272654, -1.5681634040754693, 0.0026329227194272654, 0.0026329227194272654, 0.0026329227194272654, 0.0026329227194272654]",0.002,7,1
0,4,"[-5.418459047490387e-05, -1.570784406071045, -5.615675945591647e-06, -1.6288166381883684e-05, -1.985231508427887e-05, 4.8465346480952576e-05]","[0.003510537734740602, -1.567285789060156, 0.003510537734740602, 0.003510537734740602, 0.003510537734740602, 0.003510537734740602]",0.002,7,1
0,5,"[-3.034273256474762e-05, -1.570843359033102, 2.557436098271637e-05, 3.819047894282335e-05, 1.5532492398051545e-05, -8.885060445606996e-06]","[0.004388130557839446, -1.566408196237057, 0.004388130557839446, 0.004388130557839446, 0.004388130557839446, 0.004388130557839446]",0.002,7,1
0,6,"[7.225364697660552e-06, -1.5708023510374964, -7.421278496622108e-06, -9.016399719286028e-06, -1.9375477926075746e-05, 1.9788742065429688e-05]","[0.00526569564093322, -1.5655306311539634, 0.00526569564093322, 0.00526569564093322, 0.00526569564093322, 0.00526569564093322]",0.002,7,1
0,7,"[-4.7032033101856996e-05, -1.5708023510374964, 4.116688863575746e-06, 3.461420025629991e-05, -1.7468129293263246e-05, 2.9011822334723547e-05]","[0.006143227436406706, -1.56465309935849, 0.006143227436406706, 0.006143227436406706, 0.006143227436406706, 0.006143227436406706]",0.002,7,1
0,8,"[-6.324449648076325e-05, -1.5708071194090785, 8.885060445606996e-06, 2.4481410644483503e-05, -3.0819569722950746e-05, 2.7179718017578125e-05]","[0.007020720396855121, -1.5637756063980415, 0.007020720396855121, 0.007020720396855121, 0.007020720396855121, 0.007020720396855121]",0.002,7,1
0,9,"[4.478495247894898e-05, -1.5707860750010987, -4.76837158203125e-06, -9.016399719286028e-06, 3.765249130083248e-05, -1.255665914356996e-06]","[0.007898168975119177, -1.5628981578197774, 0.007898168975119177, 0.007898168975119177, 0.007898168975119177, 0.007898168975119177]",0.002,7,1
0,10,"[5.213975964579731e-05, -1.5707500193278356, 2.843538393193512e-05, 9.5053310058546e-05, 8.717814489500597e-05, 8.867363067111e-05]","[0.008775567624320156, -1.5620207591705764, 0.008775567624320156, 0.008775567624320156, 0.008775567624320156, 0.008775567624320156]",0.002,7,1
0,11,"[2.9375434678513557e-05, -1.5707184833339234, 5.227724184209137e-05, 9.767591442866319e-05, 0.00012518528092186898, 5.8639048802433535e-05]","[0.00965291079789497, -1.5611434159970017, 0.00965291079789497, 0.00965291079789497, 0.00965291079789497, 0.00965291079789497]",0.002,7,1
0,12,"[0.00010317337728338316, -1.570628473888366, 7.898012270146637e-05, 0.00011579572644038194, 0.00012179295299574733, 0.00019367743516340852]","[0.010530192949631223, -1.5602661338452652, 0.010530192949631223, 0.010530192949631223, 0.010530192949631223, 0.010530192949631223]",0.002,7,1
0,13,"[0.00012708902067970484, -1.5706420248792092, 0.00017005601991826325, 0.00013045846905512803, 0.0002150299696950242, 0.00017274165293201804]","[0.011407408533702281, -1.5593889182611942, 0.011407408533702281, 0.011407408533702281, 0.011407408533702281, 0.011407408533702281]",0.002,7,1
0,14,"[0.00018264692334923893, -1.57061059892688, 0.0002549330340784195, 0.00024239599194331163, 0.0001985486742341891, 0.00022825718042440712]","[0.012284552004702319, -1.5585117747901942, 0.012284552004702319, 0.012284552004702319, 0.012284552004702319, 0.012284552004702319]",0.002,7,1
0,15,"[0.000247223797487095, -1.5705912131127953, 0.000291172658101857, 0.0002807813831786632, 0.00026314257411286235, 0.0002639293670654297]","[0.01316161781768138, -1.5576347089772151, 0.01316161781768138, 0.01316161781768138, 0.01316161781768138, 0.01316161781768138]",0.002,7,1
0,16,"[0.00028316734824329615, -1.5705007904947088, 0.0002763907061975601, 0.0003335910984496593, 0.00037439761217683554, 0.00035445333924144506]","[0.01403860042818044, -1.556757726366716, 0.01403860042818044, 0.01403860042818044, 0.01403860042818044, 0.01403860042818044]",0.002,7,1
0,17,"[0.0002979870478156954, -1.5704722994745062, 0.00037843385805302887, 0.0003692346760253429, 0.00036813231417909265, 0.0003677320491988212]","[0.014915494292266438, -1.55588083250263, 0.014915494292266438, 0.014915494292266438, 0.014915494292266438, 0.014915494292266438]",0.002,7,1
0,18,"[0.000383660924853757, -1.5704216069173818, 0.0005090872394006851, 0.00042478620495600694, 0.0004074038006365299, 0.0003960166359320283]","[0.015792293866567334, -1.5550040329283292, 0.015792293866567334, 0.015792293866567334, 0.015792293866567334, 0.015792293866567334]",0.002,7,1
0,19,"[0.0004859226173721254, -1.5703752058655773, 0.000512425099508107, 0.0004860597797851085, 0.000476518296636641, 0.00044395923032425344]","[0.01666899360830715, -1.5541273331865895, 0.01666899360830715, 0.01666899360830715, 0.01666899360830715, 0.01666899360830715]",0.002,7,1
0,20,"[0.0005007695872336626, -1.5702519868248892, 0.0005915800677698257, 0.0005673605152587413, 0.0005700743640772998, 0.000525051960721612]","[0.017545587975341018, -1.5532507388195556, 0.017545587975341018, 0.017545587975341018, 0.017545587975341018, 0.017545587975341018]",0.002,7,1
0,21,"[0.0005711890407837927, -1.5702204555603494, 0.0006712118731897476, 0.0005444723316649913, 0.0006251572049222887, 0.0005639322916977108]","[0.018422071426190196, -1.5523742553687063, 0.018422071426190196, 0.018422071426190196, 0.018422071426190196, 0.018422071426190196]",0.002,7,1
0,22,"[0.0005711890407837927, -1.5702204555603494, 0.0006712118731897476, 0.0005444723316649913, 0.0006251572049222887, 0.0005639322916977108]","[0.019298438420077113, -1.5514978883748194, 0.019298438420077113, 0.019298438420077113, 0.019298438420077113, 0.019298438420077113]",0.002,7,1
0,23,"[0.0007949674036353827, -1.5700285286041726, 0.0008729139911096695, 0.0007077890583495616, 0.000695854309014976, 0.0007288610213436186]","[0.020174683416960392, -1.550621643377936, 0.020174683416960392, 0.020174683416960392, 0.020174683416960392, 0.020174683416960392]",0.002,7,1
0,24,"[0.0008174800896085799, -1.5699563616402266, 0.0008876959430139664, 0.0007888513752440929, 0.0007921934011392295, 0.0008173531387001276]","[0.021050800877569876, -1.5497455259173267, 0.021050800877569876, 0.021050800877569876, 0.021050800877569876, 0.021050800877569876]",0.002,7,1
0,25,"[0.0008848889847286046, -1.5698468017838714, 0.001054112111226857, 0.0009404855915526866, 0.0008646125788800418, 0.0008638207800686359]","[0.021926785263441637, -1.5488695415314548, 0.021926785263441637, 0.021926785263441637, 0.021926785263441637, 0.021926785263441637]",0.002,7,1
0,26,"[0.0008848889847286046, -1.5698468017838714, 0.001054112111226857, 0.0009404855915526866, 0.0008646125788800418, 0.0008638207800686359]","[0.022802631036952997, -1.5479936957579437, 0.022802631036952997, 0.022802631036952997, 0.022802631036952997, 0.022802631036952997]",0.002,7,1
0,27,"[0.000983784324489534, -1.569731413769052, 0.0010612646685999039, 0.0009448963352660655, 0.0009078619768843055, 0.0009972722036764026]","[0.023678332661357517, -1.5471179941335391, 0.023678332661357517, 0.023678332661357517, 0.023678332661357517, 0.023678332661357517]",0.002,7,1
0,28,"[0.0010859485482797027, -1.569590320727304, 0.0012162367450159195, 0.00107376157727046, 0.0011044826824218035, 0.0010438357712700963]","[0.024553884600820034, -1.5462424421940766, 0.024553884600820034, 0.024553884600820034, 0.024553884600820034, 0.024553884600820034]",0.002,7,1
0,29,"[0.0013335972325876355, -1.5693833506996562, 0.0014517943011682632, 0.001277609462402296, 0.0012956976424902678, 0.001339486101642251]","[0.025429281320451615, -1.545367045474445, 0.025429281320451615, 0.025429281320451615, 0.025429281320451615, 0.025429281320451615]",0.002,7,1
0,30,"[0.0014697409933432937, -1.5692347798361261, 0.0016005674945276382, 0.001398010844848585, 0.0013945159735158086, 0.0013557386118918657]","[0.02630451728634456, -1.544491809508552, 0.02630451728634456, 0.02630451728634456, 0.02630451728634456, 0.02630451728634456]",0.002,7,1
0,31,"[0.0015356993535533547, -1.5691286176773538, 0.0017536322223108414, 0.0015671688267211437, 0.0015223887749016285, 0.0015181166818365455]","[0.027179586965607412, -1.543616739829289, 0.027179586965607412, 0.027179586965607412, 0.027179586965607412, 0.027179586965607412]",0.002,7,1
0,32,"[0.0017339613987132907, -1.5689726387248193, 0.0018909613238733414, 0.0016235548206786632, 0.0017134310910478234, 0.0017050218302756548]","[0.02805448482639989, -1.5427418419684966, 0.02805448482639989, 0.02805448482639989, 0.02805448482639989, 0.02805448482639989]",0.002,7,1
0,33,"[0.001902119372971356, -1.5687788133839895, 0.0020259062396448257, 0.001776738757751417, 0.001852994435466826, 0.0018039107089862227]","[0.028929205337967896, -1.5418671214569286, 0.028929205337967896, 0.028929205337967896, 0.028929205337967896, 0.028929205337967896]",0.002,7,1
0,34,"[0.0020129757467657328, -1.5685851544006546, 0.0022357145892542007, 0.002007766360900831, 0.0020137131214141846, 0.001943452749401331]","[0.029803742970678452, -1.540992583824218, 0.029803742970678452, 0.029803742970678452, 0.029803742970678452, 0.029803742970678452]",0.002,7,1
0,35,"[0.0022140168584883213, -1.5684475296041747, 0.0024073759662073257, 0.002126141185424757, 0.0021370325703173876, 0.002174654509872198]","[0.03067809219605467, -1.5401182345988418, 0.03067809219605467, 0.03067809219605467, 0.03067809219605467, 0.03067809219605467]",0.002,7,1
0,36,"[0.002344505861401558, -1.5682675866740574, 0.002579991017476857, 0.0023148494907836437, 0.002347021596506238, 0.002321334322914481]","[0.0315522474868107, -1.539244079308086, 0.0315522474868107, 0.0315522474868107, 0.0315522474868107, 0.0315522474868107]",0.002,7,1
0,37,"[0.0025454326532781124, -1.5680409211530169, 0.002793137227193654, 0.0025448042103271007, 0.002533850260078907, 0.0025631410535424948]","[0.03242620331688668, -1.5383701234780098, 0.03242620331688668, 0.03242620331688668, 0.03242620331688668, 0.03242620331688668]",0.002,7,1
0,38,"[0.0027705663815140724, -1.5678581022987892, 0.0030015150653284195, 0.002673192615173292, 0.002744524274021387, 0.0027339726220816374]","[0.033299954161483625, -1.537496372633413, 0.033299954161483625, 0.033299954161483625, 0.033299954161483625, 0.033299954161483625]",0.002,7,1
0,39,"[0.0027705663815140724, -1.5678581022987892, 0.0030015150653284195, 0.002673192615173292, 0.002744524274021387, 0.0027339726220816374]","[0.03417349449709842, -1.5366228322977982, 0.03417349449709842, 0.03417349449709842, 0.03417349449709842, 0.03417349449709842]",0.002,7,1
0,40,"[0.0030288114212453365, -1.5676373667414119, 0.0032261053668420914, 0.002939744586608839, 0.0029323433991521597, 0.0029424531385302544]","[0.03504681880155869, -1.5357495079933379, 0.03504681880155869, 0.03504681880155869, 0.03504681880155869, 0.03504681880155869]",0.002,7,1
0,41,"[0.0032570776529610157, -1.5674229543986549, 0.0033877531634729507, 0.0031395393558959483, 0.0031775282695889473, 0.0031535893213003874]","[0.035919921554057724, -1.5348764052408388, 0.035919921554057724, 0.035919921554057724, 0.035919921554057724, 0.035919921554057724]",0.002,7,1
0,42,"[0.0037232337053865194, -1.5669552053189655, 0.003903214131490529, 0.003623767490051222, 0.0035937251523137093, 0.0036394386552274227]","[0.03679279723518938, -1.5340035295597072, 0.03679279723518938, 0.03679279723518938, 0.03679279723518938, 0.03679279723518938]",0.002,7,1
0,43,"[0.003996322862803936, -1.5666444271667679, 0.004162613545553029, 0.003866596812866163, 0.003803911153227091, 0.0038464039098471403]","[0.03766544032698294, -1.5331308864679136, 0.03766544032698294, 0.03766544032698294, 0.03766544032698294, 0.03766544032698294]",0.002,7,1
0,44,"[0.003996322862803936, -1.5666444271667679, 0.004162613545553029, 0.003866596812866163, 0.003803911153227091, 0.0038464039098471403]","[0.03853784531293808, -1.5322584814819584, 0.03853784531293808, 0.03853784531293808, 0.03853784531293808, 0.03853784531293808]",0.002,7,1
0,45,"[0.004549747332930565, -1.5661571666463097, 0.004671875630513966, 0.004402919406555128, 0.004441319964826107, 0.004432970192283392]","[0.03941000667805963, -1.531386320116837, 0.03941000667805963, 0.03941000667805963, 0.03941000667805963, 0.03941000667805963]",0.002,7,1
0,46,"[0.004892406985163689, -1.5659020368805905, 0.004984203969137013, 0.004686518306396437, 0.004710502456873655, 0.00467117503285408]","[0.04028191890889251, -1.530514407886004, 0.04028191890889251, 0.04028191890889251, 0.04028191890889251, 0.04028191890889251]",0.002,7,1
0,47,"[0.005199821200221777, -1.565590066169836, 0.005267922078267873, 0.004985614413879347, 0.005056044086813927, 0.004999666940420866]","[0.041153576493556596, -1.52964275030134, 0.041153576493556596, 0.041153576493556596, 0.041153576493556596, 0.041153576493556596]",0.002,7,1
0,48,"[0.005528794135898352, -1.5652361524156113, 0.005601231251851857, 0.005302234286926222, 0.005309838801622391, 0.0053277527913451195]","[0.0420249739217815, -1.528771352873115, 0.0420249739217815, 0.0420249739217815, 0.0420249739217815, 0.0420249739217815]",0.002,7,1
0,49,"[0.005765195470303297, -1.5649480338073154, 0.0059426466571252945, 0.005621238345764112, 0.00565078342333436, 0.005681976210325956]","[0.04289610568494145, -1.527900221109955, 0.04289610568494145, 0.04289610568494145, 0.04289610568494145, 0.04289610568494145]",0.002,7,1
0,50,"[0.006134084425866604, -1.5646238581142207, 0.006262604390279591, 0.006008906955383253, 0.0059590102173388, 0.005992273334413767]","[0.04376696627609011, -1.5270293605188066, 0.04376696627609011, 0.04376696627609011, 0.04376696627609011, 0.04376696627609011]",0.002,7,1
0,51,"[0.006496266461908817, -1.564259667215385, 0.006586853657857716, 0.00635640203442378, 0.006399550475180149, 0.0063519892282783985]","[0.044637550189995365, -1.5261587766049012, 0.044637550189995365, 0.044637550189995365, 0.044637550189995365, 0.044637550189995365]",0.002,7,1
0,52,"[0.006868245545774698, -1.5639234579033037, 0.006988827382222951, 0.006621046657226515, 0.006727255880832672, 0.006683075334876776]","[0.045507851923174164, -1.5252884748717224, 0.045507851923174164, 0.045507851923174164, 0.045507851923174164, 0.045507851923174164]",0.002,7,1
0,53,"[0.0072116851806640625, -1.5635589987835665, 0.007307354603902638, 0.0070642667957763194, 0.007104644551873207, 0.0070385560393333435]","[0.04637786597392728, -1.5244184608209692, 0.04637786597392728, 0.04637786597392728, 0.04637786597392728, 0.04637786597392728]",0.002,7,1
0,54,"[0.007637987844645977, -1.5631869833781202, 0.007717434559957326, 0.007496758098266554, 0.00748912338167429, 0.0074056601151824]","[0.04724758684237411, -1.5235487399525225, 0.04724758684237411, 0.04724758684237411, 0.04724758684237411, 0.04724758684237411]",0.002,7,1
0,55,"[0.008031894452869892, -1.5627893295935174, 0.008184734974996388, 0.0078928905674438, 0.007875213399529457, 0.007834970951080322]","[0.04811700903048741, -1.5226793177644091, 0.04811700903048741, 0.04811700903048741, 0.04811700903048741, 0.04811700903048741]",0.002,7,1
0,56,"[0.00841760914772749, -1.5623936059749504, 0.008585278187887013, 0.008323712939880323, 0.008279690518975258, 0.00817345641553402]","[0.0489861270421281, -1.5218101997527684, 0.0489861270421281, 0.0489861270421281, 0.0489861270421281, 0.0489861270421281]",0.002,7,1
0,57,"[0.008857152424752712, -1.5619663198343297, 0.008968655263082326, 0.008722348804138136, 0.008676299825310707, 0.00861384253948927]","[0.04985493538307995, -1.5209413914118166, 0.04985493538307995, 0.04985493538307995, 0.04985493538307995, 0.04985493538307995]",0.002,7,1
0,58,"[0.009303245693445206, -1.561577728284039, 0.00938445726503545, 0.009141369456909132, 0.009172821417450905, 0.009074321016669273]","[0.05072342856108438, -1.520072898233812, 0.05072342856108438, 0.05072342856108438, 0.05072342856108438, 0.05072342856108438]",0.002,7,1
0,59,"[0.009303245693445206, -1.561577728284039, 0.00938445726503545, 0.009141369456909132, 0.009172821417450905, 0.009074321016669273]","[0.05159160108587512, -1.5192047257090215, 0.05159160108587512, 0.05159160108587512, 0.05159160108587512, 0.05159160108587512]",0.002,7,1
0,60,"[0.010136948898434639, -1.56060994536195, 0.010259453450338185, 0.010065479869506788, 0.009993023239076138, 0.01001023780554533]","[0.05245944746921293, -1.5183368793256837, 0.05245944746921293, 0.05245944746921293, 0.05245944746921293, 0.05245944746921293]",0.002,7,1
0,61,"[0.0106425229460001, -1.5601795635050912, 0.010754887257711232, 0.010594649905822706, 0.01048500556498766, 0.010428352281451225]","[0.05332696222492035, -1.5174693645699762, 0.05332696222492035, 0.05332696222492035, 0.05332696222492035, 0.05332696222492035]",0.002,7,1
0,62,"[0.011131763458251953, -1.5597654769993206, 0.011233154927388966, 0.011028094882629347, 0.010953575372695923, 0.010902966372668743]","[0.05419413986891631, -1.5166021869259803, 0.05419413986891631, 0.05419413986891631, 0.05419413986891631, 0.05419413986891631]",0.002,7,1
0,63,"[0.011638800613582134, -1.5592810747078438, 0.011717621480123341, 0.011610432262084913, 0.011490740813314915, 0.011446336284279823]","[0.05506097491925081, -1.5157353518756458, 0.05506097491925081, 0.05506097491925081, 0.05506097491925081, 0.05506097491925081]",0.002,7,1
0,64,"[0.012138064950704575, -1.5587890979698678, 0.012242142354146779, 0.012088461513183546, 0.011969145387411118, 0.011964969336986542]","[0.055927461896139626, -1.514868864898757, 0.055927461896139626, 0.055927461896139626, 0.055927461896139626, 0.055927461896139626]",0.002,7,1
0,65,"[0.012696497142314911, -1.5582689524492999, 0.012767616902486623, 0.012638016338012648, 0.012529908679425716, 0.012472786009311676]","[0.056793595321998874, -1.5140027314728977, 0.056793595321998874, 0.056793595321998874, 0.056793595321998874, 0.056793595321998874]",0.002,7,1
0,66,"[0.013260595500469208, -1.5576916479370375, 0.01326924959291631, 0.013234539622924757, 0.01307726837694645, 0.012975328601896763]","[0.057659369721479704, -1.5131369570734168, 0.057659369721479704, 0.057659369721479704, 0.057659369721479704, 0.057659369721479704]",0.002,7,1
0,67,"[0.013750591315329075, -1.5572173784351726, 0.013829533253804982, 0.013736768359802198, 0.013596626929938793, 0.013573311269283295]","[0.05852477962150289, -1.5122715471733936, 0.05852477962150289, 0.05852477962150289, 0.05852477962150289, 0.05852477962150289]",0.002,7,1
0,68,"[0.01438530720770359, -1.5566140620834013, 0.014324490224019826, 0.014315887088439894, 0.014162402600049973, 0.01415148563683033]","[0.05938981955129341, -1.5114065072436031, 0.05938981955129341, 0.05938981955129341, 0.05938981955129341, 0.05938981955129341]",0.002,7,1
0,69,"[0.014928074553608894, -1.5560682660764833, 0.014975372944967091, 0.014909430141113234, 0.014762123115360737, 0.014664066955447197]","[0.060254484042415055, -1.5105418427524815, 0.060254484042415055, 0.060254484042415055, 0.060254484042415055, 0.060254484042415055]",0.002,7,1
0,70,"[0.015499895438551903, -1.5554952093264838, 0.015502278004781544, 0.01544611036267085, 0.015374546870589256, 0.015294010750949383]","[0.06111876762880499, -1.5096775591660916, 0.06111876762880499, 0.06111876762880499, 0.06111876762880499, 0.06111876762880499]",0.002,7,1
0,71,"[0.0161566324532032, -1.554854817023017, 0.01610738435854131, 0.016043825740478468, 0.0160176083445549, 0.01593596674501896]","[0.061982664846808304, -1.5088136619480883, 0.061982664846808304, 0.061982664846808304, 0.061982664846808304, 0.061982664846808304]",0.002,7,1
0,72,"[0.0161566324532032, -1.554854817023017, 0.01610738435854131, 0.016043825740478468, 0.0160176083445549, 0.01593596674501896]","[0.06284617023521256, -1.507950156559684, 0.06284617023521256, 0.06284617023521256, 0.06284617023521256, 0.06284617023521256]",0.002,7,1
0,73,"[0.016819067299365997, -1.554259530534484, 0.016728703175679982, 0.016702814693115187, 0.016591716557741165, 0.016559669747948647]","[0.0637092783352823, -1.5070870484596142, 0.0637092783352823, 0.0637092783352823, 0.0637092783352823, 0.0637092783352823]",0.002,7,1
0,74,"[0.01807149313390255, -1.5529288996807118, 0.017974678670064748, 0.01790897428478999, 0.017869096249341965, 0.01785803772509098]","[0.06457198369079356, -1.506224343104103, 0.06457198369079356, 0.06457198369079356, 0.06457198369079356, 0.06457198369079356]",0.002,7,1
0,75,"[0.01807149313390255, -1.5529288996807118, 0.017974678670064748, 0.01790897428478999, 0.017869096249341965, 0.01785803772509098]","[0.06543428084806839, -1.5053620459468282, 0.06543428084806839, 0.06543428084806839, 0.06543428084806839, 0.06543428084806839]",0.002,7,1
0,76,"[0.019453777000308037, -1.5516165152988215, 0.019315067921773732, 0.019282742137573194, 0.019237101078033447, 0.019225386902689934]","[0.06629616435600925, -1.5045001624388874, 0.06629616435600925, 0.06629616435600925, 0.06629616435600925, 0.06629616435600925]",0.002,7,1
0,77,"[0.02013964205980301, -1.5509278823486348, 0.020003620778219044, 0.019923849696777296, 0.019928498193621635, 0.01993808150291443]","[0.06715762876613363, -1.5036386980287628, 0.06715762876613363, 0.06715762876613363, 0.06715762876613363, 0.06715762876613363]",0.002,7,1
0,78,"[0.02013964205980301, -1.5509278823486348, 0.020003620778219044, 0.019923849696777296, 0.019928498193621635, 0.01993808150291443]","[0.06801866863260826, -1.5027776581622883, 0.06801866863260826, 0.06801866863260826, 0.06801866863260826, 0.06801866863260826]",0.002,7,1
0,79,"[0.021598784253001213, -1.5494584285518904, 0.021438423787252248, 0.0212445694157104, 0.021314721554517746, 0.021390903741121292]","[0.06887927851228377, -1.5019170482826127, 0.06887927851228377, 0.06887927851228377, 0.06887927851228377, 0.06887927851228377]",0.002,7,1
0,80,"[0.022292185574769974, -1.5487531007132311, 0.02215129533876592, 0.022000356311462355, 0.02204451896250248, 0.02210880070924759]","[0.06973945296472894, -1.5010568738301675, 0.06973945296472894, 0.06973945296472894, 0.06973945296472894, 0.06973945296472894]",0.002,7,1
0,81,"[0.02306876704096794, -1.5479746640524645, 0.02284557024110967, 0.02278236925091548, 0.02285853587090969, 0.022839868441224098]","[0.07059918655226517, -1.5001971402426313, 0.07059918655226517, 0.07059918655226517, 0.07059918655226517, 0.07059918655226517]",0.002,7,1
0,82,"[0.02383103035390377, -1.5472036369941016, 0.023639504109517873, 0.023568673724792433, 0.02364448830485344, 0.02364097163081169]","[0.07145847384000081, -1.4993378529548957, 0.07145847384000081, 0.07145847384000081, 0.07145847384000081, 0.07145847384000081]",0.002,7,1
0,83,"[0.02383103035390377, -1.5472036369941016, 0.023639504109517873, 0.023568673724792433, 0.02364448830485344, 0.02364097163081169]","[0.07231730939586554, -1.498479017399031, 0.07231730939586554, 0.07231730939586554, 0.07231730939586554, 0.07231730939586554]",0.002,7,1
0,84,"[0.025418242439627647, -1.5456229031882067, 0.025165859852926076, 0.02509121477093501, 0.025161728262901306, 0.025280781090259552]","[0.07317568779064473, -1.497620639004252, 0.07317568779064473, 0.07317568779064473, 0.07317568779064473, 0.07317568779064473]",0.002,7,1
0,85,"[0.026170585304498672, -1.5448149063489218, 0.025962177907125294, 0.025819225902221632, 0.0260094553232193, 0.026053301990032196]","[0.07403360359801374, -1.4967627231968827, 0.07403360359801374, 0.07403360359801374, 0.07403360359801374, 0.07403360359801374]",0.002,7,1
0,86,"[0.02693581022322178, -1.5440029681525012, 0.026897732411519826, 0.026668353671691847, 0.02682323008775711, 0.026902571320533752]","[0.0748910513945722, -1.4959052754003244, 0.0748910513945722, 0.0748910513945722, 0.0748910513945722, 0.0748910513945722]",0.002,7,1
0,87,"[0.02775164507329464, -1.5431111113033076, 0.02766591707338506, 0.02753107130017085, 0.027696356177330017, 0.027736537158489227]","[0.07574802575987832, -1.4950483010350182, 0.07574802575987832, 0.07574802575987832, 0.07574802575987832, 0.07574802575987832]",0.002,7,1
0,88,"[0.02856167033314705, -1.5422375083765765, 0.02856761613954717, 0.028359218234680128, 0.028580857440829277, 0.028555426746606827]","[0.07660452127648316, -1.4941918055184134, 0.07660452127648316, 0.07660452127648316, 0.07660452127648316, 0.07660452127648316]",0.002,7,1
0,89,"[0.029439076781272888, -1.5413817328265687, 0.02937204042543584, 0.029215140933654737, 0.029406920075416565, 0.029419558122754097]","[0.07746053252996489, -1.4933357942649317, 0.07746053252996489, 0.07746053252996489, 0.07746053252996489, 0.07746053252996489]",0.002,7,1
0,90,"[0.030361725017428398, -1.5404768784395237, 0.030206028615133107, 0.03012351572003169, 0.030337557196617126, 0.03036130964756012]","[0.07831605410896296, -1.4924802726859336, 0.07831605410896296, 0.07831605410896296, 0.07831605410896296, 0.07831605410896296]",0.002,7,1
0,91,"[0.03116830810904503, -1.53965210848067, 0.03114968935121709, 0.031000180835388136, 0.031249668449163437, 0.03127502277493477]","[0.07917108060521237, -1.4916252461896842, 0.07917108060521237, 0.07917108060521237, 0.07917108060521237, 0.07917108060521237]",0.002,7,1
0,92,"[0.03206683322787285, -1.5387544979206105, 0.03210479417909795, 0.03199081003155513, 0.03212951123714447, 0.03219890967011452]","[0.08002560661357781, -1.4907707201813187, 0.08002560661357781, 0.08002560661357781, 0.08002560661357781, 0.08002560661357781]",0.002,7,1
0,93,"[0.03297136351466179, -1.5377960179797192, 0.033002678547994435, 0.032944007510803175, 0.03302063047885895, 0.03307567536830902]","[0.0808796267320879, -1.4899167000628086, 0.0808796267320879, 0.0808796267320879, 0.0808796267320879, 0.0808796267320879]",0.002,7,1
0,94,"[0.0339142382144928, -1.536849984233715, 0.033971611653463185, 0.03384356080975337, 0.033921100199222565, 0.034000180661678314]","[0.08173313556196925, -1.4890631912329273, 0.08173313556196925, 0.08173313556196925, 0.08173313556196925, 0.08173313556196925]",0.002,7,1
0,95,"[0.03487696871161461, -1.535936576580145, 0.03490335146059209, 0.034846587772033644, 0.03497665002942085, 0.034939955919981]","[0.08258612770768066, -1.4882101990872159, 0.08258612770768066, 0.08258612770768066, 0.08258612770768066, 0.08258612770768066]",0.002,7,1
0,96,"[0.03581574186682701, -1.5349946071258564, 0.03588277498354131, 0.035860105151794386, 0.035962510854005814, 0.03585142269730568]","[0.08343859777694718, -1.4873577290179494, 0.08343859777694718, 0.08343859777694718, 0.08343859777694718, 0.08343859777694718]",0.002,7,1
0,97,"[0.036838553845882416, -1.5340473142317315, 0.036823574696676076, 0.036807699794433546, 0.036868248134851456, 0.03679492324590683]","[0.08429054038079421, -1.4865057864141022, 0.08429054038079421, 0.08429054038079421, 0.08429054038079421, 0.08429054038079421]",0.002,7,1
0,98,"[0.03776097297668457, -1.5330005672625084, 0.03780109087099248, 0.03782610475506587, 0.03786624222993851, 0.03776680678129196]","[0.08514195013358164, -1.4856543766613148, 0.08514195013358164, 0.08514195013358164, 0.08514195013358164, 0.08514195013358164]",0.002,7,1
0,99,"[0.03878400847315788, -1.5320218068412323, 0.03886014619936162, 0.038827820415161085, 0.03891294077038765, 0.038773175328969955]","[0.08599282165303773, -1.4848035051418589, 0.08599282165303773, 0.08599282165303773, 0.08599282165303773, 0.08599282165303773]",0.002,7,1
0,100,"[0.03977338969707489, -1.531097625648119, 0.03982526460756475, 0.03985874235119624, 0.03977702558040619, 0.039726052433252335]","[0.08684314956029332, -1.4839531772346033, 0.08684314956029332, 0.08684314956029332, 0.08684314956029332, 0.08684314956029332]",0.002,7,1
0,101,"[0.040797580033540726, -1.5300685924342652, 0.040781799946920216, 0.040951891536376905, 0.04090125486254692, 0.040792591869831085]","[0.0876929284799157, -1.4831033983149808, 0.0876929284799157, 0.0876929284799157, 0.0876929284799157, 0.0876929284799157]",0.002,7,1
0,102,"[0.041782792657613754, -1.529045072650053, 0.041872803364888966, 0.04197840272869868, 0.04186655953526497, 0.0417427234351635]","[0.08854215303994269, -1.482254173754954, 0.08854215303994269, 0.08854215303994269, 0.08854215303994269, 0.08854215303994269]",0.002,7,1
0,103,"[0.042783718556165695, -1.5279881854406376, 0.04288083711733037, 0.04302744447674556, 0.04283235967159271, 0.042773764580488205]","[0.08939081787191647, -1.48140550892298, 0.08939081787191647, 0.08939081787191647, 0.08939081787191647, 0.08939081787191647]",0.002,7,1
0,104,"[0.04387963190674782, -1.5269944083741684, 0.04390079179872686, 0.04406981050457759, 0.04386503994464874, 0.043783605098724365]","[0.09023891761091771, -1.4805574091839788, 0.09023891761091771, 0.09023891761091771, 0.09023891761091771, 0.09023891761091771]",0.002,7,1
0,105,"[0.04495851695537567, -1.525914204572775, 0.04500133195985967, 0.04513053476300044, 0.04494328796863556, 0.04480855539441109]","[0.09108644689559922, -1.4797098798992974, 0.09108644689559922, 0.09108644689559922, 0.09108644689559922, 0.09108644689559922]",0.002,7,1
0,106,"[0.04600193724036217, -1.524884046321251, 0.046000305806295216, 0.04618959009136958, 0.046031709760427475, 0.04585554450750351]","[0.09193340036822013, -1.4788629264266764, 0.09193340036822013, 0.09193340036822013, 0.09193340036822013, 0.09193340036822013]",0.002,7,1
0,107,"[0.047094691544771194, -1.5237834093025704, 0.04705697694887334, 0.04727916299786372, 0.04700596630573273, 0.046959780156612396]","[0.09277977267467959, -1.478016554120217, 0.09277977267467959, 0.09277977267467959, 0.09277977267467959, 0.09277977267467959]",0.002,7,1
0,108,"[0.048175230622291565, -1.5227267046323796, 0.04824525514711553, 0.048329158420227, 0.04814555123448372, 0.04809372499585152]","[0.09362555846455059, -1.4771707683303459, 0.09362555846455059, 0.09362555846455059, 0.09362555846455059, 0.09362555846455059]",0.002,7,1
0,109,"[0.04925795644521713, -1.5216016557863732, 0.049238030110494435, 0.04943184434857173, 0.049284566193819046, 0.04924003407359123]","[0.09447075239111392, -1.4763255744037826, 0.09447075239111392, 0.09447075239111392, 0.09447075239111392, 0.09447075239111392]",0.002,7,1
0,110,"[0.05038532614707947, -1.5205152195743104, 0.05033904710878545, 0.050487084979675245, 0.05030171945691109, 0.05031941831111908]","[0.09531534911139185, -1.4754809776835047, 0.09531534911139185, 0.09531534911139185, 0.09531534911139185, 0.09531534911139185]",0.002,7,1
0,111,"[0.0515468567609787, -1.519377925699093, 0.05143481889833623, 0.051543040866516066, 0.051477063447237015, 0.05153100565075874]","[0.09615934328618193, -1.4746369835087145, 0.09615934328618193, 0.09615934328618193, 0.09615934328618193, 0.09615934328618193]",0.002,7,1
0,112,"[0.05268511548638344, -1.5182596159032364, 0.052556816731588185, 0.05269615232434077, 0.05261765792965889, 0.05263608321547508]","[0.09700272958009082, -1.4737935972148057, 0.09700272958009082, 0.09700272958009082, 0.09700272958009082, 0.09700272958009082]",0.002,7,1
0,113,"[0.05375140905380249, -1.517057468449213, 0.053715054188863576, 0.05379466592755122, 0.053762875497341156, 0.053807422518730164]","[0.09784550266156791, -1.4729508241333287, 0.09784550266156791, 0.09784550266156791, 0.09784550266156791, 0.09784550266156791]",0.002,7,1
0,114,"[0.05497853457927704, -1.5160054874471207, 0.054886643086568654, 0.05495576440777583, 0.054940901696681976, 0.054912641644477844]","[0.09868765720293912, -1.4721086695919574, 0.09868765720293912, 0.09868765720293912, 0.09868765720293912, 0.09868765720293912]",0.002,7,1
0,115,"[0.056177329272031784, -1.514817503546812, 0.056083027516500294, 0.056074901218078566, 0.05606790632009506, 0.056175533682107925]","[0.09952918788044049, -1.471267138914456, 0.09952918788044049, 0.09952918788044049, 0.09952918788044049, 0.09952918788044049]",0.002,7,1
0,116,"[0.056177329272031784, -1.514817503546812, 0.056083027516500294, 0.056074901218078566, 0.05606790632009506, 0.056175533682107925]","[0.10037008937425189, -1.4704262374206447, 0.10037008937425189, 0.10037008937425189, 0.10037008937425189, 0.10037008937425189]",0.002,7,1
0,117,"[0.05852177366614342, -1.5124713641456147, 0.05828982988466436, 0.05839340269055171, 0.05847138538956642, 0.0586041584610939]","[0.10121035636853062, -1.4695859704263659, 0.10121035636853062, 0.10121035636853062, 0.10121035636853062, 0.10121035636853062]",0.002,7,1
0,118,"[0.059708986431360245, -1.511279822593071, 0.059552971516744435, 0.05955760061230464, 0.059671737253665924, 0.05981317162513733]","[0.10204998355144514, -1.4687463432434513, 0.10204998355144514, 0.10204998355144514, 0.10204998355144514, 0.10204998355144514]",0.002,7,1
0,119,"[0.060894522815942764, -1.5100477461567898, 0.06079560915102178, 0.06074277936901851, 0.060912419110536575, 0.06102444604039192]","[0.10288896561520831, -1.4679073611796882, 0.10288896561520831, 0.10288896561520831, 0.10288896561520831, 0.10288896561520831]",0.002,7,1
0,120,"[0.06206359714269638, -1.5089431268027802, 0.061974350606099904, 0.061990662212036085, 0.062235645949840546, 0.06225807964801788]","[0.10372729725611143, -1.4670690295387852, 0.10372729725611143, 0.10372729725611143, 0.10372729725611143, 0.10372729725611143]",0.002,7,1
0,121,"[0.06336404383182526, -1.50764603287492, 0.06321889558901006, 0.06324843942608638, 0.06344988942146301, 0.06346170604228973]","[0.10456497317455739, -1.466231353620339, 0.10456497317455739, 0.10456497317455739, 0.10456497317455739, 0.10456497317455739]",0.002,7,1
0,122,"[0.06458565592765808, -1.506509469156601, 0.06449729601015264, 0.06453935682263179, 0.06469559669494629, 0.06469693779945374]","[0.10540198807509427, -1.4653943387198023, 0.10540198807509427, 0.10540198807509427, 0.10540198807509427, 0.10540198807509427]",0.002,7,1
0,123,"[0.06578875333070755, -1.5052014675787468, 0.06571084657777959, 0.06575707971539302, 0.06589081138372421, 0.06598252058029175]","[0.1062383366664489, -1.4645579901284476, 0.1062383366664489, 0.1062383366664489, 0.1062383366664489, 0.1062383366664489]",0.002,7,1
0,124,"[0.06709590554237366, -1.503977083866932, 0.06699735323061162, 0.06703536092724605, 0.06716185063123703, 0.06715983152389526]","[0.10707401366156022, -1.4637223131333363, 0.10707401366156022, 0.10707401366156022, 0.10707401366156022, 0.10707401366156022]",0.002,7,1
0,125,"[0.06835196912288666, -1.5026841697147866, 0.06821567216982061, 0.06832961618389888, 0.06848298758268356, 0.0684070959687233]","[0.10790901377761274, -1.462887313017284, 0.10790901377761274, 0.10790901377761274, 0.10790901377761274, 0.10790901377761274]",0.002,7,1
0,126,"[0.06963060051202774, -1.5014711704901238, 0.06945974031557256, 0.06956975042309566, 0.06970783323049545, 0.06966974586248398]","[0.10874333173606994, -1.4620529950588266, 0.10874333173606994, 0.10874333173606994, 0.10874333173606994, 0.10874333173606994]",0.002,7,1
0,127,"[0.07092148810625076, -1.5001873832992096, 0.07080251375307256, 0.07094494878735347, 0.07096558064222336, 0.07092045992612839]","[0.1095769622627076, -1.461219364532189, 0.1095769622627076, 0.1095769622627076, 0.1095769622627076, 0.1095769622627076]",0.002,7,1
0,128,"[0.07218848913908005, -1.49892874181781, 0.07204944292177373, 0.07228390752758784, 0.07218970358371735, 0.07209021598100662]","[0.1104099000876472, -1.4603864267072493, 0.1104099000876472, 0.1104099000876472, 0.1104099000876472, 0.1104099000876472]",0.002,7,1
0,129,"[0.07344808429479599, -1.497695916598179, 0.0733116308795374, 0.07355634748425288, 0.07355402410030365, 0.07339996844530106]","[0.11124213994538917, -1.4595541868495074, 0.11124213994538917, 0.11124213994538917, 0.11124213994538917, 0.11124213994538917]",0.002,7,1
0,130,"[0.07470326125621796, -1.496359833782055, 0.07461196580995733, 0.07487670957531734, 0.07474450767040253, 0.07466696947813034]","[0.11207367657484625, -1.4587226502200503, 0.11207367657484625, 0.11207367657484625, 0.11207367657484625, 0.11207367657484625]",0.002,7,1
0,131,"[0.0759875550866127, -1.495075376038887, 0.07588559785951787, 0.07621292650189204, 0.07604875415563583, 0.07593949139118195]","[0.11290450471937667, -1.45789182207552, 0.11290450471937667, 0.11290450471937667, 0.11290450471937667, 0.11290450471937667]",0.002,7,1
0,132,"[0.07732390612363815, -1.4937684845975419, 0.07717544237245733, 0.07751743375744624, 0.07732801139354706, 0.07726722955703735]","[0.11373461912681745, -1.4570617076680792, 0.11373461912681745, 0.11373461912681745, 0.11373461912681745, 0.11373461912681745]",0.002,7,1
0,133,"[0.07865765690803528, -1.49237975597892, 0.07849580446352178, 0.07882813989605708, 0.07865065336227417, 0.07850560545921326]","[0.11456401454951752, -1.456232312245379, 0.11456401454951752, 0.11456401454951752, 0.11456401454951752, 0.11456401454951752]",0.002,7,1
0,134,"[0.0799107700586319, -1.4911270451596756, 0.07980758348573858, 0.08008436738934321, 0.07991547882556915, 0.07983424514532089]","[0.11539268574437102, -1.4554036410505256, 0.11539268574437102, 0.11539268574437102, 0.11539268574437102, 0.11539268574437102]",0.002,7,1
0,135,"[0.08126385509967804, -1.4897978168777009, 0.08120090166200811, 0.08135287343945308, 0.08120469748973846, 0.08115660399198532]","[0.11622062747285028, -1.4545756993220462, 0.11622062747285028, 0.11622062747285028, 0.11622062747285028, 0.11622062747285028]",0.002,7,1
0,136,"[0.08254456520080566, -1.4884636637619515, 0.0824654738055628, 0.0826694208332519, 0.08254677802324295, 0.08250313997268677]","[0.11704783450103912, -1.4537484922938575, 0.11704783450103912, 0.11704783450103912, 0.11704783450103912, 0.11704783450103912]",0.002,7,1
0,137,"[0.08388166129589081, -1.487118163411953, 0.0837634245501917, 0.0839422184177856, 0.08378519117832184, 0.08389724791049957]","[0.11787430159966572, -1.4529220251952308, 0.11787430159966572, 0.11787430159966572, 0.11787430159966572, 0.11787430159966572]",0.002,7,1
0,138,"[0.0852789580821991, -1.485786185865738, 0.08510762849916631, 0.08518914758648677, 0.08523716032505035, 0.08527632802724838]","[0.11870002354413592, -1.4520963032507606, 0.11870002354413592, 0.11870002354413592, 0.11870002354413592, 0.11870002354413592]",0.002,7,1
0,139,"[0.08657614886760712, -1.4844716948321839, 0.08641034761537725, 0.08650855600323482, 0.08656279742717743, 0.08658425509929657]","[0.1195249951145661, -1.4512713316803305, 0.1195249951145661, 0.1195249951145661, 0.1195249951145661, 0.1195249951145661]",0.002,7,1
0,140,"[0.08798415213823318, -1.4830975395492096, 0.08779412904848272, 0.08782343446697993, 0.08788822591304779, 0.08803505450487137]","[0.12034921109581614, -1.4504471156990804, 0.12034921109581614, 0.12034921109581614, 0.12034921109581614, 0.12034921109581614]",0.002,7,1
0,141,"[0.08931739628314972, -1.4816982311061402, 0.08910638490785772, 0.08912066995587153, 0.08926810324192047, 0.08932792395353317]","[0.12117266627752252, -1.449623660517374, 0.12117266627752252, 0.12117266627752252, 0.12117266627752252, 0.12117266627752252]",0.002,7,1
0,142,"[0.09058062732219696, -1.4803907212666054, 0.09043914476503545, 0.09052078306164546, 0.09065856039524078, 0.09078139811754227]","[0.12199535545413111, -1.4488009713407655, 0.12199535545413111, 0.12199535545413111, 0.12199535545413111, 0.12199535545413111]",0.002,7,1
0,143,"[0.09197495132684708, -1.4789661181024094, 0.09182149568666631, 0.09189550458874507, 0.09200595319271088, 0.0921446904540062]","[0.12281727342493026, -1.4479790533699664, 0.12281727342493026, 0.12281727342493026, 0.12281727342493026, 0.12281727342493026]",0.002,7,1
0,144,"[0.09329549223184586, -1.4776467320374032, 0.09313613573183233, 0.09318427621807857, 0.0934128612279892, 0.09346269071102142]","[0.12363841499408351, -1.447157911800813, 0.12363841499408351, 0.12363841499408351, 0.12363841499408351, 0.12363841499408351]",0.002,7,1
0,145,"[0.09466339647769928, -1.476291039293148, 0.09450275102724248, 0.09459988653149409, 0.09478543698787689, 0.0947989672422409]","[0.1244587749706625, -1.446337551824234, 0.1244587749706625, 0.1244587749706625, 0.1244587749706625, 0.1244587749706625]",0.002,7,1
0,146,"[0.09603007882833481, -1.474936419432499, 0.09590655962099248, 0.09598474084820552, 0.09612404555082321, 0.09621375799179077]","[0.12527834816867986, -1.4455179786262167, 0.12527834816867986, 0.12527834816867986, 0.12527834816867986, 0.12527834816867986]",0.002,7,1
0,147,"[0.0974469855427742, -1.4735663470676919, 0.09724933305849248, 0.09734146177258296, 0.0975145548582077, 0.09748470038175583]","[0.12609712940712178, -1.4446991973877747, 0.12609712940712178, 0.12609712940712178, 0.12609712940712178, 0.12609712940712178]",0.002,7,1
0,148,"[0.09875785559415817, -1.4721485835364838, 0.0986564795123499, 0.0987962919422607, 0.09882590919733047, 0.09884566813707352]","[0.12691511350998105, -1.4438812132849155, 0.12691511350998105, 0.12691511350998105, 0.12691511350998105, 0.12691511350998105]",0.002,7,1
0,149,"[0.10016421973705292, -1.4708511170795937, 0.10002357164491826, 0.10022227346386714, 0.10029537975788116, 0.10020051151514053]","[0.1277322953062895, -1.443064031488607, 0.1277322953062895, 0.1277322953062895, 0.1277322953062895, 0.1277322953062895]",0.002,7,1
0,150,"[0.10153407603502274, -1.469448560183384, 0.10139495531191045, 0.10162679731335444, 0.10159477591514587, 0.10160204023122787]","[0.12854866963015096, -1.4422476571647456, 0.12854866963015096, 0.12854866963015096, 0.12854866963015096, 0.12854866963015096]",0.002,7,1
0,151,"[0.10293633490800858, -1.4680693981102486, 0.10280353227724248, 0.10307519018139644, 0.10296215116977692, 0.1029246598482132]","[0.12936423132077363, -1.4414320954741229, 0.12936423132077363, 0.12936423132077363, 0.12936423132077363, 0.12936423132077363]",0.002,7,1
0,152,"[0.1043233796954155, -1.466672660117485, 0.10418683687318975, 0.10451595365490718, 0.10429133474826813, 0.10422065109014511]","[0.13017897522250294, -1.4406173515723937, 0.13017897522250294, 0.13017897522250294, 0.13017897522250294, 0.13017897522250294]",0.002,7,1
0,153,"[0.10564213991165161, -1.4654176098159333, 0.10555011430849248, 0.1058998542973022, 0.1056237742304802, 0.10561013966798782]","[0.1309928961848541, -1.4398034306100425, 0.1309928961848541, 0.1309928961848541, 0.1309928961848541, 0.1309928961848541]",0.002,7,1
0,154,"[0.10694975405931473, -1.4639530938914795, 0.10698110262026006, 0.10728256284680171, 0.10706137120723724, 0.10694804787635803]","[0.13180598906254448, -1.438990337732352, 0.13180598906254448, 0.13180598906254448, 0.13180598906254448, 0.13180598906254448]",0.002,7,1
0,155,"[0.10839873552322388, -1.4625710037401696, 0.10824901262392217, 0.10864512502636714, 0.10842768102884293, 0.10834825783967972]","[0.13261824871552635, -1.4381780780793703, 0.13261824871552635, 0.13261824871552635, 0.13261824871552635, 0.13261824871552635]",0.002,7,1
0,156,"[0.10839873552322388, -1.4625710037401696, 0.10824901262392217, 0.10864512502636714, 0.10842768102884293, 0.10834825783967972]","[0.1334296700090193, -1.4373666567858772, 0.1334296700090193, 0.1334296700090193, 0.1334296700090193, 0.1334296700090193]",0.002,7,1
0,157,"[0.11116429418325424, -1.459856094127037, 0.11105043092836553, 0.11136524259533687, 0.11120398342609406, 0.1110655814409256]","[0.13424024781354274, -1.4365560789813538, 0.13424024781354274, 0.13424024781354274, 0.13424024781354274, 0.13424024781354274]",0.002,7,1
0,158,"[0.11256201565265656, -1.4585014966181298, 0.11246711412538701, 0.11277262746777339, 0.11246813088655472, 0.112474724650383]","[0.1350499770049481, -1.4357463497899485, 0.1350499770049481, 0.1350499770049481, 0.1350499770049481, 0.1350499770049481]",0.002,7,1
0,159,"[0.11386663466691971, -1.457075760965683, 0.11388236681093389, 0.11408285676922603, 0.11393271386623383, 0.11393216997385025]","[0.1358588524644516, -1.434937474330445, 0.1358588524644516, 0.1358588524644516, 0.1358588524644516, 0.1358588524644516]",0.002,7,1
0,160,"[0.11529118567705154, -1.455714502637722, 0.11517078081239873, 0.11541728555645747, 0.11536407470703125, 0.11533607542514801]","[0.1366668690786663, -1.4341294577162302, 0.1366668690786663, 0.1366668690786663, 0.1366668690786663, 0.1366668690786663]",0.002,7,1
0,161,"[0.11670899391174316, -1.454349846845009, 0.11651689211000615, 0.11673347532238765, 0.11673878133296967, 0.1167098730802536]","[0.13747402173963455, -1.433322305055262, 0.13747402173963455, 0.13747402173963455, 0.13747402173963455, 0.13747402173963455]",0.002,7,1
0,162,"[0.11812407523393631, -1.4529484894922753, 0.11791021028627569, 0.1180620628544311, 0.11814957857131958, 0.11811535805463791]","[0.13828030534486035, -1.432516021450036, 0.13828030534486035, 0.13828030534486035, 0.13828030534486035, 0.13828030534486035]",0.002,7,1
0,163,"[0.1194811761379242, -1.4515902635506173, 0.11925107637514287, 0.11940018712963862, 0.11954502016305923, 0.11950989067554474]","[0.1390857147973414, -1.4317106119975551, 0.1390857147973414, 0.1390857147973414, 0.1390857147973414, 0.1390857147973414]",0.002,7,1
0,164,"[0.12087249755859375, -1.4501458343914528, 0.12070781389345342, 0.1207156616398315, 0.12089686840772629, 0.12093977630138397]","[0.13989024500560152, -1.4309060817892951, 0.13989024500560152, 0.13989024500560152, 0.13989024500560152, 0.13989024500560152]",0.002,7,1
0,165,"[0.12227404862642288, -1.4487821993282815, 0.12207252184023076, 0.1221729952045898, 0.1223432868719101, 0.12233805656433105]","[0.14069389088372272, -1.4301024359111738, 0.14069389088372272, 0.14069389088372272, 0.14069389088372272, 0.14069389088372272]",0.002,7,1
0,166,"[0.12356854230165482, -1.4473653075150033, 0.12340671220888311, 0.12347654878582759, 0.12377092242240906, 0.12373976409435272]","[0.14149664735137746, -1.429299679443519, 0.14149664735137746, 0.14149664735137746, 0.14149664735137746, 0.14149664735137746]",0.002,7,1
0,167,"[0.12491849064826965, -1.4460236963680764, 0.12481671968568975, 0.12479738771405025, 0.12511706352233887, 0.12509137392044067]","[0.1422985093338606, -1.4284978174610359, 0.1422985093338606, 0.1422985093338606, 0.1422985093338606, 0.1422985093338606]",0.002,7,1
0,168,"[0.1262887418270111, -1.4446941328099747, 0.12617761293520147, 0.12618891775097651, 0.12649348378181458, 0.12649570405483246]","[0.14309947176212165, -1.4276968550327749, 0.14309947176212165, 0.14309947176212165, 0.14309947176212165, 0.14309947176212165]",0.002,7,1
0,169,"[0.1262887418270111, -1.4446941328099747, 0.12617761293520147, 0.12618891775097651, 0.12649348378181458, 0.12649570405483246]","[0.1438995295727967, -1.4268967972220998, 0.1438995295727967, 0.1438995295727967, 0.1438995295727967, 0.1438995295727967]",0.002,7,1
0,170,"[0.1290627270936966, -1.441944734459259, 0.12895375887026006, 0.129025860423706, 0.12931135296821594, 0.12923374772071838]","[0.1446986777082405, -1.4260976490866561, 0.1446986777082405, 0.1446986777082405, 0.1446986777082405, 0.1446986777082405]",0.002,7,1
0,171,"[0.13045842945575714, -1.4405871641686936, 0.13036758104433233, 0.13039688646282954, 0.13059867918491364, 0.13057054579257965]","[0.1454969111165584, -1.425299415678338, 0.1454969111165584, 0.1454969111165584, 0.1454969111165584, 0.1454969111165584]",0.002,7,1
0,172,"[0.13188645243644714, -1.4392339003137131, 0.13175756136049444, 0.13178329050030513, 0.13193154335021973, 0.13191841542720795]","[0.14629422475163825, -1.4245021020432582, 0.14629422475163825, 0.14629422475163825, 0.14629422475163825, 0.14629422475163825]",0.002,7,1
0,173,"[0.1331910640001297, -1.4378653478673478, 0.13304216066469365, 0.13325993596997066, 0.133261576294899, 0.1332220733165741]","[0.14709061357318243, -1.4237057132217141, 0.14709061357318243, 0.14709061357318243, 0.14709061357318243, 0.14709061357318243]",0.002,7,1
0,174,"[0.13460709154605865, -1.4364981365254899, 0.13443500200380498, 0.13464288293804927, 0.13461294770240784, 0.1346462219953537]","[0.14788607254673947, -1.422910254248157, 0.14788607254673947, 0.14788607254673947, 0.14788607254673947, 0.14788607254673947]",0.002,7,1
0,175,"[0.1359235793352127, -1.4352050882628937, 0.13579923311342412, 0.13611011087384028, 0.1359439343214035, 0.13591042160987854]","[0.1486805966437362, -1.4221157301511604, 0.1486805966437362, 0.1486805966437362, 0.1486805966437362, 0.1486805966437362]",0.002,7,1
0,176,"[0.13725008070468903, -1.4338279229453583, 0.1371548811541956, 0.1374083000370483, 0.13721486926078796, 0.13722650706768036]","[0.14947418084150924, -1.4213221459533874, 0.14947418084150924, 0.14947418084150924, 0.14947418084150924, 0.14947418084150924]",0.002,7,1
0,177,"[0.1385957896709442, -1.432426170711853, 0.13849145570863897, 0.1388125854679565, 0.1386043280363083, 0.13858506083488464]","[0.1502668201233369, -1.4205295066715597, 0.1502668201233369, 0.1502668201233369, 0.1502668201233369, 0.1502668201233369]",0.002,7,1
0,178,"[0.13993780314922333, -1.4311017406037827, 0.1398542563067835, 0.1400889593311767, 0.1399410218000412, 0.1398646980524063]","[0.15105850947847094, -1.4197378173164257, 0.15105850947847094, 0.15105850947847094, 0.15105850947847094, 0.15105850947847094]",0.002,7,1
0,179,"[0.14124496281147003, -1.429752768283226, 0.1411226431476038, 0.1413624721714477, 0.14125382900238037, 0.14120936393737793]","[0.15184924390216806, -1.4189470828927284, 0.15184924390216806, 0.15184924390216806, 0.15184924390216806, 0.15184924390216806]",0.002,7,1
0,180,"[0.1425940990447998, -1.4284761560014267, 0.14244586626161748, 0.1427413660236816, 0.14249776303768158, 0.14254994690418243]","[0.15263901839572178, -1.4181573083991748, 0.15263901839572178, 0.15263901839572178, 0.15263901839572178, 0.15263901839572178]",0.002,7,1
0,181,"[0.14389820396900177, -1.427064762716629, 0.14374143282045537, 0.14405445634808345, 0.14383918046951294, 0.1438620537519455]","[0.1534278279664938, -1.4173684988284028, 0.1534278279664938, 0.1534278279664938, 0.1534278279664938, 0.1534278279664938]",0.002,7,1
0,182,"[0.1452305167913437, -1.425723360185959, 0.14507753053774053, 0.1453971105762939, 0.14515334367752075, 0.14521583914756775]","[0.15421566762794578, -1.4165806591669508, 0.15421566762794578, 0.15421566762794578, 0.15421566762794578, 0.15421566762794578]",0.002,7,1
0,183,"[0.14654746651649475, -1.4243825686028977, 0.14642554918398076, 0.146587534541748, 0.1463758647441864, 0.14653925597667694]","[0.15500253239967066, -1.415793794395226, 0.15500253239967066, 0.15500253239967066, 0.15500253239967066, 0.15500253239967066]",0.002,7,1
0,184,"[0.14654746651649475, -1.4243825686028977, 0.14642554918398076, 0.146587534541748, 0.1463758647441864, 0.14653925597667694]","[0.1557884173074243, -1.4150079094874723, 0.1557884173074243, 0.1557884173074243, 0.1557884173074243, 0.1557884173074243]",0.002,7,1
0,185,"[0.14918826520442963, -1.4217684876969834, 0.14893085161317998, 0.14904086172070308, 0.1491134911775589, 0.14923091232776642]","[0.15657331738315688, -1.4142230094117396, 0.15657331738315688, 0.15657331738315688, 0.15657331738315688, 0.15657331738315688]",0.002,7,1
0,186,"[0.15049999952316284, -1.4203592997840424, 0.15029508272279912, 0.15038923799481196, 0.15044553577899933, 0.15052558481693268]","[0.15735722766504429, -1.4134390991298522, 0.15735722766504429, 0.15735722766504429, 0.15735722766504429, 0.15735722766504429]",0.002,7,1
0,187,"[0.15180043876171112, -1.4190640163472672, 0.1516349951373499, 0.15163223325695796, 0.1517084538936615, 0.15189893543720245]","[0.15814014319751943, -1.4126561835973772, 0.15814014319751943, 0.15814014319751943, 0.15814014319751943, 0.15814014319751943]",0.002,7,1
0,188,"[0.15305189788341522, -1.4177714747241517, 0.15293437639345342, 0.15290145456280513, 0.15308643877506256, 0.1531580537557602]","[0.1589220590313037, -1.411874267763593, 0.1589220590313037, 0.1589220590313037, 0.1589220590313037, 0.1589220590313037]",0.002,7,1
0,189,"[0.15433596074581146, -1.4164748650840302, 0.15416986147035772, 0.15418974935498042, 0.1543906033039093, 0.15447469055652618]","[0.15970297022343813, -1.4110933565714585, 0.15970297022343813, 0.15970297022343813, 0.15970297022343813, 0.15970297022343813]",0.002,7,1
0,190,"[0.1554650366306305, -1.4152071934989472, 0.15553361574281865, 0.15547995149578853, 0.1556222140789032, 0.15576757490634918]","[0.16048287183731472, -1.4103134549575818, 0.16048287183731472, 0.16048287183731472, 0.16048287183731472, 0.16048287183731472]",0.002,7,1
0,191,"[0.15678836405277252, -1.4138836127570649, 0.15678006807436162, 0.15675262987103267, 0.15696895122528076, 0.15701718628406525]","[0.16126175894270764, -1.409534567852189, 0.16126175894270764, 0.16126175894270764, 0.16126175894270764, 0.16126175894270764]",0.002,7,1
0,192,"[0.15801246464252472, -1.412631557588913, 0.1580422560321253, 0.15802912294354243, 0.15830162167549133, 0.15827618539333344]","[0.1620396266158043, -1.4087567001790924, 0.1620396266158043, 0.1620396266158043, 0.1620396266158043, 0.1620396266158043]",0.002,7,1
0,193,"[0.15927281975746155, -1.4113339197686692, 0.15930253664125615, 0.15934447824444575, 0.159593403339386, 0.1594994217157364]","[0.16281646993923665, -1.4079798568556599, 0.16281646993923665, 0.16281646993923665, 0.16281646993923665, 0.16281646993923665]",0.002,7,1
0,194,"[0.16054755449295044, -1.4101575028947373, 0.16060239473451787, 0.1606467205234985, 0.16073164343833923, 0.16083146631717682]","[0.16359228400211215, -1.4072040427927843, 0.16359228400211215, 0.16359228400211215, 0.16359228400211215, 0.16359228400211215]",0.002,7,1
0,195,"[0.1618395298719406, -1.408864976172783, 0.1618436018573206, 0.16189472257580562, 0.16198767721652985, 0.16198121011257172]","[0.16436706390004474, -1.4064292628948518, 0.16436706390004474, 0.16436706390004474, 0.16436706390004474, 0.16436706390004474]",0.002,7,1
0,196,"[0.1630832999944687, -1.4076151561788102, 0.16309005418886358, 0.1631510692783813, 0.16325080394744873, 0.16321025788784027]","[0.16514080473518608, -1.4056555220597104, 0.16514080473518608, 0.16514080473518608, 0.16514080473518608, 0.16514080473518608]",0.002,7,1
0,197,"[0.1643952578306198, -1.4064473372748871, 0.1643584410296839, 0.1644185024448852, 0.16439372301101685, 0.1643727570772171]","[0.1659135016162562, -1.4048828251786403, 0.1659135016162562, 0.1659135016162562, 0.1659135016162562, 0.1659135016162562]",0.002,7,1
0,198,"[0.16552841663360596, -1.40520994484935, 0.16556007066835576, 0.16571883737530513, 0.1656493842601776, 0.16562004387378693]","[0.16668514965857478, -1.4041111771363217, 0.16668514965857478, 0.16668514965857478, 0.16668514965857478, 0.16668514965857478]",0.002,7,1
0,199,"[0.1667310893535614, -1.403996319775917, 0.16676599184145147, 0.1669652897068481, 0.1668449342250824, 0.16679082810878754]","[0.1674557439840917, -1.403340582810805, 0.1674557439840917, 0.1674557439840917, 0.1674557439840917, 0.1674557439840917]",0.002,7,1
0,200,"[0.16792844235897064, -1.4027597171119233, 0.16806108156313115, 0.16816572725262446, 0.16802212595939636, 0.16794747114181519]","[0.16822527972141804, -1.4025710470734785, 0.16822527972141804, 0.16822527972141804, 0.16822527972141804, 0.16822527972141804]",0.002,7,1
0,201,"[0.16909514367580414, -1.4016249787858506, 0.16917401949037725, 0.1693754631229858, 0.1692046970129013, 0.16913308203220367]","[0.16899375200585687, -1.4018025747890397, 0.16899375200585687, 0.16899375200585687, 0.16899375200585687, 0.16899375200585687]",0.002,7,1
0,202,"[0.17030976712703705, -1.4004063618234177, 0.17040807405580694, 0.17056850969281, 0.17041978240013123, 0.1703345775604248]","[0.16976115597943403, -1.4010351708154625, 0.16976115597943403, 0.16976115597943403, 0.16976115597943403, 0.16976115597943403]",0.002,7,1
0,203,"[0.1715163141489029, -1.399199367766716, 0.17151004472841436, 0.17172114431347651, 0.17153969407081604, 0.17149849236011505]","[0.17052748679092875, -1.4002688400039678, 0.17052748679092875, 0.17052748679092875, 0.17052748679092875, 0.17052748679092875]",0.002,7,1
0,204,"[0.17267285287380219, -1.3980350953391572, 0.1726749579059046, 0.1728338438221435, 0.17273466289043427, 0.1725834310054779]","[0.1712927395959043, -1.3995035871989923, 0.1712927395959043, 0.1712927395959043, 0.1712927395959043, 0.1712927395959043]",0.002,7,1
0,205,"[0.17384126782417297, -1.3968669337085267, 0.1738527456866663, 0.17412833749737544, 0.17382588982582092, 0.17376495897769928]","[0.17205690955673872, -1.3987394172381578, 0.17205690955673872, 0.17205690955673872, 0.17205690955673872, 0.17205690955673872]",0.002,7,1
0,206,"[0.17499427497386932, -1.3957258474877854, 0.17501813570131475, 0.17520026742901607, 0.17503823339939117, 0.1749693602323532]","[0.17281999184265545, -1.3979763349522412, 0.17281999184265545, 0.17281999184265545, 0.17281999184265545, 0.17281999184265545]",0.002,7,1
0,207,"[0.17612090706825256, -1.3945132803967972, 0.17614251772035772, 0.1763252454945068, 0.17609688639640808, 0.17612995207309723]","[0.17358198162975366, -1.3972143451651429, 0.17358198162975366, 0.17358198162975366, 0.17358198162975366, 0.17358198162975366]",0.002,7,1
0,208,"[0.17729376256465912, -1.39341393232856, 0.17724162737001592, 0.17735473691906734, 0.17730748653411865, 0.17723052203655243]","[0.17434287410103894, -1.3964534526938577, 0.17434287410103894, 0.17434287410103894, 0.17434287410103894, 0.17434287410103894]",0.002,7,1
0,209,"[0.17838455736637115, -1.3923050922206421, 0.17835551897157842, 0.178403301829956, 0.1784716546535492, 0.17845799028873444]","[0.17510266444645348, -1.395693662348443, 0.17510266444645348, 0.17510266444645348, 0.17510266444645348, 0.17510266444645348]",0.002,7,1
0,210,"[0.1795957386493683, -1.391118885283806, 0.17950946489442998, 0.17955319463696284, 0.1795104444026947, 0.17954246699810028]","[0.175861347862907, -1.3949349789319896, 0.175861347862907, 0.175861347862907, 0.175861347862907, 0.175861347862907]",0.002,7,1
0,211,"[0.18069392442703247, -1.390036792760231, 0.18059093156923467, 0.18058852731671138, 0.18068081140518188, 0.1806904524564743]","[0.1766189195543065, -1.3941774072405901, 0.1766189195543065, 0.1766189195543065, 0.1766189195543065, 0.1766189195543065]",0.002,7,1
0,212,"[0.18183423578739166, -1.3889564734748383, 0.1816952864276331, 0.18170635282482905, 0.1817520409822464, 0.18187257647514343]","[0.17737537473158696, -1.3934209520633096, 0.17737537473158696, 0.17737537473158696, 0.17737537473158696, 0.17737537473158696]",0.002,7,1
0,213,"[0.18293920159339905, -1.3878024530461808, 0.1827605406390589, 0.18279127656903071, 0.1828804761171341, 0.1829763650894165]","[0.17813070861274155, -1.392665618182155, 0.17813070861274155, 0.17813070861274155, 0.17813070861274155, 0.17813070861274155]",0.002,7,1
0,214,"[0.18403837084770203, -1.3867830646089097, 0.18385869661440069, 0.18387679635968013, 0.1839740127325058, 0.18401728570461273]","[0.17888491642285176, -1.3919114103720447, 0.17888491642285176, 0.17888491642285176, 0.17888491642285176, 0.17888491642285176]",0.002,7,1
0,215,"[0.18509544432163239, -1.3856358093074341, 0.18496972719301397, 0.18493465959515376, 0.18515945971012115, 0.18514543771743774]","[0.1796379933941177, -1.3911583334007789, 0.1796379933941177, 0.1796379933941177, 0.1796379933941177, 0.1796379933941177]",0.002,7,1
0,216,"[0.18509544432163239, -1.3856358093074341, 0.18496972719301397, 0.18493465959515376, 0.18515945971012115, 0.18514543771743774]","[0.18038993476588813, -1.3904063920290084, 0.18038993476588813, 0.18038993476588813, 0.18038993476588813, 0.18038993476588813]",0.002,7,1
0,217,"[0.18719102442264557, -1.3835750085166474, 0.18707591692079717, 0.18712322294201655, 0.1873146891593933, 0.18733404576778412]","[0.18114073578469073, -1.3896555910102057, 0.18114073578469073, 0.18114073578469073, 0.18114073578469073, 0.18114073578469073]",0.002,7,1
0,218,"[0.1882474571466446, -1.3824921709350129, 0.18811494508852178, 0.18814365446057124, 0.18841826915740967, 0.18843214213848114]","[0.1818903917042619, -1.3889059350906345, 0.1818903917042619, 0.1818903917042619, 0.1818903917042619, 0.1818903917042619]",0.002,7,1
0,219,"[0.1882474571466446, -1.3824921709350129, 0.18811494508852178, 0.18814365446057124, 0.18841826915740967, 0.18843214213848114]","[0.18263889778557701, -1.3881574290093195, 0.18263889778557701, 0.18263889778557701, 0.18263889778557701, 0.18263889778557701]",0.002,7,1
0,220,"[0.1903270184993744, -1.3804457646659394, 0.19018108049501592, 0.19029120981182857, 0.19043569266796112, 0.19040757417678833]","[0.18338624929688016, -1.3874100774980165, 0.18338624929688016, 0.18338624929688016, 0.18338624929688016, 0.18338624929688016]",0.002,7,1
0,221,"[0.19130948185920715, -1.3794128608754654, 0.19121963182558233, 0.19134001314129634, 0.19147664308547974, 0.19145745038986206]","[0.18413244151371425, -1.3866638852811823, 0.18413244151371425, 0.18413244151371425, 0.18413244151371425, 0.18413244151371425]",0.002,7,1
0,222,"[0.1923179179430008, -1.378416584139206, 0.19224101701845342, 0.19239334642376704, 0.19247102737426758, 0.192449152469635]","[0.1848774697189507, -1.385918857075946, 0.1848774697189507, 0.1848774697189507, 0.1848774697189507, 0.1848774697189507]",0.002,7,1
0,223,"[0.1933833360671997, -1.3773819667151947, 0.1932919661151331, 0.19342665254559321, 0.19340941309928894, 0.19349370896816254]","[0.18562132920281937, -1.385174997592077, 0.18562132920281937, 0.18562132920281937, 0.18562132920281937, 0.18562132920281937]",0.002,7,1
0,224,"[0.1943546086549759, -1.3764052403024216, 0.19430238405336553, 0.1944081026264648, 0.1944521814584732, 0.19438794255256653]","[0.18636401526293842, -1.3844323115319581, 0.18636401526293842, 0.18636401526293842, 0.18636401526293842, 0.18636401526293842]",0.002,7,1
0,225,"[0.19536040723323822, -1.3754506421140213, 0.1952140966998499, 0.1954524952122192, 0.19538922607898712, 0.19533707201480865]","[0.1871055232043438, -1.3836908035905529, 0.1871055232043438, 0.1871055232043438, 0.1871055232043438, 0.1871055232043438]",0.002,7,1
0,226,"[0.19638493657112122, -1.3744561088136216, 0.19626266161073858, 0.19647221147503657, 0.19632573425769806, 0.19630077481269836]","[0.18784584833951898, -1.3829504784553777, 0.18784584833951898, 0.18784584833951898, 0.18784584833951898, 0.18784584833951898]",0.002,7,1
0,227,"[0.1973070204257965, -1.3734315794757386, 0.19713288942445928, 0.1973990637012939, 0.19735358655452728, 0.19728122651576996]","[0.1885849859884249, -1.3822113408064716, 0.1885849859884249, 0.1885849859884249, 0.1885849859884249, 0.1885849859884249]",0.002,7,1
0,228,"[0.19826443493366241, -1.3725595784238358, 0.198129955922262, 0.1984364229389648, 0.19820798933506012, 0.19816438853740692]","[0.18932293147852913, -1.3814733953163674, 0.18932293147852913, 0.18932293147852913, 0.18932293147852913, 0.18932293147852913]",0.002,7,1
0,229,"[0.19911795854568481, -1.3715347659638901, 0.19915658632387334, 0.199374719257019, 0.19921837747097015, 0.19906851649284363]","[0.19005968014483562, -1.380736646650061, 0.19005968014483562, 0.19005968014483562, 0.19005968014483562, 0.19005968014483562]",0.002,7,1
0,230,"[0.20004981756210327, -1.370668576364853, 0.20004254976381475, 0.20031027376141353, 0.2001405954360962, 0.20002953708171844]","[0.19079522732991422, -1.3800010994649823, 0.19079522732991422, 0.19079522732991422, 0.19079522732991422, 0.19079522732991422]",0.002,7,1
0,231,"[0.2009621560573578, -1.3697019529393692, 0.20103532472719365, 0.20123295366253657, 0.20102085173130035, 0.2009156346321106]","[0.19152956838393, -1.3792667584109666, 0.19152956838393, 0.19152956838393, 0.19152956838393, 0.19152956838393]",0.002,7,1
0,232,"[0.20196673274040222, -1.3688202959350129, 0.20193893114198858, 0.202135367984436, 0.20196974277496338, 0.20179060101509094]","[0.19226269866467274, -1.3785336281302238, 0.19226269866467274, 0.19226269866467274, 0.19226269866467274, 0.19226269866467274]",0.002,7,1
0,233,"[0.20285065472126007, -1.3678708684495469, 0.20277816454042608, 0.2030513721653442, 0.2027723491191864, 0.20273233950138092]","[0.19299461353758618, -1.3778017132573104, 0.19299461353758618, 0.19299461353758618, 0.19299461353758618, 0.19299461353758618]",0.002,7,1
0,234,"[0.20372024178504944, -1.3670102220824738, 0.20366079012026006, 0.2039075332828979, 0.20372775197029114, 0.2036178708076477]","[0.19372530837579754, -1.377071018419099, 0.19372530837579754, 0.19372530837579754, 0.19372530837579754, 0.19372530837579754]",0.002,7,1
0,235,"[0.20458708703517914, -1.3661137384227295, 0.20458537737001592, 0.20472971975292964, 0.2045401781797409, 0.20453797280788422]","[0.19445477856014645, -1.37634154823475, 0.19445477856014645, 0.19445477856014645, 0.19445477856014645, 0.19445477856014645]",0.002,7,1
0,236,"[0.20537786185741425, -1.3652564597180863, 0.20545941988100225, 0.20553044855084224, 0.20542502403259277, 0.20538710057735443]","[0.19518301947921435, -1.3756133073156822, 0.19518301947921435, 0.19518301947921435, 0.19518301947921435, 0.19518301947921435]",0.002,7,1
0,237,"[0.2063072770833969, -1.3644161981395264, 0.20627242723573858, 0.2064238029667358, 0.20635469257831573, 0.20620551705360413]","[0.19591002652935363, -1.374886300265543, 0.19591002652935363, 0.19591002652935363, 0.19591002652935363, 0.19591002652935363]",0.002,7,1
0,238,"[0.2071736603975296, -1.3635706466487427, 0.20718366304506475, 0.2072858053394775, 0.20713117718696594, 0.20709508657455444]","[0.19663579511471674, -1.3741605316801797, 0.19663579511471674, 0.19663579511471674, 0.19663579511471674, 0.19663579511471674]",0.002,7,1
0,239,"[0.20800583064556122, -1.3627226215652009, 0.20800906816591436, 0.20805971204724116, 0.20787371695041656, 0.20794865489006042]","[0.19736032064728512, -1.3734360061476114, 0.19736032064728512, 0.19736032064728512, 0.19736032064728512, 0.19736032064728512]",0.002,7,1
0,240,"[0.2087983936071396, -1.3618744921735306, 0.2087796370135706, 0.20886747419323726, 0.20877180993556976, 0.20883828401565552]","[0.19808359854689833, -1.3727127282479983, 0.19808359854689833, 0.19808359854689833, 0.19808359854689833, 0.19808359854689833]",0.002,7,1
0,241,"[0.20962288975715637, -1.3611139518073578, 0.2096489111529749, 0.20968799173321528, 0.20966987311840057, 0.2096540629863739]","[0.19880562424128306, -1.3719907025536136, 0.19880562424128306, 0.19880562424128306, 0.19880562424128306, 0.19880562424128306]",0.002,7,1
0,242,"[0.21051666140556335, -1.3603117179921647, 0.21037227312196904, 0.21046654760327144, 0.21044796705245972, 0.21044617891311646]","[0.1995263931660818, -1.3712699336288148, 0.1995263931660818, 0.1995263931660818, 0.1995263931660818, 0.1995263931660818]",0.002,7,1
0,243,"[0.21124011278152466, -1.3594642591527482, 0.21125442186464483, 0.21123067914929194, 0.2112206071615219, 0.21129199862480164]","[0.20024590076488188, -1.3705504260300148, 0.20024590076488188, 0.20024590076488188, 0.20024590076488188, 0.20024590076488188]",0.002,7,1
0,244,"[0.21213673055171967, -1.358743892317154, 0.21204835573305303, 0.21203510343518062, 0.2120821624994278, 0.21206721663475037]","[0.2009641424892442, -1.3698321843056522, 0.2009641424892442, 0.2009641424892442, 0.2009641424892442, 0.2009641424892442]",0.002,7,1
0,245,"[0.21283841133117676, -1.3579456371119996, 0.21281034151186162, 0.2127724128910522, 0.21286195516586304, 0.21291784942150116]","[0.20168111379873216, -1.3691152129961643, 0.20168111379873216, 0.20168111379873216, 0.20168111379873216, 0.20168111379873216]",0.002,7,1
0,246,"[0.21365246176719666, -1.35719287515197, 0.21353084245790654, 0.21353499471630855, 0.21363672614097595, 0.21365712583065033]","[0.20239681016094002, -1.3683995166339566, 0.20239681016094002, 0.20239681016094002, 0.20239681016094002, 0.20239681016094002]",0.002,7,1
0,247,"[0.2144736796617508, -1.356377662425377, 0.21439820924867803, 0.21426384031262202, 0.21437972784042358, 0.21447186172008514]","[0.20311122705152185, -1.3676850997433747, 0.20311122705152185, 0.20311122705152185, 0.20311122705152185, 0.20311122705152185]",0.002,7,1
0,248,"[0.21515583992004395, -1.3556252878955384, 0.21508533159364873, 0.21497981130566401, 0.21521463990211487, 0.2151951789855957]","[0.20382435995421994, -1.3669719668406766, 0.20382435995421994, 0.20382435995421994, 0.20382435995421994, 0.20382435995421994]",0.002,7,1
0,249,"[0.21588730812072754, -1.3549384486726304, 0.21586496034731084, 0.21573834001507564, 0.21596500277519226, 0.21598686277866364]","[0.20453620436089365, -1.366260122434003, 0.20453620436089365, 0.20453620436089365, 0.20453620436089365, 0.20453620436089365]",0.002,7,1
0,250,"[0.21662043035030365, -1.3542317611030121, 0.21656638780702764, 0.21648745119061275, 0.21666814386844635, 0.2166902720928192]","[0.20524675577154747, -1.3655495710233492, 0.20524675577154747, 0.20524675577154747, 0.20524675577154747, 0.20524675577154747]",0.002,7,1
0,251,"[0.21736076474189758, -1.3534462314895173, 0.21731120744814092, 0.21726100027050776, 0.21738648414611816, 0.21740767359733582]","[0.20595600969435976, -1.3648403171005368, 0.20595600969435976, 0.20595600969435976, 0.20595600969435976, 0.20595600969435976]",0.002,7,1
0,252,"[0.21799790859222412, -1.3527887177518387, 0.21801358858217412, 0.21792618810620112, 0.21814700961112976, 0.21817409992218018]","[0.2066639616457111, -1.3641323651491855, 0.2066639616457111, 0.2066639616457111, 0.2066639616457111, 0.2066639616457111]",0.002,7,1
0,253,"[0.21872971951961517, -1.3520367008498688, 0.218698803578512, 0.21862630426373286, 0.2188751995563507, 0.21884247660636902]","[0.20737060715021263, -1.363425719644684, 0.20737060715021263, 0.20737060715021263, 0.20737060715021263, 0.20737060715021263]",0.002,7,1
0,254,"[0.21942304074764252, -1.3513953548720856, 0.2194159666644495, 0.2193431097218017, 0.21958774328231812, 0.21951758861541748]","[0.20807594174073432, -1.3627203850541623, 0.20807594174073432, 0.20807594174073432, 0.20807594174073432, 0.20807594174073432]",0.002,7,1
0,255,"[0.22016483545303345, -1.3506010633758088, 0.22010928789247686, 0.2200649219700317, 0.2202291190624237, 0.22021996974945068]","[0.20877996095843313, -1.3620163658364635, 0.20877996095843313, 0.20877996095843313, 0.20877996095843313, 0.20877996095843313]",0.002,7,1
0,256,"[0.22079700231552124, -1.3498774033835907, 0.22073823610414678, 0.2207469183155517, 0.22087062895298004, 0.22088515758514404]","[0.20948266035278137, -1.3613136664421153, 0.20948266035278137, 0.20948266035278137, 0.20948266035278137, 0.20948266035278137]",0.002,7,1
0,257,"[0.22139528393745422, -1.3492404383471985, 0.2214883009540003, 0.22143761693920894, 0.2215658575296402, 0.22157417237758636]","[0.21018403548159476, -1.3606122913133019, 0.21018403548159476, 0.21018403548159476, 0.21018403548159476, 0.21018403548159476]",0.002,7,1
0,258,"[0.22205466032028198, -1.3485739094069977, 0.22210389772524053, 0.22210125505413814, 0.22225388884544373, 0.22224509716033936]","[0.21088408191106037, -1.359912244883836, 0.21088408191106037, 0.21088408191106037, 0.21088408191106037, 0.21088408191106037]",0.002,7,1
0,259,"[0.22268103063106537, -1.3478884410909195, 0.22286540666689092, 0.22277431070294185, 0.2229224294424057, 0.22291195392608643]","[0.21158279521576495, -1.3592135315791316, 0.21158279521576495, 0.21158279521576495, 0.21158279521576495, 0.21158279521576495]",0.002,7,1
0,260,"[0.22332610189914703, -1.3472937506488343, 0.2234261671649378, 0.22338776170697017, 0.22354695200920105, 0.22347962856292725]","[0.21228017097872262, -1.358516155816174, 0.21228017097872262, 0.21228017097872262, 0.21228017097872262, 0.21228017097872262]",0.002,7,1
0,261,"[0.22400249540805817, -1.3466381442597886, 0.22406369844545537, 0.2240481811710815, 0.22412624955177307, 0.22410881519317627]","[0.2129762047914029, -1.3578201220034938, 0.2129762047914029, 0.2129762047914029, 0.2129762047914029, 0.2129762047914029]",0.002,7,1
0,262,"[0.22464217245578766, -1.3459708404592057, 0.2246945540057581, 0.2246907192417602, 0.2247433066368103, 0.22473059594631195]","[0.21367089225375857, -1.357125434541138, 0.21367089225375857, 0.21367089225375857, 0.21367089225375857, 0.21367089225375857]",0.002,7,1
0,263,"[0.22528061270713806, -1.3453691464713593, 0.2253802458392542, 0.22535876810040278, 0.22533759474754333, 0.22536121308803558]","[0.21436422897425364, -1.356432097820643, 0.21436422897425364, 0.21436422897425364, 0.21436422897425364, 0.21436422897425364]",0.002,7,1
0,264,"[0.22590112686157227, -1.344792978172638, 0.22598296800722295, 0.22596923887219234, 0.22595876455307007, 0.2258630096912384]","[0.21505621056989077, -1.3557401162250058, 0.21505621056989077, 0.21505621056989077, 0.21505621056989077, 0.21505621056989077]",0.002,7,1
0,265,"[0.22649842500686646, -1.3442334693721314, 0.2266457716571253, 0.2265801864811401, 0.2265664041042328, 0.22651660442352295]","[0.21574683266623934, -1.3550494941286573, 0.21574683266623934, 0.21574683266623934, 0.21574683266623934, 0.21574683266623934]",0.002,7,1
0,266,"[0.22707483172416687, -1.3435753744891663, 0.2271793524371546, 0.22719649850811763, 0.22708357870578766, 0.22702747583389282]","[0.21643609089746282, -1.3543602358974338, 0.21643609089746282, 0.21643609089746282, 0.21643609089746282, 0.21643609089746282]",0.002,7,1
0,267,"[0.22763094305992126, -1.343026028280594, 0.22777063051332647, 0.22769336282696528, 0.2276427298784256, 0.22764292359352112]","[0.21712398090634666, -1.3536723458885498, 0.21712398090634666, 0.21712398090634666, 0.21712398090634666, 0.21712398090634666]",0.002,7,1
0,268,"[0.22820959985256195, -1.3423753541759034, 0.2283700148211878, 0.22827975332226558, 0.22822242975234985, 0.22819653153419495]","[0.21781049834432537, -1.3529858284505711, 0.21781049834432537, 0.21781049834432537, 0.21781049834432537, 0.21781049834432537]",0.002,7,1
0,269,"[0.22876116633415222, -1.341873825793602, 0.228891674672262, 0.2288854557224731, 0.22877882421016693, 0.22875821590423584]","[0.21849563887151058, -1.3523006879233859, 0.21849563887151058, 0.21849563887151058, 0.21849563887151058, 0.21849563887151058]",0.002,7,1
0,270,"[0.22923728823661804, -1.3412775111249466, 0.2294257322894495, 0.22950605928387446, 0.22927634418010712, 0.22927501797676086]","[0.21917939815671814, -1.3516169286381785, 0.21917939815671814, 0.21917939815671814, 0.21917939815671814, 0.21917939815671814]",0.002,7,1
0,271,"[0.22985991835594177, -1.3408009868911286, 0.23002702394594365, 0.23003606378521724, 0.2298249751329422, 0.22982218861579895]","[0.2198617718774954, -1.3509345549174012, 0.2198617718774954, 0.2198617718774954, 0.2198617718774954, 0.2198617718774954]",0.002,7,1
0,272,"[0.22985991835594177, -1.3408009868911286, 0.23002702394594365, 0.23003606378521724, 0.2298249751329422, 0.22982218861579895]","[0.22054275572014892, -1.3502535710747476, 0.22054275572014892, 0.22054275572014892, 0.22054275572014892, 0.22054275572014892]",0.002,7,1
0,273,"[0.23088937997817993, -1.3396861416152497, 0.2311313788043421, 0.23111085473980708, 0.23085685074329376, 0.2308894395828247]","[0.2212223453797713, -1.3495739814151253, 0.2212223453797713, 0.2212223453797713, 0.2212223453797713, 0.2212223453797713]",0.002,7,1
0,274,"[0.23145753145217896, -1.339222253566124, 0.23153812090028936, 0.23156635343518062, 0.2314380258321762, 0.23145747184753418]","[0.22190053656026884, -1.3488957902346277, 0.22190053656026884, 0.22190053656026884, 0.22190053656026884, 0.22190053656026884]",0.002,7,1
0,275,"[0.23201799392700195, -1.3387115013650437, 0.23205835023988897, 0.23216573774304194, 0.23191362619400024, 0.23194091022014618]","[0.22257732497438826, -1.3482190018205082, 0.22257732497438826, 0.22257732497438826, 0.22257732497438826, 0.22257732497438826]",0.002,7,1
0,276,"[0.2324753999710083, -1.338171051149704, 0.2325823942767542, 0.23264770090069575, 0.2324451059103012, 0.2324226200580597]","[0.22325270634374408, -1.3475436204511524, 0.22325270634374408, 0.22325270634374408, 0.22325270634374408, 0.22325270634374408]",0.002,7,1
0,277,"[0.23300279676914215, -1.3377424341491242, 0.2330392042743128, 0.23317281782116694, 0.23293153941631317, 0.23292161524295807]","[0.22392667639884567, -1.3468696503960509, 0.22392667639884567, 0.22392667639884567, 0.22392667639884567, 0.22392667639884567]",0.002,7,1
0,278,"[0.23353219032287598, -1.3372448843768616, 0.23353654543031865, 0.23364309846844478, 0.23340195417404175, 0.23344920575618744]","[0.224599230879124, -1.3461970959157725, 0.224599230879124, 0.224599230879124, 0.224599230879124, 0.224599230879124]",0.002,7,1
0,279,"[0.23395730555057526, -1.3368214082768937, 0.23402768770326787, 0.23410980283703609, 0.23387929797172546, 0.23390355706214905]","[0.2252703655329589, -1.3455259612619377, 0.2252703655329589, 0.2252703655329589, 0.2252703655329589, 0.2252703655329589]",0.002,7,1
0,280,"[0.23447772860527039, -1.3363028180650254, 0.23451596895326787, 0.2345769840427856, 0.23433317244052887, 0.23440733551979065]","[0.22594007611770564, -1.3448562506771908, 0.22594007611770564, 0.22594007611770564, 0.22594007611770564, 0.22594007611770564]",0.002,7,1
0,281,"[0.2349860817193985, -1.3358536076596756, 0.2350094954120081, 0.23504583417858882, 0.2347838133573532, 0.23488274216651917]","[0.226608358399722, -1.3441879683951745, 0.226608358399722, 0.226608358399722, 0.226608358399722, 0.226608358399722]",0.002,7,1
0,282,"[0.23540107905864716, -1.3353635680726548, 0.2354510466205042, 0.23549096166577144, 0.23528622090816498, 0.23534128069877625]","[0.22727520815439486, -1.3435211186405016, 0.22727520815439486, 0.22727520815439486, 0.22727520815439486, 0.22727520815439486]",0.002,7,1
0,283,"[0.2359423041343689, -1.33499530077491, 0.23585206667055303, 0.23596708356823726, 0.23570901155471802, 0.23577333986759186]","[0.22794062116616695, -1.3428557056287296, 0.22794062116616695, 0.22794062116616695, 0.22794062116616695, 0.22794062116616695]",0.002,7,1
0,284,"[0.23639826476573944, -1.3345355105451127, 0.23629504839052373, 0.23643438398327632, 0.23618923127651215, 0.2362576127052307]","[0.22860459322856358, -1.342191733566333, 0.22860459322856358, 0.22860459322856358, 0.22860459322856358, 0.22860459322856358]",0.002,7,1
0,285,"[0.23684626817703247, -1.3340920519879838, 0.23670560518373662, 0.23682622491802974, 0.2365742325782776, 0.23670607805252075]","[0.2292671201442191, -1.3415292066506774, 0.2292671201442191, 0.2292671201442191, 0.2292671201442191, 0.2292671201442191]",0.002,7,1
0,286,"[0.23853835463523865, -1.3323319268277665, 0.2384269873248499, 0.23846690237011714, 0.23835021257400513, 0.23846489191055298]","[0.22992819772490353, -1.340868129069993, 0.22992819772490353, 0.22992819772490353, 0.22992819772490353, 0.22992819772490353]",0.002,7,1
0,287,"[0.23896563053131104, -1.3319517236999054, 0.2388833204852503, 0.238880916232727, 0.23874390125274658, 0.23890163004398346]","[0.2305878217915489, -1.3402085050033476, 0.2305878217915489, 0.2305878217915489, 0.2305878217915489, 0.2305878217915489]",0.002,7,1
0,288,"[0.2393309623003006, -1.3315608662417908, 0.23924571672548467, 0.23929564535107417, 0.23918449878692627, 0.23932108283042908]","[0.23124598817427605, -1.3395503386206205, 0.23124598817427605, 0.23124598817427605, 0.23124598817427605, 0.23124598817427605]",0.002,7,1
0,289,"[0.2397780567407608, -1.3311395955136796, 0.23965341249574834, 0.239688439960144, 0.2396327257156372, 0.2396940290927887]","[0.2319026927124204, -1.3388936340824762, 0.2319026927124204, 0.2319026927124204, 0.2319026927124204, 0.2319026927124204]",0.002,7,1
0,290,"[0.2397780567407608, -1.3311395955136796, 0.23965341249574834, 0.239688439960144, 0.2396327257156372, 0.2396940290927887]","[0.2325579312545587, -1.3382383955403379, 0.2325579312545587, 0.2325579312545587, 0.2325579312545587, 0.2325579312545587]",0.002,7,1
0,291,"[0.2405458241701126, -1.3303505343249817, 0.2404864470111292, 0.2404666382023315, 0.24034148454666138, 0.2405068576335907]","[0.23321169965853522, -1.3375846271363614, 0.23321169965853522, 0.23321169965853522, 0.23321169965853522, 0.23321169965853522]",0.002,7,1
0,292,"[0.2408706396818161, -1.3299715232900162, 0.24082738557924444, 0.2408349949070434, 0.24075837433338165, 0.24086542427539825]","[0.23386399379148776, -1.3369323330034089, 0.23386399379148776, 0.23386399379148776, 0.23386399379148776, 0.23386399379148776]",0.002,7,1
0,293,"[0.24125421047210693, -1.329624058013298, 0.2412036100970667, 0.241230769748352, 0.24115808308124542, 0.2412160485982895]","[0.2345148095298738, -1.3362815172650229, 0.2345148095298738, 0.2345148095298738, 0.2345148095298738, 0.2345148095298738]",0.002,7,1
0,294,"[0.24170860648155212, -1.3292194467834015, 0.2416294256793421, 0.24156217157330317, 0.24155810475349426, 0.2416658103466034]","[0.23516414275949682, -1.3356321840353997, 0.23516414275949682, 0.23516414275949682, 0.23516414275949682, 0.23516414275949682]",0.002,7,1
0,295,"[0.2420501708984375, -1.3288192313960572, 0.24199945131410772, 0.24191932260479732, 0.24192681908607483, 0.24201184511184692]","[0.23581198937553197, -1.3349843374193646, 0.23581198937553197, 0.23581198937553197, 0.23581198937553197, 0.23581198937553197]",0.002,7,1
0,296,"[0.2423650026321411, -1.3284643751433869, 0.2424081007586878, 0.24223892271008296, 0.2422850877046585, 0.24238836765289307]","[0.23645834528255233, -1.3343379815123442, 0.23645834528255233, 0.23645834528255233, 0.23645834528255233, 0.23645834528255233]",0.002,7,1
0,297,"[0.24272477626800537, -1.3280734580806275, 0.24272138277162725, 0.24265532075848384, 0.2426445335149765, 0.24279505014419556]","[0.23710320639455446, -1.3336931204003422, 0.23710320639455446, 0.23710320639455446, 0.23710320639455446, 0.23710320639455446]",0.002,7,1
0,298,"[0.24272477626800537, -1.3280734580806275, 0.24272138277162725, 0.24265532075848384, 0.2426445335149765, 0.24279505014419556]","[0.23774656863498456, -1.3330497581599121, 0.23774656863498456, 0.23774656863498456, 0.23774656863498456, 0.23774656863498456]",0.002,7,1
0,299,"[0.24348926544189453, -1.327338234787323, 0.2433407942401331, 0.2433270651051025, 0.24337610602378845, 0.24345314502716064]","[0.23838842793676399, -1.3324078988581325, 0.23838842793676399, 0.23838842793676399, 0.23838842793676399, 0.23838842793676399]",0.002,7,1
0,300,"[0.24383993446826935, -1.3270068925670166, 0.2437217871295374, 0.24369530260052485, 0.24365787208080292, 0.24383200705051422]","[0.23902878024231528, -1.3317675465525813, 0.23902878024231528, 0.23902878024231528, 0.23902878024231528, 0.23902878024231528]",0.002,7,1
0,301,"[0.2441863715648651, -1.3266641360572358, 0.24410659471620733, 0.24399785577740474, 0.2440141886472702, 0.24413971602916718]","[0.23966762150358725, -1.3311287052913092, 0.23966762150358725, 0.23966762150358725, 0.23966762150358725, 0.23966762150358725]",0.002,7,1
0,302,"[0.24445445835590363, -1.3263376218131562, 0.2444375197040003, 0.24431757509197993, 0.24433772265911102, 0.24446657299995422]","[0.24030494768208127, -1.3304913791128152, 0.24030494768208127, 0.24030494768208127, 0.24030494768208127, 0.24030494768208127]",0.002,7,1
0,303,"[0.24484294652938843, -1.3259192419103165, 0.24475652376283819, 0.24468593179669185, 0.24473439157009125, 0.244768887758255]","[0.24094075474887633, -1.3298555720460201, 0.24094075474887633, 0.24094075474887633, 0.24094075474887633, 0.24094075474887633]",0.002,7,1
0,304,"[0.24513784050941467, -1.3255720746568223, 0.24513703981508428, 0.24494354307141109, 0.24513904750347137, 0.24513089656829834]","[0.2415750386846546, -1.3292212881102419, 0.2415750386846546, 0.2415750386846546, 0.2415750386846546, 0.2415750386846546]",0.002,7,1
0,305,"[0.24547822773456573, -1.3252453368953248, 0.24551040330995733, 0.24523894369091792, 0.24542252719402313, 0.24542903900146484]","[0.2422077954797269, -1.3285885313151697, 0.2422077954797269, 0.2422077954797269, 0.2422077954797269, 0.2422077954797269]",0.002,7,1
0,306,"[0.24547822773456573, -1.3252453368953248, 0.24551040330995733, 0.24523894369091792, 0.24542252719402313, 0.24542903900146484]","[0.24283902113405803, -1.3279573056608385, 0.24283902113405803, 0.24283902113405803, 0.24283902113405803, 0.24283902113405803]",0.002,7,1
0,307,"[0.2461485117673874, -1.3245863926461716, 0.24611932436098272, 0.24593131124462886, 0.24607233703136444, 0.24606908857822418]","[0.24346871165729206, -1.3273276151376046, 0.24346871165729206, 0.24346871165729206, 0.24346871165729206, 0.24346871165729206]",0.002,7,1
0,308,"[0.24643926322460175, -1.3243380945971985, 0.24646121660341436, 0.2462354141422729, 0.2463202327489853, 0.24636897444725037]","[0.2440968630687775, -1.3266994637261191, 0.2440968630687775, 0.2440968630687775, 0.2440968630687775, 0.2440968630687775]",0.002,7,1
0,309,"[0.24643926322460175, -1.3243380945971985, 0.24646121660341436, 0.2462354141422729, 0.2463202327489853, 0.24636897444725037]","[0.2447234713975926, -1.326072855397304, 0.2447234713975926, 0.2447234713975926, 0.2447234713975926, 0.2447234713975926]",0.002,7,1
0,310,"[0.24707923829555511, -1.3236532670310517, 0.24699384370912725, 0.24687127649273677, 0.24698390066623688, 0.2470424920320511]","[0.24534853268257023, -1.3254477941123264, 0.24534853268257023, 0.24534853268257023, 0.24534853268257023, 0.24534853268257023]",0.002,7,1
0,311,"[0.24734601378440857, -1.3232919734767457, 0.2473824659930628, 0.2471356826969604, 0.2472994327545166, 0.24731838703155518]","[0.24597204297232314, -1.3248242838225734, 0.24597204297232314, 0.24597204297232314, 0.24597204297232314, 0.24597204297232314]",0.002,7,1
0,312,"[0.24734601378440857, -1.3232919734767457, 0.2473824659930628, 0.2471356826969604, 0.2472994327545166, 0.24731838703155518]","[0.24659399832526888, -1.3242023284696276, 0.24659399832526888, 0.24659399832526888, 0.24659399832526888, 0.24659399832526888]",0.002,7,1
0,313,"[0.24786287546157837, -1.3227094423821946, 0.2479799429522913, 0.2477612930485229, 0.24786871671676636, 0.24787604808807373]","[0.24721439480965457, -1.323581931985242, 0.24721439480965457, 0.24721439480965457, 0.24721439480965457, 0.24721439480965457]",0.002,7,1
0,314,"[0.24817931652069092, -1.3224400740912934, 0.24827939668764287, 0.2480366665073852, 0.2481861114501953, 0.24816404283046722]","[0.24783322850358205, -1.3229630982913145, 0.24783322850358205, 0.24783322850358205, 0.24783322850358205, 0.24783322850358205]",0.002,7,1
0,315,"[0.24848516285419464, -1.3221118760159989, 0.24863750139345342, 0.24839524805035396, 0.2484816610813141, 0.24846391379833221]","[0.24845049549503226, -1.3223458312998644, 0.24845049549503226, 0.24845049549503226, 0.24845049549503226, 0.24845049549503226]",0.002,7,1
0,316,"[0.24880142509937286, -1.3218245816281815, 0.24888784090151006, 0.24862699090924067, 0.24878515303134918, 0.2487848997116089]","[0.2490661918818904, -1.3217301349130062, 0.2490661918818904, 0.2490661918818904, 0.2490661918818904, 0.2490661918818904]",0.002,7,1
0,317,"[0.2490157186985016, -1.321562261586525, 0.24916583696474248, 0.24894480287518306, 0.24908095598220825, 0.24905158579349518]","[0.2496803137719704, -1.3211160130229262, 0.2496803137719704, 0.2496803137719704, 0.2496803137719704, 0.2496803137719704]",0.002,7,1
0,318,"[0.24928264319896698, -1.3211783927730103, 0.249427620564596, 0.24919991075482173, 0.24933269619941711, 0.24933220446109772]","[0.25029285728303935, -1.3205034695118572, 0.25029285728303935, 0.25029285728303935, 0.25029285728303935, 0.25029285728303935]",0.002,7,1
0,319,"[0.2495581954717636, -1.3209479314139863, 0.2497652212726038, 0.24947814523663325, 0.24961435794830322, 0.24965284764766693]","[0.2509038185428424, -1.319892508252054, 0.2509038185428424, 0.2509038185428424, 0.2509038185428424, 0.2509038185428424]",0.002,7,1
0,320,"[0.24987618625164032, -1.320652888422348, 0.2500408331500452, 0.24978868543591304, 0.2499275654554367, 0.24988213181495667]","[0.251513193689127, -1.3192831331057695, 0.251513193689127, 0.251513193689127, 0.251513193689127, 0.251513193689127]",0.002,7,1
0,321,"[0.2501596212387085, -1.3203908962062378, 0.2503283659564417, 0.2500294882008056, 0.25020352005958557, 0.25019270181655884]","[0.2521209788696674, -1.3186753479252291, 0.2521209788696674, 0.2521209788696674, 0.2521209788696674, 0.2521209788696674]",0.002,7,1
0,322,"[0.2504515051841736, -1.3200895649245759, 0.25057822862734014, 0.2503437238880615, 0.2504790127277374, 0.250447541475296]","[0.2527271702422889, -1.3180691565526077, 0.2527271702422889, 0.2527271702422889, 0.2527271702422889, 0.2527271702422889]",0.002,7,1
0,323,"[0.25070828199386597, -1.3197991114905854, 0.2509196440326136, 0.2506595092960815, 0.25074586272239685, 0.2507307231426239]","[0.2533317639748923, -1.3174645628200041, 0.2533317639748923, 0.2533317639748923, 0.2533317639748923, 0.2533317639748923]",0.002,7,1
0,324,"[0.2509297728538513, -1.319535420542099, 0.2512462774859827, 0.25088851034130855, 0.2510257959365845, 0.25101572275161743]","[0.25393475624547795, -1.3168615705494187, 0.25393475624547795, 0.25393475624547795, 0.25393475624547795, 0.25393475624547795]",0.002,7,1
0,325,"[0.2511653006076813, -1.3192673188498993, 0.2514427343951624, 0.25123171388592525, 0.2513018846511841, 0.25127047300338745]","[0.25453614324217017, -1.3162601835527263, 0.25453614324217017, 0.25453614324217017, 0.25453614324217017, 0.25453614324217017]",0.002,7,1
0,326,"[0.25144070386886597, -1.319008157854416, 0.2516849676715296, 0.2514369922825317, 0.2515328824520111, 0.2515256404876709]","[0.25513592116324096, -1.3156604056316556, 0.25513592116324096, 0.25513592116324096, 0.25513592116324096, 0.25513592116324096]",0.002,7,1
0,327,"[0.2517121136188507, -1.3187371057322999, 0.2520087401019495, 0.2516992527195434, 0.2518717348575592, 0.25184378027915955]","[0.2557340862171344, -1.315062240577762, 0.2557340862171344, 0.2557340862171344, 0.2557340862171344, 0.2557340862171344]",0.002,7,1
0,328,"[0.2519970238208771, -1.3184973758510132, 0.2523115316974085, 0.2520332771488647, 0.25210076570510864, 0.2520820200443268]","[0.25633063462249045, -1.314465692172406, 0.25633063462249045, 0.25633063462249045, 0.25633063462249045, 0.25633063462249045]",0.002,7,1
0,329,"[0.2519970238208771, -1.3184973758510132, 0.2523115316974085, 0.2520332771488647, 0.25210076570510864, 0.2520820200443268]","[0.25692556260816873, -1.3138707641867278, 0.25692556260816873, 0.25692556260816873, 0.25692556260816873, 0.25692556260816873]",0.002,7,1
0,330,"[0.25257712602615356, -1.3178995710662385, 0.2527998129474085, 0.2525499302097778, 0.2526493966579437, 0.2526143789291382]","[0.2575188664132729, -1.3132774603816237, 0.2575188664132729, 0.2575188664132729, 0.2575188664132729, 0.2575188664132729]",0.002,7,1
