Arnibjarnst/BoxLift/logs/ur_rtde/trajectory_dur=10.0_delay=0.2_gain=200_lh=0.1_real.csv
arm_idx,step,actual_q,actual_qd,target_q,expected_q,loop_time,robot_mode,safety_mode
0,-1,"[-0.03971463838686162, -1.6104322872557582, -0.03971191123127937, -0.03983672082934575, -0.03975421587099248, -0.03970081010927373]","[0.03279338404536247, 0.03365132957696915, 0.031052472069859505, 0.03398085758090019, 0.031149670481681824, 0.030596138909459114]","[0.0, -1.5707963267948966, 0.0, 0.0, 0.0, 0.0]","[0.0, -1.5707963267948966, 0.0, 0.0, 0.0, 0.0]",0.002,7,1
0,-1,"[-0.039089504872457326, -1.6097566090025843, -0.039181970059871674, -0.03916163862261968, -0.03907949129213506, -0.03906566301454717]","[0.04707925021648407, 0.05107757821679115, 0.04707461595535278, 0.05011085793375969, 0.0474654957652092, 0.04767180606722832]","[0.0, -1.5707963267948966, 0.0, 0.0, 0.0, 0.0]","[0.0, -1.5707963267948966, 0.0, 0.0, 0.0, 0.0]",0.002,7,1
0,-1,"[-0.038307968770162404, -1.6089321575560511, -0.03833622485399246, -0.03844650209460454, -0.03835517564882451, -0.03828746477235967]","[0.06371933221817017, 0.06289459764957428, 0.060641832649707794, 0.06503450870513916, 0.06153940409421921, 0.06167403236031532]","[0.0, -1.5707963267948966, 0.0, 0.0, 0.0, 0.0]","[0.0, -1.5707963267948966, 0.0, 0.0, 0.0, 0.0]",0.002,7,1
0,-1,"[-0.03780109087099248, -1.608438631097311, -0.037833329290151596, -0.03790052354846196, -0.03782111803163701, -0.037810627614156544]","[0.06943973898887634, 0.06981609761714935, 0.06906937062740326, 0.07463359832763672, 0.07072377949953079, 0.0697736069560051]","[0.0, -1.5707963267948966, 0.0, 0.0, 0.0, 0.0]","[0.0, -1.5707963267948966, 0.0, 0.0, 0.0, 0.0]",0.002,7,1
0,-1,"[-0.03724891344179326, -1.6078492603697718, -0.0372522734105587, -0.03725369394335942, -0.037119690571920216, -0.03712779680360967]","[0.07655424624681473, 0.07570335268974304, 0.07608652859926224, 0.08126851916313171, 0.08134230971336365, 0.07853852957487106]","[0.0, -1.5707963267948966, 0.0, 0.0, 0.0, 0.0]","[0.0, -1.5707963267948966, 0.0, 0.0, 0.0, 0.0]",0.002,7,1
0,-1,"[-0.03640920320619756, -1.6070381603636683, -0.03637636452913284, -0.03641517580065923, -0.03629047075380498, -0.036281887684957326]","[0.08871941268444061, 0.0862869918346405, 0.087821826338768, 0.0894356369972229, 0.08853457868099213, 0.08990251272916794]","[0.0, -1.5707963267948966, 0.0, 0.0, 0.0, 0.0]","[0.0, -1.5707963267948966, 0.0, 0.0, 0.0, 0.0]",0.002,7,1
0,-1,"[-0.03457004228700811, -1.6053039036192835, -0.034633006900548935, -0.03462298334155278, -0.03437406221498662, -0.03442746797670537]","[0.10740485042333603, 0.1018214076757431, 0.10573810338973999, 0.10859514772891998, 0.10559049993753433, 0.10520259290933609]","[0.0, -1.5707963267948966, 0.0, 0.0, 0.0, 0.0]","[0.0, -1.5707963267948966, 0.0, 0.0, 0.0, 0.0]",0.002,7,1
0,-1,"[-0.033459011708394826, -1.6041714153685511, -0.03350213170051575, -0.03346736848864751, -0.03328305879701787, -0.03336650529970342]","[0.1164940744638443, 0.11446518450975418, 0.11842166632413864, 0.12102513015270233, 0.11424095928668976, 0.11390591412782669]","[0.0, -1.5707963267948966, 0.0, 0.0, 0.0, 0.0]","[0.0, -1.5707963267948966, 0.0, 0.0, 0.0, 0.0]",0.002,7,1
0,-1,"[-0.03149921098817998, -1.6020871601500453, -0.03143427148461342, -0.0314362806132813, -0.031278435383931935, -0.031316582356588185]","[0.13300025463104248, 0.12982790172100067, 0.1323927640914917, 0.13324597477912903, 0.1301194727420807, 0.12983295321464539]","[0.0, -1.5707963267948966, 0.0, 0.0, 0.0, 0.0]","[0.0, -1.5707963267948966, 0.0, 0.0, 0.0, 0.0]",0.002,7,1
0,-1,"[-0.028908554707662404, -1.5995861492552699, -0.028901156038045883, -0.028800920849182177, -0.028775517140523732, -0.02878266969789678]","[0.14935435354709625, 0.14807014167308807, 0.14962369203567505, 0.1496240645647049, 0.14625129103660583, 0.14767250418663025]","[0.0, -1.5707963267948966, 0.0, 0.0, 0.0, 0.0]","[0.0, -1.5707963267948966, 0.0, 0.0, 0.0, 0.0]",0.002,7,1
0,-1,"[-0.024206463490621388, -1.595091005364889, -0.024282388389110565, -0.024102167492248583, -0.024151150380269826, -0.024215523396627248]","[0.1778286248445511, 0.17584727704524994, 0.17741820216178894, 0.17566362023353577, 0.17677506804466248, 0.1775832623243332]","[0.0, -1.5707963267948966, 0.0, 0.0, 0.0, 0.0]","[0.0, -1.5707963267948966, 0.0, 0.0, 0.0, 0.0]",0.002,7,1
0,-1,"[-0.021233860646383107, -1.5922018490233363, -0.021329471841454506, -0.021004514103271532, -0.02125722566713506, -0.0212786833392542]","[0.19389235973358154, 0.1923837810754776, 0.1932084560394287, 0.18990465998649597, 0.1926364302635193, 0.19661346077919006]","[0.0, -1.5707963267948966, 0.0, 0.0, 0.0, 0.0]","[0.0, -1.5707963267948966, 0.0, 0.0, 0.0, 0.0]",0.002,7,1
0,-1,"[-0.018899265919820607, -1.5898977718748988, -0.018883852288126945, -0.018704966907836962, -0.01886016527284795, -0.018922154103414357]","[0.19951596856117249, 0.15645268559455872, 0.17479340732097626, 0.18636712431907654, 0.19458100199699402, 0.19683440029621124]","[0.0, -1.5707963267948966, 0.0, 0.0, 0.0, 0.0]","[0.0, -1.5707963267948966, 0.0, 0.0, 0.0, 0.0]",0.002,7,1
0,-1,"[-0.015537563954488576, -1.5866266689696253, -0.015666794031858444, -0.01537068307910161, -0.015608612691060841, -0.015602890645162404]","[0.1751604676246643, 0.18312165141105652, 0.17745164036750793, 0.17379075288772583, 0.17701517045497894, 0.1781800389289856]","[0.0, -1.5707963267948966, 0.0, 0.0, 0.0, 0.0]","[0.0, -1.5707963267948966, 0.0, 0.0, 0.0, 0.0]",0.002,7,1
0,-1,"[-0.011076752339498341, -1.581979890862936, -0.011147214099764824, -0.011043743496276903, -0.01109487215151006, -0.011021916066304982]","[0.1492278277873993, 0.15285761654376984, 0.15056706964969635, 0.15064606070518494, 0.15141357481479645, 0.1510574072599411]","[0.0, -1.5707963267948966, 0.0, 0.0, 0.0, 0.0]","[0.0, -1.5707963267948966, 0.0, 0.0, 0.0, 0.0]",0.002,7,1
0,-1,"[-0.009907547627584279, -1.58087219814443, -0.010093512944877148, -0.009929971104003954, -0.00990468660463506, -0.009827438985006154]","[0.1415919065475464, 0.14246416091918945, 0.14288799464702606, 0.14360013604164124, 0.1425429880619049, 0.14101481437683105]","[0.0, -1.5707963267948966, 0.0, 0.0, 0.0, 0.0]","[0.0, -1.5707963267948966, 0.0, 0.0, 0.0, 0.0]",0.002,7,1
0,-1,"[-0.007536236439840138, -1.5784245930113734, -0.007650404702872038, -0.0075307649425049306, -0.007505242024556935, -0.007469479237691701]","[0.12335547059774399, 0.12434308975934982, 0.12376546114683151, 0.12547703087329865, 0.12402796745300293, 0.12089218199253082]","[0.0, -1.5707963267948966, 0.0, 0.0, 0.0, 0.0]","[0.0, -1.5707963267948966, 0.0, 0.0, 0.0, 0.0]",0.002,7,1
0,-1,"[-0.006543461476461232, -1.577465673486227, -0.006630480755120516, -0.006667928104736376, -0.006592575703756154, -0.006510082875387013]","[0.11521774530410767, 0.12002316117286682, 0.11517149209976196, 0.11702722311019897, 0.11742045730352402, 0.11461366713047028]","[0.0, -1.5707963267948966, 0.0, 0.0, 0.0, 0.0]","[0.0, -1.5707963267948966, 0.0, 0.0, 0.0, 0.0]",0.002,7,1
0,-1,"[-0.005742375050679982, -1.5764876804747523, -0.005743016954511404, -0.00577135503802495, -0.005657974873678029, -0.005574051533834279]","[0.1056150421500206, 0.11042711138725281, 0.10871072113513947, 0.11038140207529068, 0.10790462046861649, 0.10563253611326218]","[0.0, -1.5707963267948966, 0.0, 0.0, 0.0, 0.0]","[0.0, -1.5707963267948966, 0.0, 0.0, 0.0, 0.0]",0.002,7,1
0,-1,"[-0.0044854323016565445, -1.5752040348448695, -0.004562983755022287, -0.004559950237609911, -0.004435364400045216, -0.004432503377095998]","[0.09443911910057068, 0.09905219078063965, 0.09830685704946518, 0.09893842041492462, 0.09487956762313843, 0.09359457343816757]","[0.0, -1.5707963267948966, 0.0, 0.0, 0.0, 0.0]","[0.0, -1.5707963267948966, 0.0, 0.0, 0.0, 0.0]",0.002,7,1
0,-1,"[-0.0034783522235315445, -1.5741225681700648, -0.0034802984446287155, -0.003485755329467821, -0.0033367315875452164, -0.0033558050738733414]","[0.08509509265422821, 0.08583025634288788, 0.08760432153940201, 0.08514062315225601, 0.08180053532123566, 0.0820332020521164]","[0.0, -1.5707963267948966, 0.0, 0.0, 0.0, 0.0]","[0.0, -1.5707963267948966, 0.0, 0.0, 0.0, 0.0]",0.002,7,1
0,-1,"[-0.002645317708150685, -1.5731011829771937, -0.00248142727650702, -0.002570943241455126, -0.002415482197896779, -0.0024455229388635757]","[0.07296375185251236, 0.07198450714349747, 0.07576902955770493, 0.07305503636598587, 0.06947991997003555, 0.070110984146595]","[0.0, -1.5707963267948966, 0.0, 0.0, 0.0, 0.0]","[0.0, -1.5707963267948966, 0.0, 0.0, 0.0, 0.0]",0.002,7,1
0,-1,"[-0.0017870108233850601, -1.5723301372923792, -0.0016227124724537134, -0.0017923873713989735, -0.0016706625567834976, -0.0016821066485803726]","[0.060908205807209015, 0.05883118137717247, 0.06113528832793236, 0.061389725655317307, 0.05793507769703865, 0.05780564248561859]","[0.0, -1.5707963267948966, 0.0, 0.0, 0.0, 0.0]","[0.0, -1.5707963267948966, 0.0, 0.0, 0.0, 0.0]",0.002,7,1
0,-1,"[-0.0011642614947717789, -1.5717469654478968, -0.001074736937880516, -0.0011323255351562977, -0.0010622183429163101, -0.001046482716695607]","[0.04996296390891075, 0.04321588948369026, 0.04817750304937363, 0.0486590750515461, 0.04561784490942955, 0.04595484957098961]","[0.0, -1.5707963267948966, 0.0, 0.0, 0.0, 0.0]","[0.0, -1.5707963267948966, 0.0, 0.0, 0.0, 0.0]",0.002,7,1
0,-1,"[-0.000665012990133107, -1.5712672672667445, -0.0006201542564667761, -0.0006961387446899892, -0.0005691687213342789, -0.0005834738360803726]","[0.03707193210721016, 0.03148640692234039, 0.0352366641163826, 0.036092884838581085, 0.032947421073913574, 0.03353174030780792]","[0.0, -1.5707963267948966, 0.0, 0.0, 0.0, 0.0]","[0.0, -1.5707963267948966, 0.0, 0.0, 0.0, 0.0]",0.002,7,1
0,-1,"[-0.00030929247011357575, -1.5710183582701625, -0.0001965919218491763, -0.00026460111651616103, -0.00023299852480107575, -0.00025207201112920075]","[0.02480798400938511, 0.020604660734534264, 0.02364383079111576, 0.02371290884912014, 0.021737921983003616, 0.022196287289261818]","[0.0, -1.5707963267948966, 0.0, 0.0, 0.0, 0.0]","[0.0, -1.5707963267948966, 0.0, 0.0, 0.0, 0.0]",0.002,7,1
0,-1,"[-1.985231508427887e-05, -1.570778564815857, 1.6514454976856996e-05, -4.465997729496962e-05, -4.116688863575746e-06, -3.701845277959137e-05]","[0.004443886689841747, 0.0035789937246590853, 0.003843554761260748, 0.004017558880150318, 0.0036612108815461397, 0.0031426858622580767]","[0.0, -1.5707963267948966, 0.0, 0.0, 0.0, 0.0]","[0.0, -1.5707963267948966, 0.0, 0.0, 0.0, 0.0]",0.002,7,1
0,-1,"[-8.422533144170075e-05, -1.5707757703115313, 4.178682436162262e-05, -0.00011380136523442275, -9.900728334599762e-05, -5.5615101949513246e-05]","[-0.0021668162662535906, 0.005821302533149719, 0.0014533776557072997, -0.000549771124497056, -0.00023259820591192693, -0.0006091760587878525]","[0.0, -1.5707963267948966, 0.0, 0.0, 0.0, 0.0]","[0.0, -1.5707963267948966, 0.0, 0.0, 0.0, 0.0]",0.002,7,1
0,-1,"[-4.655519594365387e-05, -1.5708052120604457, -7.947548874653876e-05, -7.183969531254775e-05, -4.0356312887013246e-05, -8.851686586552887e-05]","[-7.299188337084317e-11, -0.0037124508526176214, -0.00293214269913733, 3.900911451637512e-06, -2.4688639314263128e-05, 3.250313129754545e-09]","[0.0, -1.5707963267948966, 0.0, 0.0, 0.0, 0.0]","[0.0, -1.5707963267948966, 0.0, 0.0, 0.0, 0.0]",0.002,7,1
0,-1,"[-0.0001023451434534195, -1.570878644982809, -8.396578050451353e-05, -7.648885760502822e-05, -6.848970522099762e-05, -4.7985707418263246e-05]","[-3.172751405849439e-20, -0.00595683790743351, -0.00036980779259465635, 0.0011958304094150662, -2.9297179265919127e-11, 3.857038640705341e-15]","[0.0, -1.5707963267948966, 0.0, 0.0, 0.0, 0.0]","[0.0, -1.5707963267948966, 0.0, 0.0, 0.0, 0.0]",0.002,7,1
0,-1,"[-0.0001404921161096695, -1.5708724460997523, -2.093193688779138e-05, -3.560007128911025e-05, -9.900728334599762e-05, -7.7549611226857e-05]","[-1.850247503851069e-31, -0.0018244754755869508, -0.0008517446694895625, -1.9625733926886824e-08, 0.001123122638091445, 2.9884676418864503e-22]","[0.0, -1.5707963267948966, 0.0, 0.0, 0.0, 0.0]","[0.0, -1.5707963267948966, 0.0, 0.0, 0.0, 0.0]",0.002,7,1
0,-1,"[-7.325807680302887e-05, -1.570911546746725, -4.191937478026375e-05, -3.8341884948778215e-05, -7.468858827763825e-05, -9.709993471318512e-05]","[0.0, -0.00028348108753561974, -0.0003840196004603058, 0.0003657014458440244, 0.0005677426815964282, 0.00023245395277626812]","[0.0, -1.5707963267948966, 0.0, 0.0, 0.0, 0.0]","[0.0, -1.5707963267948966, 0.0, 0.0, 0.0, 0.0]",0.002,7,1
0,-1,"[-0.00010663667787724762, -1.570834299127096, -5.724668881157413e-06, -2.820909533696181e-05, -6.9920216695607e-05, -4.0356312887013246e-05]","[-7.839467274361881e-16, 0.0005387850105762482, -6.455369293689728e-05, 0.0004952144809067249, 0.0009672037558630109, 0.0006501715397462249]","[0.0, -1.5707963267948966, 0.0, 0.0, 0.0, 0.0]","[0.0, -1.5707963267948966, 0.0, 0.0, 0.0, 0.0]",0.002,7,1
0,-1,"[-8.613268007451325e-05, -1.570911546746725, -7.934238237794489e-05, -7.228260376024309e-06, -4.1309987203419496e-05, -8.660951723271637e-05]","[-6.133560853257285e-29, 5.790056093246676e-05, -5.16006512043532e-05, 0.00049005844630301, 0.0009176062885671854, 0.0005144946626387537]","[0.0, -1.5707963267948966, 0.0, 0.0, 0.0, 0.0]","[0.0, -1.5707963267948966, 0.0, 0.0, 0.0, 0.0]",0.002,7,1
0,-1,"[-7.325807680302887e-05, -1.5708891354002894, -6.010281867929734e-05, -4.367237426805559e-06, -5.036989320927887e-05, -1.6514454976856996e-05]","[-1.401298464324817e-45, 5.634181768630973e-20, -6.152666901471093e-05, 0.00038329485687427223, 0.0010043543297797441, 0.0007530513685196638]","[0.0, -1.5707963267948966, 0.0, 0.0, 0.0, 0.0]","[0.0, -1.5707963267948966, 0.0, 0.0, 0.0, 0.0]",0.002,7,1
0,-1,"[-5.323091615849762e-05, -1.570878644982809, -5.1021575927734375e-05, -3.2619839050340715e-05, -3.892580141240387e-05, -4.593526021778871e-06]","[0.0, 0.0013158746296539903, 4.599778549163602e-05, 0.00033775949850678444, 0.0003059346054214984, 0.00038527362630702555]","[0.0, -1.5707963267948966, 0.0, 0.0, 0.0, 0.0]","[0.0, -1.5707963267948966, 0.0, 0.0, 0.0, 0.0]",0.002,7,1
0,-1,"[-4.4171010152638246e-05, -1.570871492425436, -6.752956687705591e-05, -2.2010212280321184e-05, -2.080598940068512e-05, -2.5097523824513246e-05]","[0.000149488405440934, 0.0008358511258848011, 5.7614888646639884e-05, 0.0002596292470116168, 0.00023775770387146622, 0.00032070931047201157]","[0.0, -1.5707963267948966, 0.0, 0.0, 0.0, 0.0]","[0.0, -1.5707963267948966, 0.0, 0.0, 0.0, 0.0]",0.002,7,1
0,-1,"[-4.941621889287262e-05, -1.570883413354391, -5.555152893066406e-05, -2.069891009526259e-05, 7.152557373046875e-06, -3.701845277959137e-05]","[0.0001838103635236621, 0.0002840980887413025, 6.589782424271107e-05, 0.00019908533431589603, 0.0001986359420698136, 0.00026220892323181033]","[0.0, -1.5707963267948966, 0.0, 0.0, 0.0, 0.0]","[0.0, -1.5707963267948966, 0.0, 0.0, 0.0, 0.0]",0.002,7,1
0,-1,"[-3.1773244039356996e-05, -1.570878644982809, -3.000729702762328e-05, 5.166112866206163e-05, 6.4373016357421875e-06, -4.6078358785450746e-05]","[0.00032066882704384625, -0.00011813567107310519, -0.00014284058124758303, 0.0001901895011542365, 0.00019090923888143152, 0.00023312379198614508]","[0.0, -1.5707963267948966, 0.0, 0.0, 0.0, 0.0]","[0.0, -1.5707963267948966, 0.0, 0.0, 0.0, 0.0]",0.002,7,1
0,-1,"[-5.323091615849762e-05, -1.5708996258177699, -5.1021575927734375e-05, 1.363336529536241e-05, -1.985231508427887e-05, -4.593526021778871e-06]","[0.00039445949369110167, -1.493203143354549e-07, -1.2558980244659068e-10, 0.00015278325008694082, 0.00010713893425418064, 0.00019372839597053826]","[0.0, -1.5707963267948966, 0.0, 0.0, 0.0, 0.0]","[0.0, -1.5707963267948966, 0.0, 0.0, 0.0, 0.0]",0.002,7,1
0,-1,"[-5.418459047490387e-05, -1.5708385906615199, -5.1021575927734375e-05, 2.9130572936963972e-05, 2.005606347665889e-06, 1.2214219168527052e-05]","[0.00036344717955216765, -1.168274515811664e-20, -9.826084567590942e-24, 0.0001244142185896635, 0.00010086908878292888, 0.0001480565988458693]","[0.0, -1.5707963267948966, 0.0, 0.0, 0.0, 0.0]","[0.0, -1.5707963267948966, 0.0, 0.0, 0.0, 0.0]",0.002,7,1
0,-1,"[-2.8912221090138246e-05, -1.5708338222899378, -2.2625559722655453e-05, -9.016399719286028e-06, -1.732503072560121e-06, 7.749758879072033e-06]","[0.00037084854557178915, -6.813004214639916e-32, -5.730260027742029e-35, 0.00010670943447621539, 9.817847603699192e-05, 0.00012364346184767783]","[0.0, -1.5707963267948966, 0.0, 0.0, 0.0, 0.0]","[0.0, -1.5707963267948966, 0.0, 0.0, 0.0, 0.0]",0.002,7,1
0,-1,"[-3.320375551396637e-05, -1.5707920354655762, -2.262854468426667e-05, -4.367237426805559e-06, 4.082870145794004e-05, -2.9865895406544496e-05]","[0.00040768427425064147, 0.00024829275207594037, -0.0, 9.659538773121312e-05, 9.129889804171398e-05, 9.912894165609032e-05]","[0.0, -1.5707963267948966, 0.0, 0.0, 0.0, 0.0]","[0.0, -1.5707963267948966, 0.0, 0.0, 0.0, 0.0]",0.002,7,1
0,-1,"[-9.361897603810121e-06, -1.5708204708495082, -5.5509608500869945e-05, -2.546728167729384e-05, 3.187561014783569e-05, -3.415742983037262e-05]","[0.0008965570596046746, 0.0001946069678524509, -0.0, 9.613629663363099e-05, 9.130190301220864e-05, 8.929350588005036e-05]","[0.0, -1.5707963267948966, 0.0, 0.0, 0.0, 0.0]","[0.0, -1.5707963267948966, 0.0, 0.0, 0.0, 0.0]",0.002,7,1
0,-1,"[-2.1282826558888246e-05, -1.570829530755514, -1.3490081983036362e-05, 9.103412292432722e-06, -2.209340230763246e-06, -4.593526021778871e-06]","[0.0006543048075400293, 0.0001990879391087219, -0.0, 8.974534284789115e-05, 8.629913645563647e-05, 8.272723789559677e-05]","[0.0, -1.5707963267948966, 0.0, 0.0, 0.0, 0.0]","[0.0, -1.5707963267948966, 0.0, 0.0, 0.0, 0.0]",0.002,7,1
0,-1,"[-4.2263661519825746e-05, -1.5708548031248988, -3.461270534899086e-05, 3.819047894282335e-05, -2.175966371709137e-05, 7.732354788458906e-06]","[1.7956183090121104e-20, 0.00019393721595406532, -0.0, 7.695484964642674e-05, 8.672107651364058e-05, 6.988040695432574e-05]","[0.0, -1.5707963267948966, 0.0, 0.0, 0.0, 0.0]","[0.0, -1.5707963267948966, 0.0, 0.0, 0.0, 0.0]",0.002,7,1
0,-1,"[-6.753603090459137e-05, -1.5708233318724574, -2.2643685952061787e-05, -4.191816363530165e-05, 6.475752161350101e-05, 2.7232277716393583e-05]","[1.0471475299300157e-31, 0.0007983424002304673, -0.0, 7.08937513991259e-05, 8.089727634796873e-05, 6.392434443114325e-05]","[0.0, -1.5707963267948966, 0.0, 0.0, 0.0, 0.0]","[0.0, -1.5707963267948966, 0.0, 0.0, 0.0, 0.0]",0.002,7,1
0,-1,"[-3.034273256474762e-05, -1.5707951440861798, -1.4781951904296875e-05, 1.6271557612412835e-07, 3.917216963600367e-05, -4.1309987203419496e-05]","[0.0, 0.0011485653230920434, -0.0, 6.340195250231773e-05, 6.508646765723825e-05, 5.667775258189067e-05]","[0.0, -1.5707963267948966, 0.0, 0.0, 0.0, 0.0]","[0.0, -1.5707963267948966, 0.0, 0.0, 0.0, 0.0]",0.002,7,1
0,-1,"[-1.2222920553028871e-05, -1.570845743218893, 1.0792409078419496e-05, -1.6288166381883684e-05, -2.209340230763246e-06, 2.849497104762122e-05]","[0.0, -0.00011964105215156451, 0.00010255959932692349, 2.5478272479794156e-15, 5.412720929598436e-05, 1.6628153076680974e-08]","[0.0, -1.5707963267948966, 0.0, 0.0, 0.0, 0.0]","[0.0, -1.5707963267948966, 0.0, 0.0, 0.0, 0.0]",0.002,7,1
0,-1,"[-9.361897603810121e-06, -1.57086243251943, -6.749333260813728e-05, -3.2619839050340715e-05, 2.2777756385039538e-05, 3.814697265625e-06]","[0.0, -0.00011965639714617282, 8.674393029650673e-05, 8.415811697702241e-25, 1.268603045900818e-05, 5.492500360457724e-18]","[0.0, -1.5707963267948966, 0.0, 0.0, 0.0, 0.0]","[0.0, -1.5707963267948966, 0.0, 0.0, 0.0, 0.0]",0.002,7,1
0,-1,"[-3.4634266988575746e-05, -1.5707770414340594, -1.8158680177293718e-05, -2.546728167729384e-05, 1.9907965906895697e-06, -7.788287561538709e-07]","[0.0, -5.8892906963592395e-05, 9.018523996928707e-05, 2.7798544993951437e-34, 4.1903643166582745e-15, 1.8142462298771922e-27]","[0.0, -1.5707963267948966, 0.0, 0.0, 0.0, 0.0]","[0.0, -1.5707963267948966, 0.0, 0.0, 0.0, 0.0]",0.002,7,1
0,-1,"[-2.557436098271637e-05, -1.5708071194090785, -3.45826156262774e-05, 2.4481410644483503e-05, -1.7468129293263246e-05, -3.8448964254200746e-05]","[0.0, -2.4614191715954803e-05, 0.0001094992840080522, 2.1537957396672438e-41, 3.246731867013671e-22, 1.4056937972667162e-34]","[0.0, -1.5707963267948966, 0.0, 0.0, 0.0, 0.0]","[0.0, -1.5707963267948966, 0.0, 0.0, 0.0, 0.0]",0.002,7,1
0,-1,"[-1.4130269185841371e-05, -1.570843359033102, -5.267294545774348e-05, 4.692668579053816e-06, 5.1066297601209953e-05, -2.9865895406544496e-05]","[0.0, -1.1903852698412379e-15, 0.0001398574240738526, 0.0, 1.642505090867253e-30, 7.1045832141268225e-43]","[0.0, -1.5707963267948966, 0.0, 0.0, 0.0, 0.0]","[0.0, -1.5707963267948966, 0.0, 0.0, 0.0, 0.0]",0.002,7,1
0,-1,"[-2.1282826558888246e-05, -1.5707905687257444, -2.2616506612394005e-05, -7.228260376024309e-06, -3.5587941304981996e-05, 3.814697265625e-06]","[0.0, -1.6764011463824655e-32, 0.00011205472401343286, 0.0, 3.542342387966705e-41, 0.0]","[0.0, -1.5707963267948966, 0.0, 0.0, 0.0, 0.0]","[0.0, -1.5707963267948966, 0.0, 0.0, 0.0, 0.0]",0.002,7,1
0,-1,"[-1.8421803609669496e-05, -1.5708142719664515, -5.724668881157413e-06, 2.9130572936963972e-05, 9.767270239535719e-05, 1.2214219168527052e-05]","[0.0, -9.80908925027372e-44, 8.159779099514708e-05, 0.0, 0.0, 0.0]","[0.0, -1.5707963267948966, 0.0, 0.0, 0.0, 0.0]","[0.0, -1.5707963267948966, 0.0, 0.0, 0.0, 0.0]",0.002,7,1
0,-1,"[-2.843538393193512e-05, -1.5707934659770508, -1.939063258760143e-05, -4.367237426805559e-06, -4.7985707418263246e-05, 1.0907649993896484e-05]","[0.0, 0.0, 5.795363540528342e-05, 0.0, 0.0, 0.0]","[0.0, -1.5707963267948966, 0.0, 0.0, 0.0, 0.0]","[0.0, -1.5707963267948966, 0.0, 0.0, 0.0, 0.0]",0.002,7,1
0,-1,"[-8.041063417607575e-05, -1.570784406071045, -1.0251998901367188e-05, 3.366052593989366e-05, -5.9429799215138246e-05, -1.3176594869435121e-05]","[0.0, 0.0, 4.8569847422186285e-05, 0.0, 0.0, 0.0]","[0.0, -1.5707963267948966, 0.0, 0.0, 0.0, 0.0]","[0.0, -1.5707963267948966, 0.0, 0.0, 0.0, 0.0]",0.002,7,1
0,-1,"[-1.4130269185841371e-05, -1.5708214245238246, -4.81034439872019e-05, -2.546728167729384e-05, -3.415742983037262e-05, -2.080598940068512e-05]","[0.0, 0.0, 3.907951759174466e-05, 0.0, 0.0, 0.0]","[0.0, -1.5707963267948966, 0.0, 0.0, 0.0, 0.0]","[0.0, -1.5707963267948966, 0.0, 0.0, 0.0, 0.0]",0.002,7,1
0,-1,"[7.182896752055967e-06, -1.5708261928954066, 3.129640688115387e-05, -2.069891009526259e-05, -3.892580141240387e-05, -5.070363179981996e-06]","[0.0, 0.0, 3.269208173151128e-05, 0.0, 0.0, 0.0]","[0.0, -1.5707963267948966, 0.0, 0.0, 0.0, 0.0]","[0.0, -1.5707963267948966, 0.0, 0.0, 0.0, 0.0]",0.002,7,1
0,1,"[2.631725010360242e-06, -1.5708385906615199, -4.821834227186628e-05, -2.820909533696181e-05, 2.86102294921875e-06, 1.9601244275690988e-05]","[0.0, 0.0, 2.6064435587613843e-05, 0.0, 0.0, 0.0]","[0.04418479434657463, -1.5266115324483218, 0.04418479434657463, 0.04418479434657463, 0.04418479434657463, 0.04418479434657463]","[0.04418479434657463, -1.5266115324483218, 0.04418479434657463, 0.04418479434657463, 0.04418479434657463, 0.04418479434657463]",0.002,7,1
0,2,"[-3.034273256474762e-05, -1.5708548031248988, -5.718832653656136e-06, 5.9052104614210066e-05, 3.474652112345211e-05, -5.070363179981996e-06]","[2.2516205717693083e-05, 0.00019812957907561213, 0.00019631630857475102, 2.7767739084083587e-05, 4.24016106990166e-05, 4.3233441829215735e-05]","[0.04461996713404648, -1.52617635966085, 0.04461996713404648, 0.04461996713404648, 0.04461996713404648, 0.04461996713404648]","[0.04461996713404648, -1.52617635966085, 0.04461996713404648, 0.04461996713404648, 0.04461996713404648, 0.04461996713404648]",0.002,7,1
0,3,"[4.936378536513075e-05, -1.5706296096362458, 3.701845277959137e-05, 6.20323368529796e-05, 7.531046867370605e-05, 0.00019087671535089612]","[0.03965745121240616, 0.16754722595214844, 0.11609356850385666, 0.06102180853486061, 0.051665909588336945, 0.057697080075740814]","[0.045055069432306895, -1.5257412573625897, 0.045055069432306895, 0.045055069432306895, 0.045055069432306895, 0.045055069432306895]","[0.045055069432306895, -1.5257412573625897, 0.045055069432306895, 0.045055069432306895, 0.045055069432306895, 0.045055069432306895]",0.002,7,1
0,4,"[0.00010185113933403045, -1.5703685200463333, 0.0002663771258752945, 0.00022320329632563585, 0.0002829198492690921, 0.00029330968391150236]","[0.04916466027498245, 0.19529004395008087, 0.13936765491962433, 0.10119131207466125, 0.08671549707651138, 0.09068136662244797]","[0.045490100553995036, -1.5253062262409016, 0.045490100553995036, 0.045490100553995036, 0.045490100553995036, 0.045490100553995036]","[0.045490100553995036, -1.5253062262409016, 0.045490100553995036, 0.045490100553995036, 0.045490100553995036, 0.045490100553995036]",0.002,7,1
0,5,"[0.0002743139339145273, -1.5701690617464301, 0.0005481878863733414, 0.0003874736973266124, 0.0005397310014814138, 0.0005102109862491488]","[0.059764131903648376, 0.1871141493320465, 0.13489943742752075, 0.10601380467414856, 0.0989307090640068, 0.1031813696026802]","[0.04592505981186254, -1.524871266983034, 0.04592505981186254, 0.04592505981186254, 0.04592505981186254, 0.04592505981186254]","[0.04592505981186254, -1.524871266983034, 0.04592505981186254, 0.04592505981186254, 0.04592505981186254, 0.04592505981186254]",0.002,7,1
0,6,"[0.000523430178873241, -1.569875121498928, 0.0008400122271936539, 0.0005953746983031749, 0.0007288565393537283, 0.0007186761358752847]","[0.08368732035160065, 0.17544913291931152, 0.13821791112422943, 0.10286594927310944, 0.10597417503595352, 0.10705287754535675]","[0.0463599465187745, -1.524436380276122, 0.0463599465187745, 0.0463599465187745, 0.0463599465187745, 0.0463599465187745]","[0.0463599465187745, -1.524436380276122, 0.0463599465187745, 0.0463599465187745, 0.0463599465187745, 0.0463599465187745]",0.002,7,1
0,7,"[0.0007846278022043407, -1.5694637140589585, 0.0011971632586877945, 0.0009990173527221202, 0.0009633302688598633, 0.0009834811789914966]","[0.1039905846118927, 0.17877811193466187, 0.15584540367126465, 0.11427102982997894, 0.11473135650157928, 0.11554402858018875]","[0.0467947599877107, -1.5240015668071858, 0.0467947599877107, 0.0467947599877107, 0.0467947599877107, 0.0467947599877107]","[0.0467947599877107, -1.5240015668071858, 0.0467947599877107, 0.0467947599877107, 0.0467947599877107, 0.0467947599877107]",0.002,7,1
0,8,"[0.0010636670049279928, -1.5690963252312322, 0.0015047232257288101, 0.001176281566284132, 0.0010461483616381884, 0.0011940825497731566]","[0.12432023882865906, 0.18350577354431152, 0.16075828671455383, 0.12810547649860382, 0.12467306107282639, 0.125992089509964]","[0.047229499531766576, -1.52356682726313, 0.047229499531766576, 0.047229499531766576, 0.047229499531766576, 0.047229499531766576]","[0.047229499531766576, -1.52356682726313, 0.047229499531766576, 0.047229499531766576, 0.047229499531766576, 0.047229499531766576]",0.002,7,1
0,9,"[0.0014026099815964699, -1.568933264385425, 0.0018456617938440445, 0.0016333299824218273, 0.0013484146911650896, 0.0014827477280050516]","[0.14999179542064667, 0.15918049216270447, 0.14295963943004608, 0.1377168446779251, 0.13541314005851746, 0.13619956374168396]","[0.047664164464154356, -1.5231321623307421, 0.047664164464154356, 0.047664164464154356, 0.047664164464154356, 0.047664164464154356]","[0.047664164464154356, -1.5231321623307421, 0.047664164464154356, 0.047664164464154356, 0.047664164464154356, 0.047664164464154356]",0.002,7,1
0,10,"[0.0017434116452932358, -1.5687083402047683, 0.0021193663226526382, 0.0019253927418212413, 0.0017537730745971203, 0.0017541599227115512]","[0.16855454444885254, 0.11686861515045166, 0.1172938123345375, 0.15029649436473846, 0.14874248206615448, 0.14976152777671814]","[0.048098754098204126, -1.5226975726966925, 0.048098754098204126, 0.048098754098204126, 0.048098754098204126, 0.048098754098204126]","[0.048098754098204126, -1.5226975726966925, 0.048098754098204126, 0.048098754098204126, 0.048098754098204126, 0.048098754098204126]",0.002,7,1
0,11,"[0.002048955764621496, -1.5684702552719791, 0.002243820820943654, 0.0021095710941771983, 0.0019945658277720213, 0.002070801332592964]","[0.17699749767780304, 0.0878710001707077, 0.14031416177749634, 0.16391929984092712, 0.15832681953907013, 0.15970425307750702]","[0.048533267747364967, -1.5222630590475317, 0.048533267747364967, 0.048533267747364967, 0.048533267747364967, 0.048533267747364967]","[0.048533267747364967, -1.5222630590475317, 0.048533267747364967, 0.048533267747364967, 0.048533267747364967, 0.048533267747364967]",0.002,7,1
0,12,"[0.0023040790110826492, -1.568282429860421, 0.002476517354146779, 0.0024429994770507335, 0.002360731363296509, 0.0024603568017482758]","[0.1818365752696991, 0.10795484483242035, 0.15854981541633606, 0.16628259420394897, 0.1702004075050354, 0.16932226717472076]","[0.048967704725205966, -1.5218286220696906, 0.048967704725205966, 0.048967704725205966, 0.048967704725205966, 0.048967704725205966]","[0.048967704725205966, -1.5218286220696906, 0.048967704725205966, 0.048967704725205966, 0.048967704725205966, 0.048967704725205966]",0.002,7,1
0,13,"[0.002683608792722225, -1.5679957475843658, 0.002843205128804982, 0.0027242141911010265, 0.002864768961444497, 0.002778170630335808]","[0.1855122447013855, 0.15857186913490295, 0.16710533201694489, 0.16959001123905182, 0.18457765877246857, 0.17930863797664642]","[0.049402064345417336, -1.5213942624494792, 0.049402064345417336, 0.049402064345417336, 0.049402064345417336, 0.049402064345417336]","[0.049402064345417336, -1.5213942624494792, 0.049402064345417336, 0.049402064345417336, 0.049402064345417336, 0.049402064345417336]",0.002,7,1
0,14,"[0.0030585848726332188, -1.5676432128860434, 0.003187004719869435, 0.003040118808410597, 0.0032370167318731546, 0.0032004578970372677]","[0.19810844957828522, 0.1697435975074768, 0.1712644398212433, 0.17668963968753815, 0.19963017106056213, 0.19008761644363403]","[0.04983634592181149, -1.5209599808730851, 0.04983634592181149, 0.04983634592181149, 0.04983634592181149, 0.04983634592181149]","[0.04983634592181149, -1.5209599808730851, 0.04983634592181149, 0.04983634592181149, 0.04983634592181149, 0.04983634592181149]",0.002,7,1
0,15,"[0.003484749933704734, -1.5673075304697086, 0.003648106251851857, 0.003541393870971632, 0.003634127788245678, 0.0035755918361246586]","[0.20938202738761902, 0.17319387197494507, 0.1840161681175232, 0.18817280232906342, 0.20490488409996033, 0.19957499206066132]","[0.05027054876832418, -1.5205257780265724, 0.05027054876832418, 0.05027054876832418, 0.05027054876832418, 0.05027054876832418]","[0.05027054876832418, -1.5205257780265724, 0.05027054876832418, 0.05027054876832418, 0.05027054876832418, 0.05027054876832418]",0.002,7,1
0,16,"[0.003988766577094793, -1.5668931424482544, 0.0041001478778284195, 0.003942771548889112, 0.003991871140897274, 0.003986631520092487]","[0.22072969377040863, 0.1828056424856186, 0.20340611040592194, 0.2078462541103363, 0.21306179463863373, 0.21069024503231049]","[0.05070467219901544, -1.5200916545958811, 0.05070467219901544, 0.05070467219901544, 0.05070467219901544, 0.05070467219901544]","[0.05070467219901544, -1.5200916545958811, 0.05070467219901544, 0.05070467219901544, 0.05070467219901544, 0.05070467219901544]",0.002,7,1
0,17,"[0.004538070410490036, -1.5664312083138903, 0.004462067280904591, 0.0045143800922851085, 0.0044677844271063805, 0.00441502220928669]","[0.23505818843841553, 0.19520041346549988, 0.21613603830337524, 0.2251768559217453, 0.2197699099779129, 0.21796156466007233]","[0.051138715528070866, -1.5196576112668256, 0.051138715528070866, 0.051138715528070866, 0.051138715528070866, 0.051138715528070866]","[0.051138715528070866, -1.5196576112668256, 0.051138715528070866, 0.051138715528070866, 0.051138715528070866, 0.051138715528070866]",0.002,7,1
0,18,"[0.005106582771986723, -1.566065285620727, 0.004951302205220998, 0.005032702083251905, 0.004953476600348949, 0.004866411909461021]","[0.24604541063308716, 0.21106764674186707, 0.22526311874389648, 0.23761923611164093, 0.22527481615543365, 0.22926172614097595]","[0.051572678069802536, -1.519223648725094, 0.051572678069802536, 0.051572678069802536, 0.051572678069802536, 0.051572678069802536]","[0.051572678069802536, -1.519223648725094, 0.051572678069802536, 0.051572678069802536, 0.051572678069802536, 0.051572678069802536]",0.002,7,1
0,19,"[0.005515976808965206, -1.565583725725748, 0.005400482808248341, 0.005462809199951124, 0.005417590029537678, 0.005396541208028793]","[0.25432100892066956, 0.22038708627223969, 0.2308659851551056, 0.2472115159034729, 0.23738795518875122, 0.23982933163642883]","[0.05200655913865015, -1.5187897676562465, 0.05200655913865015, 0.05200655913865015, 0.05200655913865015, 0.05200655913865015]","[0.05200655913865015, -1.5187897676562465, 0.05200655913865015, 0.05200655913865015, 0.05200655913865015, 0.05200655913865015]",0.002,7,1
0,20,"[0.0060008917935192585, -1.5650708156502624, 0.0058663527118127945, 0.005872531528137159, 0.005871223751455545, 0.005867775529623032]","[0.2595175504684448, 0.23036636412143707, 0.2381819188594818, 0.2483709156513214, 0.24747338891029358, 0.2493489533662796]","[0.05244035804918214, -1.5183559687457144, 0.05244035804918214, 0.05244035804918214, 0.05244035804918214, 0.05244035804918214]","[0.05244035804918214, -1.5183559687457144, 0.05244035804918214, 0.05244035804918214, 0.05244035804918214, 0.05244035804918214]",0.002,7,1
0,21,"[0.006565403658896685, -1.5646321389688929, 0.006394211445943654, 0.006375713939331007, 0.006430614273995161, 0.006390020716935396]","[0.2622402012348175, 0.24045293033123016, 0.24584996700286865, 0.2467021346092224, 0.25890371203422546, 0.256195604801178]","[0.05287407411609672, -1.5179222526787999, 0.05287407411609672, 0.05287407411609672, 0.05287407411609672, 0.05287407411609672]","[0.05287407411609672, -1.5179222526787999, 0.05287407411609672, 0.05287407411609672, 0.05287407411609672, 0.05287407411609672]",0.002,7,1
0,22,"[0.007005681283771992, -1.5641816945611318, 0.006939713154928029, 0.00683395444836421, 0.007039439864456654, 0.006906893569976091]","[0.26553967595100403, 0.24820059537887573, 0.2562505006790161, 0.2531033456325531, 0.2668806314468384, 0.2626604437828064]","[0.05330770665422299, -1.5174886201406736, 0.05330770665422299, 0.05330770665422299, 0.05330770665422299, 0.05330770665422299]","[0.05330770665422299, -1.5174886201406736, 0.05330770665422299, 0.05330770665422299, 0.05330770665422299, 0.05330770665422299]",0.002,7,1
0,23,"[0.007635843940079212, -1.5635635096444567, 0.007460419331685841, 0.007418556804321241, 0.007530999835580587, 0.007507363334298134]","[0.27469509840011597, 0.2601943016052246, 0.26526638865470886, 0.26255548000335693, 0.2732160687446594, 0.2722032070159912]","[0.05374125497852198, -1.5170550718163747, 0.05374125497852198, 0.05374125497852198, 0.05374125497852198, 0.05374125497852198]","[0.05374125497852198, -1.5170550718163747, 0.05374125497852198, 0.05374125497852198, 0.05374125497852198, 0.05374125497852198]",0.002,7,1
0,24,"[0.008231612853705883, -1.562999530495592, 0.008042160664693654, 0.008092327708862257, 0.008092736825346947, 0.008018160238862038]","[0.28482162952423096, 0.268635630607605, 0.2768525779247284, 0.27853986620903015, 0.2770202159881592, 0.2801371216773987]","[0.05417471840408779, -1.5166216083908088, 0.05417471840408779, 0.05417471840408779, 0.05417471840408779, 0.05417471840408779]","[0.05417471840408779, -1.5166216083908088, 0.05417471840408779, 0.05417471840408779, 0.05417471840408779, 0.05417471840408779]",0.002,7,1
0,25,"[0.008798742666840553, -1.562422734019794, 0.008633438740865529, 0.00868932783093257, 0.008650015108287334, 0.008553664200007915]","[0.29386529326438904, 0.27883899211883545, 0.2862693667411804, 0.29273131489753723, 0.2822015881538391, 0.2871176302433014]","[0.05460809624614861, -1.516188230548748, 0.05460809624614861, 0.05460809624614861, 0.05460809624614861, 0.05460809624614861]","[0.05460809624614861, -1.516188230548748, 0.05460809624614861, 0.05460809624614861, 0.05460809624614861, 0.05460809624614861]",0.002,7,1
0,26,"[0.009387927129864693, -1.5618013900569458, 0.009252850209371388, 0.00932423650708003, 0.009250211529433727, 0.009142247028648853]","[0.3008400499820709, 0.2868475019931793, 0.29089683294296265, 0.30008742213249207, 0.2902795672416687, 0.29400181770324707]","[0.05504138782006785, -1.5157549389748286, 0.05504138782006785, 0.05504138782006785, 0.05504138782006785, 0.05504138782006785]","[0.05504138782006785, -1.5157549389748286, 0.05504138782006785, 0.05504138782006785, 0.05504138782006785, 0.05504138782006785]",0.002,7,1
0,27,"[0.009906930848956108, -1.5612179974890132, 0.009844128285543263, 0.00990085184063716, 0.009848473593592644, 0.009766275994479656]","[0.30327871441841125, 0.29381227493286133, 0.2958829998970032, 0.30146324634552, 0.29551446437835693, 0.300844669342041]","[0.055474592441345186, -1.5153217343535514, 0.055474592441345186, 0.055474592441345186, 0.055474592441345186, 0.055474592441345186]","[0.055474592441345186, -1.5153217343535514, 0.055474592441345186, 0.055474592441345186, 0.055474592441345186, 0.055474592441345186]",0.002,7,1
0,28,"[0.010542094707489014, -1.5606316908127447, 0.01044637361635381, 0.010446234340331984, 0.010444617830216885, 0.010347007773816586]","[0.30462849140167236, 0.2976170480251312, 0.30071911215782166, 0.3016444146633148, 0.30545932054519653, 0.3058203160762787]","[0.0559077094256177, -1.5148886173692788, 0.0559077094256177, 0.0559077094256177, 0.0559077094256177, 0.0559077094256177]","[0.0559077094256177, -1.5148886173692788, 0.0559077094256177, 0.0559077094256177, 0.0559077094256177, 0.0559077094256177]",0.002,7,1
0,29,"[0.011136247776448727, -1.5599827741137524, 0.011041943226949513, 0.01112310468640132, 0.011054057627916336, 0.010962660424411297]","[0.3096229135990143, 0.3028632700443268, 0.30527281761169434, 0.3025745153427124, 0.31093645095825195, 0.30973297357559204]","[0.05634073808866088, -1.5144555887062356, 0.05634073808866088, 0.05634073808866088, 0.05634073808866088, 0.05634073808866088]","[0.05634073808866088, -1.5144555887062356, 0.05634073808866088, 0.05634073808866088, 0.05634073808866088, 0.05634073808866088]",0.002,7,1
0,30,"[0.01184263825416565, -1.5593091140365978, 0.0117877165423792, 0.011719389552734327, 0.011715734377503395, 0.011554096825420856]","[0.3169965445995331, 0.3130907714366913, 0.310225248336792, 0.3080581724643707, 0.3161100745201111, 0.3169356882572174]","[0.05677367774638972, -1.514022649048507, 0.05677367774638972, 0.05677367774638972, 0.05677367774638972, 0.05677367774638972]","[0.05677367774638972, -1.514022649048507, 0.05677367774638972, 0.05677367774638972, 0.05677367774638972, 0.05677367774638972]",0.002,7,1
0,31,"[0.01249021477997303, -1.558694372219481, 0.012358013783590138, 0.012442632312438917, 0.012309533543884754, 0.012210511602461338]","[0.32438787817955017, 0.31627196073532104, 0.3165684640407562, 0.3164371848106384, 0.32209280133247375, 0.3233858644962311]","[0.05720652771485992, -1.5135897990800367, 0.05720652771485992, 0.05720652771485992, 0.05720652771485992, 0.05720652771485992]","[0.05720652771485992, -1.5135897990800367, 0.05720652771485992, 0.05720652771485992, 0.05720652771485992, 0.05720652771485992]",0.002,7,1
0,32,"[0.013134182430803776, -1.5580166115290304, 0.013005081807271779, 0.013087792987487745, 0.01292181946337223, 0.012853962369263172]","[0.3301716148853302, 0.3243958353996277, 0.3217821419239044, 0.32525381445884705, 0.32428842782974243, 0.32845860719680786]","[0.057639287310268766, -1.5131570394846279, 0.057639287310268766, 0.057639287310268766, 0.057639287310268766, 0.057639287310268766]","[0.057639287310268766, -1.5131570394846279, 0.057639287310268766, 0.057639287310268766, 0.057639287310268766, 0.057639287310268766]",0.002,7,1
0,33,"[0.013800103217363358, -1.5573024417138477, 0.013715569172994435, 0.013771458263061476, 0.013588109984993935, 0.013506162911653519]","[0.3298910856246948, 0.33065512776374817, 0.326259583234787, 0.32843539118766785, 0.3280237317085266, 0.3342871069908142]","[0.05807195584895635, -1.5127243709459401, 0.05807195584895635, 0.05807195584895635, 0.05807195584895635, 0.05807195584895635]","[0.05807195584895635, -1.5127243709459401, 0.05807195584895635, 0.05807195584895635, 0.05807195584895635, 0.05807195584895635]",0.002,7,1
0,34,"[0.01445411704480648, -1.5566660084626456, 0.014298264180318654, 0.014379664058349562, 0.014205980114638805, 0.014174427837133408]","[0.3338817059993744, 0.3342468738555908, 0.3347037732601166, 0.33250170946121216, 0.33378830552101135, 0.3386424481868744]","[0.05850453264740661, -1.51229179414749, 0.05850453264740661, 0.05850453264740661, 0.05850453264740661, 0.05850453264740661]","[0.05850453264740661, -1.51229179414749, 0.05850453264740661, 0.05850453264740661, 0.05850453264740661, 0.05850453264740661]",0.002,7,1
0,35,"[0.015158753842115402, -1.5559887525490304, 0.014996353779928029, 0.01503710329022212, 0.014877215959131718, 0.014845505356788635]","[0.3390822112560272, 0.34037482738494873, 0.33935070037841797, 0.333966463804245, 0.3380122184753418, 0.3408172130584717]","[0.05893701702224843, -1.511859309772648, 0.05893701702224843, 0.05893701702224843, 0.05893701702224843, 0.05893701702224843]","[0.05893701702224843, -1.511859309772648, 0.05893701702224843, 0.05893701702224843, 0.05893701702224843, 0.05893701702224843]",0.002,7,1
0,36,"[0.015843233093619347, -1.5552477531931181, 0.015634838734762013, 0.015776081676147413, 0.01567847840487957, 0.015563231892883778]","[0.34147897362709045, 0.344547301530838, 0.34160488843917847, 0.33483418822288513, 0.34159550070762634, 0.34323397278785706]","[0.059369408290256664, -1.5114269185046398, 0.059369408290256664, 0.059369408290256664, 0.059369408290256664, 0.059369408290256664]","[0.059369408290256664, -1.5114269185046398, 0.059369408290256664, 0.059369408290256664, 0.059369408290256664, 0.059369408290256664]",0.002,7,1
0,37,"[0.01651068404316902, -1.5545471285334607, 0.016312901173726857, 0.01640586435284419, 0.016318202018737793, 0.01621023379266262]","[0.34425511956214905, 0.34873509407043457, 0.3411240577697754, 0.3378991186618805, 0.3470756709575653, 0.34727057814598083]","[0.05980170576835331, -1.5109946210265432, 0.05980170576835331, 0.05980170576835331, 0.05980170576835331, 0.05980170576835331]","[0.05980170576835331, -1.5109946210265432, 0.05980170576835331, 0.05980170576835331, 0.05980170576835331, 0.05980170576835331]",0.002,7,1
0,38,"[0.01721815951168537, -1.5539099660566826, 0.017018620167867482, 0.0171091991611938, 0.01699347421526909, 0.01695910654962063]","[0.3484790027141571, 0.3505863845348358, 0.34607192873954773, 0.3409675061702728, 0.3501260578632355, 0.350814551115036]","[0.060233908773608465, -1.510562418021288, 0.060233908773608465, 0.060233908773608465, 0.060233908773608465, 0.060233908773608465]","[0.060233908773608465, -1.510562418021288, 0.060233908773608465, 0.060233908773608465, 0.060233908773608465, 0.060233908773608465]",0.002,7,1
0,39,"[0.017895130440592766, -1.5531571631184597, 0.01771575609316045, 0.017845793361328077, 0.017608409747481346, 0.017674682661890984]","[0.3496789336204529, 0.3539694845676422, 0.3467194437980652, 0.34501972794532776, 0.35235753655433655, 0.35403546690940857]","[0.060666016623241524, -1.510130310171655, 0.060666016623241524, 0.060666016623241524, 0.060666016623241524, 0.060666016623241524]","[0.060666016623241524, -1.510130310171655, 0.060666016623241524, 0.060666016623241524, 0.060666016623241524, 0.060666016623241524]",0.002,7,1
0,40,"[0.018616868183016777, -1.5524357811412592, 0.018452946339742482, 0.018489404315612745, 0.018389394506812096, 0.01834942027926445]","[0.35002076625823975, 0.35595011711120605, 0.35383421182632446, 0.3498583734035492, 0.3557114899158478, 0.3565598428249359]","[0.061098028634622194, -1.5096982981602745, 0.061098028634622194, 0.061098028634622194, 0.061098028634622194, 0.061098028634622194]","[0.061098028634622194, -1.5096982981602745, 0.061098028634622194, 0.061098028634622194, 0.061098028634622194, 0.061098028634622194]",0.002,7,1
0,41,"[0.019305266439914703, -1.5516990807703515, 0.019174877797262013, 0.01917390405621333, 0.01907474361360073, 0.019106391817331314]","[0.35571008920669556, 0.358377069234848, 0.3560597598552704, 0.3544944226741791, 0.3584601879119873, 0.358045756816864]","[0.06152994412527155, -1.509266382669625, 0.06152994412527155, 0.06152994412527155, 0.06152994412527155, 0.06152994412527155]","[0.06152994412527155, -1.509266382669625, 0.06152994412527155, 0.06152994412527155, 0.06152994412527155, 0.06152994412527155]",0.002,7,1
0,42,"[0.02007044106721878, -1.5510048077306529, 0.019860092793599904, 0.01990024625744624, 0.01971740834414959, 0.01975589245557785]","[0.3587714433670044, 0.36087724566459656, 0.36034056544303894, 0.35745111107826233, 0.36009925603866577, 0.36191996932029724]","[0.06196176241286319, -1.5088345643820333, 0.06196176241286319, 0.06196176241286319, 0.06196176241286319, 0.06196176241286319]","[0.06196176241286319, -1.5088345643820333, 0.06196176241286319, 0.06196176241286319, 0.06196176241286319, 0.06196176241286319]",0.002,7,1
0,43,"[0.02079576812684536, -1.5502400279841204, 0.020547215138570607, 0.020548148746154737, 0.020586661994457245, 0.020536819472908974]","[0.3609623908996582, 0.36259543895721436, 0.36086079478263855, 0.360770583152771, 0.36296871304512024, 0.364429771900177]","[0.062393482815224256, -1.5084028439796724, 0.062393482815224256, 0.062393482815224256, 0.062393482815224256, 0.062393482815224256]","[0.062393482815224256, -1.5084028439796724, 0.062393482815224256, 0.062393482815224256, 0.062393482815224256, 0.062393482815224256]",0.002,7,1
0,44,"[0.02146986685693264, -1.5494717371514817, 0.021280590687887013, 0.021228356952331495, 0.02126494236290455, 0.021234989166259766]","[0.362124502658844, 0.36509355902671814, 0.36226585507392883, 0.36050665378570557, 0.36631590127944946, 0.36551979184150696]","[0.06282510465033653, -1.50797122214456, 0.06282510465033653, 0.06282510465033653, 0.06282510465033653, 0.06282510465033653]","[0.06282510465033653, -1.50797122214456, 0.06282510465033653, 0.06282510465033653, 0.06282510465033653, 0.06282510465033653]",0.002,7,1
0,45,"[0.022176597267389297, -1.5487320975265284, 0.022024456654683888, 0.021956129665039015, 0.022022347897291183, 0.022000109776854515]","[0.3624905049800873, 0.36431756615638733, 0.36480963230133057, 0.36310476064682007, 0.36774250864982605, 0.3668888509273529]","[0.06325662723633747, -1.507539699558559, 0.06325662723633747, 0.06325662723633747, 0.06325662723633747, 0.06325662723633747]","[0.06325662723633747, -1.507539699558559, 0.06325662723633747, 0.06325662723633747, 0.06325662723633747, 0.06325662723633747]",0.002,7,1
0,46,"[0.02289503440260887, -1.5479849384031077, 0.022786919270650685, 0.02270333349194331, 0.022769862785935402, 0.02275264821946621]","[0.3639768064022064, 0.36419352889060974, 0.3636856973171234, 0.36439409852027893, 0.36848628520965576, 0.3674042224884033]","[0.0636880498915214, -1.5071082769033752, 0.0636880498915214, 0.0636880498915214, 0.0636880498915214, 0.0636880498915214]","[0.0636880498915214, -1.5071082769033752, 0.0636880498915214, 0.0636880498915214, 0.0636880498915214, 0.0636880498915214]",0.002,7,1
0,47,"[0.02370816469192505, -1.5472649869373818, 0.023502175007955373, 0.023342891330383253, 0.023494618013501167, 0.0234873928129673]","[0.36572468280792236, 0.3646845817565918, 0.36661699414253235, 0.36722180247306824, 0.37072432041168213, 0.36872708797454834]","[0.06411937193434043, -1.506676954860556, 0.06411937193434043, 0.06411937193434043, 0.06411937193434043, 0.06411937193434043]","[0.06411937193434043, -1.506676954860556, 0.06411937193434043, 0.06411937193434043, 0.06411937193434043, 0.06411937193434043]",0.002,7,1
0,48,"[0.024424778297543526, -1.5465110161206503, 0.024264160786763966, 0.024110956782958937, 0.024172993376851082, 0.02422325499355793]","[0.3663054406642914, 0.3645331561565399, 0.365408331155777, 0.3686588704586029, 0.37183383107185364, 0.3690587878227234]","[0.06455059268340568, -1.506245734111491, 0.06455059268340568, 0.06455059268340568, 0.06455059268340568, 0.06455059268340568]","[0.06455059268340568, -1.506245734111491, 0.06455059268340568, 0.06455059268340568, 0.06455059268340568, 0.06455059268340568]",0.002,7,1
0,49,"[0.02515288069844246, -1.5457385157099743, 0.024928871785299123, 0.024788661594055128, 0.02496032603085041, 0.025011515244841576]","[0.36909303069114685, 0.3651561141014099, 0.36927175521850586, 0.3709229528903961, 0.37017911672592163, 0.3702709972858429]","[0.06498171145748827, -1.5058146153374083, 0.06498171145748827, 0.06498171145748827, 0.06498171145748827, 0.06498171145748827]","[0.06498171145748827, -1.5058146153374083, 0.06498171145748827, 0.06498171145748827, 0.06498171145748827, 0.06498171145748827]",0.002,7,1
0,50,"[0.02585817128419876, -1.545015688320138, 0.025653664265767873, 0.025579019183776808, 0.02575763501226902, 0.02572564408183098]","[0.3701503872871399, 0.3657063841819763, 0.367267370223999, 0.37245503067970276, 0.3717634379863739, 0.36960741877555847]","[0.06541272757552037, -1.5053835992193763, 0.06541272757552037, 0.06541272757552037, 0.06541272757552037, 0.06541272757552037]","[0.06541272757552037, -1.5053835992193763, 0.06541272757552037, 0.06541272757552037, 0.06541272757552037, 0.06541272757552037]",0.002,7,1
0,51,"[0.02659693919122219, -1.5442685943892975, 0.02640992799867803, 0.026305242175720167, 0.026435688138008118, 0.02650187537074089]","[0.3708885908126831, 0.3650204539299011, 0.37061408162117004, 0.3742443919181824, 0.372942179441452, 0.3692995607852936]","[0.06584364035659639, -1.5049526864383003, 0.06584364035659639, 0.06584364035659639, 0.06584364035659639, 0.06584364035659639]","[0.06584364035659639, -1.5049526864383003, 0.06584364035659639, 0.06584364035659639, 0.06584364035659639, 0.06584364035659639]",0.002,7,1
0,52,"[0.027300888672471046, -1.5435505260578175, 0.0271533171283167, 0.027044935817382765, 0.027165208011865616, 0.027184924110770226]","[0.3708083927631378, 0.3645889461040497, 0.3704444169998169, 0.3775791525840759, 0.37315765023231506, 0.3711828887462616]","[0.06627444911997396, -1.5045218776749225, 0.06627444911997396, 0.06627444911997396, 0.06627444911997396, 0.06627444911997396]","[0.06627444911997396, -1.5045218776749225, 0.06627444911997396, 0.06627444911997396, 0.06627444911997396, 0.06627444911997396]",0.002,7,1
0,53,"[0.02798439748585224, -1.5428008914789935, 0.02787334123720342, 0.027733011836669874, 0.028010159730911255, 0.028010105714201927]","[0.3699539601802826, 0.36432236433029175, 0.3708069324493408, 0.37847447395324707, 0.37235358357429504, 0.37291911244392395]","[0.06670515318507503, -1.5040911736098215, 0.06670515318507503, 0.06670515318507503, 0.06670515318507503, 0.06670515318507503]","[0.06670515318507503, -1.5040911736098215, 0.06670515318507503, 0.06670515318507503, 0.06670515318507503, 0.06670515318507503]",0.002,7,1
0,54,"[0.028760533779859543, -1.542065779944398, 0.02867013612856084, 0.028495951289794874, 0.02871519885957241, 0.028671978041529655]","[0.36950331926345825, 0.3663373589515686, 0.37150317430496216, 0.37867891788482666, 0.3746110200881958, 0.3732309639453888]","[0.06713575187148693, -1.5036605749234095, 0.06713575187148693, 0.06713575187148693, 0.06713575187148693, 0.06713575187148693]","[0.06713575187148693, -1.5036605749234095, 0.06713575187148693, 0.06713575187148693, 0.06713575187148693, 0.06713575187148693]",0.002,7,1
0,55,"[0.02950582653284073, -1.5413182222149153, 0.029418770466939748, 0.029227300281188917, 0.02949269860982895, 0.02949674054980278]","[0.37296736240386963, 0.36620405316352844, 0.37240052223205566, 0.3775844871997833, 0.37547412514686584, 0.3722798228263855]","[0.06756624449896355, -1.503230082295933, 0.06756624449896355, 0.06756624449896355, 0.06756624449896355, 0.06756624449896355]","[0.06756624449896355, -1.503230082295933, 0.06756624449896355, 0.06756624449896355, 0.06756624449896355, 0.06756624449896355]",0.002,7,1
0,56,"[0.03026408888399601, -1.5405507677099486, 0.030179325734273732, 0.029997630710266066, 0.030270200222730637, 0.030269181355834007]","[0.37303271889686584, 0.36504191160202026, 0.3746103346347809, 0.3778407871723175, 0.37493133544921875, 0.37075772881507874]","[0.0679966303874262, -1.5027996964074704, 0.0679966303874262, 0.0679966303874262, 0.0679966303874262, 0.0679966303874262]","[0.0679966303874262, -1.5027996964074704, 0.0679966303874262, 0.0679966303874262, 0.0679966303874262, 0.0679966303874262]",0.002,7,1
0,57,"[0.030880818143486977, -1.5398523316583415, 0.0309069792376917, 0.030786915416381788, 0.030944060534238815, 0.031041240319609642]","[0.37186288833618164, 0.3646407425403595, 0.3727293610572815, 0.3785512447357178, 0.37340447306632996, 0.37136420607566833]","[0.06842690885696494, -1.5023694179379317, 0.06842690885696494, 0.06842690885696494, 0.06842690885696494, 0.06842690885696494]","[0.06842690885696494, -1.5023694179379317, 0.06842690885696494, 0.06842690885696494, 0.06842690885696494, 0.06842690885696494]",0.002,7,1
0,58,"[0.03168758004903793, -1.5390754987350483, 0.03167182603944951, 0.03156201421704097, 0.03179938346147537, 0.03177335858345032]","[0.37300071120262146, 0.360733300447464, 0.3707176446914673, 0.3803454339504242, 0.37118253111839294, 0.37082549929618835]","[0.0688570792278394, -1.5019392475670572, 0.0688570792278394, 0.0688570792278394, 0.0688570792278394, 0.0688570792278394]","[0.0688570792278394, -1.5019392475670572, 0.0688570792278394, 0.0688570792278394, 0.0688570792278394, 0.0688570792278394]",0.002,7,1
0,59,"[0.032430700957775116, -1.53837018207226, 0.03241092363466436, 0.03232709943737788, 0.03245191276073456, 0.03251970559358597]","[0.3752911686897278, 0.3647978901863098, 0.36955195665359497, 0.3801736831665039, 0.37122735381126404, 0.37004736065864563]","[0.0692871408204801, -1.5015091859744165, 0.0692871408204801, 0.0692871408204801, 0.0692871408204801, 0.0692871408204801]","[0.0692871408204801, -1.5015091859744165, 0.0692871408204801, 0.0692871408204801, 0.0692871408204801, 0.0692871408204801]",0.002,7,1
0,60,"[0.03311976417899132, -1.537660577600338, 0.03315478960146123, 0.033093734378478956, 0.03330741450190544, 0.033238597214221954]","[0.37351343035697937, 0.35959962010383606, 0.3673323094844818, 0.37937217950820923, 0.36983156204223633, 0.36997708678245544]","[0.06971709295548933, -1.5010792338394072, 0.06971709295548933, 0.06971709295548933, 0.06971709295548933, 0.06971709295548933]","[0.06971709295548933, -1.5010792338394072, 0.06971709295548933, 0.06971709295548933, 0.06971709295548933, 0.06971709295548933]",0.002,7,1
0,61,"[0.0339207798242569, -1.536903267060854, 0.03388578096498662, 0.03383009016003413, 0.034023333340883255, 0.03403176739811897]","[0.3731207549571991, 0.3620370924472809, 0.36685609817504883, 0.37121227383613586, 0.37017202377319336, 0.36882543563842773]","[0.07014693495364233, -1.5006493918412542, 0.07014693495364233, 0.07014693495364233, 0.07014693495364233, 0.07014693495364233]","[0.07014693495364233, -1.5006493918412542, 0.07014693495364233, 0.07014693495364233, 0.07014693495364233, 0.07014693495364233]",0.002,7,1
0,62,"[0.0346624031662941, -1.536221658145525, 0.03464633623232061, 0.03458683073010249, 0.03471621498465538, 0.03471369296312332]","[0.37064456939697266, 0.35876625776290894, 0.36497431993484497, 0.37094229459762573, 0.37038445472717285, 0.36602285504341125]","[0.07057666613588828, -1.5002196606590084, 0.07057666613588828, 0.07057666613588828, 0.07057666613588828, 0.07057666613588828]","[0.07057666613588828, -1.5002196606590084, 0.07057666613588828, 0.07057666613588828, 0.07057666613588828, 0.07057666613588828]",0.002,7,1
0,63,"[0.03545888140797615, -1.5354435455850144, 0.03535300890077764, 0.035367174739501905, 0.035502512007951736, 0.03545893728733063]","[0.37007227540016174, 0.36199498176574707, 0.36494210362434387, 0.3710513412952423, 0.3680364787578583, 0.3664696216583252]","[0.07100628582335153, -1.499790040971545, 0.07100628582335153, 0.07100628582335153, 0.07100628582335153, 0.07100628582335153]","[0.07100628582335153, -1.499790040971545, 0.07100628582335153, 0.07100628582335153, 0.07100628582335153, 0.07100628582335153]",0.002,7,1
0,64,"[0.036224253475666046, -1.5347356472960492, 0.03608829179872686, 0.03613035261120601, 0.036239705979824066, 0.036190249025821686]","[0.3680647611618042, 0.36008331179618835, 0.3645115792751312, 0.3708451986312866, 0.3675207495689392, 0.3648989200592041]","[0.07143579333733246, -1.4993605334575641, 0.07143579333733246, 0.07143579333733246, 0.07143579333733246, 0.07143579333733246]","[0.07143579333733246, -1.4993605334575641, 0.07143579333733246, 0.07143579333733246, 0.07143579333733246, 0.07143579333733246]",0.002,7,1
0,65,"[0.03696252405643463, -1.5340493892184277, 0.03687936464418584, 0.036899252528808546, 0.03690164536237717, 0.036872901022434235]","[0.3682606518268585, 0.35913312435150146, 0.36452385783195496, 0.3704323470592499, 0.3625713884830475, 0.3649396598339081]","[0.07186518799930869, -1.498931138795588, 0.07186518799930869, 0.07186518799930869, 0.07186518799930869, 0.07186518799930869]","[0.07186518799930869, -1.498931138795588, 0.07186518799930869, 0.07186518799930869, 0.07186518799930869, 0.07186518799930869]",0.002,7,1
0,66,"[0.03776147961616516, -1.5332850453308602, 0.037560288106099904, 0.03767327844586177, 0.0376550666987896, 0.037580955773591995]","[0.3676906228065491, 0.36034536361694336, 0.36357203125953674, 0.3686869144439697, 0.3631725013256073, 0.3667779564857483]","[0.07229446913093615, -1.4985018576639604, 0.07229446913093615, 0.07229446913093615, 0.07229446913093615, 0.07229446913093615]","[0.07229446913093615, -1.4985018576639604, 0.07229446913093615, 0.07229446913093615, 0.07229446913093615, 0.07229446913093615]",0.002,7,1
0,67,"[0.038430482149124146, -1.5325900626233597, 0.0382917563067835, 0.03840164720501704, 0.03833330422639847, 0.03829250484704971]","[0.36709779500961304, 0.3572513163089752, 0.3636607527732849, 0.3657720983028412, 0.3628283143043518, 0.3634151816368103]","[0.07272363605405009, -1.4980726907408464, 0.07272363605405009, 0.07272363605405009, 0.07272363605405009, 0.07272363605405009]","[0.07272363605405009, -1.4980726907408464, 0.07272363605405009, 0.07272363605405009, 0.07272363605405009, 0.07272363605405009]",0.002,7,1
0,68,"[0.03915228694677353, -1.5318823133460064, 0.039023701344625294, 0.03916375219311519, 0.03906850889325142, 0.03901894763112068]","[0.3632700741291046, 0.36010050773620605, 0.36221474409103394, 0.36231759190559387, 0.3618781566619873, 0.36296573281288147]","[0.07315268809066618, -1.4976436387042305, 0.07315268809066618, 0.07315268809066618, 0.07315268809066618, 0.07315268809066618]","[0.07315268809066618, -1.4976436387042305, 0.07315268809066618, 0.07315268809066618, 0.07315268809066618, 0.07315268809066618]",0.002,7,1
0,69,"[0.039895717054605484, -1.5311628964594384, 0.03976661363710576, 0.03989963113751216, 0.03980902582406998, 0.039727143943309784]","[0.362077534198761, 0.3573266267776489, 0.35903000831604004, 0.3598427474498749, 0.36198437213897705, 0.36262261867523193]","[0.07358162456298162, -1.4972147022319149, 0.07358162456298162, 0.07358162456298162, 0.07358162456298162, 0.07358162456298162]","[0.07358162456298162, -1.4972147022319149, 0.07358162456298162, 0.07358162456298162, 0.07358162456298162, 0.07358162456298162]",0.002,7,1
0,70,"[0.04062642157077789, -1.5304763291827221, 0.04048139253725225, 0.0406530338474731, 0.04055790230631828, 0.040446944534778595]","[0.36251935362815857, 0.35749417543411255, 0.35805270075798035, 0.35734739899635315, 0.36009955406188965, 0.3620988428592682]","[0.07401044479337612, -1.4967858820015205, 0.07401044479337612, 0.07401044479337612, 0.07401044479337612, 0.07401044479337612]","[0.07401044479337612, -1.4967858820015205, 0.07401044479337612, 0.07401044479337612, 0.07401044479337612, 0.07401044479337612]",0.002,7,1
0,71,"[0.041246406733989716, -1.5297608238509675, 0.04126197496523076, 0.04134492456402583, 0.041200269013643265, 0.041096728295087814]","[0.35727524757385254, 0.35649701952934265, 0.35822269320487976, 0.35726162791252136, 0.357923299074173, 0.3611084520816803]","[0.07443914810441309, -1.4963571786904835, 0.07443914810441309, 0.07443914810441309, 0.07443914810441309, 0.07443914810441309]","[0.07443914810441309, -1.4963571786904835, 0.07443914810441309, 0.07443914810441309, 0.07443914810441309, 0.07443914810441309]",0.002,7,1
0,72,"[0.04199426993727684, -1.5290902119925995, 0.041927639638082326, 0.04208581029858394, 0.041879937052726746, 0.04184592515230179]","[0.35757356882095337, 0.35512569546699524, 0.3564704954624176, 0.3568577468395233, 0.3558053970336914, 0.3596644997596741]","[0.07486773381884058, -1.495928592976056, 0.07486773381884058, 0.07486773381884058, 0.07486773381884058, 0.07486773381884058]","[0.07486773381884058, -1.495928592976056, 0.07486773381884058, 0.07486773381884058, 0.07486773381884058, 0.07486773381884058]",0.002,7,1
0,73,"[0.04270434007048607, -1.5283380796066304, 0.04255801836122686, 0.04283587514843745, 0.04267355799674988, 0.0425293855369091]","[0.3558112680912018, 0.3537934422492981, 0.35304737091064453, 0.3565743565559387, 0.35569843649864197, 0.3587283492088318]","[0.07529620125959248, -1.495500125535304, 0.07529620125959248, 0.07529620125959248, 0.07529620125959248, 0.07529620125959248]","[0.07529620125959248, -1.495500125535304, 0.07529620125959248, 0.07529620125959248, 0.07529620125959248, 0.07529620125959248]",0.002,7,1
0,74,"[0.043469566851854324, -1.5276369166425248, 0.04329282442201787, 0.043510718936584425, 0.04338199272751808, 0.04324482008814812]","[0.3544585108757019, 0.3539455533027649, 0.35222917795181274, 0.3517654836177826, 0.3555074632167816, 0.3587525188922882]","[0.07572454974978947, -1.4950717770451072, 0.07572454974978947, 0.07572454974978947, 0.07572454974978947, 0.07572454974978947]","[0.07572454974978947, -1.4950717770451072, 0.07572454974978947, 0.07572454974978947, 0.07572454974978947, 0.07572454974978947]",0.002,7,1
0,75,"[0.04411233961582184, -1.5269464787891884, 0.04399139085878545, 0.04422001420941157, 0.04402138665318489, 0.0439494289457798]","[0.35338935256004333, 0.3510536849498749, 0.35099875926971436, 0.3482385277748108, 0.3535288870334625, 0.3573093116283417]","[0.07615277861274017, -1.4946435481821565, 0.07615277861274017, 0.07615277861274017, 0.07615277861274017, 0.07615277861274017]","[0.07615277861274017, -1.4946435481821565, 0.07615277861274017, 0.07615277861274017, 0.07615277861274017, 0.07615277861274017]",0.002,7,1
0,76,"[0.044842883944511414, -1.5262594272247334, 0.04473430315126592, 0.044934197063110304, 0.044757988303899765, 0.04463318735361099]","[0.35142067074775696, 0.3499101400375366, 0.34764766693115234, 0.34616029262542725, 0.3522634506225586, 0.354346364736557]","[0.07658088717194218, -1.4942154396229543, 0.07658088717194218, 0.07658088717194218, 0.07658088717194218, 0.07658088717194218]","[0.07658088717194218, -1.4942154396229543, 0.07658088717194218, 0.07658088717194218, 0.07658088717194218, 0.07658088717194218]",0.002,7,1
0,77,"[0.04555056616663933, -1.525547695612051, 0.045409504567281544, 0.04562298833813472, 0.04538041725754738, 0.045315418392419815]","[0.34635940194129944, 0.3506079316139221, 0.3479008376598358, 0.3445635139942169, 0.35048797726631165, 0.3534805476665497]","[0.07700887475108316, -1.4937874520438135, 0.07700887475108316, 0.07700887475108316, 0.07700887475108316, 0.07700887475108316]","[0.07700887475108316, -1.4937874520438135, 0.07700887475108316, 0.07700887475108316, 0.07700887475108316, 0.07700887475108316]",0.002,7,1
0,78,"[0.04624512419104576, -1.5248525378159066, 0.046119515095846, 0.04632370054211421, 0.04602879658341408, 0.0460396483540535]","[0.34799572825431824, 0.34912699460983276, 0.3450222909450531, 0.3433610200881958, 0.34754905104637146, 0.3521444499492645]","[0.07743674067404187, -1.4933595861208546, 0.07743674067404187, 0.07743674067404187, 0.07743674067404187, 0.07743674067404187]","[0.07743674067404187, -1.4933595861208546, 0.07743674067404187, 0.07743674067404187, 0.07743674067404187, 0.07743674067404187]",0.002,7,1
0,79,"[0.04690062627196312, -1.5241787259331723, 0.0467451254474085, 0.04703466474499507, 0.04677281156182289, 0.04673938825726509]","[0.34588679671287537, 0.3485511541366577, 0.34443625807762146, 0.34329351782798767, 0.34630370140075684, 0.3496873378753662]","[0.07786448426488929, -1.4929318425300073, 0.07786448426488929, 0.07786448426488929, 0.07786448426488929, 0.07786448426488929]","[0.07786448426488929, -1.4929318425300073, 0.07786448426488929, 0.07786448426488929, 0.07786448426488929, 0.07786448426488929]",0.002,7,1
0,80,"[0.047625597566366196, -1.5234162223390122, 0.04738742509950811, 0.04761592924084468, 0.04751347377896309, 0.04743529483675957]","[0.34408697485923767, 0.3475113809108734, 0.3439766466617584, 0.3398156464099884, 0.3457149565219879, 0.3478313088417053]","[0.07829210484788961, -1.492504221947007, 0.07829210484788961, 0.07829210484788961, 0.07829210484788961, 0.07829210484788961]","[0.07829210484788961, -1.492504221947007, 0.07829210484788961, 0.07829210484788961, 0.07829210484788961, 0.07829210484788961]",0.002,7,1
0,81,"[0.048293471336364746, -1.5227450367859383, 0.048163715993062794, 0.04833797990765376, 0.048159610480070114, 0.048115577548742294]","[0.34163227677345276, 0.34654590487480164, 0.341412752866745, 0.33712008595466614, 0.34363678097724915, 0.34582167863845825]","[0.07871960174750138, -1.4920767250473952, 0.07871960174750138, 0.07871960174750138, 0.07871960174750138, 0.07871960174750138]","[0.07871960174750138, -1.4920767250473952, 0.07871960174750138, 0.07871960174750138, 0.07871960174750138, 0.07871960174750138]",0.002,7,1
0,82,"[0.04896872490644455, -1.5220458594015618, 0.048767868672506154, 0.04909126340832515, 0.04883969575166702, 0.04880611598491669]","[0.3382880687713623, 0.3433311879634857, 0.33843228220939636, 0.33484554290771484, 0.34297817945480347, 0.344205766916275]","[0.07914697428837855, -1.491649352506518, 0.07914697428837855, 0.07914697428837855, 0.07914697428837855, 0.07914697428837855]","[0.07914697428837855, -1.491649352506518, 0.07914697428837855, 0.07914697428837855, 0.07914697428837855, 0.07914697428837855]",0.002,7,1
0,83,"[0.04964171722531319, -1.5214332056096573, 0.049479309712545216, 0.04963521539654536, 0.04951654002070427, 0.049509890377521515]","[0.33639439940452576, 0.34106868505477905, 0.3383317291736603, 0.3349795341491699, 0.3400058448314667, 0.3416261672973633]","[0.07957422179537149, -1.4912221049995251, 0.07957422179537149, 0.07957422179537149, 0.07957422179537149, 0.07957422179537149]","[0.07957422179537149, -1.4912221049995251, 0.07957422179537149, 0.07957422179537149, 0.07957422179537149, 0.07957422179537149]",0.002,7,1
0,84,"[0.05028225854039192, -1.520721224402525, 0.05014640489687139, 0.0502968269535522, 0.0502130500972271, 0.05017281323671341]","[0.3363196551799774, 0.34113091230392456, 0.3378579020500183, 0.3330741822719574, 0.3387766480445862, 0.33968257904052734]","[0.08000134359352813, -1.4907949832013685, 0.08000134359352813, 0.08000134359352813, 0.08000134359352813, 0.08000134359352813]","[0.08000134359352813, -1.4907949832013685, 0.08000134359352813, 0.08000134359352813, 0.08000134359352813, 0.08000134359352813]",0.002,7,1
0,85,"[0.050950560718774796, -1.520006601964571, 0.05081683794130498, 0.05095593511547847, 0.05089731141924858, 0.050844546407461166]","[0.3339473605155945, 0.33820468187332153, 0.3337235152721405, 0.33198311924934387, 0.3372572660446167, 0.33770397305488586]","[0.08042833900809497, -1.4903679877868017, 0.08042833900809497, 0.08042833900809497, 0.08042833900809497, 0.08042833900809497]","[0.08042833900809497, -1.4903679877868017, 0.08042833900809497, 0.08042833900809497, 0.08042833900809497, 0.08042833900809497]",0.002,7,1
0,86,"[0.051616258919239044, -1.5193287406912823, 0.0514910856830042, 0.05157570421185298, 0.051529064774513245, 0.051499467343091965]","[0.33135494589805603, 0.3365159034729004, 0.33404892683029175, 0.3316490948200226, 0.33529067039489746, 0.33697226643562317]","[0.08085520736451816, -1.4899411194303784, 0.08085520736451816, 0.08085520736451816, 0.08085520736451816, 0.08085520736451816]","[0.08085520736451816, -1.4899411194303784, 0.08085520736451816, 0.08085520736451816, 0.08085520736451816, 0.08085520736451816]",0.002,7,1
0,87,"[0.052340637892484665, -1.5186741215041657, 0.05213767686952764, 0.05218259870495601, 0.05216966196894646, 0.05218736454844475]","[0.3301210403442383, 0.33574041724205017, 0.3325928747653961, 0.32852423191070557, 0.3327721059322357, 0.334153950214386]","[0.08128194798844461, -1.489514378806452, 0.08128194798844461, 0.08128194798844461, 0.08128194798844461, 0.08128194798844461]","[0.08128194798844461, -1.489514378806452, 0.08128194798844461, 0.08128194798844461, 0.08128194798844461, 0.08128194798844461]",0.002,7,1
0,88,"[0.052996791899204254, -1.517974392776825, 0.05277997652162725, 0.05285088598217769, 0.052821092307567596, 0.05287937447428703]","[0.3256596028804779, 0.3341084420681, 0.3317038416862488, 0.3291040062904358, 0.3303893506526947, 0.333029568195343]","[0.08170856020572298, -1.4890877665891735, 0.08170856020572298, 0.08170856020572298, 0.08170856020572298, 0.08170856020572298]","[0.08170856020572298, -1.4890877665891735, 0.08170856020572298, 0.08170856020572298, 0.08170856020572298, 0.08170856020572298]",0.002,7,1
0,89,"[0.05358925834298134, -1.5173864935389538, 0.05347139040102178, 0.05348472177471919, 0.053487420082092285, 0.05356336757540703]","[0.3256886899471283, 0.3304404318332672, 0.32800784707069397, 0.32837122678756714, 0.32862821221351624, 0.32875126600265503]","[0.0821350433424048, -1.4886612834524917, 0.0821350433424048, 0.0821350433424048, 0.0821350433424048, 0.0821350433424048]","[0.0821350433424048, -1.4886612834524917, 0.0821350433424048, 0.0821350433424048, 0.0821350433424048, 0.0821350433424048]",0.002,7,1
0,90,"[0.05424661189317703, -1.5166590486517926, 0.054107014332906544, 0.05410592138256831, 0.054125189781188965, 0.054206907749176025]","[0.3237003982067108, 0.32820212841033936, 0.32580316066741943, 0.3261672258377075, 0.3279697299003601, 0.3275407552719116]","[0.0825613967247455, -1.488234930070151, 0.0825613967247455, 0.0825613967247455, 0.0825613967247455, 0.0825613967247455]","[0.0825613967247455, -1.488234930070151, 0.0825613967247455, 0.0825613967247455, 0.0825613967247455, 0.0825613967247455]",0.002,7,1
0,91,"[0.054923053830862045, -1.5160262261382123, 0.05473691621889287, 0.054779334659240675, 0.054816875606775284, 0.05485714226961136]","[0.32122737169265747, 0.3242601156234741, 0.32374250888824463, 0.3242970108985901, 0.3259327709674835, 0.32424911856651306]","[0.0829876196792055, -1.4878087071156911, 0.0829876196792055, 0.0829876196792055, 0.0829876196792055, 0.0829876196792055]","[0.0829876196792055, -1.4878087071156911, 0.0829876196792055, 0.0829876196792055, 0.0829876196792055, 0.0829876196792055]",0.002,7,1
0,92,"[0.05560668557882309, -1.5153143753162404, 0.05540162721742803, 0.055431051845214796, 0.055492281913757324, 0.055491361767053604]","[0.32027778029441833, 0.3204725682735443, 0.32272690534591675, 0.324288547039032, 0.3225640654563904, 0.3207366466522217]","[0.08341371153245129, -1.4873826152624452, 0.08341371153245129, 0.08341371153245129, 0.08341371153245129, 0.08341371153245129]","[0.08341371153245129, -1.4873826152624452, 0.08341371153245129, 0.08341371153245129, 0.08341371153245129, 0.08341371153245129]",0.002,7,1
0,93,"[0.056220926344394684, -1.5147092577866097, 0.056042019520894826, 0.05602030336346431, 0.05610138550400734, 0.05616450682282448]","[0.31745561957359314, 0.3190794587135315, 0.319027841091156, 0.32311615347862244, 0.32088932394981384, 0.3184739947319031]","[0.08383967161135646, -1.48695665518354, 0.08383967161135646, 0.08383967161135646, 0.08383967161135646, 0.08383967161135646]","[0.08383967161135646, -1.48695665518354, 0.08383967161135646, 0.08383967161135646, 0.08383967161135646, 0.08383967161135646]",0.002,7,1
0,94,"[0.05685840919613838, -1.5140460704318066, 0.056639973317281544, 0.056612058276794386, 0.05671657621860504, 0.05679522454738617]","[0.3178552985191345, 0.31641292572021484, 0.31628185510635376, 0.3214268088340759, 0.31667912006378174, 0.31557801365852356]","[0.08426549924300272, -1.4865308275518938, 0.08426549924300272, 0.08426549924300272, 0.08426549924300272, 0.08426549924300272]","[0.08426549924300272, -1.4865308275518938, 0.08426549924300272, 0.08426549924300272, 0.08426549924300272, 0.08426549924300272]",0.002,7,1
0,95,"[0.057485729455947876, -1.5134857159904023, 0.05734712282289678, 0.057239099139831495, 0.05742091313004494, 0.057447534054517746]","[0.31404930353164673, 0.3134409189224243, 0.3159680664539337, 0.319385826587677, 0.3171529173851013, 0.3137662410736084]","[0.0846911937546811, -1.4861051330402155, 0.0846911937546811, 0.0846911937546811, 0.0846911937546811, 0.0846911937546811]","[0.0846911937546811, -1.4861051330402155, 0.0846911937546811, 0.0846911937546811, 0.0846911937546811, 0.0846911937546811]",0.002,7,1
0,96,"[0.05805441737174988, -1.5128448282233258, 0.057930771504537404, 0.05788950502362056, 0.05802133306860924, 0.05809943005442619]","[0.31233134865760803, 0.31424278020858765, 0.31498807668685913, 0.31591448187828064, 0.3140651285648346, 0.3132779598236084]","[0.08511675447389287, -1.4856795723210037, 0.08511675447389287, 0.08511675447389287, 0.08511675447389287, 0.08511675447389287]","[0.08511675447389287, -1.4856795723210037, 0.08511675447389287, 0.08511675447389287, 0.08511675447389287, 0.08511675447389287]",0.002,7,1
0,97,"[0.05871743708848953, -1.5121439968100567, 0.05856210390199834, 0.05847243844952388, 0.05862016603350639, 0.05873066931962967]","[0.3095135986804962, 0.3115577697753906, 0.3111047148704529, 0.31406253576278687, 0.3123815953731537, 0.3096018433570862]","[0.0855421807283507, -1.4852541460665458, 0.0855421807283507, 0.0855421807283507, 0.0855421807283507, 0.0855421807283507]","[0.0855421807283507, -1.4852541460665458, 0.0855421807283507, 0.0855421807283507, 0.0855421807283507, 0.0855421807283507]",0.002,7,1
0,98,"[0.059304095804691315, -1.5115113493851204, 0.059181038533346, 0.05916063367810054, 0.05924487113952637, 0.05935005471110344]","[0.3081209063529968, 0.3103407621383667, 0.3105853796005249, 0.31293556094169617, 0.31077900528907776, 0.3072985112667084]","[0.08596747184597962, -1.484828854948917, 0.08596747184597962, 0.08596747184597962, 0.08596747184597962, 0.08596747184597962]","[0.08596747184597962, -1.484828854948917, 0.08596747184597962, 0.08596747184597962, 0.08596747184597962, 0.08596747184597962]",0.002,7,1
0,99,"[0.0598648376762867, -1.5109746430865307, 0.05979806581606084, 0.0597274738499145, 0.059897374361753464, 0.0599781833589077]","[0.3056740462779999, 0.3086477816104889, 0.3091457486152649, 0.31007280945777893, 0.3077547252178192, 0.3058358430862427]","[0.0863926271549182, -1.4844036996399783, 0.0863926271549182, 0.0863926271549182, 0.0863926271549182, 0.0863926271549182]","[0.0863926271549182, -1.4844036996399783, 0.0863926271549182, 0.0863926271549182, 0.0863926271549182, 0.0863926271549182]",0.002,7,1
0,100,"[0.06050150468945503, -1.5103628684631367, 0.060396973286763966, 0.06034640848126216, 0.06059543415904045, 0.060601573437452316]","[0.30681726336479187, 0.30516040325164795, 0.30673229694366455, 0.3094078004360199, 0.30454176664352417, 0.30235907435417175]","[0.08681764598351958, -1.483978680811377, 0.08681764598351958, 0.08681764598351958, 0.08681764598351958, 0.08681764598351958]","[0.08681764598351958, -1.483978680811377, 0.08681764598351958, 0.08681764598351958, 0.08681764598351958, 0.08681764598351958]",0.002,7,1
0,101,"[0.06113632023334503, -1.509765626197197, 0.06095439592470342, 0.0609401899525146, 0.0611354261636734, 0.06120036542415619]","[0.3017302453517914, 0.300392746925354, 0.3055332601070404, 0.30760443210601807, 0.3043029010295868, 0.30133622884750366]","[0.08724252766035244, -1.4835537991345442, 0.08724252766035244, 0.08724252766035244, 0.08724252766035244, 0.08724252766035244]","[0.08724252766035244, -1.4835537991345442, 0.08724252766035244, 0.08724252766035244, 0.08724252766035244, 0.08724252766035244]",0.002,7,1
0,102,"[0.06174876168370247, -1.5091564667275925, 0.06157094637026006, 0.06153683244671626, 0.06175505742430687, 0.06182033568620682]","[0.30248624086380005, 0.30142244696617126, 0.3039258122444153, 0.3049915134906769, 0.30102911591529846, 0.2995316982269287]","[0.08766727151420217, -1.4831290552806944, 0.08766727151420217, 0.08766727151420217, 0.08766727151420217, 0.08766727151420217]","[0.08766727151420217, -1.4831290552806944, 0.08766727151420217, 0.08766727151420217, 0.08766727151420217, 0.08766727151420217]",0.002,7,1
0,103,"[0.062333814799785614, -1.5084916067174454, 0.06222516695131475, 0.06216268121685786, 0.062356702983379364, 0.06238262355327606]","[0.2996363043785095, 0.2971539795398712, 0.2992797791957855, 0.3032093048095703, 0.29772400856018066, 0.29573267698287964]","[0.08809187687407186, -1.4827044499208246, 0.08809187687407186, 0.08809187687407186, 0.08809187687407186, 0.08809187687407186]","[0.08809187687407186, -1.4827044499208246, 0.08809187687407186, 0.08809187687407186, 0.08809187687407186, 0.08809187687407186]",0.002,7,1
0,104,"[0.06286654621362686, -1.5079977747849007, 0.06286079088319951, 0.06281237184490962, 0.06292273849248886, 0.06301210075616837]","[0.2984354794025421, 0.2951371669769287, 0.29863622784614563, 0.3010360300540924, 0.29517537355422974, 0.2950066030025482]","[0.0885163430691834, -1.4822799837257132, 0.0885163430691834, 0.0885163430691834, 0.0885163430691834, 0.0885163430691834]","[0.0885163430691834, -1.4822799837257132, 0.0885163430691834, 0.0885163430691834, 0.0885163430691834, 0.0885163430691834]",0.002,7,1
0,105,"[0.06353583931922913, -1.507353314464428, 0.06347734132875615, 0.06344322740521235, 0.06350190937519073, 0.06358622014522552]","[0.29739153385162354, 0.29407399892807007, 0.29462122917175293, 0.2988846004009247, 0.29202792048454285, 0.29215139150619507]","[0.08894066942897857, -1.481855657365918, 0.08894066942897857, 0.08894066942897857, 0.08894066942897857, 0.08894066942897857]","[0.08894066942897857, -1.481855657365918, 0.08894066942897857, 0.08894066942897857, 0.08894066942897857, 0.08894066942897857]",0.002,7,1
0,106,"[0.06405595690011978, -1.506787822847702, 0.06402188936342412, 0.06401066362347407, 0.06414753198623657, 0.0641905665397644]","[0.29416048526763916, 0.2886415123939514, 0.2938677668571472, 0.2968021333217621, 0.29329168796539307, 0.2901066243648529]","[0.08936485528312, -1.4814314715117765, 0.08936485528312, 0.08936485528312, 0.08936485528312, 0.08936485528312]","[0.08936485528312, -1.4814314715117765, 0.08936485528312, 0.08936485528312, 0.08936485528312, 0.08936485528312]",0.002,7,1
0,107,"[0.06464430689811707, -1.5061692383936425, 0.06459647813905889, 0.06460539876904292, 0.0647369772195816, 0.06473319232463837]","[0.2919955849647522, 0.28831446170806885, 0.29070356488227844, 0.2939850091934204, 0.2886762022972107, 0.28734567761421204]","[0.08978889996149231, -1.4810074268334041, 0.08978889996149231, 0.08978889996149231, 0.08978889996149231, 0.08978889996149231]","[0.08978889996149231, -1.4810074268334041, 0.08978889996149231, 0.08978889996149231, 0.08978889996149231, 0.08978889996149231]",0.002,7,1
0,108,"[0.06521739065647125, -1.5056314778378983, 0.06514245668520147, 0.06518010675396724, 0.06532610952854156, 0.06529994308948517]","[0.2893763482570648, 0.28661084175109863, 0.2872660756111145, 0.2907749116420746, 0.28762146830558777, 0.28524574637413025]","[0.09021280279420313, -1.4805835240006935, 0.09021280279420313, 0.09021280279420313, 0.09021280279420313, 0.09021280279420313]","[0.09021280279420313, -1.4805835240006935, 0.09021280279420313, 0.09021280279420313, 0.09021280279420313, 0.09021280279420313]",0.002,7,1
0,109,"[0.06580422818660736, -1.5050398644855996, 0.06575328508485967, 0.06581680356945796, 0.06593664735555649, 0.06588460505008698]","[0.28761258721351624, 0.283766508102417, 0.2864142954349518, 0.2881914973258972, 0.28496798872947693, 0.28279489278793335]","[0.09063656311158419, -1.4801597636833124, 0.09063656311158419, 0.09063656311158419, 0.09063656311158419, 0.09063656311158419]","[0.09063656311158419, -1.4801597636833124, 0.09063656311158419, 0.09063656311158419, 0.09063656311158419, 0.09063656311158419]",0.002,7,1
0,110,"[0.06638359278440475, -1.504472905104496, 0.06634265581239873, 0.06637398778881831, 0.0664830133318901, 0.06644780933856964]","[0.2853967845439911, 0.28303125500679016, 0.28487709164619446, 0.2850459814071655, 0.28282007575035095, 0.2802804112434387]","[0.09106018024419235, -1.4797361465507042, 0.09106018024419235, 0.09106018024419235, 0.09106018024419235, 0.09106018024419235]","[0.09106018024419235, -1.4797361465507042, 0.09106018024419235, 0.09106018024419235, 0.09106018024419235, 0.09106018024419235]",0.002,7,1
0,111,"[0.06696409732103348, -1.503970929687359, 0.06692439714540654, 0.06692258893933101, 0.06699296087026596, 0.06704156845808029]","[0.2850187420845032, 0.2819710075855255, 0.2811533808708191, 0.2827533483505249, 0.2798512876033783, 0.2779887318611145]","[0.0914836535228107, -1.4793126732720858, 0.0914836535228107, 0.0914836535228107, 0.0914836535228107, 0.0914836535228107]","[0.0914836535228107, -1.4793126732720858, 0.0914836535228107, 0.0914836535228107, 0.0914836535228107, 0.0914836535228107]",0.002,7,1
0,112,"[0.06754390150308609, -1.5033303660205384, 0.06752235094179326, 0.06756608068432612, 0.06758653372526169, 0.0675559788942337]","[0.2823466360569, 0.27997633814811707, 0.28032615780830383, 0.28026485443115234, 0.2791022062301636, 0.2773230969905853]","[0.09190698227844955, -1.478889344516447, 0.09190698227844955, 0.09190698227844955, 0.09190698227844955, 0.09190698227844955]","[0.09190698227844955, -1.478889344516447, 0.09190698227844955, 0.09190698227844955, 0.09190698227844955, 0.09190698227844955]",0.002,7,1
0,113,"[0.0681157261133194, -1.5027736362865944, 0.06806022325624639, 0.06810884057965083, 0.06807680428028107, 0.06814909726381302]","[0.2799738049507141, 0.2788051962852478, 0.27956846356391907, 0.28038692474365234, 0.2775929570198059, 0.278155118227005]","[0.09233016584234753, -1.4784661609525491, 0.09233016584234753, 0.09233016584234753, 0.09233016584234753, 0.09233016584234753]","[0.09233016584234753, -1.4784661609525491, 0.09233016584234753, 0.09233016584234753, 0.09233016584234753, 0.09233016584234753]",0.002,7,1
0,114,"[0.06874506920576096, -1.5022174727967759, 0.0686257521258753, 0.06862132131542964, 0.06864848732948303, 0.06863675266504288]","[0.2770508825778961, 0.2762657105922699, 0.27626651525497437, 0.27681905031204224, 0.2754490077495575, 0.27658137679100037]","[0.09275320354597265, -1.478043123248924, 0.09275320354597265, 0.09275320354597265, 0.09275320354597265, 0.09275320354597265]","[0.09275320354597265, -1.478043123248924, 0.09275320354597265, 0.09275320354597265, 0.09275320354597265, 0.09275320354597265]",0.002,7,1
0,115,"[0.06930011510848999, -1.501661331658699, 0.06916839281191045, 0.06921641408886714, 0.06915133446455002, 0.0692010149359703]","[0.2748795747756958, 0.27542901039123535, 0.27606678009033203, 0.27406468987464905, 0.27352237701416016, 0.2734604477882385]","[0.09317609472102331, -1.4776202320738732, 0.09317609472102331, 0.09317609472102331, 0.09317609472102331, 0.09317609472102331]","[0.09317609472102331, -1.4776202320738732, 0.09317609472102331, 0.09317609472102331, 0.09317609472102331, 0.09317609472102331]",0.002,7,1
0,116,"[0.06979262083768845, -1.501175658111908, 0.06972057024110967, 0.06977014123883052, 0.06980767846107483, 0.06967872381210327]","[0.27260929346084595, 0.27487653493881226, 0.2733762562274933, 0.271186500787735, 0.27100181579589844, 0.2728157937526703]","[0.09359883869942948, -1.477197488095467, 0.09359883869942948, 0.09359883869942948, 0.09359883869942948, 0.09359883869942948]","[0.09359883869942948, -1.477197488095467, 0.09359883869942948, 0.09359883869942948, 0.09359883869942948, 0.09359883869942948]",0.002,7,1
0,117,"[0.07031012326478958, -1.5005673554590722, 0.070258919392721, 0.07031993448223872, 0.0703187957406044, 0.0702756866812706]","[0.2704584002494812, 0.2720639109611511, 0.27238452434539795, 0.27022314071655273, 0.2691039741039276, 0.270749032497406]","[0.09402143481335355, -1.476774891981543, 0.09402143481335355, 0.09402143481335355, 0.09402143481335355, 0.09402143481335355]","[0.09402143481335355, -1.476774891981543, 0.09402143481335355, 0.09402143481335355, 0.09402143481335355, 0.09402143481335355]",0.002,7,1
0,118,"[0.07092384994029999, -1.500069224541523, 0.07075721422304326, 0.0708584028431396, 0.07085932791233063, 0.07076366245746613]","[0.2675853371620178, 0.2701658308506012, 0.2695115804672241, 0.26689887046813965, 0.26863107085227966, 0.26854172348976135]","[0.0944438823951916, -1.476352444399705, 0.0944438823951916, 0.0944438823951916, 0.0944438823951916, 0.0944438823951916]","[0.0944438823951916, -1.476352444399705, 0.0944438823951916, 0.0944438823951916, 0.0944438823951916, 0.0944438823951916]",0.002,7,1
0,119,"[0.0714205652475357, -1.499500998561718, 0.07137948671449834, 0.07138173162426753, 0.07139958441257477, 0.07131512463092804]","[0.26632219552993774, 0.270310640335083, 0.26935476064682007, 0.2661195993423462, 0.2684536576271057, 0.2680552005767822]","[0.09486618077757428, -1.4759301460173222, 0.09486618077757428, 0.09486618077757428, 0.09486618077757428, 0.09486618077757428]","[0.09486618077757428, -1.4759301460173222, 0.09486618077757428, 0.09486618077757428, 0.09486618077757428, 0.09486618077757428]",0.002,7,1
0,120,"[0.07198375463485718, -1.499052995150425, 0.07194072404970342, 0.0720020967670898, 0.07189785689115524, 0.07185162603855133]","[0.2654917240142822, 0.2721688747406006, 0.26679059863090515, 0.2657100558280945, 0.26478105783462524, 0.2678035497665405]","[0.09528832929336797, -1.4755079975015286, 0.09528832929336797, 0.09528832929336797, 0.09528832929336797, 0.09528832929336797]","[0.09528832929336797, -1.4755079975015286, 0.09528832929336797, 0.09528832929336797, 0.09528832929336797, 0.09528832929336797]",0.002,7,1
0,121,"[0.07246574014425278, -1.498422072534897, 0.07239848772157842, 0.07250778257336421, 0.0724712610244751, 0.07234357297420502]","[0.26390278339385986, 0.26593121886253357, 0.26382550597190857, 0.2638997435569763, 0.2643432915210724, 0.2652643620967865]","[0.09571032727567588, -1.4750859995192207, 0.09571032727567588, 0.09571032727567588, 0.09571032727567588, 0.09571032727567588]","[0.09571032727567588, -1.4750859995192207, 0.09571032727567588, 0.09571032727567588, 0.09571032727567588, 0.09571032727567588]",0.002,7,1
0,122,"[0.07299379259347916, -1.4978570726564904, 0.07294732729067022, 0.07300393163647456, 0.07290259748697281, 0.07287158071994781]","[0.26147761940956116, 0.2634931802749634, 0.26294705271720886, 0.26242634654045105, 0.2612656354904175, 0.26286348700523376]","[0.09613217405783886, -1.4746641527370576, 0.09613217405783886, 0.09613217405783886, 0.09613217405783886, 0.09613217405783886]","[0.09613217405783886, -1.4746641527370576, 0.09613217405783886, 0.09613217405783886, 0.09613217405783886, 0.09613217405783886]",0.002,7,1
0,123,"[0.07350750267505646, -1.4973994877985497, 0.07348472276796514, 0.07357005655255122, 0.0734337568283081, 0.07335402071475983]","[0.2602907717227936, 0.2618918716907501, 0.26046136021614075, 0.2602478563785553, 0.25937360525131226, 0.2627032399177551]","[0.09655386897343679, -1.4742424578214597, 0.09655386897343679, 0.09655386897343679, 0.09655386897343679, 0.09655386897343679]","[0.09655386897343679, -1.4742424578214597, 0.09655386897343679, 0.09655386897343679, 0.09655386897343679, 0.09655386897343679]",0.002,7,1
0,124,"[0.07401781529188156, -1.4969170105508347, 0.07400828996767217, 0.07405356943096919, 0.07390915602445602, 0.07389400154352188]","[0.2578229010105133, 0.2632482945919037, 0.25963693857192993, 0.256391704082489, 0.2600209414958954, 0.2618848979473114]","[0.09697541135628937, -1.4738209154386073, 0.09697541135628937, 0.09697541135628937, 0.09697541135628937, 0.09697541135628937]","[0.09697541135628937, -1.4738209154386073, 0.09697541135628937, 0.09697541135628937, 0.09697541135628937, 0.09697541135628937]",0.002,7,1
0,125,"[0.07450587302446365, -1.496410646741726, 0.07446271577943975, 0.07460634290661616, 0.07450146228075027, 0.07438189536333084]","[0.25600889325141907, 0.25957807898521423, 0.25775858759880066, 0.2544804811477661, 0.25919049978256226, 0.26062580943107605]","[0.0973968005404573, -1.4733995262544393, 0.0973968005404573, 0.0973968005404573, 0.0973968005404573, 0.0973968005404573]","[0.0973968005404573, -1.4733995262544393, 0.0973968005404573, 0.0973968005404573, 0.0973968005404573, 0.0973968005404573]",0.002,7,1
0,126,"[0.07501599937677383, -1.4958889496377488, 0.0749886671649378, 0.0751531559177856, 0.07496371120214462, 0.07493340224027634]","[0.25521865487098694, 0.2581317722797394, 0.2562864422798157, 0.25323089957237244, 0.257758229970932, 0.25932538509368896]","[0.09781803586024324, -1.4729782909346534, 0.09781803586024324, 0.09781803586024324, 0.09781803586024324, 0.09781803586024324]","[0.09781803586024324, -1.4729782909346534, 0.09781803586024324, 0.09781803586024324, 0.09781803586024324, 0.09781803586024324]",0.002,7,1
0,127,"[0.07553090900182724, -1.4953441184810181, 0.07549029985536748, 0.07563559591259761, 0.07548612356185913, 0.07534772157669067]","[0.2533324360847473, 0.25857114791870117, 0.25453296303749084, 0.2504483461380005, 0.25630253553390503, 0.2595617473125458]","[0.09823911665019303, -1.4725572101447035, 0.09823911665019303, 0.09823911665019303, 0.09823911665019303, 0.09823911665019303]","[0.09823911665019303, -1.4725572101447035, 0.09823911665019303, 0.09823911665019303, 0.09823911665019303, 0.09823911665019303]",0.002,7,1
0,128,"[0.07602916657924652, -1.494861551826336, 0.07601386705507451, 0.07612721502270503, 0.07596467435359955, 0.07592637836933136]","[0.25142765045166016, 0.2579147517681122, 0.25226232409477234, 0.24899306893348694, 0.25432783365249634, 0.2571147382259369]","[0.09866004224509654, -1.4721362845498, 0.09866004224509654, 0.09866004224509654, 0.09866004224509654, 0.09866004224509654]","[0.09866004224509654, -1.4721362845498, 0.09866004224509654, 0.09866004224509654, 0.09866004224509654, 0.09866004224509654]",0.002,7,1
0,129,"[0.07655632495880127, -1.4943422091058274, 0.07656842867006475, 0.07663242399182124, 0.07642659544944763, 0.0764245092868805]","[0.25098443031311035, 0.255076140165329, 0.2529231011867523, 0.24772952497005463, 0.25333958864212036, 0.2560376524925232]","[0.09908081197998884, -1.4717155148149077, 0.09908081197998884, 0.09908081197998884, 0.09908081197998884, 0.09908081197998884]","[0.09908081197998884, -1.4717155148149077, 0.09908081197998884, 0.09908081197998884, 0.09908081197998884, 0.09908081197998884]",0.002,7,1
0,130,"[0.07704269140958786, -1.4938002464226265, 0.07705146471132451, 0.07712523519482417, 0.07700930535793304, 0.07689213007688522]","[0.2499220073223114, 0.25459980964660645, 0.25097477436065674, 0.24735568463802338, 0.2501875162124634, 0.25350525975227356]","[0.09950142519015123, -1.4712949016047454, 0.09950142519015123, 0.09950142519015123, 0.09950142519015123, 0.09950142519015123]","[0.09950142519015123, -1.4712949016047454, 0.09950142519015123, 0.09950142519015123, 0.09950142519015123, 0.09950142519015123]",0.002,7,1
0,131,"[0.07757097482681274, -1.4933719348958512, 0.07748252550234014, 0.07764212667431636, 0.07747191190719604, 0.07743719965219498]","[0.2464122325181961, 0.25006169080734253, 0.24879804253578186, 0.24516189098358154, 0.24931985139846802, 0.25106117129325867]","[0.09992188121111227, -1.4708744455837843, 0.09992188121111227, 0.09992188121111227, 0.09992188121111227, 0.09992188121111227]","[0.09992188121111227, -1.4708744455837843, 0.09992188121111227, 0.09992188121111227, 0.09992188121111227, 0.09992188121111227]",0.002,7,1
0,132,"[0.07806963473558426, -1.4928051096251984, 0.07797414461244756, 0.07816187917675776, 0.0779435783624649, 0.0778752863407135]","[0.24661466479301453, 0.2506464421749115, 0.24666127562522888, 0.24526546895503998, 0.2504100799560547, 0.25117990374565125]","[0.10034217937864888, -1.4704541474162476, 0.10034217937864888, 0.10034217937864888, 0.10034217937864888, 0.10034217937864888]","[0.10034217937864888, -1.4704541474162476, 0.10034217937864888, 0.10034217937864888, 0.10034217937864888, 0.10034217937864888]",0.002,7,1
0,133,"[0.0785396546125412, -1.492367797797062, 0.0784691015826624, 0.07858066141094966, 0.07847917079925537, 0.07840733230113983]","[0.2464037835597992, 0.24917709827423096, 0.24543657898902893, 0.24444550275802612, 0.2491234540939331, 0.2504820227622986]","[0.10076231902878728, -1.4700340077661094, 0.10076231902878728, 0.10076231902878728, 0.10076231902878728, 0.10076231902878728]","[0.10076231902878728, -1.4700340077661094, 0.10076231902878728, 0.10076231902878728, 0.10076231902878728, 0.10076231902878728]",0.002,7,1
0,134,"[0.07904711365699768, -1.4919137445143242, 0.07902080217470342, 0.07912413656201167, 0.07892825454473495, 0.07895230501890182]","[0.2436363250017166, 0.24662461876869202, 0.24489223957061768, 0.24094510078430176, 0.24625183641910553, 0.2485629767179489]","[0.10118229949780419, -1.4696140272970923, 0.10118229949780419, 0.10118229949780419, 0.10118229949780419, 0.10118229949780419]","[0.10118229949780419, -1.4696140272970923, 0.10118229949780419, 0.10118229949780419, 0.10118229949780419, 0.10118229949780419]",0.002,7,1
0,135,"[0.07952617108821869, -1.4914133635214348, 0.07944995561708623, 0.07960562288250728, 0.07941168546676636, 0.07939104735851288]","[0.24331974983215332, 0.24533025920391083, 0.24370688199996948, 0.23758786916732788, 0.2450598180294037, 0.246984601020813]","[0.10160212012222773, -1.4691942066726689, 0.10160212012222773, 0.10160212012222773, 0.10160212012222773, 0.10160212012222773]","[0.10160212012222773, -1.4691942066726689, 0.10160212012222773, 0.10160212012222773, 0.10160212012222773, 0.10160212012222773]",0.002,7,1
0,136,"[0.08002427965402603, -1.4909141597202797, 0.0798881689654749, 0.08002643167462153, 0.07992064207792282, 0.0799199715256691]","[0.24340437352657318, 0.24289476871490479, 0.2404990792274475, 0.23634013533592224, 0.2433265596628189, 0.24538417160511017]","[0.10202178023883857, -1.468774546556058, 0.10202178023883857, 0.10202178023883857, 0.10202178023883857, 0.10202178023883857]","[0.10202178023883857, -1.468774546556058, 0.10202178023883857, 0.10202178023883857, 0.10202178023883857, 0.10202178023883857]",0.002,7,1
0,137,"[0.0805153027176857, -1.4904554647258301, 0.08041888872255498, 0.0805242496677856, 0.08035522699356079, 0.08041028678417206]","[0.24018193781375885, 0.24090243875980377, 0.24035842716693878, 0.23703180253505707, 0.24376796185970306, 0.24374552071094513]","[0.10244127918467097, -1.4683550476102256, 0.10244127918467097, 0.10244127918467097, 0.10244127918467097, 0.10244127918467097]","[0.10244127918467097, -1.4683550476102256, 0.10244127918467097, 0.10244127918467097, 0.10244127918467097, 0.10244127918467097]",0.002,7,1
0,138,"[0.08102422207593918, -1.4900374946049233, 0.08090669313539678, 0.08094780027355952, 0.08087144792079926, 0.08087058365345001]","[0.2403474748134613, 0.24115660786628723, 0.23960770666599274, 0.23666256666183472, 0.242262601852417, 0.24173249304294586]","[0.10286061629701376, -1.4679357104978827, 0.10286061629701376, 0.10286061629701376, 0.10286061629701376, 0.10286061629701376]","[0.10286061629701376, -1.4679357104978827, 0.10286061629701376, 0.10286061629701376, 0.10286061629701376, 0.10286061629701376]",0.002,7,1
0,139,"[0.08149036765098572, -1.4895112228444596, 0.08137399355043584, 0.08147494375195308, 0.08128737658262253, 0.08133237808942795]","[0.23985536396503448, 0.23964768648147583, 0.23831497132778168, 0.23677435517311096, 0.24116358160972595, 0.241053968667984]","[0.10327979091341144, -1.4675165358814852, 0.10327979091341144, 0.10327979091341144, 0.10327979091341144, 0.10327979091341144]","[0.10327979091341144, -1.4675165358814852, 0.10327979091341144, 0.10327979091341144, 0.10327979091341144, 0.10327979091341144]",0.002,7,1
0,140,"[0.08198180049657822, -1.488987260763981, 0.08184177080263311, 0.0819055277058105, 0.08182941377162933, 0.08186598122119904]","[0.23914550244808197, 0.23855207860469818, 0.23721127212047577, 0.23583264648914337, 0.2396526336669922, 0.24028217792510986]","[0.10369880237166522, -1.4670975244232314, 0.10369880237166522, 0.10369880237166522, 0.10369880237166522, 0.10369880237166522]","[0.10369880237166522, -1.4670975244232314, 0.10369880237166522, 0.10369880237166522, 0.10369880237166522, 0.10369880237166522]",0.002,7,1
0,141,"[0.08248715102672577, -1.4885662359050293, 0.08233863512148076, 0.08241490900006099, 0.08232340961694717, 0.0823291763663292]","[0.23712031543254852, 0.2372460514307022, 0.23727786540985107, 0.2351136952638626, 0.2381482869386673, 0.23900936543941498]","[0.10411765000983408, -1.4666786767850626, 0.10411765000983408, 0.10411765000983408, 0.10411765000983408, 0.10411765000983408]","[0.10411765000983408, -1.4666786767850626, 0.10411765000983408, 0.10411765000983408, 0.10411765000983408, 0.10411765000983408]",0.002,7,1
0,142,"[0.08293600380420685, -1.4880199518850823, 0.08274728456606084, 0.08286468564953609, 0.08278118073940277, 0.08283253014087677]","[0.23738500475883484, 0.2353365123271942, 0.2340030074119568, 0.23313626646995544, 0.23642633855342865, 0.23702694475650787]","[0.10453633316623578, -1.4662599936286607, 0.10453633316623578, 0.10453633316623578, 0.10453633316623578, 0.10453633316623578]","[0.10453633316623578, -1.4662599936286607, 0.10453633316623578, 0.10453633316623578, 0.10453633316623578, 0.10453633316623578]",0.002,7,1
0,143,"[0.08332382142543793, -1.4875931081226845, 0.083228890095846, 0.0832860904880981, 0.08323627710342407, 0.08331245183944702]","[0.23628677427768707, 0.23423899710178375, 0.23439857363700867, 0.23302683234214783, 0.2371099889278412, 0.2358519285917282]","[0.10495485117944792, -1.4658414756154485, 0.10495485117944792, 0.10495485117944792, 0.10495485117944792, 0.10495485117944792]","[0.10495485117944792, -1.4658414756154485, 0.10495485117944792, 0.10495485117944792, 0.10495485117944792, 0.10495485117944792]",0.002,7,1
0,144,"[0.08387401700019836, -1.487087906604149, 0.08375817934145147, 0.0837743717380981, 0.08366118371486664, 0.0837312787771225]","[0.2333412617444992, 0.23238469660282135, 0.23349343240261078, 0.23407180607318878, 0.23423829674720764, 0.23344434797763824]","[0.10537320338830898, -1.4654231234065875, 0.10537320338830898, 0.10537320338830898, 0.10537320338830898, 0.10537320338830898]","[0.10537320338830898, -1.4654231234065875, 0.10537320338830898, 0.10537320338830898, 0.10537320338830898, 0.10537320338830898]",0.002,7,1
0,145,"[0.08430217951536179, -1.486721010213234, 0.08414298692812139, 0.08423058568920894, 0.08413029462099075, 0.0842716246843338]","[0.2320711612701416, 0.23069818317890167, 0.23205949366092682, 0.23441091179847717, 0.23261167109012604, 0.23251312971115112]","[0.10579138913191942, -1.4650049376629772, 0.10579138913191942, 0.10579138913191942, 0.10579138913191942, 0.10579138913191942]","[0.10579138913191942, -1.4650049376629772, 0.10579138913191942, 0.10579138913191942, 0.10579138913191942, 0.10579138913191942]",0.002,7,1
0,146,"[0.08481957018375397, -1.486162231569626, 0.08461505571474248, 0.08468739568676753, 0.08460896462202072, 0.08472757041454315]","[0.2308327853679657, 0.22994957864284515, 0.2308628410100937, 0.23232142627239227, 0.23146744072437286, 0.23219110071659088]","[0.10620940774964259, -1.464586919045254, 0.10620940774964259, 0.10620940774964259, 0.10620940774964259, 0.10620940774964259]","[0.10620940774964259, -1.464586919045254, 0.10620940774964259, 0.10620940774964259, 0.10620940774964259, 0.10620940774964259]",0.002,7,1
