Arnibjarnst/BoxLift/logs/ur_rtde/trajectory_dur=10.0_delay=0.0_gain=200_lh=0.1_real.csv
arm_idx,step,actual_q,actual_qd,target_q,expected_q,loop_time,robot_mode,safety_mode
0,-1,"[0.04674727842211723, -1.524097667341568, 0.046673123036519826, 0.04680459081616206, 0.04680703952908516, 0.04671161249279976]","[-0.035539090633392334, -0.03275543451309204, -0.03660969063639641, -0.03221077471971512, -0.031711041927337646, -0.03196389228105545]","[0.0, -1.5707963267948966, 0.0, 0.0, 0.0, 0.0]","[0.0, -1.5707963267948966, 0.0, 0.0, 0.0, 0.0]",0.002,7,1
0,-1,"[0.04605283588171005, -1.524813750093319, 0.04602176347841436, 0.046112580890319776, 0.046157121658325195, 0.04609976336359978]","[-0.05124419927597046, -0.0519179068505764, -0.05234557017683983, -0.04872168228030205, -0.04787641391158104, -0.046467751264572144]","[0.0, -1.5707963267948966, 0.0, 0.0, 0.0, 0.0]","[0.0, -1.5707963267948966, 0.0, 0.0, 0.0, 0.0]",0.002,7,1
0,-1,"[0.045280274003744125, -1.5255975697985669, 0.04522067705263311, 0.04541842519726558, 0.04538718983530998, 0.04538029432296753]","[-0.062464285641908646, -0.06470350921154022, -0.06448528915643692, -0.06180998682975769, -0.06351268291473389, -0.06099066883325577]","[0.0, -1.5707963267948966, 0.0, 0.0, 0.0, 0.0]","[0.0, -1.5707963267948966, 0.0, 0.0, 0.0, 0.0]",0.002,7,1
0,-1,"[0.044097453355789185, -1.5267247271588822, 0.04401618639101201, 0.04421989500012202, 0.0443413071334362, 0.04424254968762398]","[-0.07690771669149399, -0.07603353261947632, -0.07952551543712616, -0.07899405062198639, -0.07947895675897598, -0.07925284653902054]","[0.0, -1.5707963267948966, 0.0, 0.0, 0.0, 0.0]","[0.0, -1.5707963267948966, 0.0, 0.0, 0.0, 0.0]",0.002,7,1
0,-1,"[0.043472032994031906, -1.5273883503726502, 0.04330283800234014, 0.04352407037701411, 0.043667517602443695, 0.043620336800813675]","[-0.08607295155525208, -0.0857599526643753, -0.08704288303852081, -0.0862053856253624, -0.08859330415725708, -0.08613864332437515]","[0.0, -1.5707963267948966, 0.0, 0.0, 0.0, 0.0]","[0.0, -1.5707963267948966, 0.0, 0.0, 0.0, 0.0]",0.002,7,1
0,-1,"[0.04235370457172394, -1.5284587194076558, 0.042153183613912404, 0.04233066617932124, 0.04247867316007614, 0.04247063398361206]","[-0.09861642867326736, -0.09843286871910095, -0.09777906537055969, -0.09844660758972168, -0.10287299752235413, -0.10186512768268585]","[0.0, -1.5707963267948966, 0.0, 0.0, 0.0, 0.0]","[0.0, -1.5707963267948966, 0.0, 0.0, 0.0, 0.0]",0.002,7,1
0,-1,"[0.04128347337245941, -1.5295192275992413, 0.04121238390077764, 0.041238470668456984, 0.04142232984304428, 0.04139547422528267]","[-0.10883500427007675, -0.10859096050262451, -0.10872486978769302, -0.11153008788824081, -0.11101674288511276, -0.11405827850103378]","[0.0, -1.5707963267948966, 0.0, 0.0, 0.0, 0.0]","[0.0, -1.5707963267948966, 0.0, 0.0, 0.0, 0.0]",0.002,7,1
0,-1,"[0.0399182066321373, -1.530890492056944, 0.039774719868795216, 0.039821191424987745, 0.03998011723160744, 0.03994540497660637]","[-0.1208021491765976, -0.11987556517124176, -0.11936583369970322, -0.11871715635061264, -0.12185513228178024, -0.12173520773649216]","[0.0, -1.5707963267948966, 0.0, 0.0, 0.0, 0.0]","[0.0, -1.5707963267948966, 0.0, 0.0, 0.0, 0.0]",0.002,7,1
0,-1,"[0.037541162222623825, -1.5331641559353848, 0.03752309480776006, 0.0375254589268188, 0.03767659142613411, 0.037627801299095154]","[-0.1395789384841919, -0.1392473429441452, -0.13633617758750916, -0.13558611273765564, -0.14018960297107697, -0.14199872314929962]","[0.0, -1.5707963267948966, 0.0, 0.0, 0.0, 0.0]","[0.0, -1.5707963267948966, 0.0, 0.0, 0.0, 0.0]",0.002,7,1
0,-1,"[0.03547709062695503, -1.5352063563517113, 0.0354536215411585, 0.03541843473400874, 0.03556082025170326, 0.03555136173963547]","[-0.15055252611637115, -0.15294687449932098, -0.15029597282409668, -0.14791953563690186, -0.15461067855358124, -0.15592080354690552]","[0.0, -1.5707963267948966, 0.0, 0.0, 0.0, 0.0]","[0.0, -1.5707963267948966, 0.0, 0.0, 0.0, 0.0]",0.002,7,1
0,-1,"[0.032845478504896164, -1.5378130574575444, 0.03282291093935186, 0.03279988347973628, 0.03291786089539528, 0.033005405217409134]","[-0.1689019650220871, -0.16987964510917664, -0.16644129157066345, -0.16638927161693573, -0.16952982544898987, -0.1680523157119751]","[0.0, -1.5707963267948966, 0.0, 0.0, 0.0, 0.0]","[0.0, -1.5707963267948966, 0.0, 0.0, 0.0, 0.0]",0.002,7,1
0,-1,"[0.030496278777718544, -1.5402383592775841, 0.030435864125387013, 0.030361815089843702, 0.030443057417869568, 0.030443508177995682]","[-0.18166063725948334, -0.18374943733215332, -0.17792417109012604, -0.17855797708034515, -0.18394239246845245, -0.18159808218479156]","[0.0, -1.5707963267948966, 0.0, 0.0, 0.0, 0.0]","[0.0, -1.5707963267948966, 0.0, 0.0, 0.0, 0.0]",0.002,7,1
0,-1,"[0.02709011174738407, -1.543816627269127, 0.027059380208150685, 0.02697579442944331, 0.026954004541039467, 0.026948872953653336]","[-0.1996651589870453, -0.19937534630298615, -0.1965588927268982, -0.19847281277179718, -0.19832801818847656, -0.2010236233472824]","[0.0, -1.5707963267948966, 0.0, 0.0, 0.0, 0.0]","[0.0, -1.5707963267948966, 0.0, 0.0, 0.0, 0.0]",0.002,7,1
0,-1,"[0.024559952318668365, -1.5463572286865492, 0.024513069783345998, 0.024617596263549757, 0.02444019541144371, 0.02447441965341568]","[-0.21615028381347656, -0.2116650640964508, -0.21335634589195251, -0.21159425377845764, -0.21073533594608307, -0.21229778230190277]","[0.0, -1.5707963267948966, 0.0, 0.0, 0.0, 0.0]","[0.0, -1.5707963267948966, 0.0, 0.0, 0.0, 0.0]",0.002,7,1
0,-1,"[0.020820217207074165, -1.5500548661551257, 0.020818058644429982, 0.02093903600659175, 0.020715225487947464, 0.02070990391075611]","[-0.20341894030570984, -0.18125870823860168, -0.19259390234947205, -0.2049660086631775, -0.20044763386249542, -0.19980140030384064]","[0.0, -1.5707963267948966, 0.0, 0.0, 0.0, 0.0]","[0.0, -1.5707963267948966, 0.0, 0.0, 0.0, 0.0]",0.002,7,1
0,-1,"[0.01840628869831562, -1.5525069677135725, 0.01845866838564092, 0.018560810680053663, 0.018331829458475113, 0.01832181215286255]","[-0.19170692563056946, -0.19478699564933777, -0.19531893730163574, -0.20190797746181488, -0.19042368233203888, -0.1892017275094986]","[0.0, -1.5707963267948966, 0.0, 0.0, 0.0, 0.0]","[0.0, -1.5707963267948966, 0.0, 0.0, 0.0, 0.0]",0.002,7,1
0,-1,"[0.016924604773521423, -1.5540353518775483, 0.016981426869527638, 0.017052336330078077, 0.01686166413128376, 0.01687338948249817]","[-0.18476375937461853, -0.18572968244552612, -0.18497446179389954, -0.18902058899402618, -0.18556374311447144, -0.18197022378444672]","[0.0, -1.5707963267948966, 0.0, 0.0, 0.0, 0.0]","[0.0, -1.5707963267948966, 0.0, 0.0, 0.0, 0.0]",0.002,7,1
0,-1,"[0.014762691222131252, -1.556090330970921, 0.014867130910054982, 0.014919443721435499, 0.014789510518312454, 0.014753810130059719]","[-0.17163686454296112, -0.16839443147182465, -0.1722545176744461, -0.1752280592918396, -0.17351356148719788, -0.17127862572669983]","[0.0, -1.5707963267948966, 0.0, 0.0, 0.0, 0.0]","[0.0, -1.5707963267948966, 0.0, 0.0, 0.0, 0.0]",0.002,7,1
0,-1,"[0.013070323504507542, -1.5576653119972725, 0.013169113789693654, 0.013130469913146925, 0.013105462305247784, 0.013134841807186604]","[-0.1626829206943512, -0.15841253101825714, -0.1635824739933014, -0.1670985221862793, -0.16066965460777283, -0.16260741651058197]","[0.0, -1.5707963267948966, 0.0, 0.0, 0.0, 0.0]","[0.0, -1.5707963267948966, 0.0, 0.0, 0.0, 0.0]",0.002,7,1
0,-1,"[0.011209006421267986, -1.559484858331718, 0.011332337056295216, 0.01125137388195796, 0.011265664361417294, 0.011303817853331566]","[-0.15212160348892212, -0.1500319540500641, -0.15339821577072144, -0.15160565078258514, -0.1509006768465042, -0.15172195434570312]","[0.0, -1.5707963267948966, 0.0, 0.0, 0.0, 0.0]","[0.0, -1.5707963267948966, 0.0, 0.0, 0.0, 0.0]",0.002,7,1
0,-1,"[0.009497536346316338, -1.5611438642120739, 0.009656254445211232, 0.009500904674194288, 0.009592521004378796, 0.009565713815391064]","[-0.13851971924304962, -0.13844594359397888, -0.13908201456069946, -0.13881996273994446, -0.13784827291965485, -0.1400291621685028]","[0.0, -1.5707963267948966, 0.0, 0.0, 0.0, 0.0]","[0.0, -1.5707963267948966, 0.0, 0.0, 0.0, 0.0]",0.002,7,1
0,-1,"[0.007889475673437119, -1.5627200075289984, 0.007961575184957326, 0.00786702215161128, 0.008007691241800785, 0.007995815016329288]","[-0.12608224153518677, -0.12691041827201843, -0.12724728882312775, -0.12402072548866272, -0.1277640461921692, -0.12968991696834564]","[0.0, -1.5707963267948966, 0.0, 0.0, 0.0, 0.0]","[0.0, -1.5707963267948966, 0.0, 0.0, 0.0, 0.0]",0.002,7,1
0,-1,"[0.006482494063675404, -1.564183897604682, 0.006528679524556935, 0.006405873889587355, 0.006499134004116058, 0.006588904187083244]","[-0.11507309973239899, -0.11673856526613235, -0.11630549281835556, -0.11346812546253204, -0.11536461114883423, -0.11685217171907425]","[0.0, -1.5707963267948966, 0.0, 0.0, 0.0, 0.0]","[0.0, -1.5707963267948966, 0.0, 0.0, 0.0, 0.0]",0.002,7,1
0,-1,"[0.00497037498280406, -1.5656782009503623, 0.004990879689351857, 0.004944487208984327, 0.005021682474762201, 0.0050481935031712055]","[-0.09917796403169632, -0.10396095365285873, -0.10339010506868362, -0.09904441982507706, -0.10222288966178894, -0.1028004139661789]","[0.0, -1.5707963267948966, 0.0, 0.0, 0.0, 0.0]","[0.0, -1.5707963267948966, 0.0, 0.0, 0.0, 0.0]",0.002,7,1
0,-1,"[0.003816731972619891, -1.5668420147015532, 0.0038569609271448257, 0.0037671762653808116, 0.0039059638511389494, 0.003913326654583216]","[-0.08771687746047974, -0.09155870229005814, -0.08894587308168411, -0.08902056515216827, -0.08862046152353287, -0.09128862619400024]","[0.0, -1.5707963267948966, 0.0, 0.0, 0.0, 0.0]","[0.0, -1.5707963267948966, 0.0, 0.0, 0.0, 0.0]",0.002,7,1
0,-1,"[0.0028314690571278334, -1.5678128714537998, 0.002804581318990529, 0.0028430658527831554, 0.002879183506593108, 0.00288972957059741]","[-0.07620273530483246, -0.08119261264801025, -0.07542026042938232, -0.07454116642475128, -0.07540671527385712, -0.0775124728679657]","[0.0, -1.5707963267948966, 0.0, 0.0, 0.0, 0.0]","[0.0, -1.5707963267948966, 0.0, 0.0, 0.0, 0.0]",0.002,7,1
0,-1,"[0.001991401193663478, -1.5687138389660795, 0.0019720236407678726, 0.002023025149963331, 0.0020467285066843033, 0.0020215590484440327]","[-0.06459435075521469, -0.06808032840490341, -0.0645604133605957, -0.06344592571258545, -0.06471576541662216, -0.06498923897743225]","[0.0, -1.5707963267948966, 0.0, 0.0, 0.0, 0.0]","[0.0, -1.5707963267948966, 0.0, 0.0, 0.0, 0.0]",0.002,7,1
0,-1,"[0.0012427335605025291, -1.5694249981646244, 0.0013459364520471695, 0.001336975688598585, 0.0013467140961438417, 0.0013929138658568263]","[-0.052632398903369904, -0.05720744654536247, -0.052560705691576004, -0.05204165726900101, -0.05343751981854439, -0.05290893465280533]","[0.0, -1.5707963267948966, 0.0, 0.0, 0.0, 0.0]","[0.0, -1.5707963267948966, 0.0, 0.0, 0.0, 0.0]",0.002,7,1
0,-1,"[0.0006817585090175271, -1.570004114157502, 0.000806156788961232, 0.0007807451435546398, 0.0008130993228405714, 0.000817132939118892]","[-0.039393350481987, -0.04181063175201416, -0.0411800742149353, -0.03969302028417587, -0.04128709062933922, -0.04326479136943817]","[0.0, -1.5707963267948966, 0.0, 0.0, 0.0, 0.0]","[0.0, -1.5707963267948966, 0.0, 0.0, 0.0, 0.0]",0.002,7,1
0,-1,"[0.00016269742627628148, -1.5706980615835455, 0.00013524690736943512, 0.0002075868793944835, 0.00025863017071969807, 0.0002548694610595703]","[-0.02126271463930607, -0.02633197233080864, -0.023606687784194946, -0.02203458920121193, -0.022659529000520706, -0.02052547223865986]","[0.0, -1.5707963267948966, 0.0, 0.0, 0.0, 0.0]","[0.0, -1.5707963267948966, 0.0, 0.0, 0.0, 0.0]",0.002,7,1
0,-1,"[3.2337069569621235e-05, -1.5709201298155726, -1.6132607925101183e-06, 1.0891551635694441e-05, 0.00011610088404268026, 8.726119995117188e-05]","[-0.009534717537462711, -0.01381162740290165, -0.012203961610794067, -0.01077526155859232, -0.010258980095386505, -0.010163644328713417]","[0.0, -1.5707963267948966, 0.0, 0.0, 0.0, 0.0]","[0.0, -1.5707963267948966, 0.0, 0.0, 0.0, 0.0]",0.002,7,1
0,-1,"[7.290148641914129e-05, -1.5708924732603968, -4.218411413603462e-05, 8.861600842280382e-05, 4.818396701011807e-05, 5.419897934189066e-05]","[0.003523423569276929, -0.0196983702480793, -0.006913431920111179, 0.0011491180630400777, 0.0020758509635925293, 0.001122322864830494]","[0.0, -1.5707963267948966, 0.0, 0.0, 0.0, 0.0]","[0.0, -1.5707963267948966, 0.0, 0.0, 0.0, 0.0]",0.002,7,1
0,-1,"[0.0001436685270164162, -1.5708981953062953, 8.885060445606996e-06, 7.669507946772569e-05, 9.062575554708019e-05, 3.78675467800349e-05]","[4.3504800828486623e-07, 0.012349153868854046, 0.005034764297306538, -0.00017421614029444754, 0.0003741081163752824, 0.00038623451837338507]","[0.0, -1.5707963267948966, 0.0, 0.0, 0.0, 0.0]","[0.0, -1.5707963267948966, 0.0, 0.0, 0.0, 0.0]",0.002,7,1
0,-1,"[0.00010316133557353169, -1.5707980595030726, -7.270934020198183e-06, 6.024419750971788e-05, 0.00010415267752250656, 4.2390824091853574e-05]","[6.1267162249611235e-24, 0.0031395279802381992, 0.002240232890471816, 0.0005092746578156948, -0.0006687393179163337, 0.00014731480041518807]","[0.0, -1.5707963267948966, 0.0, 0.0, 0.0, 0.0]","[0.0, -1.5707963267948966, 0.0, 0.0, 0.0, 0.0]",0.002,7,1
0,-1,"[0.00010314929386368021, -1.5707710121863165, -4.291534423828125e-06, 4.3793315551710066e-05, 6.200415373314172e-05, 4.681348946178332e-05]","[-0.00014187462511472404, 0.002520538866519928, 0.000948730215895921, 8.337360135612926e-09, -0.000721281860023737, -8.108405745588243e-05]","[0.0, -1.5707963267948966, 0.0, 0.0, 0.0, 0.0]","[0.0, -1.5707963267948966, 0.0, 0.0, 0.0, 0.0]",0.002,7,1
0,-1,"[8.654594421386719e-05, -1.5707698429872217, 4.1309987203419496e-05, 4.832326855463975e-05, 8.676051947986707e-05, 2.264428258058615e-05]","[-9.93201512982617e-20, 0.00035117266816087067, 0.0004339314764365554, -0.0004572636098600924, -0.0011306913802400231, -0.00034802750451490283]","[0.0, -1.5707963267948966, 0.0, 0.0, 0.0, 0.0]","[0.0, -1.5707963267948966, 0.0, 0.0, 0.0, 0.0]",0.002,7,1
0,-1,"[6.556760490639135e-05, -1.5707731615551275, 3.415742983037262e-05, 5.285322155756944e-05, 0.00010789999214466661, 7.660937262699008e-05]","[-4.317167572603966e-29, -0.00020456695347093046, 0.00029175946838222444, -0.0006620889762416482, -0.0007595433271490037, -0.00035193469375371933]","[0.0, -1.5707963267948966, 0.0, 0.0, 0.0, 0.0]","[0.0, -1.5707963267948966, 0.0, 0.0, 0.0, 0.0]",0.002,7,1
0,-1,"[7.463421206921339e-05, -1.5708099804320277, 3.415742983037262e-05, 1.0891551635694441e-05, 1.4078617823543027e-05, 5.874633643543348e-05]","[-2.5176288729445393e-40, -0.000541521527338773, 0.00022831531532574445, -0.0007725487230345607, -0.000933094066567719, -0.0005648937076330185]","[0.0, -1.5707963267948966, 0.0, 0.0, 0.0, 0.0]","[0.0, -1.5707963267948966, 0.0, 0.0, 0.0, 0.0]",0.002,7,1
0,-1,"[0.00010316133557353169, -1.5707863094570094, 1.7468129293263246e-05, 7.434482238721785e-06, 4.220008850097656e-05, 1.970529592654202e-05]","[0.0, -0.00025153238675557077, 0.00018753571202978492, -0.000490914098918438, -0.0009213819284923375, -0.0008110866765491664]","[0.0, -1.5707963267948966, 0.0, 0.0, 0.0, 0.0]","[0.0, -1.5707963267948966, 0.0, 0.0, 0.0, 0.0]",0.002,7,1
0,-1,"[8.657310536364093e-05, -1.5707623046694899, 3.415742983037262e-05, 1.542150463862413e-05, 2.2600368538405746e-05, 4.832100967178121e-05]","[0.0, 0.00018930806254502386, 0.00016516185132786632, -0.0005887298029847443, -0.0008079634862951934, -0.0010383619228377938]","[0.0, -1.5707963267948966, 0.0, 0.0, 0.0, 0.0]","[0.0, -1.5707963267948966, 0.0, 0.0, 0.0, 0.0]",0.002,7,1
0,-1,"[7.46430887375027e-05, -1.5707698429872217, -6.012202902638819e-06, -1.7446330566883717e-06, 9.79900414677104e-06, -1.3653432027638246e-05]","[0.0, 0.0003892633249051869, 0.00014816777547821403, -0.0004275309038348496, -0.0005576013354584575, -0.0006293354090303183]","[0.0, -1.5707963267948966, 0.0, 0.0, 0.0, 0.0]","[0.0, -1.5707963267948966, 0.0, 0.0, 0.0, 0.0]",0.002,7,1
0,-1,"[4.141831595916301e-05, -1.570810934106344, -2.86102294921875e-06, 2.9130572936963972e-05, 4.3289182940497994e-05, -5.547200338185121e-06]","[0.0, 0.00020537192176561803, 0.0001318836148129776, -0.0004172164190094918, -0.00036798667861148715, -0.00043473063851706684]","[0.0, -1.5707963267948966, 0.0, 0.0, 0.0, 0.0]","[0.0, -1.5707963267948966, 0.0, 0.0, 0.0, 0.0]",0.002,7,1
0,-1,"[4.14695568906609e-05, -1.5708519421019496, -6.552552804350853e-05, -9.016399719286028e-06, 7.591085886815563e-05, 4.3874504626728594e-05]","[0.0, -0.00019133539171889424, 0.00010228347673546523, -0.00036114672548137605, -0.0003219546051695943, -0.0003127953677903861]","[0.0, -1.5707963267948966, 0.0, 0.0, 0.0, 0.0]","[0.0, -1.5707963267948966, 0.0, 0.0, 0.0, 0.0]",0.002,7,1
0,-1,"[3.689122968353331e-05, -1.5707980595030726, -1.1656812603177968e-05, 4.692668579053816e-06, 6.4373016357421875e-06, 2.8739930712617934e-05]","[0.0, -0.00023543770657852292, 9.460397996008396e-05, -0.00030087766936048865, -0.0002703387290239334, -0.0001860516786109656]","[0.0, -1.5707963267948966, 0.0, 0.0, 0.0, 0.0]","[0.0, -1.5707963267948966, 0.0, 0.0, 0.0, 0.0]",0.002,7,1
0,-1,"[5.3339244914241135e-05, -1.5708304844298304, 8.885060445606996e-06, 1.9951457641553816e-05, 2.1576875042228494e-06, -2.9865895406544496e-05]","[-8.051616896409541e-05, -0.0002499886031728238, 3.523232226143591e-05, -0.00022538336634170264, -0.0001900221104733646, -0.00016270845662802458]","[0.0, -1.5707963267948966, 0.0, 0.0, 0.0, 0.0]","[0.0, -1.5707963267948966, 0.0, 0.0, 0.0, 0.0]",0.002,7,1
0,-1,"[5.7839148212224245e-05, -1.5707741734225529, 1.794496645146637e-05, 1.6271557612412835e-07, 2.5996225303970277e-05, -7.788287561538709e-07]","[-0.00010177156218560413, -0.00011250105308135971, 3.3812844776548445e-05, -0.000210270649404265, -0.00017900516104418784, -0.00016076001338660717]","[0.0, -1.5707963267948966, 0.0, 0.0, 0.0, 0.0]","[0.0, -1.5707963267948966, 0.0, 0.0, 0.0, 0.0]",0.002,7,1
0,-1,"[9.10913004190661e-05, -1.5707579045814164, 8.885060445606996e-06, -2.546728167729384e-05, -2.3190175191700746e-05, -2.9865895406544496e-05]","[-0.00035077452776022255, 0.0006094803102314472, 4.051723954034969e-05, -0.0001848009560490027, -0.0001778856385499239, -0.0001494060707045719]","[0.0, -1.5707963267948966, 0.0, 0.0, 0.0, 0.0]","[0.0, -1.5707963267948966, 0.0, 0.0, 0.0, 0.0]",0.002,7,1
0,-1,"[3.3923188311746344e-05, -1.5708242855467738, 8.885060445606996e-06, 1.6271557612412835e-07, -4.9893056051075746e-05, 4.509544305619784e-05]","[-0.00043330862536095083, 0.0004276285762898624, 7.885430723151248e-17, -0.0001278231356991455, -0.00019312926451675594, -0.00012398864782880992]","[0.0, -1.5707963267948966, 0.0, 0.0, 0.0, 0.0]","[0.0, -1.5707963267948966, 0.0, 0.0, 0.0, 0.0]",0.002,7,1
0,-1,"[1.7529571778140962e-05, -1.570778564815857, 2.5097523824513246e-05, 6.370126690669053e-05, 2.7036980100092478e-05, 7.873296453908551e-06]","[-0.0003229097055736929, 0.00012278759095352143, 3.427573207942888e-26, -0.00011192810779903084, -0.00015915307449176908, -0.00010881399794016033]","[0.0, -1.5707963267948966, 0.0, 0.0, 0.0, 0.0]","[0.0, -1.5707963267948966, 0.0, 0.0, 0.0, 0.0]",0.002,7,1
0,-1,"[7.015250594122335e-05, -1.5707741822064527, -7.267713044711854e-06, 4.0932292602491316e-05, -3.034273256474762e-05, -4.178682436162262e-05]","[-0.00028223689878359437, 1.466864997523576e-11, 1.9988515900776745e-37, -9.739298548083752e-05, -0.00013128975115250796, -9.502638567937538e-05]","[0.0, -1.5707963267948966, 0.0, 0.0, 0.0, 0.0]","[0.0, -1.5707963267948966, 0.0, 0.0, 0.0, 0.0]",0.002,7,1
0,-1,"[7.007949898252264e-05, -1.5708023510374964, -3.594946610974148e-05, 3.366052593989366e-05, -1.3176594869435121e-05, -3.701845277959137e-05]","[-0.00019724361482076347, 8.554290904802679e-23, -0.0, -8.619909931439906e-05, -0.00011172995436936617, -8.434015762759373e-05]","[0.0, -1.5707963267948966, 0.0, 0.0, 0.0, 0.0]","[0.0, -1.5707963267948966, 0.0, 0.0, 0.0, 0.0]",0.002,7,1
0,-1,"[4.302263187128119e-05, -1.5708519421019496, 7.039705385381012e-05, 2.4481410644483503e-05, -3.034273256474762e-05, -6.705919374638825e-05]","[-0.0005304935621097684, 4.9885918542009135e-34, -0.0, -7.731182995485142e-05, -9.724273695610464e-05, -7.581353565910831e-05]","[0.0, -1.5707963267948966, 0.0, 0.0, 0.0, 0.0]","[0.0, -1.5707963267948966, 0.0, 0.0, 0.0, 0.0]",0.002,7,1
0,-1,"[2.2074656953918748e-05, -1.570729450443043, 1.3176594869435121e-05, 3.819047894282335e-05, 1.5185209122137167e-05, -8.885060445606996e-06]","[-0.0005186298512853682, -5.141301153344102e-05, -0.0, -8.363396773347631e-05, -8.608138159615919e-05, -6.8854154960718e-05]","[0.0, -1.5707963267948966, 0.0, 0.0, 0.0, 0.0]","[0.0, -1.5707963267948966, 0.0, 0.0, 0.0, 0.0]",0.002,7,1
0,-1,"[8.375838660867885e-06, -1.5707710264963062, 5.8476124898731996e-05, 3.819047894282335e-05, -7.087389101201325e-05, 1.970529592654202e-05]","[-0.0008260781178250909, -6.125365514288161e-14, -0.0, -7.691775681450963e-05, -6.177491013659164e-05, -6.306448631221429e-05]","[0.0, -1.5707963267948966, 0.0, 0.0, 0.0, 0.0]","[0.0, -1.5707963267948966, 0.0, 0.0, 0.0, 0.0]",0.002,7,1
0,-1,"[6.864117312943563e-05, -1.570848127404684, 1.3176594869435121e-05, -2.081811938481337e-05, -6.500874654591371e-06, 1.2424116903275717e-05]","[-0.000633307674434036, -3.5721184719075884e-25, -0.0, -7.086170808179304e-05, -5.6008331739576533e-05, -6.980737816775218e-05]","[0.0, -1.5707963267948966, 0.0, 0.0, 0.0, 0.0]","[0.0, -1.5707963267948966, 0.0, 0.0, 0.0, 0.0]",0.002,7,1
0,-1,"[8.808783604763448e-07, -1.5707818831254663, 2.080598940068512e-05, 3.0203456542921003e-05, -2.9865895406544496e-05, 2.8776168619515374e-05]","[-0.0004966994747519493, -2.0831463516771147e-36, -0.0, -6.568963726749644e-05, -5.122648872202262e-05, -6.478286377387121e-05]","[0.0, -1.5707963267948966, 0.0, 0.0, 0.0, 0.0]","[0.0, -1.5707963267948966, 0.0, 0.0, 0.0, 0.0]",0.002,7,1
0,-1,"[4.7580033424310386e-05, -1.5708185635008753, 2.080598940068512e-05, 1.9951457641553816e-05, 1.5167712263064459e-05, 4.062616790179163e-05]","[-6.197187131951748e-14, 0.0, -0.0, -7.062328950269148e-05, -4.658618854591623e-05, -5.976352622383274e-05]","[0.0, -1.5707963267948966, 0.0, 0.0, 0.0, 0.0]","[0.0, -1.5707963267948966, 0.0, 0.0, 0.0, 0.0]",0.002,7,1
0,-1,"[3.569533510017209e-05, -1.5708228550352992, 8.885060445606996e-06, -3.27390483398915e-05, -5.799928774052887e-05, 2.8739930712617934e-05]","[-2.6937422657199143e-23, 0.0, -0.0, -2.5038586759507098e-09, -4.375510252430104e-05, -1.3989950864434775e-10]","[0.0, -1.5707963267948966, 0.0, 0.0, 0.0, 0.0]","[0.0, -1.5707963267948966, 0.0, 0.0, 0.0, 0.0]",0.002,7,1
0,-1,"[3.392635699128732e-05, -1.570810934106344, 2.5097523824513246e-05, -6.301820788578993e-05, -7.94569598596695e-05, -1.3176594869435121e-05]","[-8.72740890711508e-31, 0.0, -0.0, -4.5506438515422604e-14, -4.172654007561505e-05, -2.542607407441961e-15]","[0.0, -1.5707963267948966, 0.0, 0.0, 0.0, 0.0]","[0.0, -1.5707963267948966, 0.0, 0.0, 0.0, 0.0]",0.002,7,1
0,-1,"[2.59553257819789e-06, -1.570778564815857, 7.039705385381012e-05, 2.9249782226514753e-05, 2.384185791015625e-06, 5.273151327855885e-05]","[-2.827576755334381e-38, 0.0, -0.0, -8.27057672834487e-19, -3.987771560787223e-05, -4.621067756482217e-20]","[0.0, -1.5707963267948966, 0.0, 0.0, 0.0, 0.0]","[0.0, -1.5707963267948966, 0.0, 0.0, 0.0, 0.0]",0.002,7,1
0,-1,"[-6.500874654591371e-06, -1.5707666352030465, 2.5097523824513246e-05, 1.6271557612412835e-07, 2.3726939616608433e-05, -1.794496645146637e-05]","[-1.401298464324817e-45, 0.0, -0.0, -1.5031380095248168e-23, -1.429643070594011e-09, -8.398570156542504e-25]","[0.0, -1.5707963267948966, 0.0, 0.0, 0.0, 0.0]","[0.0, -1.5707963267948966, 0.0, 0.0, 0.0, 0.0]",0.002,7,1
0,-1,"[3.118019230896607e-05, -1.5707250765593308, 1.3176594869435121e-05, -1.1758213378953997e-05, -6.276765932256012e-05, 1.52587890625e-05]","[0.0, 0.0, -0.0, -7.604294702114868e-32, -7.23249008180435e-18, -4.24879273963648e-33]","[0.0, -1.5707963267948966, 0.0, 0.0, 0.0, 0.0]","[0.0, -1.5707963267948966, 0.0, 0.0, 0.0, 0.0]",0.002,7,1
0,-1,"[2.2068477846914902e-05, -1.570778564815857, 4.593526021778871e-06, 2.9130572936963972e-05, -6.024037496388246e-06, 4.5095446694176644e-05]","[0.0, 0.0, -0.0, -5.04873096360825e-05, -5.603796699753898e-25, -3.2920004173150765e-40]","[0.0, -1.5707963267948966, 0.0, 0.0, 0.0, 0.0]","[0.0, -1.5707963267948966, 0.0, 0.0, 0.0, 0.0]",0.002,7,1
0,-1,"[3.3941389119718224e-05, -1.5708605251707972, 5.4661427633106996e-05, -1.8195515014696184e-05, 1.0866842785617337e-05, -7.788287561538709e-07]","[0.0, -7.767564966343343e-05, -0.0, -6.436045002066598e-14, -7.891142579916794e-37, -0.0]","[0.0, -1.5707963267948966, 0.0, 0.0, 0.0, 0.0]","[0.0, -1.5707963267948966, 0.0, 0.0, 0.0, 0.0]",0.002,7,1
0,-1,"[6.692663009744138e-05, -1.570786253815033, 2.5097523824513246e-05, -4.465997729496962e-05, 1.8358230590820312e-05, 3.337860107421875e-06]","[0.0, -6.403381121344864e-05, -0.0, -7.637441959998213e-20, -9.360673741689778e-43, -0.0]","[0.0, -1.5707963267948966, 0.0, 0.0, 0.0, 0.0]","[0.0, -1.5707963267948966, 0.0, 0.0, 0.0, 0.0]",0.002,7,1
0,-1,"[-1.0792409078419496e-05, -1.5708347759642542, 3.2726918355763246e-05, -2.820909533696181e-05, 1.0896641470026225e-05, -2.843538393193512e-05]","[0.0, -7.690053462283686e-05, -0.0, -3.8637419135663688e-28, -0.0, -0.0]","[0.0, -1.5707963267948966, 0.0, 0.0, 0.0, 0.0]","[0.0, -1.5707963267948966, 0.0, 0.0, 0.0, 0.0]",0.002,7,1
0,-1,"[3.1119703635340557e-05, -1.5707934659770508, 2.080598940068512e-05, -2.081811938481337e-05, -1.3176594869435121e-05, 1.2417822290444747e-05]","[0.0, -4.487669502850622e-05, -0.0, -4.584974848586542e-34, -0.0, -0.0]","[0.0, -1.5707963267948966, 0.0, 0.0, 0.0, 0.0]","[0.0, -1.5707963267948966, 0.0, 0.0, 0.0, 0.0]",0.002,7,1
0,-1,"[9.350787877338007e-07, -1.5707207373382808, -2.4806953661027364e-05, 3.830968823237413e-05, -1.732503072560121e-06, 7.900385753600858e-06]","[0.0, -1.951856211235281e-05, -0.0, -3.552431736909844e-41, -0.0, -0.0]","[0.0, -1.5707963267948966, 0.0, 0.0, 0.0, 0.0]","[0.0, -1.5707963267948966, 0.0, 0.0, 0.0, 0.0]",0.002,7,1
0,-1,"[3.8504600524902344e-05, -1.570810934106344, -7.276508313225349e-06, -3.7269001342821184e-05, 2.7072841476183385e-05, 2.421665340079926e-05]","[0.0, -1.7960397599381395e-05, -0.0, -0.0, -0.0, -0.0]","[0.0, -1.5707963267948966, 0.0, 0.0, 0.0, 0.0]","[0.0, -1.5707963267948966, 0.0, 0.0, 0.0, 0.0]",0.002,7,1
0,-1,"[1.3066114661341999e-05, -1.5707623046694899, 3.701845277959137e-05, -9.135609008836809e-06, 1.0892737918766215e-05, -8.885060445606996e-06]","[0.0, -1.6330772268702276e-05, -0.0, -0.0, -0.0, -0.0]","[0.0, -1.5707963267948966, 0.0, 0.0, 0.0, 0.0]","[0.0, -1.5707963267948966, 0.0, 0.0, 0.0, 0.0]",0.002,7,1
0,-1,"[4.297729174140841e-05, -1.5708142719664515, 2.2236500875294496e-05, 3.0203456542921003e-05, -2.175966371709137e-05, 1.526770029158797e-05]","[0.0, -2.178712202294264e-05, -0.0, -0.0, -0.0, -0.0]","[0.0, -1.5707963267948966, 0.0, 0.0, 0.0, 0.0]","[0.0, -1.5707963267948966, 0.0, 0.0, 0.0, 0.0]",0.002,7,1
0,-1,"[2.658367156982422e-05, -1.5707698429872217, -4.291534423828125e-06, -2.081811938481337e-05, 2.2625923520536162e-05, 2.4258730263682082e-05]","[0.0, -1.973939288291149e-05, -0.0, -0.0, -0.0, -0.0]","[0.0, -1.5707963267948966, 0.0, 0.0, 0.0, 0.0]","[0.0, -1.5707963267948966, 0.0, 0.0, 0.0, 0.0]",0.002,7,1
0,1,"[2.2129233911982737e-05, -1.5708066425719203, 4.1309987203419496e-05, -3.27390483398915e-05, 2.266422234242782e-05, 4.062598600285128e-05]","[0.0, -2.538508603322498e-08, -0.0, -0.0, -3.479439558451051e-16, -0.0]","[0.0004387367163421333, -1.5703575900785545, 0.0004387367163421333, 0.0004387367163421333, 0.0004387367163421333, 0.0004387367163421333]","[0.0004387367163421333, -1.5703575900785545, 0.0004387367163421333, 0.0004387367163421333, 0.0004387367163421333, 0.0004387367163421333]",0.002,7,1
0,2,"[2.6226043701171875e-06, -1.57078290403145, 1.2222920553028871e-05, -3.27390483398915e-05, 8.777283801464364e-05, -1.3653432027638246e-05]","[0.0, -3.5749445661005426e-25, -0.0, -0.0, -7.504142590759894e-27, -0.0]","[0.0008774727395818924, -1.5699188540553146, 0.0008774727395818924, 0.0008774727395818924, 0.0008774727395818924, 0.0008774727395818924]","[0.0008774727395818924, -1.5699188540553146, 0.0008774727395818924, 0.0008774727395818924, 0.0008774727395818924, 0.0008774727395818924]",0.002,7,1
0,3,"[3.8522674003615975e-05, -1.5707906049541016, 2.938905824834137e-05, -5.3719883300829e-05, -2.175966371709137e-05, -3.415742983037262e-05]","[0.0, 0.0025057299062609673, 0.0008302578935399652, -2.9436412205541274e-06, 0.0002191610255977139, -0.0]","[0.0013162073766179979, -1.5694801194182786, 0.0013162073766179979, 0.0013162073766179979, 0.0013162073766179979, 0.0013162073766179979]","[0.0013162073766179979, -1.5694801194182786, 0.0013162073766179979, 0.0013162073766179979, 0.0013162073766179979, 0.0013162073766179979]",0.002,7,1
0,4,"[-1.0792409078419496e-05, -1.5707458579602935, -7.218085556814913e-06, 1.6271557612412835e-07, 6.4373016357421875e-06, -8.885060445606996e-06]","[0.0, 0.002004181034862995, 0.0026718860026448965, -1.2549208783241284e-08, 0.0037794956006109715, -0.0]","[0.0017549399343513602, -1.5690413868605453, 0.0017549399343513602, 0.0017549399343513602, 0.0017549399343513602, 0.0017549399343513602]","[0.0017549399343513602, -1.5690413868605453, 0.0017549399343513602, 0.0017549399343513602, 0.0017549399343513602, 0.0017549399343513602]",0.002,7,1
0,5,"[4.304075991967693e-05, -1.5707294231727538, 1.9375477926075746e-05, 3.377973522944444e-05, 5.3977973948349245e-06, 3.162622306263074e-05]","[0.002084212377667427, 0.0031099615152925253, 0.0022916754242032766, 0.0014171701623126864, 0.001845878199674189, 0.0012301768874749541]","[0.002193669719686175, -1.5686026570752103, 0.002193669719686175, 0.002193669719686175, 0.002193669719686175, 0.002193669719686175]","[0.002193669719686175, -1.5686026570752103, 0.002193669719686175, 0.002193669719686175, 0.002193669719686175, 0.002193669719686175]",0.002,7,1
0,6,"[4.304075991967693e-05, -1.5707294231727538, 1.9375477926075746e-05, 3.377973522944444e-05, 5.3977973948349245e-06, 3.162622306263074e-05]","[0.002084212377667427, 0.0031099615152925253, 0.0022916754242032766, 0.0014171701623126864, 0.001845878199674189, 0.0012301768874749541]","[0.0026323960395310173, -1.5681639307553656, 0.0026323960395310173, 0.0026323960395310173, 0.0026323960395310173, 0.0026323960395310173]","[0.0026323960395310173, -1.5681639307553656, 0.0026323960395310173, 0.0026323960395310173, 0.0026323960395310173, 0.0026323960395310173]",0.002,7,1
0,7,"[5.5171491112560034e-05, -1.5707917052553348, 1.9375477926075746e-05, 2.9249782226514753e-05, 3.0305131076602265e-05, 4.832100967178121e-05]","[0.001832437701523304, 0.004591099917888641, 0.00430649658665061, 0.0016159139340743423, 0.0030068454798310995, 0.0026565389707684517]","[0.003071118200799937, -1.5677252085940967, 0.003071118200799937, 0.003071118200799937, 0.003071118200799937, 0.003071118200799937]","[0.003071118200799937, -1.5677252085940967, 0.003071118200799937, 0.003071118200799937, 0.003071118200799937, 0.003071118200799937]",0.002,7,1
0,8,"[4.297060877433978e-05, -1.5707096940353331, 2.366701234990387e-05, 5.738317456049913e-05, 3.780535189434886e-05, 4.832100967178121e-05]","[0.0018325366545468569, 0.005471037235110998, 0.005469908006489277, 0.0029075511265546083, 0.0061399322003126144, 0.003604385768994689]","[0.0035098355104135528, -1.567286491284483, 0.0035098355104135528, 0.0035098355104135528, 0.0035098355104135528, 0.0035098355104135528]","[0.0035098355104135528, -1.567286491284483, 0.0035098355104135528, 0.0035098355104135528, 0.0035098355104135528, 0.0035098355104135528]",0.002,7,1
0,9,"[8.37514380691573e-05, -1.5707425636104126, 5.3707753316700746e-05, 1.9951457641553816e-05, 2.9239654395496473e-05, 2.720669908740092e-05]","[0.003004171419888735, 0.00497227068990469, 0.004473438020795584, 0.005237089470028877, 0.006937954109162092, 0.0033997974824160337]","[0.00394854727530015, -1.5668477795195963, 0.00394854727530015, 0.00394854727530015, 0.00394854727530015, 0.00394854727530015]","[0.00394854727530015, -1.5668477795195963, 0.00394854727530015, 0.00394854727530015, 0.00394854727530015, 0.00394854727530015]",0.002,7,1
0,10,"[0.00010318884596927091, -1.5707557040480715, 0.00010139146913701325, 8.122503247065538e-05, 0.0001068115234375, 7.20739335520193e-05]","[0.004448387771844864, 0.005605795420706272, 0.004966539330780506, 0.006573818624019623, 0.007748448755592108, 0.004076192155480385]","[0.00438725280239677, -1.5664090739924998, 0.00438725280239677, 0.00438725280239677, 0.00438725280239677, 0.00438725280239677]","[0.00438725280239677, -1.5664090739924998, 0.00438725280239677, 0.00438725280239677, 0.00438725280239677, 0.00438725280239677]",0.002,7,1
0,11,"[0.00013346635387279093, -1.5707022112658997, 0.000134770070211232, 9.767591442866319e-05, 0.0001198577883769758, 6.199051313160453e-06]","[0.005179466214030981, 0.010385796427726746, 0.009629705920815468, 0.007749881595373154, 0.008222189731895924, 0.006052355282008648]","[0.004825951398650312, -1.5659703753962462, 0.004825951398650312, 0.004825951398650312, 0.004825951398650312, 0.004825951398650312]","[0.004825951398650312, -1.5659703753962462, 0.004825951398650312, 0.004825951398650312, 0.004825951398650312, 0.004825951398650312]",0.002,7,1
0,12,"[0.0001152014738181606, -1.5707022112658997, 8.851686586552887e-05, 7.502614941401475e-05, 6.51550290058367e-05, 7.956028275657445e-05]","[0.006168913096189499, 0.011548175476491451, 0.011555411852896214, 0.009748252108693123, 0.009991088882088661, 0.009442001581192017]","[0.005264642371018622, -1.565531684423878, 0.005264642371018622, 0.005264642371018622, 0.005264642371018622, 0.005264642371018622]","[0.005264642371018622, -1.565531684423878, 0.005264642371018622, 0.005264642371018622, 0.005264642371018622, 0.005264642371018622]",0.002,7,1
0,13,"[0.00010157578799407929, -1.570670561199524, 0.00013763109316045075, 7.02577778319835e-05, 6.086349458200857e-05, 9.1769834398292e-05]","[0.00813241209834814, 0.01393180899322033, 0.012641837820410728, 0.011020474135875702, 0.012084294110536575, 0.011443505994975567]","[0.005703325026471591, -1.565093001768425, 0.005703325026471591, 0.005703325026471591, 0.005703325026471591, 0.005703325026471591]","[0.005703325026471591, -1.565093001768425, 0.005703325026471591, 0.005703325026471591, 0.005703325026471591, 0.005703325026471591]",0.002,7,1
0,14,"[0.00010150276648346335, -1.5706291085555968, 0.00016957918276006012, 0.00010315954174799913, 0.00018748283036984503, 7.510185241699219e-05]","[0.010759921744465828, 0.01717369072139263, 0.01636200211942196, 0.013701532036066055, 0.014142829924821854, 0.014048179611563683]","[0.006141998671992247, -1.5646543281229044, 0.006141998671992247, 0.006141998671992247, 0.006141998671992247, 0.006141998671992247]","[0.006141998671992247, -1.5646543281229044, 0.006141998671992247, 0.006141998671992247, 0.006141998671992247, 0.006141998671992247]",0.002,7,1
0,15,"[0.0001633519132155925, -1.5706268709949036, 0.00019485155214482575, 0.00013224660839838975, 0.00021595784346573055, 0.00014710426330566406]","[0.011748084798455238, 0.02054709568619728, 0.01880582794547081, 0.015632716938853264, 0.016649529337882996, 0.016391264274716377]","[0.006580662614577854, -1.5642156641803187, 0.006580662614577854, 0.006580662614577854, 0.006580662614577854, 0.006580662614577854]","[0.006580662614577854, -1.5642156641803187, 0.006580662614577854, 0.006580662614577854, 0.006580662614577854, 0.006580662614577854]",0.002,7,1
0,16,"[0.00019171566236764193, -1.5706268709949036, 0.00027877489198857575, 0.00020138799633784288, 0.0001900196075439453, 0.0001709461212158203]","[0.013676767237484455, 0.020582685247063637, 0.020261524245142937, 0.01786135323345661, 0.017255708575248718, 0.018051348626613617]","[0.0070193161612410035, -1.5637770106336555, 0.0070193161612410035, 0.0070193161612410035, 0.0070193161612410035, 0.0070193161612410035]","[0.0070193161612410035, -1.5637770106336555, 0.0070193161612410035, 0.0070193161612410035, 0.0070193161612410035, 0.0070193161612410035]",0.002,7,1
0,17,"[0.00021572232071775943, -1.5705910325089754, 0.000249210988179982, 0.00019566595043940538, 0.00021368981106206775, 0.000232499442063272]","[0.014569665305316448, 0.019775979220867157, 0.020944854244589806, 0.017678404226899147, 0.01771736703813076, 0.01822054199874401]","[0.0074579586190107105, -1.563338368175886, 0.0074579586190107105, 0.0074579586190107105, 0.0074579586190107105, 0.0074579586190107105]","[0.0074579586190107105, -1.563338368175886, 0.0074579586190107105, 0.0074579586190107105, 0.0074579586190107105, 0.0074579586190107105]",0.002,7,1
0,18,"[0.00023802478972356766, -1.5705342018666961, 0.000306431447164357, 0.00027792036022944444, 0.0003087711229454726, 0.00020576715178322047]","[0.01721484400331974, 0.020799150690436363, 0.02198663353919983, 0.018751975148916245, 0.017935287207365036, 0.017004791647195816]","[0.007896589294933507, -1.5628997374999631, 0.007896589294933507, 0.007896589294933507, 0.007896589294933507, 0.007896589294933507]","[0.007896589294933507, -1.5628997374999631, 0.007896589294933507, 0.007896589294933507, 0.007896589294933507, 0.007896589294933507]",0.002,7,1
0,19,"[0.0002619675360620022, -1.570502595310547, 0.0003584066974084976, 0.0003017622181396007, 0.00031193732866086066, 0.0002879046951420605]","[0.018191462382674217, 0.02231666073203087, 0.02357655204832554, 0.020322808995842934, 0.01837446168065071, 0.019783640280365944]","[0.008335207496074538, -1.562461119298822, 0.008335207496074538, 0.008335207496074538, 0.008335207496074538, 0.008335207496074538]","[0.008335207496074538, -1.562461119298822, 0.008335207496074538, 0.008335207496074538, 0.008335207496074538, 0.008335207496074538]",0.002,7,1
0,20,"[0.0003357598907314241, -1.5704132205322203, 0.0004189650165002945, 0.00034539281811518663, 0.00033855438232421875, 0.0003287067520432174]","[0.020633144304156303, 0.023968281224370003, 0.024698523804545403, 0.020952068269252777, 0.020289640873670578, 0.021510669961571693]","[0.008773812529518655, -1.5620225142653779, 0.008773812529518655, 0.008773812529518655, 0.008773812529518655, 0.008773812529518655]","[0.008773812529518655, -1.5620225142653779, 0.008773812529518655, 0.008773812529518655, 0.008773812529518655, 0.008773812529518655]",0.002,7,1
0,21,"[0.0004139384545851499, -1.57037705660726, 0.0004499594317834976, 0.00035278379406733507, 0.00039536645635962486, 0.0004048283153679222]","[0.02200772799551487, 0.02521681785583496, 0.025666389614343643, 0.02148294635117054, 0.0220518559217453, 0.02231219783425331]","[0.009212403702371514, -1.561583923092525, 0.009212403702371514, 0.009212403702371514, 0.009212403702371514, 0.009212403702371514]","[0.009212403702371514, -1.561583923092525, 0.009212403702371514, 0.009212403702371514, 0.009212403702371514, 0.009212403702371514]",0.002,7,1
0,22,"[0.000419671181589365, -1.5703302347722747, 0.0005233923541467789, 0.00038401662792963975, 0.0004115962947253138, 0.0004363830084912479]","[0.02358843758702278, 0.026898080483078957, 0.027062801644206047, 0.02329251728951931, 0.024438459426164627, 0.02321767620742321]","[0.009650980321760663, -1.561145346473136, 0.009650980321760663, 0.009650980321760663, 0.009650980321760663, 0.009650980321760663]","[0.009650980321760663, -1.561145346473136, 0.009650980321760663, 0.009650980321760663, 0.009650980321760663, 0.009650980321760663]",0.002,7,1
0,23,"[0.0004437147581484169, -1.5703030228363168, 0.0005629698382776382, 0.0004440981098632335, 0.00039341405499726534, 0.00046792865032330155]","[0.02665475569665432, 0.02855948731303215, 0.028989361599087715, 0.02522377297282219, 0.024534331634640694, 0.0247573871165514]","[0.010089541694836647, -1.56070678510006, 0.010089541694836647, 0.010089541694836647, 0.010089541694836647, 0.010089541694836647]","[0.010089541694836647, -1.56070678510006, 0.010089541694836647, 0.010089541694836647, 0.010089541694836647, 0.010089541694836647]",0.002,7,1
0,24,"[0.0005007216823287308, -1.57023760912519, 0.0006058851825159195, 0.000480337733886671, 0.0005036222282797098, 0.00048279762268066406]","[0.028686169534921646, 0.030652416869997978, 0.03095267526805401, 0.026908274739980698, 0.026521053165197372, 0.027014583349227905]","[0.010528087128774092, -1.5602682396661225, 0.010528087128774092, 0.010528087128774092, 0.010528087128774092, 0.010528087128774092]","[0.010528087128774092, -1.5602682396661225, 0.010528087128774092, 0.010528087128774092, 0.010528087128774092, 0.010528087128774092]",0.002,7,1
0,25,"[0.0006180796772241592, -1.5701491719558653, 0.000706974660054982, 0.0005773740955810069, 0.0005474090576171875, 0.0005971715436317027]","[0.03007453680038452, 0.03307514265179634, 0.03293117508292198, 0.0298133697360754, 0.028600065037608147, 0.03024861589074135]","[0.010966615930772807, -1.5598297108641237, 0.010966615930772807, 0.010966615930772807, 0.010966615930772807, 0.010966615930772807]","[0.010966615930772807, -1.5598297108641237, 0.010966615930772807, 0.010966615930772807, 0.010966615930772807, 0.010966615930772807]",0.002,7,1
0,26,"[0.0005815585609525442, -1.57009339807367, 0.0007503668414514664, 0.0006584364124755382, 0.0006115436553955078, 0.0006867215852253139]","[0.03174589201807976, 0.03542661294341087, 0.03533421829342842, 0.03259336203336716, 0.03138859570026398, 0.03228120505809784]","[0.01140512740805887, -1.5593911993868377, 0.01140512740805887, 0.01140512740805887, 0.01140512740805887, 0.01140512740805887]","[0.01140512740805887, -1.5593911993868377, 0.01140512740805887, 0.01140512740805887, 0.01140512740805887, 0.01140512740805887]",0.002,7,1
0,27,"[0.0007378864684142172, -1.570000772455689, 0.0008552710162561539, 0.000739737147949171, 0.0006554126739501953, 0.0006582560599781573]","[0.03361692279577255, 0.036714717745780945, 0.03721649944782257, 0.03424570709466934, 0.033955179154872894, 0.035192545503377914]","[0.011843620867885736, -1.5589527059270107, 0.011843620867885736, 0.011843620867885736, 0.011843620867885736, 0.011843620867885736]","[0.011843620867885736, -1.5589527059270107, 0.011843620867885736, 0.011843620867885736, 0.011843620867885736, 0.011843620867885736]",0.002,7,1
0,28,"[0.0007526665576733649, -1.569933121183869, 0.0009277502643030289, 0.0007607179829101085, 0.0007893805159255862, 0.0007842357154004276]","[0.03702917322516441, 0.040779102593660355, 0.039929941296577454, 0.036474473774433136, 0.03660612925887108, 0.03920787572860718]","[0.01228209561753532, -1.5585142311773612, 0.01228209561753532, 0.01228209561753532, 0.01228209561753532, 0.01228209561753532]","[0.01228209561753532, -1.5585142311773612, 0.01228209561753532, 0.01228209561753532, 0.01228209561753532, 0.01228209561753532]",0.002,7,1
0,29,"[0.0007901100907474756, -1.5698863428882142, 0.0009744803058069351, 0.0008246141621093273, 0.0008244514465332031, 0.0008366043330170214]","[0.038975320756435394, 0.04376612603664398, 0.041471634060144424, 0.04043423384428024, 0.03899047151207924, 0.040732190012931824]","[0.012720550964319092, -1.5580757758305774, 0.012720550964319092, 0.012720550964319092, 0.012720550964319092, 0.012720550964319092]","[0.012720550964319092, -1.5580757758305774, 0.012720550964319092, 0.012720550964319092, 0.012720550964319092, 0.012720550964319092]",0.002,7,1
0,30,"[0.0009209084091708064, -1.5697739445934822, 0.0010793844806116226, 0.0008994775959472179, 0.0008936119265854359, 0.0009074265835806727]","[0.041471216827631, 0.04360239952802658, 0.04392857477068901, 0.042715154588222504, 0.041539110243320465, 0.041469939053058624]","[0.01315898621557918, -1.5576373405793174, 0.01315898621557918, 0.01315898621557918, 0.01315898621557918, 0.01315898621557918]","[0.01315898621557918, -1.5576373405793174, 0.01315898621557918, 0.01315898621557918, 0.01315898621557918, 0.01315898621557918]",0.002,7,1
0,31,"[0.0010377808939665556, -1.569648405919299, 0.0011881033526819351, 0.0010108190723876476, 0.0009928696090355515, 0.0010359258158132434]","[0.04361807182431221, 0.0477830246090889, 0.04772571846842766, 0.04265390709042549, 0.04474698007106781, 0.04515790566802025]","[0.013597400678689451, -1.5571989261162071, 0.013597400678689451, 0.013597400678689451, 0.013597400678689451, 0.013597400678689451]","[0.013597400678689451, -1.5571989261162071, 0.013597400678689451, 0.013597400678689451, 0.013597400678689451, 0.013597400678689451]",0.002,7,1
0,32,"[0.0010346082272008061, -1.5695524424412106, 0.0012725035296838882, 0.0010973650166015148, 0.0010888662654906511, 0.0011050691828131676]","[0.04643618315458298, 0.05043421685695648, 0.048455774784088135, 0.04597112908959389, 0.04785840958356857, 0.048231758177280426]","[0.014035793661056617, -1.5567605331338399, 0.014035793661056617, 0.014035793661056617, 0.014035793661056617, 0.014035793661056617]","[0.014035793661056617, -1.5567605331338399, 0.014035793661056617, 0.014035793661056617, 0.014035793661056617, 0.014035793661056617]",0.002,7,1
0,33,"[0.0011261701583862305, -1.5694161266186093, 0.0013731161700647476, 0.0011488634296874523, 0.0012104702182114124, 0.001217608223669231]","[0.04863075166940689, 0.05540149658918381, 0.0505451038479805, 0.04938478395342827, 0.050798650830984116, 0.050846610218286514]","[0.014474164470121325, -1.5563221623247752, 0.014474164470121325, 0.014474164470121325, 0.014474164470121325, 0.014474164470121325]","[0.014474164470121325, -1.5563221623247752, 0.014474164470121325, 0.014474164470121325, 0.014474164470121325, 0.014474164470121325]",0.002,7,1
0,34,"[0.0013065310195088387, -1.5693572645871718, 0.0014398733722131851, 0.0012685495563964366, 0.0012453460367396474, 0.001358318142592907]","[0.05169827491044998, 0.05416347086429596, 0.05369917303323746, 0.05441837012767792, 0.0541464164853096, 0.05442443862557411]","[0.014912512413359249, -1.5558838143815372, 0.014912512413359249, 0.014912512413359249, 0.014912512413359249, 0.014912512413359249]","[0.014912512413359249, -1.5558838143815372, 0.014912512413359249, 0.014912512413359249, 0.014912512413359249, 0.014912512413359249]",0.002,7,1
0,35,"[0.0014010191662237048, -1.5692207425930356, 0.0015848318683069351, 0.0013763147541503429, 0.0014069271273911, 0.001436319900676608]","[0.053923048079013824, 0.05736730247735977, 0.058786362409591675, 0.05614786967635155, 0.056939613074064255, 0.05669987201690674]","[0.015350836798282188, -1.5554454899966144, 0.015350836798282188, 0.015350836798282188, 0.015350836798282188, 0.015350836798282188]","[0.015350836798282188, -1.5554454899966144, 0.015350836798282188, 0.015350836798282188, 0.015350836798282188, 0.015350836798282188]",0.002,7,1
0,36,"[0.001541907899081707, -1.5690593653456126, 0.0017455259906213882, 0.0015222269245604991, 0.0014867973513901234, 0.0015575701836496592]","[0.05690838024020195, 0.062178004533052444, 0.05635911971330643, 0.05756493657827377, 0.060295917093753815, 0.05947919934988022]","[0.01578913693243915, -1.5550071898624573, 0.01578913693243915, 0.01578913693243915, 0.01578913693243915, 0.01578913693243915]","[0.01578913693243915, -1.5550071898624573, 0.01578913693243915, 0.01578913693243915, 0.01578913693243915, 0.01578913693243915]",0.002,7,1
0,37,"[0.0016258854884654284, -1.5689807742931698, 0.0017908255206506851, 0.001662893886230421, 0.0016428930684924126, 0.0016938797198235989]","[0.05982932820916176, 0.06355462223291397, 0.06106643006205559, 0.06077100709080696, 0.06280795484781265, 0.06316853314638138]","[0.016227412123417467, -1.5545689146714792, 0.016227412123417467, 0.016227412123417467, 0.016227412123417467, 0.016227412123417467]","[0.016227412123417467, -1.5545689146714792, 0.016227412123417467, 0.016227412123417467, 0.016227412123417467, 0.016227412123417467]",0.002,7,1
0,38,"[0.0017488038865849376, -1.5688084571487089, 0.002014938985006154, 0.001723929042480421, 0.0017795753665268421, 0.0018216774333268404]","[0.062477994710206985, 0.06564260274171829, 0.06428844481706619, 0.06490683555603027, 0.06664350628852844, 0.0662987008690834]","[0.01666566167884386, -1.5541306651160527, 0.01666566167884386, 0.01666566167884386, 0.01666566167884386, 0.01666566167884386]","[0.01666566167884386, -1.5541306651160527, 0.01666566167884386, 0.01666566167884386, 0.01666566167884386, 0.01666566167884386]",0.002,7,1
0,39,"[0.001920007518492639, -1.5687245338088651, 0.0020716826068323257, 0.0018908220478515148, 0.0018794727511703968, 0.0019578358624130487]","[0.06494678556919098, 0.06875418871641159, 0.06609752029180527, 0.06758727878332138, 0.06896429508924484, 0.06680051982402802]","[0.017103884906385567, -1.553692441888511, 0.017103884906385567, 0.017103884906385567, 0.017103884906385567, 0.017103884906385567]","[0.017103884906385567, -1.553692441888511, 0.017103884906385567, 0.017103884906385567, 0.017103884906385567, 0.017103884906385567]",0.002,7,1
0,40,"[0.00200089649297297, -1.5685805289870878, 0.002217117940084279, 0.0020723777958373546, 0.002007980365306139, 0.0020766248926520348]","[0.0678211897611618, 0.07029437273740768, 0.06871845573186874, 0.07074068486690521, 0.06983020156621933, 0.07023311406373978]","[0.017542081113751395, -1.5532542456811451, 0.017542081113751395, 0.017542081113751395, 0.017542081113751395, 0.017542081113751395]","[0.017542081113751395, -1.5532542456811451, 0.017542081113751395, 0.017542081113751395, 0.017542081113751395, 0.017542081113751395]",0.002,7,1
0,41,"[0.002144808415323496, -1.5684082119590421, 0.002377812062398732, 0.0021933752247313976, 0.002152137691155076, 0.002200951101258397]","[0.07016539573669434, 0.07295864075422287, 0.07128287851810455, 0.0730375275015831, 0.07456313073635101, 0.07414080202579498]","[0.017980249608692853, -1.5528160771862036, 0.017980249608692853, 0.017980249608692853, 0.017980249608692853, 0.017980249608692853]","[0.017980249608692853, -1.5528160771862036, 0.017980249608692853, 0.017980249608692853, 0.017980249608692853, 0.017980249608692853]",0.002,7,1
0,42,"[0.002330861520022154, -1.568271852829941, 0.0025666395770471695, 0.0023466783710937023, 0.0023162043653428555, 0.002381055150181055]","[0.07468663901090622, 0.07703571021556854, 0.07350019365549088, 0.07575254142284393, 0.07786364108324051, 0.07476920634508133]","[0.018418389699005232, -1.5523779370958912, 0.018418389699005232, 0.018418389699005232, 0.018418389699005232, 0.018418389699005232]","[0.018418389699005232, -1.5523779370958912, 0.018418389699005232, 0.018418389699005232, 0.018418389699005232, 0.018418389699005232]",0.002,7,1
0,43,"[0.002408773871138692, -1.568128948132955, 0.0026662985431116226, 0.002440615291259718, 0.002463929122313857, 0.002529214834794402]","[0.0760512426495552, 0.07839438319206238, 0.07601617276668549, 0.07867056131362915, 0.07913115620613098, 0.0780949518084526]","[0.01885650069252868, -1.5519398261023678, 0.01885650069252868, 0.01885650069252868, 0.01885650069252868, 0.01885650069252868]","[0.01885650069252868, -1.5519398261023678, 0.01885650069252868, 0.01885650069252868, 0.01885650069252868, 0.01885650069252868]",0.002,7,1
0,44,"[0.002609814051538706, -1.5679271752345194, 0.0028136412249963882, 0.002626820201538038, 0.0026866912376135588, 0.0026732822880148888]","[0.07773210853338242, 0.0793871358036995, 0.07911530137062073, 0.08216823637485504, 0.0824059322476387, 0.08113568276166916]","[0.01929458189714932, -1.5515017448977473, 0.01929458189714932, 0.01929458189714932, 0.01929458189714932, 0.01929458189714932]","[0.01929458189714932, -1.5515017448977473, 0.01929458189714932, 0.01929458189714932, 0.01929458189714932, 0.01929458189714932]",0.002,7,1
0,45,"[0.002766057848930359, -1.5677765382318576, 0.0029905478106897476, 0.0028139787861327648, 0.002844972535967827, 0.0028574338648468256]","[0.08573507517576218, 0.08533290773630142, 0.08333379775285721, 0.08550871163606644, 0.08510886877775192, 0.08366952836513519]","[0.01973263262080034, -1.5510636941740963, 0.01973263262080034, 0.01973263262080034, 0.01973263262080034, 0.01973263262080034]","[0.01973263262080034, -1.5510636941740963, 0.01973263262080034, 0.01973263262080034, 0.01973263262080034, 0.01973263262080034]",0.002,7,1
0,46,"[0.002988297026604414, -1.5675790405697008, 0.0031798521624963882, 0.002977295512817335, 0.0030115912668406963, 0.0030464217998087406]","[0.08479850739240646, 0.08440995961427689, 0.08334937691688538, 0.08810435980558395, 0.08754167705774307, 0.0867023840546608]","[0.020170652171463074, -1.5506256746234335, 0.020170652171463074, 0.020170652171463074, 0.020170652171463074, 0.020170652171463074]","[0.020170652171463074, -1.5506256746234335, 0.020170652171463074, 0.020170652171463074, 0.020170652171463074, 0.020170652171463074]",0.002,7,1
0,47,"[0.003106524236500263, -1.567439549635612, 0.0033147970782678726, 0.0031665998646239757, 0.003137815510854125, 0.0032309272792190313]","[0.08830702304840088, 0.08915501832962036, 0.08619100600481033, 0.08981795608997345, 0.09162791073322296, 0.08915698528289795]","[0.0206086398571681, -1.5501876869377285, 0.0206086398571681, 0.0206086398571681, 0.0206086398571681, 0.0206086398571681]","[0.0206086398571681, -1.5501876869377285, 0.0206086398571681, 0.0206086398571681, 0.0206086398571681, 0.0206086398571681]",0.002,7,1
0,48,"[0.0033107309136539698, -1.5673118604211886, 0.0035236517535608414, 0.0034156280704955577, 0.003393621416762471, 0.00339735415764153]","[0.0926133319735527, 0.09063024073839188, 0.09092635661363602, 0.0956386923789978, 0.09148857742547989, 0.09261541813611984]","[0.02104659498599634, -1.5497497318089002, 0.02104659498599634, 0.02104659498599634, 0.02104659498599634, 0.02104659498599634]","[0.02104659498599634, -1.5497497318089002, 0.02104659498599634, 0.02104659498599634, 0.02104659498599634, 0.02104659498599634]",0.002,7,1
0,49,"[0.0034935041330754757, -1.5670424795574327, 0.0037153402911584976, 0.0035738187977294444, 0.003559911623597145, 0.0035892361775040627]","[0.09520983695983887, 0.09360270947217941, 0.0931246429681778, 0.0960741713643074, 0.09694789350032806, 0.09566295892000198]","[0.021484516866080144, -1.5493118099288163, 0.021484516866080144, 0.021484516866080144, 0.021484516866080144, 0.021484516866080144]","[0.021484516866080144, -1.5493118099288163, 0.021484516866080144, 0.021484516866080144, 0.021484516866080144, 0.021484516866080144]",0.002,7,1
0,50,"[0.0037037578877061605, -1.5668951804148783, 0.003907505665914357, 0.003727837199829054, 0.003707349766045809, 0.0037769123446196318]","[0.09739261865615845, 0.09583141654729843, 0.0957723930478096, 0.10140520334243774, 0.09822609275579453, 0.09776514023542404]","[0.0219224048056044, -1.5488739219892922, 0.0219224048056044, 0.0219224048056044, 0.0219224048056044, 0.0219224048056044]","[0.0219224048056044, -1.5488739219892922, 0.0219224048056044, 0.0219224048056044, 0.0219224048056044, 0.0219224048056044]",0.002,7,1
0,51,"[0.0038700655568391085, -1.566720744860806, 0.0040925184832971695, 0.003932161922119093, 0.003985620569437742, 0.003964047878980637]","[0.10076232254505157, 0.09899285435676575, 0.09811188280582428, 0.10251881927251816, 0.10204987227916718, 0.10067439079284668]","[0.02236025811280759, -1.548436068682089, 0.02236025811280759, 0.02236025811280759, 0.02236025811280759, 0.02236025811280759]","[0.02236025811280759, -1.548436068682089, 0.02236025811280759, 0.02236025811280759, 0.02236025811280759, 0.02236025811280759]",0.002,7,1
0,52,"[0.004185055382549763, -1.566561568328627, 0.004337135945455373, 0.004194660777709913, 0.004161293152719736, 0.00416046567261219]","[0.10240095108747482, 0.10077299177646637, 0.10076890885829926, 0.10485634952783585, 0.1063610315322876, 0.10347727686166763]","[0.022798076095982937, -1.5479982506989136, 0.022798076095982937, 0.022798076095982937, 0.022798076095982937, 0.022798076095982937]","[0.022798076095982937, -1.5479982506989136, 0.022798076095982937, 0.022798076095982937, 0.022798076095982937, 0.022798076095982937]",0.002,7,1
0,53,"[0.0043801479041576385, -1.566319236797728, 0.00454885164369756, 0.0044391590305785655, 0.00435378635302186, 0.0043929205276072025]","[0.10646900534629822, 0.10437604039907455, 0.10321182012557983, 0.10767516493797302, 0.10718348622322083, 0.10557666420936584]","[0.023235858063479446, -1.547560468731417, 0.023235858063479446, 0.023235858063479446, 0.023235858063479446, 0.023235858063479446]","[0.023235858063479446, -1.547560468731417, 0.023235858063479446, 0.023235858063479446, 0.023235858063479446, 0.023235858063479446]",0.002,7,1
0,54,"[0.004567787051200867, -1.5661088435775419, 0.004766766224996388, 0.004645510310790968, 0.004666142165660858, 0.0046041179448366165]","[0.10754875093698502, 0.10619456321001053, 0.10679788887500763, 0.10985512286424637, 0.11012611538171768, 0.11221851408481598]","[0.023673603323703017, -1.5471227234711935, 0.023673603323703017, 0.023673603323703017, 0.023673603323703017, 0.023673603323703017]","[0.023673603323703017, -1.5471227234711935, 0.023673603323703017, 0.023673603323703017, 0.023673603323703017, 0.023673603323703017]",0.002,7,1
0,55,"[0.0047820252366364, -1.565953855668642, 0.004969422017232716, 0.0048871475407104015, 0.004857267253100872, 0.00482017919421196]","[0.11219880729913712, 0.10731996595859528, 0.10915530472993851, 0.11127190291881561, 0.11326804012060165, 0.11236493289470673]","[0.02411131118511755, -1.5466850156097791, 0.02411131118511755, 0.02411131118511755, 0.02411131118511755, 0.02411131118511755]","[0.02411131118511755, -1.5466850156097791, 0.02411131118511755, 0.02411131118511755, 0.02411131118511755, 0.02411131118511755]",0.002,7,1
0,56,"[0.005064491182565689, -1.5656233362718304, 0.005173985158101857, 0.005092187518737745, 0.0050674742087721825, 0.005122859962284565]","[0.11351189017295837, 0.11414960026741028, 0.11037232726812363, 0.11598092317581177, 0.11633801460266113, 0.11738993227481842]","[0.02454898095624604, -1.5462473458386505, 0.02454898095624604, 0.02454898095624604, 0.02454898095624604, 0.02454898095624604]","[0.02454898095624604, -1.5462473458386505, 0.02454898095624604, 0.02454898095624604, 0.02454898095624604, 0.02454898095624604]",0.002,7,1
0,57,"[0.005263850092887878, -1.565452076294907, 0.005423370991842091, 0.005303784007690382, 0.005359042901545763, 0.0053329309448599815]","[0.11746865510940552, 0.11265314370393753, 0.11508871614933014, 0.11606905609369278, 0.11967022716999054, 0.11885453015565872]","[0.024986611945671616, -1.545809714849225, 0.024986611945671616, 0.024986611945671616, 0.024986611945671616, 0.024986611945671616]","[0.024986611945671616, -1.545809714849225, 0.024986611945671616, 0.024986611945671616, 0.024986611945671616, 0.024986611945671616]",0.002,7,1
0,58,"[0.005492050666362047, -1.5651749798892816, 0.005631271992818654, 0.00558118402447505, 0.00549548352137208, 0.005556420888751745]","[0.11955935508012772, 0.11922180652618408, 0.11662900447845459, 0.11898643523454666, 0.12085367739200592, 0.12118992954492569]","[0.025424203462038705, -1.545372123332858, 0.025424203462038705, 0.025424203462038705, 0.025424203462038705, 0.025424203462038705]","[0.025424203462038705, -1.545372123332858, 0.025424203462038705, 0.025424203462038705, 0.025424203462038705, 0.025424203462038705]",0.002,7,1
0,59,"[0.005772586911916733, -1.5649591444856306, 0.005903069172994435, 0.005841179484985304, 0.005785585381090641, 0.005830659996718168]","[0.12128689140081406, 0.11991551518440247, 0.11956808716058731, 0.12234685570001602, 0.1223512813448906, 0.12493996322154999]","[0.025861754814054082, -1.5449345719808425, 0.025861754814054082, 0.025861754814054082, 0.025861754814054082, 0.025861754814054082]","[0.025861754814054082, -1.5449345719808425, 0.025861754814054082, 0.025861754814054082, 0.025861754814054082, 0.025861754814054082]",0.002,7,1
0,60,"[0.006029133684933186, -1.5647398603944858, 0.006127182637349904, 0.006044192905090284, 0.006042375694960356, 0.0060069072060287]","[0.12526462972164154, 0.12302518635988235, 0.12283522635698318, 0.12397237122058868, 0.12685027718544006, 0.12421755492687225]","[0.026299265310487988, -1.5444970614844085, 0.026299265310487988, 0.026299265310487988, 0.026299265310487988, 0.026299265310487988]","[0.026299265310487988, -1.5444970614844085, 0.026299265310487988, 0.026299265310487988, 0.026299265310487988, 0.026299265310487988]",0.002,7,1
0,61,"[0.006293182261288166, -1.5645205153017123, 0.006395641957418263, 0.006312533015869093, 0.006295038387179375, 0.006333243567496538]","[0.12708845734596252, 0.1252460777759552, 0.1257624328136444, 0.1258474886417389, 0.12919804453849792, 0.1301523745059967]","[0.02673673426017517, -1.5440595925347214, 0.02673673426017517, 0.02673673426017517, 0.02673673426017517, 0.02673673426017517]","[0.02673673426017517, -1.5440595925347214, 0.02673673426017517, 0.02673673426017517, 0.02673673426017517, 0.02673673426017517]",0.002,7,1
0,62,"[0.006523673422634602, -1.5641955666108807, 0.006647888814107716, 0.006576223964355421, 0.006567121483385563, 0.006592296529561281]","[0.12810669839382172, 0.12842315435409546, 0.1277260184288025, 0.12905539572238922, 0.13232949376106262, 0.13042208552360535]","[0.027174160972016047, -1.5436221658228806, 0.027174160972016047, 0.027174160972016047, 0.027174160972016047, 0.027174160972016047]","[0.027174160972016047, -1.5436221658228806, 0.027174160972016047, 0.027174160972016047, 0.027174160972016047, 0.027174160972016047]",0.002,7,1
0,63,"[0.006837956607341766, -1.5639795593782146, 0.006909195576803029, 0.00693003713574214, 0.00689768185839057, 0.006873856298625469]","[0.1312691867351532, 0.13010245561599731, 0.13114170730113983, 0.13192425668239594, 0.13263137638568878, 0.13241952657699585]","[0.027611544754977735, -1.5431847820399187, 0.027611544754977735, 0.027611544754977735, 0.027611544754977735, 0.027611544754977735]","[0.027611544754977735, -1.5431847820399187, 0.027611544754977735, 0.027611544754977735, 0.027611544754977735, 0.027611544754977735]",0.002,7,1
0,64,"[0.007101705297827721, -1.5636860549314697, 0.007168594990865529, 0.007120533580444288, 0.00712636997923255, 0.007115900982171297]","[0.13668368756771088, 0.13450904190540314, 0.13127265870571136, 0.13409386575222015, 0.13471131026744843, 0.13688330352306366]","[0.028048884918095193, -1.5427474418768015, 0.028048884918095193, 0.028048884918095193, 0.028048884918095193, 0.028048884918095193]","[0.028048884918095193, -1.5427474418768015, 0.028048884918095193, 0.028048884918095193, 0.028048884918095193, 0.028048884918095193]",0.002,7,1
0,65,"[0.00738232396543026, -1.5634144365652283, 0.0073960463153284195, 0.00742451726879878, 0.007355876266956329, 0.007449786644428968]","[0.13556666672229767, 0.13395045697689056, 0.13523714244365692, 0.13627071678638458, 0.1391945481300354, 0.13856185972690582]","[0.028486180770472276, -1.5423101460244242, 0.028486180770472276, 0.028486180770472276, 0.028486180770472276, 0.028486180770472276]","[0.028486180770472276, -1.5423101460244242, 0.028486180770472276, 0.028486180770472276, 0.028486180770472276, 0.028486180770472276]",0.002,7,1
0,66,"[0.007679319474846125, -1.5630772852203627, 0.007700745259420216, 0.00774948179211421, 0.007703397423028946, 0.007671999279409647]","[0.13907794654369354, 0.13725382089614868, 0.14127187430858612, 0.14081048965454102, 0.13800370693206787, 0.14017201960086823]","[0.02892343162128283, -1.5418728951736138, 0.02892343162128283, 0.02892343162128283, 0.02892343162128283, 0.02892343162128283]","[0.02892343162128283, -1.5418728951736138, 0.02892343162128283, 0.02892343162128283, 0.02892343162128283, 0.02892343162128283]",0.002,7,1
0,67,"[0.007967447862029076, -1.5629443892142554, 0.008051220570699513, 0.008000059718749952, 0.008000907488167286, 0.007952490821480751]","[0.1414637267589569, 0.13960027694702148, 0.14151830971240997, 0.13980254530906677, 0.14258408546447754, 0.14207500219345093]","[0.029360636779771816, -1.5414356900151247, 0.029360636779771816, 0.029360636779771816, 0.029360636779771816, 0.029360636779771816]","[0.029360636779771816, -1.5414356900151247, 0.029360636779771816, 0.029360636779771816, 0.029360636779771816, 0.029360636779771816]",0.002,7,1
0,68,"[0.008222391828894615, -1.5625659136897703, 0.00832683244814092, 0.008332892055175734, 0.008242573589086533, 0.008210919797420502]","[0.14301139116287231, 0.14304284751415253, 0.14255309104919434, 0.14261002838611603, 0.14431385695934296, 0.14438246190547943]","[0.029797795555256364, -1.5409985312396401, 0.029797795555256364, 0.029797795555256364, 0.029797795555256364, 0.029797795555256364]","[0.029797795555256364, -1.5409985312396401, 0.029797795555256364, 0.029797795555256364, 0.029797795555256364, 0.029797795555256364]",0.002,7,1
0,69,"[0.008468184620141983, -1.562335792263486, 0.008586708699361623, 0.008580132121704054, 0.008568712510168552, 0.008532486855983734]","[0.14764195680618286, 0.14578312635421753, 0.14626693725585938, 0.14477699995040894, 0.14731548726558685, 0.1466904580593109]","[0.030234907257126884, -1.5405614195377697, 0.030234907257126884, 0.030234907257126884, 0.030234907257126884, 0.030234907257126884]","[0.030234907257126884, -1.5405614195377697, 0.030234907257126884, 0.030234907257126884, 0.030234907257126884, 0.030234907257126884]",0.002,7,1
0,70,"[0.008793670684099197, -1.5620598134449502, 0.008851353322164357, 0.008869691486022901, 0.00886660534888506, 0.008762666955590248]","[0.14848102629184723, 0.1475485861301422, 0.1480206996202469, 0.14688701927661896, 0.14963491261005402, 0.1506962776184082]","[0.030671971194848137, -1.5401243556000483, 0.030671971194848137, 0.030671971194848137, 0.030671971194848137, 0.030671971194848137]","[0.030671971194848137, -1.5401243556000483, 0.030671971194848137, 0.030671971194848137, 0.030671971194848137, 0.030671971194848137]",0.002,7,1
0,71,"[0.009105870500206947, -1.5617315399325271, 0.009175602589742482, 0.009246512050292921, 0.009132113307714462, 0.009111297316849232]","[0.14999030530452728, 0.14853523671627045, 0.14892567694187164, 0.15138404071331024, 0.152421236038208, 0.1527465283870697]","[0.031108986677960353, -1.5396873401169362, 0.031108986677960353, 0.031108986677960353, 0.031108986677960353, 0.031108986677960353]","[0.031108986677960353, -1.5396873401169362, 0.031108986677960353, 0.031108986677960353, 0.031108986677960353, 0.031108986677960353]",0.002,7,1
0,72,"[0.009405691176652908, -1.5614424657872696, 0.00947124162782842, 0.009523912067077589, 0.00942518375813961, 0.00944408681243658]","[0.15299752354621887, 0.15371300280094147, 0.15321750938892365, 0.14972656965255737, 0.1523432731628418, 0.15514586865901947]","[0.03154595301608032, -1.5392503737788163, 0.03154595301608032, 0.03154595301608032, 0.03154595301608032, 0.03154595301608032]","[0.03154595301608032, -1.5392503737788163, 0.03154595301608032, 0.03154595301608032, 0.03154595301608032, 0.03154595301608032]",0.002,7,1
0,73,"[0.009705843403935432, -1.5611096893301983, 0.009825054799215138, 0.009840293521545362, 0.009773274883627892, 0.009723114781081676]","[0.15525738894939423, 0.15500180423259735, 0.15253323316574097, 0.15209317207336426, 0.15553203225135803, 0.15643271803855896]","[0.031982869518902446, -1.5388134572759942, 0.031982869518902446, 0.031982869518902446, 0.031982869518902446, 0.031982869518902446]","[0.031982869518902446, -1.5388134572759942, 0.031982869518902446, 0.031982869518902446, 0.031982869518902446, 0.031982869518902446]",0.002,7,1
0,74,"[0.010034492239356041, -1.560822907169797, 0.010125462208883107, 0.01012222349133296, 0.010091510601341724, 0.010015827603638172]","[0.15640318393707275, 0.15531422197818756, 0.15476401150226593, 0.1544341892004013, 0.15966902673244476, 0.15954528748989105]","[0.03241973549619986, -1.5383765912986966, 0.03241973549619986, 0.03241973549619986, 0.03241973549619986, 0.03241973549619986]","[0.03241973549619986, -1.5383765912986966, 0.03241973549619986, 0.03241973549619986, 0.03241973549619986, 0.03241973549619986]",0.002,7,1
0,75,"[0.010351037606596947, -1.5604901307127257, 0.010351483021871388, 0.010439916247985792, 0.010333027690649033, 0.010347625240683556]","[0.15933893620967865, 0.15746739506721497, 0.1571037620306015, 0.15740256011486053, 0.1609206646680832, 0.16093270480632782]","[0.03285655025782554, -1.537939776537071, 0.03285655025782554, 0.03285655025782554, 0.03285655025782554, 0.03285655025782554]","[0.03285655025782554, -1.537939776537071, 0.03285655025782554, 0.03285655025782554, 0.03285655025782554, 0.03285655025782554]",0.002,7,1
0,76,"[0.010646549053490162, -1.5601988027668376, 0.01080495515932256, 0.010846777553222609, 0.010707935318350792, 0.010617433115839958]","[0.16076314449310303, 0.15992553532123566, 0.15939028561115265, 0.1594446748495102, 0.16076894104480743, 0.16104939579963684]","[0.03329331311371334, -1.5375030136811831, 0.03329331311371334, 0.03329331311371334, 0.03329331311371334, 0.03329331311371334]","[0.03329331311371334, -1.5375030136811831, 0.03329331311371334, 0.03329331311371334, 0.03329331311371334, 0.03329331311371334]",0.002,7,1
0,77,"[0.010963122360408306, -1.559870528323092, 0.011091057454244435, 0.0111277538486938, 0.010945048183202744, 0.010971148498356342]","[0.16394008696079254, 0.16107822954654694, 0.1596280336380005, 0.16130982339382172, 0.16271579265594482, 0.16403266787528992]","[0.03373002337387915, -1.5370663034210175, 0.03373002337387915, 0.03373002337387915, 0.03373002337387915, 0.03373002337387915]","[0.03373002337387915, -1.5370663034210175, 0.03373002337387915, 0.03373002337387915, 0.03373002337387915, 0.03373002337387915]",0.002,7,1
0,78,"[0.01131844986230135, -1.5595182006112118, 0.01133758226503545, 0.011499806041381788, 0.011375781148672104, 0.011339734308421612]","[0.16659574210643768, 0.16303347051143646, 0.1631041020154953, 0.16345973312854767, 0.16528864204883575, 0.16665828227996826]","[0.03416668034842189, -1.5366296464464746, 0.03416668034842189, 0.03416668034842189, 0.03416668034842189, 0.03416668034842189]","[0.03416668034842189, -1.5366296464464746, 0.03416668034842189, 0.03416668034842189, 0.03416668034842189, 0.03416668034842189]",0.002,7,1
0,79,"[0.011659185402095318, -1.5591735637611528, 0.011722866688863576, 0.011763854617736769, 0.01167469285428524, 0.011630852706730366]","[0.166231170296669, 0.16748830676078796, 0.16394905745983124, 0.16454076766967773, 0.16911344230175018, 0.1687445491552353]","[0.03460328334752473, -1.5361930434473718, 0.03460328334752473, 0.03460328334752473, 0.03460328334752473, 0.03460328334752473]","[0.03460328334752473, -1.5361930434473718, 0.03460328334752473, 0.03460328334752473, 0.03460328334752473, 0.03460328334752473]",0.002,7,1
0,80,"[0.011978557333350182, -1.558821209040918, 0.012017552052633107, 0.012143655414245558, 0.011998548172414303, 0.011953172273933887]","[0.16907767951488495, 0.16765961050987244, 0.16661036014556885, 0.16724075376987457, 0.17323410511016846, 0.17132997512817383]","[0.035039831681456066, -1.5357564951134406, 0.035039831681456066, 0.035039831681456066, 0.035039831681456066, 0.035039831681456066]","[0.035039831681456066, -1.5357564951134406, 0.035039831681456066, 0.035039831681456066, 0.035039831681456066, 0.035039831681456066]",0.002,7,1
0,81,"[0.012373230420053005, -1.5585506812534113, 0.012417141591207326, 0.012494369144103956, 0.012363292276859283, 0.012306968681514263]","[0.17070135474205017, 0.1701628416776657, 0.168310284614563, 0.17018891870975494, 0.17218810319900513, 0.17388872802257538]","[0.03547632466057065, -1.5353200021343258, 0.03547632466057065, 0.03547632466057065, 0.03547632466057065, 0.03547632466057065]","[0.03547632466057065, -1.5353200021343258, 0.03547632466057065, 0.03547632466057065, 0.03547632466057065, 0.03547632466057065]",0.002,7,1
0,82,"[0.012686734087765217, -1.5582025035149236, 0.012757603322164357, 0.01281230031933589, 0.012704047374427319, 0.012729489244520664]","[0.17229700088500977, 0.17349210381507874, 0.16964328289031982, 0.17065486311912537, 0.17359523475170135, 0.1742047220468521]","[0.035912761595310705, -1.5348835651995858, 0.035912761595310705, 0.035912761595310705, 0.035912761595310705, 0.035912761595310705]","[0.035912761595310705, -1.5348835651995858, 0.035912761595310705, 0.035912761595310705, 0.035912761595310705, 0.035912761595310705]",0.002,7,1
0,83,"[0.013031696900725365, -1.5578251185691734, 0.013010327016012013, 0.01314811288800044, 0.013056722469627857, 0.01303113717585802]","[0.17516864836215973, 0.17522495985031128, 0.17134343087673187, 0.17076683044433594, 0.1756313294172287, 0.1764378547668457]","[0.03634914179620697, -1.5344471849986896, 0.03634914179620697, 0.03634914179620697, 0.03634914179620697, 0.03634914179620697]","[0.03634914179620697, -1.5344471849986896, 0.03634914179620697, 0.03634914179620697, 0.03634914179620697, 0.03634914179620697]",0.002,7,1
0,84,"[0.013403316959738731, -1.5574890675819297, 0.0133441130267542, 0.013550682658813429, 0.013386786915361881, 0.013350681401789188]","[0.17532235383987427, 0.17505422234535217, 0.17319180071353912, 0.17315679788589478, 0.17819976806640625, 0.17888160049915314]","[0.03678546457387983, -1.5340108622210167, 0.03678546457387983, 0.03678546457387983, 0.03678546457387983, 0.03678546457387983]","[0.03678546457387983, -1.5340108622210167, 0.03678546457387983, 0.03678546457387983, 0.03678546457387983, 0.03678546457387983]",0.002,7,1
0,85,"[0.013768144883215427, -1.5571170917576929, 0.013816181813375294, 0.013909144992492628, 0.013727649115025997, 0.013752155937254429]","[0.17793723940849304, 0.17703835666179657, 0.1749057173728943, 0.17637205123901367, 0.1789044886827469, 0.1805908977985382]","[0.037221729239040366, -1.5335745975558561, 0.037221729239040366, 0.037221729239040366, 0.037221729239040366, 0.037221729239040366]","[0.037221729239040366, -1.5335745975558561, 0.037221729239040366, 0.037221729239040366, 0.037221729239040366, 0.037221729239040366]",0.002,7,1
0,86,"[0.014106758870184422, -1.5567528906143089, 0.014130417500631154, 0.014255209560058546, 0.014116236008703709, 0.01407473161816597]","[0.17980222404003143, 0.18010634183883667, 0.18057002127170563, 0.17701002955436707, 0.1819971799850464, 0.18387524783611298]","[0.03765793510249147, -1.533138391692405, 0.03765793510249147, 0.03765793510249147, 0.03765793510249147, 0.03765793510249147]","[0.03765793510249147, -1.533138391692405, 0.03765793510249147, 0.03765793510249147, 0.03765793510249147, 0.03765793510249147]",0.002,7,1
0,87,"[0.014466934837400913, -1.5564224107987066, 0.01444560686220342, 0.01457635938610835, 0.014462914317846298, 0.01440956350415945]","[0.1814277321100235, 0.18369567394256592, 0.1797761619091034, 0.17832793295383453, 0.18295754492282867, 0.18339769542217255]","[0.03809408147512893, -1.5327022453197676, 0.03809408147512893, 0.03809408147512893, 0.03809408147512893, 0.03809408147512893]","[0.03809408147512893, -1.5327022453197676, 0.03809408147512893, 0.03809408147512893, 0.03809408147512893, 0.03809408147512893]",0.002,7,1
0,88,"[0.014834536239504814, -1.5560700439712782, 0.014855686818258107, 0.014963312739990187, 0.014878645539283752, 0.014844044111669064]","[0.18297652900218964, 0.1831970065832138, 0.18131402134895325, 0.1798189878463745, 0.18218894302845, 0.18506324291229248]","[0.03853016766794253, -1.532266159126954, 0.03853016766794253, 0.03853016766794253, 0.03853016766794253, 0.03853016766794253]","[0.03853016766794253, -1.532266159126954, 0.03853016766794253, 0.03853016766794253, 0.03853016766794253, 0.03853016766794253]",0.002,7,1
0,89,"[0.015252986922860146, -1.5556577586433669, 0.015145603810445607, 0.015350862140319776, 0.015175695531070232, 0.015137679874897003]","[0.18539351224899292, 0.1855143904685974, 0.18296530842781067, 0.18025417625904083, 0.18505965173244476, 0.18534398078918457]","[0.03896619299201709, -1.5318301338028795, 0.03896619299201709, 0.03896619299201709, 0.03896619299201709, 0.03896619299201709]","[0.03896619299201709, -1.5318301338028795, 0.03896619299201709, 0.03896619299201709, 0.03896619299201709, 0.03896619299201709]",0.002,7,1
0,90,"[0.015587450936436653, -1.5552443734234949, 0.01563913026918584, 0.015679760570190382, 0.015583778731524944, 0.015554535202682018]","[0.18783733248710632, 0.18574240803718567, 0.1863434910774231, 0.18070940673351288, 0.18676480650901794, 0.18871177732944489]","[0.03940215675853362, -1.531394170036363, 0.03940215675853362, 0.03940215675853362, 0.03940215675853362, 0.03940215675853362]","[0.03940215675853362, -1.531394170036363, 0.03940215675853362, 0.03940215675853362, 0.03940215675853362, 0.03940215675853362]",0.002,7,1
0,91,"[0.01595069281756878, -1.5549541686526318, 0.015894714985982716, 0.016072316760681105, 0.01603739708662033, 0.015926556661725044]","[0.1875377744436264, 0.1895892322063446, 0.1865217536687851, 0.18216173350811005, 0.1886463761329651, 0.19029569625854492]","[0.03983805827877034, -1.5309582685161263, 0.03983805827877034, 0.03983805827877034, 0.03983805827877034, 0.03983805827877034]","[0.03983805827877034, -1.5309582685161263, 0.03983805827877034, 0.03983805827877034, 0.03983805827877034, 0.03983805827877034]",0.002,7,1
0,92,"[0.016350865364074707, -1.5545909826508542, 0.016325298939840138, 0.016413732165954542, 0.01630084589123726, 0.016327092424035072]","[0.18995971977710724, 0.1885593682527542, 0.18718628585338593, 0.18336325883865356, 0.18981076776981354, 0.19123488664627075]","[0.04027389686410387, -1.5305224299307927, 0.04027389686410387, 0.04027389686410387, 0.04027389686410387, 0.04027389686410387]","[0.04027389686410387, -1.5305224299307927, 0.04027389686410387, 0.04027389686410387, 0.04027389686410387, 0.04027389686410387]",0.002,7,1
0,93,"[0.016739508137106895, -1.554210302685835, 0.016682926808492482, 0.016784711475036573, 0.0167514868080616, 0.01675262488424778]","[0.1923375427722931, 0.19025005400180817, 0.18948739767074585, 0.1857648342847824, 0.19193658232688904, 0.1918657124042511]","[0.04070967182601018, -1.5300866549688863, 0.04070967182601018, 0.04070967182601018, 0.04070967182601018, 0.04070967182601018]","[0.04070967182601018, -1.5300866549688863, 0.04070967182601018, 0.04070967182601018, 0.04070967182601018, 0.04070967182601018]",0.002,7,1
0,94,"[0.017123734578490257, -1.5538055014661332, 0.017004315053121388, 0.017169876689575148, 0.017097877338528633, 0.017045170068740845]","[0.192976713180542, 0.19202937185764313, 0.18974609673023224, 0.18752922117710114, 0.19307003915309906, 0.19215373694896698]","[0.041145382476065785, -1.5296509443188309, 0.041145382476065785, 0.041145382476065785, 0.041145382476065785, 0.041145382476065785]","[0.041145382476065785, -1.5296509443188309, 0.041145382476065785, 0.041145382476065785, 0.041145382476065785, 0.041145382476065785]",0.002,7,1
0,95,"[0.01750953122973442, -1.553418395375349, 0.017388645802633107, 0.01755325376477046, 0.017482014372944832, 0.01751566119492054]","[0.19235661625862122, 0.19245930016040802, 0.19016751646995544, 0.19177910685539246, 0.19347329437732697, 0.19502697885036469]","[0.0415810281259488, -1.5292152986689478, 0.0415810281259488, 0.0415810281259488, 0.0415810281259488, 0.0415810281259488]","[0.0415810281259488, -1.5292152986689478, 0.0415810281259488, 0.0415810281259488, 0.0415810281259488, 0.0415810281259488]",0.002,7,1
0,96,"[0.017905641347169876, -1.5530265544405957, 0.01780730882753545, 0.017967863673828077, 0.01791311614215374, 0.017911475151777267]","[0.1933756023645401, 0.19375871121883392, 0.19284687936306, 0.1931043565273285, 0.19490891695022583, 0.1959095001220703]","[0.04201660808744002, -1.5287797187074565, 0.04201660808744002, 0.04201660808744002, 0.04201660808744002, 0.04201660808744002]","[0.04201660808744002, -1.5287797187074565, 0.04201660808744002, 0.04201660808744002, 0.04201660808744002, 0.04201660808744002]",0.002,7,1
0,97,"[0.01831829734146595, -1.552650449132063, 0.01819926897157842, 0.01828400670971675, 0.018267642706632614, 0.018290910869836807]","[0.19320006668567657, 0.19641536474227905, 0.1937180757522583, 0.19354869425296783, 0.19715052843093872, 0.19793455302715302]","[0.042452121672424015, -1.5283442051224725, 0.042452121672424015, 0.042452121672424015, 0.042452121672424015, 0.042452121672424015]","[0.042452121672424015, -1.5283442051224725, 0.042452121672424015, 0.042452121672424015, 0.042452121672424015, 0.042452121672424015]",0.002,7,1
0,98,"[0.018694914877414703, -1.5522543930313368, 0.018550697957174123, 0.01867799341168208, 0.018710004165768623, 0.018702954053878784]","[0.19644489884376526, 0.1964469999074936, 0.19458863139152527, 0.1957586109638214, 0.19959969818592072, 0.19787970185279846]","[0.042887568192890205, -1.5279087586020064, 0.042887568192890205, 0.042887568192890205, 0.042887568192890205, 0.042887568192890205]","[0.042887568192890205, -1.5279087586020064, 0.042887568192890205, 0.042887568192890205, 0.042887568192890205, 0.042887568192890205]",0.002,7,1
0,99,"[0.019062606617808342, -1.5519229744425793, 0.018938843403951466, 0.01900724946942134, 0.01902334950864315, 0.01908235251903534]","[0.19822530448436737, 0.19711145758628845, 0.19634145498275757, 0.19790150225162506, 0.19959698617458344, 0.1997872143983841]","[0.043322946960933965, -1.5274733798339626, 0.043322946960933965, 0.043322946960933965, 0.043322946960933965, 0.043322946960933965]","[0.043322946960933965, -1.5274733798339626, 0.043322946960933965, 0.043322946960933965, 0.043322946960933965, 0.043322946960933965]",0.002,7,1
0,100,"[0.019504552707076073, -1.5514985297671338, 0.019379917775289357, 0.019455237979553175, 0.019439416006207466, 0.019432298839092255]","[0.2000265270471573, 0.19978071749210358, 0.19844822585582733, 0.1993112862110138, 0.2005535513162613, 0.20141813158988953]","[0.04375825728875771, -1.5270380695061387, 0.04375825728875771, 0.04375825728875771, 0.04375825728875771, 0.04375825728875771]","[0.04375825728875771, -1.5270380695061387, 0.04375825728875771, 0.04375825728875771, 0.04375825728875771, 0.04375825728875771]",0.002,7,1
0,101,"[0.01989486627280712, -1.55102623932574, 0.01981670061220342, 0.019825621242187452, 0.019868679344654083, 0.019914967939257622]","[0.20062603056430817, 0.20131364464759827, 0.20183108747005463, 0.2001994550228119, 0.20150454342365265, 0.20284461975097656]","[0.04419349848867195, -1.5266028283062245, 0.04419349848867195, 0.04419349848867195, 0.04419349848867195, 0.04419349848867195]","[0.04419349848867195, -1.5266028283062245, 0.04419349848867195, 0.04419349848867195, 0.04419349848867195, 0.04419349848867195]",0.002,7,1
0,102,"[0.02027372643351555, -1.5506465465626498, 0.02022868791689092, 0.02020375310864253, 0.02029028907418251, 0.020310312509536743]","[0.20053227245807648, 0.20125412940979004, 0.20211061835289001, 0.20080459117889404, 0.20168213546276093, 0.20279695093631744]","[0.04462866987309642, -1.5261676569218001, 0.04462866987309642, 0.04462866987309642, 0.04462866987309642, 0.04462866987309642]","[0.04462866987309642, -1.5261676569218001, 0.04462866987309642, 0.04462866987309642, 0.04462866987309642, 0.04462866987309642]",0.002,7,1
0,103,"[0.020613163709640503, -1.5502102517387648, 0.020600620900289357, 0.020614429111144972, 0.02067585475742817, 0.020701875910162926]","[0.20289528369903564, 0.20274926722049713, 0.20336738228797913, 0.20201709866523743, 0.20443038642406464, 0.2029304951429367]","[0.04506377075456115, -1.5257325560403354, 0.04506377075456115, 0.04506377075456115, 0.04506377075456115, 0.04506377075456115]","[0.04506377075456115, -1.5257325560403354, 0.04506377075456115, 0.04506377075456115, 0.04506377075456115, 0.04506377075456115]",0.002,7,1
0,104,"[0.021064048632979393, -1.5498516217670222, 0.020959202443258107, 0.021005793208740187, 0.021052565425634384, 0.021105226129293442]","[0.20175662636756897, 0.2033398151397705, 0.20500800013542175, 0.20445369184017181, 0.20616964995861053, 0.20415358245372772]","[0.04549880044570755, -1.525297526349189, 0.04549880044570755, 0.04549880044570755, 0.04549880044570755, 0.04549880044570755]","[0.04549880044570755, -1.525297526349189, 0.04549880044570755, 0.04549880044570755, 0.04549880044570755, 0.04549880044570755]",0.002,7,1
0,105,"[0.021466417238116264, -1.5493976951441546, 0.021391216908590138, 0.02142922460522456, 0.021517649292945862, 0.021496480330824852]","[0.20445147156715393, 0.20400278270244598, 0.20542319118976593, 0.20635999739170074, 0.2057766169309616, 0.20539604127407074]","[0.04593375825928948, -1.524862568535607, 0.04593375825928948, 0.04593375825928948, 0.04593375825928948, 0.04593375825928948]","[0.04593375825928948, -1.524862568535607, 0.04593375825928948, 0.04593375825928948, 0.04593375825928948, 0.04593375825928948]",0.002,7,1
0,106,"[0.02190702222287655, -1.548998550777771, 0.021787468587056935, 0.021837278003356886, 0.021925821900367737, 0.02193278633058071]","[0.20566964149475098, 0.20504020154476166, 0.20626409351825714, 0.20843370258808136, 0.2063140720129013, 0.2059791535139084]","[0.04636864350817435, -1.5244276832867223, 0.04636864350817435, 0.04636864350817435, 0.04636864350817435, 0.04636864350817435]","[0.04636864350817435, -1.5244276832867223, 0.04636864350817435, 0.04636864350817435, 0.04636864350817435, 0.04636864350817435]",0.002,7,1
0,107,"[0.02231864258646965, -1.548603532170393, 0.02220803896059209, 0.02223460256542964, 0.02237173728644848, 0.02239001914858818]","[0.20491977035999298, 0.20574486255645752, 0.20498861372470856, 0.2108861356973648, 0.2089349776506424, 0.20599110424518585]","[0.04680345550534421, -1.5239928712895523, 0.04680345550534421, 0.04680345550534421, 0.04680345550534421, 0.04680345550534421]","[0.04680345550534421, -1.5239928712895523, 0.04680345550534421, 0.04680345550534421, 0.04680345550534421, 0.04680345550534421]",0.002,7,1
0,108,"[0.022763347253203392, -1.5481300738504906, 0.022640530263082326, 0.022624178523681593, 0.022749831900000572, 0.022830914705991745]","[0.20769481360912323, 0.20622777938842773, 0.20746541023254395, 0.2115265429019928, 0.2096116691827774, 0.20676201581954956]","[0.04723819356389685, -1.5235581332309998, 0.04723819356389685, 0.04723819356389685, 0.04723819356389685, 0.04723819356389685]","[0.04723819356389685, -1.5235581332309998, 0.04723819356389685, 0.04723819356389685, 0.04723819356389685, 0.04723819356389685]",0.002,7,1
0,109,"[0.02311917021870613, -1.5476778738996764, 0.023035351430074513, 0.023057742709777784, 0.02320757880806923, 0.023208586499094963]","[0.20931977033615112, 0.20742468535900116, 0.20801566541194916, 0.2127535045146942, 0.21005885303020477, 0.208627849817276]","[0.04767285699704684, -1.5231234697978497, 0.04767285699704684, 0.04767285699704684, 0.04767285699704684, 0.04767285699704684]","[0.04767285699704684, -1.5231234697978497, 0.04767285699704684, 0.04767285699704684, 0.04767285699704684, 0.04767285699704684]",0.002,7,1
0,110,"[0.02355048805475235, -1.547269682665803, 0.023435894642965138, 0.02350871145214839, 0.02351660281419754, 0.02363632433116436]","[0.21101409196853638, 0.20975926518440247, 0.2085476815700531, 0.213693767786026, 0.21124979853630066, 0.2096671611070633]","[0.04810744511812663, -1.5226888816767699, 0.04810744511812663, 0.04810744511812663, 0.04810744511812663, 0.04810744511812663]","[0.04810744511812663, -1.5226888816767699, 0.04810744511812663, 0.04810744511812663, 0.04810744511812663, 0.04810744511812663]",0.002,7,1
0,111,"[0.024047425016760826, -1.5469325960478564, 0.023859802876607716, 0.023903413409851026, 0.024010678753256798, 0.02405700460076332]","[0.21135297417640686, 0.2108066976070404, 0.2076050192117691, 0.21397405862808228, 0.21095779538154602, 0.20986972749233246]","[0.048541957240587706, -1.522254369554309, 0.048541957240587706, 0.048541957240587706, 0.048541957240587706, 0.048541957240587706]","[0.048541957240587706, -1.522254369554309, 0.048541957240587706, 0.048541957240587706, 0.048541957240587706, 0.048541957240587706]",0.002,7,1
0,112,"[0.024372059851884842, -1.5464382481626053, 0.024292771016256154, 0.024267716998718214, 0.024484841153025627, 0.024480018764734268]","[0.21097198128700256, 0.20956146717071533, 0.20987801253795624, 0.21584893763065338, 0.21014010906219482, 0.21051384508609772]","[0.048976392678001544, -1.521819934116895, 0.048976392678001544, 0.048976392678001544, 0.048976392678001544, 0.048976392678001544]","[0.048976392678001544, -1.521819934116895, 0.048976392678001544, 0.048976392678001544, 0.048976392678001544, 0.048976392678001544]",0.002,7,1
0,113,"[0.024852322414517403, -1.5459736448577424, 0.024691406880513966, 0.02478138982739253, 0.024888556450605392, 0.02492402121424675]","[0.2144673615694046, 0.21090514957904816, 0.21143342554569244, 0.21656718850135803, 0.21110041439533234, 0.21084897220134735]","[0.049410750744060795, -1.5213855760508357, 0.049410750744060795, 0.049410750744060795, 0.049410750744060795, 0.049410750744060795]","[0.049410750744060795, -1.5213855760508357, 0.049410750744060795, 0.049410750744060795, 0.049410750744060795, 0.049410750744060795]",0.002,7,1
0,114,"[0.025246888399124146, -1.5455624175122757, 0.025102917348043263, 0.025110169047973585, 0.02527853474020958, 0.025312304496765137]","[0.21374987065792084, 0.2112606018781662, 0.21212773025035858, 0.21661466360092163, 0.2136750966310501, 0.21029676496982574]","[0.04984503075258035, -1.5209512960423162, 0.04984503075258035, 0.04984503075258035, 0.04984503075258035, 0.04984503075258035]","[0.04984503075258035, -1.5209512960423162, 0.04984503075258035, 0.04984503075258035, 0.04984503075258035, 0.04984503075258035]",0.002,7,1
0,115,"[0.025694113224744797, -1.5451184821179886, 0.025552097951070607, 0.025559826488159132, 0.025793520733714104, 0.02574666030704975]","[0.2131519913673401, 0.21281398832798004, 0.21209704875946045, 0.21795345842838287, 0.2148669958114624, 0.21121597290039062]","[0.050279232017498385, -1.5205170947773983, 0.050279232017498385, 0.050279232017498385, 0.050279232017498385, 0.050279232017498385]","[0.050279232017498385, -1.5205170947773983, 0.050279232017498385, 0.050279232017498385, 0.050279232017498385, 0.050279232017498385]",0.002,7,1
0,116,"[0.026072436943650246, -1.544641676624753, 0.02599651018251592, 0.025978608722351026, 0.026147624477744102, 0.026204237714409828]","[0.21429134905338287, 0.21351183950901031, 0.21416090428829193, 0.21817830204963684, 0.21320702135562897, 0.21284018456935883]","[0.0507133538528775, -1.520082972942019, 0.0507133538528775, 0.0507133538528775, 0.0507133538528775, 0.0507133538528775]","[0.0507133538528775, -1.520082972942019, 0.0507133538528775, 0.0507133538528775, 0.0507133538528775, 0.0507133538528775]",0.002,7,1
0,117,"[0.026479536667466164, -1.544217513208725, 0.026449505482808888, 0.026438756580017042, 0.026546720415353775, 0.02663102187216282]","[0.21497149765491486, 0.2137080878019333, 0.21611294150352478, 0.2193598747253418, 0.21447883546352386, 0.2140721082687378]","[0.05114739557290577, -1.5196489312219907, 0.05114739557290577, 0.05114739557290577, 0.05114739557290577, 0.05114739557290577]","[0.05114739557290577, -1.5196489312219907, 0.05114739557290577, 0.05114739557290577, 0.05114739557290577, 0.05114739557290577]",0.002,7,1
0,118,"[0.02695120871067047, -1.5437865120223542, 0.02680999437441045, 0.026842518443725538, 0.02702363394200802, 0.027020854875445366]","[0.2163608968257904, 0.2145346999168396, 0.21744780242443085, 0.22160743176937103, 0.2157377302646637, 0.21490436792373657]","[0.05158135649189781, -1.5192149703029987, 0.05158135649189781, 0.05158135649189781, 0.05158135649189781, 0.05158135649189781]","[0.05158135649189781, -1.5192149703029987, 0.05158135649189781, 0.05158135649189781, 0.05158135649189781, 0.05158135649189781]",0.002,7,1
0,119,"[0.027354076504707336, -1.5432936412147065, 0.02730876604189092, 0.027226849193237257, 0.027464965358376503, 0.027490057051181793]","[0.21598730981349945, 0.21585331857204437, 0.217617467045784, 0.22109723091125488, 0.21456784009933472, 0.21607525646686554]","[0.05201523592429592, -1.5187810908706005, 0.05201523592429592, 0.05201523592429592, 0.05201523592429592, 0.05201523592429592]","[0.05201523592429592, -1.5187810908706005, 0.05201523592429592, 0.05201523592429592, 0.05201523592429592, 0.05201523592429592]",0.002,7,1
0,120,"[0.027789531275629997, -1.5428822499564667, 0.027723137532369435, 0.02771083890881343, 0.02789272367954254, 0.027967022731900215]","[0.21946334838867188, 0.21383249759674072, 0.21904505789279938, 0.2216978222131729, 0.2169906347990036, 0.21650531888008118]","[0.05244903318467109, -1.5183472936102254, 0.05244903318467109, 0.05244903318467109, 0.05244903318467109, 0.05244903318467109]","[0.05244903318467109, -1.5183472936102254, 0.05244903318467109, 0.05244903318467109, 0.05244903318467109, 0.05244903318467109]",0.002,7,1
0,121,"[0.028185077011585236, -1.5424668335220595, 0.028155151997701466, 0.02814607202496333, 0.02834881842136383, 0.02834199368953705]","[0.21864284574985504, 0.21747921407222748, 0.22057214379310608, 0.22154580056667328, 0.2189907282590866, 0.21653105318546295]","[0.05288274758772415, -1.5179135792071725, 0.05288274758772415, 0.05288274758772415, 0.05288274758772415, 0.05288274758772415]","[0.05288274758772415, -1.5179135792071725, 0.05288274758772415, 0.05288274758772415, 0.05288274758772415, 0.05288274758772415]",0.002,7,1
0,122,"[0.0286073237657547, -1.5420034781894465, 0.028673950825826466, 0.028592630023620558, 0.02879299223423004, 0.028790313750505447]","[0.21819546818733215, 0.21717622876167297, 0.21939145028591156, 0.2218131273984909, 0.2190367579460144, 0.21675695478916168]","[0.05331637844828681, -1.5174799483466097, 0.05331637844828681, 0.05331637844828681, 0.05331637844828681, 0.05331637844828681]","[0.05331637844828681, -1.5174799483466097, 0.05331637844828681, 0.05331637844828681, 0.05331637844828681, 0.05331637844828681]",0.002,7,1
0,123,"[0.029075907543301582, -1.5415548396161576, 0.029068771992818654, 0.029016180629394484, 0.029291562736034393, 0.029234426096081734]","[0.21948599815368652, 0.2182570993900299, 0.2211904376745224, 0.22380386292934418, 0.2185697853565216, 0.2191186249256134]","[0.053749925081322765, -1.5170464017135739, 0.053749925081322765, 0.053749925081322765, 0.053749925081322765, 0.053749925081322765]","[0.053749925081322765, -1.5170464017135739, 0.053749925081322765, 0.053749925081322765, 0.053749925081322765, 0.053749925081322765]",0.002,7,1
0,124,"[0.02946610376238823, -1.5411272191307326, 0.029557530079976857, 0.029516978854797316, 0.02967006340622902, 0.029664861038327217]","[0.21975159645080566, 0.21848323941230774, 0.22194863855838776, 0.22423699498176575, 0.2188681960105896, 0.2179001271724701]","[0.05418338680192879, -1.5166129399929678, 0.05418338680192879, 0.05418338680192879, 0.05418338680192879, 0.05418338680192879]","[0.05418338680192879, -1.5166129399929678, 0.05418338680192879, 0.05418338680192879, 0.05418338680192879, 0.05418338680192879]",0.002,7,1
0,125,"[0.029904581606388092, -1.540642588665225, 0.0299761931048792, 0.029967351550720167, 0.030154088512063026, 0.030117187649011612]","[0.22068838775157928, 0.2191278487443924, 0.22387000918388367, 0.22469045221805573, 0.2187071293592453, 0.21773216128349304]","[0.05461676292533576, -1.5161795638695608, 0.05461676292533576, 0.05461676292533576, 0.05461676292533576, 0.05461676292533576]","[0.05461676292533576, -1.5161795638695608, 0.05461676292533576, 0.05461676292533576, 0.05461676292533576, 0.05461676292533576]",0.002,7,1
0,126,"[0.03033134900033474, -1.5402532902411004, 0.030404392872945607, 0.030392690295837355, 0.030548688024282455, 0.03056984767317772]","[0.22133398056030273, 0.22109435498714447, 0.22257952392101288, 0.22461892664432526, 0.2194821983575821, 0.2195625901222229]","[0.0550500527669098, -1.5157462740279868, 0.0550500527669098, 0.0550500527669098, 0.0550500527669098, 0.0550500527669098]","[0.0550500527669098, -1.5157462740279868, 0.0550500527669098, 0.0550500527669098, 0.0550500527669098, 0.0550500527669098]",0.002,7,1
0,127,"[0.030767031013965607, -1.539747766484954, 0.030906502400533498, 0.030834837550781202, 0.031059179455041885, 0.031009292230010033]","[0.22093647718429565, 0.21996241807937622, 0.2237170785665512, 0.2245790660381317, 0.22091203927993774, 0.22122560441493988]","[0.05548325564215335, -1.5153130711527432, 0.05548325564215335, 0.05548325564215335, 0.05548325564215335, 0.05548325564215335]","[0.05548325564215335, -1.5153130711527432, 0.05548325564215335, 0.05548325564215335, 0.05548325564215335, 0.05548325564215335]",0.002,7,1
0,128,"[0.03127119317650795, -1.5392905932715912, 0.03128034273256475, 0.0312846142002563, 0.031482353806495667, 0.03145627677440643]","[0.22248633205890656, 0.21814283728599548, 0.22313082218170166, 0.22474347054958344, 0.2201979160308838, 0.22100980579853058]","[0.05591637086670621, -1.5148799559281902, 0.05591637086670621, 0.05591637086670621, 0.05591637086670621, 0.05591637086670621]","[0.05591637086670621, -1.5148799559281902, 0.05591637086670621, 0.05591637086670621, 0.05591637086670621, 0.05591637086670621]",0.002,7,1
0,129,"[0.031618647277355194, -1.5388764303973694, 0.03178531328310186, 0.031738801593444776, 0.031931109726428986, 0.03188787400722504]","[0.22367875277996063, 0.22135481238365173, 0.2218008190393448, 0.22547702491283417, 0.21798256039619446, 0.21931509673595428]","[0.05634939775634666, -1.5144469290385498, 0.05634939775634666, 0.05634939775634666, 0.05634939775634666, 0.05634939775634666]","[0.05634939775634666, -1.5144469290385498, 0.05634939775634666, 0.05634939775634666, 0.05634939775634666, 0.05634939775634666]",0.002,7,1
0,130,"[0.032142557203769684, -1.538450838332512, 0.032270256672994435, 0.03221814214672847, 0.03229737654328346, 0.03235291317105293]","[0.2245529145002365, 0.22155633568763733, 0.22300218045711517, 0.22593697905540466, 0.2196400910615921, 0.21949763596057892]","[0.05678233562699254, -1.514013991167904, 0.05678233562699254, 0.05678233562699254, 0.05678233562699254, 0.05678233562699254]","[0.05678233562699254, -1.514013991167904, 0.05678233562699254, 0.05678233562699254, 0.05678233562699254, 0.05678233562699254]",0.002,7,1
0,131,"[0.03252727538347244, -1.5379788291505356, 0.03264791170229131, 0.032690926189086866, 0.03273247182369232, 0.03278881311416626]","[0.22297854721546173, 0.21980802714824677, 0.22205203771591187, 0.2267947793006897, 0.2200779914855957, 0.21940003335475922]","[0.057215183794702286, -1.5135811430001942, 0.057215183794702286, 0.057215183794702286, 0.057215183794702286, 0.057215183794702286]","[0.057215183794702286, -1.5135811430001942, 0.057215183794702286, 0.057215183794702286, 0.057215183794702286, 0.057215183794702286]",0.002,7,1
0,132,"[0.032963886857032776, -1.5375917491367836, 0.03313333192934209, 0.033145590419433546, 0.03318559005856514, 0.03324761241674423]","[0.2237788438796997, 0.21973805129528046, 0.22243677079677582, 0.2255668044090271, 0.2191591113805771, 0.2201540172100067]","[0.05764794157567609, -1.5131483852192205, 0.05764794157567609, 0.05764794157567609, 0.05764794157567609, 0.05764794157567609]","[0.05764794157567609, -1.5131483852192205, 0.05764794157567609, 0.05764794157567609, 0.05764794157567609, 0.05764794157567609]",0.002,7,1
0,133,"[0.033451952040195465, -1.5371481043151398, 0.033573452626363576, 0.03360228120770259, 0.033624984323978424, 0.0336647629737854]","[0.224397212266922, 0.22137153148651123, 0.22289884090423584, 0.2241283804178238, 0.2215110808610916, 0.21987532079219818]","[0.058080608286256906, -1.5127157185086397, 0.058080608286256906, 0.058080608286256906, 0.058080608286256906, 0.058080608286256906]","[0.058080608286256906, -1.5127157185086397, 0.058080608286256906, 0.058080608286256906, 0.058080608286256906, 0.058080608286256906]",0.002,7,1
0,134,"[0.03391421213746071, -1.536618897025921, 0.03399211565126592, 0.034013434047363234, 0.03412047028541565, 0.03412338346242905]","[0.22533729672431946, 0.22166146337985992, 0.22245080769062042, 0.2241840362548828, 0.22223153710365295, 0.2199864387512207]","[0.058513183242931546, -1.512283143551965, 0.058513183242931546, 0.058513183242931546, 0.058513183242931546, 0.058513183242931546]","[0.058513183242931546, -1.512283143551965, 0.058513183242931546, 0.058513183242931546, 0.058513183242931546, 0.058513183242931546]",0.002,7,1
