Arnibjarnst/BoxLift/logs/ur_rtde/trajectory_dur=7.5_delay=0.2_gain=200_lh=0.1_real.csv
arm_idx,step,actual_q,actual_qd,target_q,expected_q,loop_time,robot_mode,safety_mode
0,-1,"[0.02206776663661003, -1.5487621662071724, 0.022096935902730763, 0.022213740939758253, 0.022164063528180122, 0.022113021463155746]","[-0.03609218820929527, -0.035743873566389084, -0.03597992658615112, -0.033109746873378754, -0.03142800182104111, -0.03141264244914055]","[0.0, -1.5707963267948966, 0.0, 0.0, 0.0, 0.0]","[0.0, -1.5707963267948966, 0.0, 0.0, 0.0, 0.0]",0.002,7,1
0,-1,"[0.021397095173597336, -1.5495104764452954, 0.021387402211324513, 0.021550341243408155, 0.02152916043996811, 0.021438181400299072]","[-0.04989328980445862, -0.05192727968096733, -0.049835626035928726, -0.050595723092556, -0.04816005751490593, -0.04652559012174606]","[0.0, -1.5707963267948966, 0.0, 0.0, 0.0, 0.0]","[0.0, -1.5707963267948966, 0.0, 0.0, 0.0, 0.0]",0.002,7,1
0,-1,"[0.020346537232398987, -1.5506145165166636, 0.020339314137594044, 0.020522876376769972, 0.020565710961818695, 0.020418792963027954]","[-0.0661902204155922, -0.06804702430963516, -0.06594350188970566, -0.06863634288311005, -0.06535667926073074, -0.06586901843547821]","[0.0, -1.5707963267948966, 0.0, 0.0, 0.0, 0.0]","[0.0, -1.5707963267948966, 0.0, 0.0, 0.0, 0.0]",0.002,7,1
0,-1,"[0.01945933699607849, -1.551466343258955, 0.019433323537008107, 0.0196576553532104, 0.019644150510430336, 0.019628535956144333]","[-0.0766148790717125, -0.07938046753406525, -0.07693497836589813, -0.08118618279695511, -0.0787142738699913, -0.0770765170454979]","[0.0, -1.5707963267948966, 0.0, 0.0, 0.0, 0.0]","[0.0, -1.5707963267948966, 0.0, 0.0, 0.0, 0.0]",0.002,7,1
0,-1,"[0.01857178658246994, -1.5523479797742148, 0.018597904835836232, 0.0187726455875854, 0.018804261460900307, 0.018700793385505676]","[-0.08857116848230362, -0.08603742718696594, -0.0881938636302948, -0.09167501330375671, -0.09089528769254684, -0.09060898423194885]","[0.0, -1.5707963267948966, 0.0, 0.0, 0.0, 0.0]","[0.0, -1.5707963267948966, 0.0, 0.0, 0.0, 0.0]",0.002,7,1
0,-1,"[0.017506040632724762, -1.553451857795455, 0.017442051564351857, 0.01758055269207759, 0.017568621784448624, 0.017471319064497948]","[-0.09978355467319489, -0.09706225246191025, -0.09944099187850952, -0.10186755657196045, -0.10363051295280457, -0.10238625109195709]","[0.0, -1.5707963267948966, 0.0, 0.0, 0.0, 0.0]","[0.0, -1.5707963267948966, 0.0, 0.0, 0.0, 0.0]",0.002,7,1
0,-1,"[0.015737520530819893, -1.5551525608501215, 0.015790287648336232, 0.015869064921997023, 0.015844760462641716, 0.015775835141539574]","[-0.11592842638492584, -0.11352914571762085, -0.11593631654977798, -0.1169457882642746, -0.11681758612394333, -0.11662925034761429]","[0.0, -1.5707963267948966, 0.0, 0.0, 0.0, 0.0]","[0.0, -1.5707963267948966, 0.0, 0.0, 0.0, 0.0]",0.002,7,1
0,-1,"[0.011113954707980156, -1.5594958190670987, 0.011177841817037404, 0.011170311565063429, 0.011277947574853897, 0.011245431378483772]","[-0.1504942923784256, -0.14618328213691711, -0.1491641402244568, -0.14894072711467743, -0.15147139132022858, -0.15142346918582916]","[0.0, -1.5707963267948966, 0.0, 0.0, 0.0, 0.0]","[0.0, -1.5707963267948966, 0.0, 0.0, 0.0, 0.0]",0.002,7,1
0,-1,"[0.009075745940208435, -1.561391899628081, 0.009319607411519826, 0.009182735080383253, 0.009367411024868488, 0.009262335486710072]","[-0.1341572105884552, -0.11828812211751938, -0.13010209798812866, -0.13342410326004028, -0.13624465465545654, -0.13521447777748108]","[0.0, -1.5707963267948966, 0.0, 0.0, 0.0, 0.0]","[0.0, -1.5707963267948966, 0.0, 0.0, 0.0, 0.0]",0.002,7,1
0,-1,"[0.0071548158302903175, -1.5634796878187736, 0.00721151033510381, 0.007127924556396437, 0.007233856245875359, 0.00721448240801692]","[-0.11606422066688538, -0.126862034201622, -0.12088613957166672, -0.11807406693696976, -0.12134528160095215, -0.12286444008350372]","[0.0, -1.5707963267948966, 0.0, 0.0, 0.0, 0.0]","[0.0, -1.5707963267948966, 0.0, 0.0, 0.0, 0.0]",0.002,7,1
0,-1,"[0.005995234474539757, -1.564587964942195, 0.006029907857076466, 0.005939646358154249, 0.006087379530072212, 0.006121031474322081]","[-0.10851474851369858, -0.11263172328472137, -0.11144424974918365, -0.10978062450885773, -0.10810526460409164, -0.1111745536327362]","[0.0, -1.5707963267948966, 0.0, 0.0, 0.0, 0.0]","[0.0, -1.5707963267948966, 0.0, 0.0, 0.0, 0.0]",0.002,7,1
0,-1,"[0.0045629567466676235, -1.5659816593727847, 0.004592720662252248, 0.004533691997192335, 0.004693412687629461, 0.004689845256507397]","[-0.09977193176746368, -0.0970170721411705, -0.09723406285047531, -0.0944768488407135, -0.09754122048616409, -0.09760750085115433]","[0.0, -1.5707963267948966, 0.0, 0.0, 0.0, 0.0]","[0.0, -1.5707963267948966, 0.0, 0.0, 0.0, 0.0]",0.002,7,1
0,-1,"[0.002235654043033719, -1.5683485237280657, 0.0022843519793909195, 0.0022565561481933116, 0.00230522477068007, 0.0023273054976016283]","[-0.07108459621667862, -0.07348163425922394, -0.06976703554391861, -0.06658817827701569, -0.071198470890522, -0.06803110986948013]","[0.0, -1.5707963267948966, 0.0, 0.0, 0.0, 0.0]","[0.0, -1.5707963267948966, 0.0, 0.0, 0.0, 0.0]",0.002,7,1
0,-1,"[0.001408700947649777, -1.5692932230052357, 0.0014236609088342789, 0.0013835865208129405, 0.0014701014151796699, 0.00144704629201442]","[-0.05407355725765228, -0.059484463185071945, -0.05408724769949913, -0.052601780742406845, -0.05523147061467171, -0.05459640547633171]","[0.0, -1.5707963267948966, 0.0, 0.0, 0.0, 0.0]","[0.0, -1.5707963267948966, 0.0, 0.0, 0.0, 0.0]",0.002,7,1
0,-1,"[0.0009810811607167125, -1.5697118883584444, 0.0010078589068811539, 0.0010408598133544444, 0.0010116586927324533, 0.0011094094952568412]","[-0.04659060761332512, -0.050495922565460205, -0.045890167355537415, -0.04618353769183159, -0.04696878418326378, -0.04842323064804077]","[0.0, -1.5707963267948966, 0.0, 0.0, 0.0, 0.0]","[0.0, -1.5707963267948966, 0.0, 0.0, 0.0, 0.0]",0.002,7,1
0,-1,"[0.0006102744373492897, -1.5702039090432045, 0.0006259123431604507, 0.0006387668796996593, 0.00060018349904567, 0.0006481411401182413]","[-0.03606278821825981, -0.040186941623687744, -0.038117799907922745, -0.03724426403641701, -0.03710481524467468, -0.0357741080224514]","[0.0, -1.5707963267948966, 0.0, 0.0, 0.0, 0.0]","[0.0, -1.5707963267948966, 0.0, 0.0, 0.0, 0.0]",0.002,7,1
0,-1,"[0.00011181397712789476, -1.5707980595030726, -1.922476258187089e-05, 8.086740460200303e-05, 0.00011128331971121952, 9.918212890625e-05]","[-0.013167867437005043, -0.015263638459146023, -0.013596398755908012, -0.013064919039607048, -0.01263713464140892, -0.012920242734253407]","[0.0, -1.5707963267948966, 0.0, 0.0, 0.0, 0.0]","[0.0, -1.5707963267948966, 0.0, 0.0, 0.0, 0.0]",0.002,7,1
0,-1,"[1.014888403005898e-05, -1.5709101162352503, -5.94031826040009e-06, 8.086740460200303e-05, 7.528638525400311e-05, 8.727908425498754e-05]","[0.009046277031302452, 0.008701411075890064, 0.008101413026452065, 0.008835888467729092, 0.007868423126637936, 0.0062905531376600266]","[0.0, -1.5707963267948966, 0.0, 0.0, 0.0, 0.0]","[0.0, -1.5707963267948966, 0.0, 0.0, 0.0, 0.0]",0.002,7,1
0,-1,"[7.025075319688767e-05, -1.5708252392210902, 1.794496645146637e-05, 0.00011341154064936632, 0.00010682012361939996, 0.0001245495368493721]","[0.00010187422594754025, 0.009786087088286877, 0.0016410870011895895, -0.0005215017590671778, 0.00048735408927313983, 0.00012156705633969977]","[0.0, -1.5707963267948966, 0.0, 0.0, 0.0, 0.0]","[0.0, -1.5707963267948966, 0.0, 0.0, 0.0, 0.0]",0.002,7,1
0,-1,"[0.00011607313354033977, -1.5707590433997503, 5.8476124898731996e-05, 6.4535731933546e-05, 2.925823355326429e-05, 4.229242040310055e-05]","[0.0002999207645189017, 0.002402401762083173, 0.002002246677875519, -1.5180976333795115e-06, -0.00020961658447049558, 1.1780823712392863e-11]","[0.0, -1.5707963267948966, 0.0, 0.0, 0.0, 0.0]","[0.0, -1.5707963267948966, 0.0, 0.0, 0.0, 0.0]",0.002,7,1
0,-1,"[8.339893247466534e-05, -1.5707228821596182, -1.1746644304366782e-05, 5.273401226801866e-05, 5.435943603515625e-05, 5.8734418416861445e-05]","[0.000179730704985559, 0.0004246608295943588, 0.00028484215727075934, -0.0005035460344515741, -0.0005694686551578343, -0.0005968874902464449]","[0.0, -1.5707963267948966, 0.0, 0.0, 0.0, 0.0]","[0.0, -1.5707963267948966, 0.0, 0.0, 0.0, 0.0]",0.002,7,1
0,-1,"[8.220157906180248e-05, -1.5707710714726382, 5.8476124898731996e-05, 3.091871228022569e-05, 5.007111030863598e-05, 8.10558776720427e-05]","[-2.7030637284042314e-07, -0.0003547416999936104, -7.28141312720254e-05, -0.0001644504809519276, -0.0006199883064255118, -0.0006043828325346112]","[0.0, -1.5707963267948966, 0.0, 0.0, 0.0, 0.0]","[0.0, -1.5707963267948966, 0.0, 0.0, 0.0, 0.0]",0.002,7,1
0,-1,"[5.8048361097462475e-05, -1.570848127404684, 8.885060445606996e-06, 1.5779132507276472e-05, 1.1541851563379169e-06, 3.935698259738274e-05]","[-5.107157299069157e-26, -0.0004764352925121784, -1.141600626970439e-22, -0.0007635123911313713, -0.0007016098825260997, -0.0009521254105493426]","[0.0, -1.5707963267948966, 0.0, 0.0, 0.0, 0.0]","[0.0, -1.5707963267948966, 0.0, 0.0, 0.0, 0.0]",0.002,7,1
0,-1,"[6.685408152407035e-05, -1.5707534393116767, 4.1309987203419496e-05, 2.018987622065538e-05, 1.4070075849303976e-05, 4.3886662751901895e-05]","[-3.995815182708395e-39, -6.175892485771328e-05, -8.931827803365254e-36, -0.0004323671746533364, -0.000842875859234482, -0.0007586915162391961]","[0.0, -1.5707963267948966, 0.0, 0.0, 0.0, 0.0]","[0.0, -1.5707963267948966, 0.0, 0.0, 0.0, 0.0]",0.002,7,1
0,-1,"[6.246566772460938e-05, -1.5707873560453045, 2.080598940068512e-05, 4.403173413081163e-05, 9.80945878836792e-06, -7.788287561538709e-07]","[0.0, -9.735004719935245e-16, -0.0, -0.0007335595437325537, -0.0007583080441690981, -0.0009430430945940316]","[0.0, -1.5707963267948966, 0.0, 0.0, 0.0, 0.0]","[0.0, -1.5707963267948966, 0.0, 0.0, 0.0, 0.0]",0.002,7,1
0,-1,"[5.4941374401096255e-05, -1.5707755054284753, 2.843538393193512e-05, -3.369272265629775e-05, 6.420135832740925e-06, 4.3871765228686854e-05]","[0.0, -1.370966130926175e-32, -0.0, -0.0005944130825810134, -0.0004614845383912325, -0.000515617779456079]","[0.0, -1.5707963267948966, 0.0, 0.0, 0.0, 0.0]","[0.0, -1.5707963267948966, 0.0, 0.0, 0.0, 0.0]",0.002,7,1
0,-1,"[6.247455894481391e-05, -1.570810934106344, 1.2222920553028871e-05, -1.1485866089344654e-06, 1.4061191905057058e-05, 3.3468188576080138e-06]","[-0.0001329067163169384, 4.777146398313317e-19, -0.0, -0.00033983317553065717, -0.0002802788803819567, -0.00023750282707624137]","[0.0, -1.5707963267948966, 0.0, 0.0, 0.0, 0.0]","[0.0, -1.5707963267948966, 0.0, 0.0, 0.0, 0.0]",0.002,7,1
0,-1,"[6.246566772460938e-05, -1.5708352528014125, 4.941621889287262e-05, 4.522382702631944e-05, 2.5970424758270383e-05, -1.794496645146637e-05]","[-0.00010750546061899513, 5.014493596714794e-34, -0.0, -0.0002522824506741017, -0.00021371853654272854, -0.00020444538677111268]","[0.0, -1.5707963267948966, 0.0, 0.0, 0.0, 0.0]","[0.0, -1.5707963267948966, 0.0, 0.0, 0.0, 0.0]",0.002,7,1
0,-1,"[9.16202407097444e-06, -1.5707722829632367, 8.885060445606996e-06, 6.58470341186046e-05, -1.7468129293263246e-05, 1.0773594112833962e-05]","[-0.00020038387447129935, 6.725742423441261e-05, -0.0, -0.00016403065819758922, -0.0001431412238162011, -0.0001508170535089448]","[0.0, -1.5707963267948966, 0.0, 0.0, 0.0, 0.0]","[0.0, -1.5707963267948966, 0.0, 0.0, 0.0, 0.0]",0.002,7,1
0,-1,"[9.096624125959352e-06, -1.5707666527017246, 3.0199159795074593e-07, -1.306951556401259e-05, -5.132356752568512e-05, -1.3653432027638246e-05]","[-0.0002913939533755183, 2.5028266463777982e-05, -0.0, -0.00014873224426992238, -0.00013330185902304947, -0.0001246987230842933]","[0.0, -1.5707963267948966, 0.0, 0.0, 0.0, 0.0]","[0.0, -1.5707963267948966, 0.0, 0.0, 0.0, 0.0]",0.002,7,1
0,-1,"[6.246566772460938e-05, -1.570777356510309, 1.2222920553028871e-05, -4.248028137254778e-06, -1.0315571920216371e-05, 7.903253390395548e-06]","[-0.00025182144599966705, 1.6212375886226482e-10, -0.0, -0.00013233489880803972, -0.00011997440014965832, -7.600325625389814e-05]","[0.0, -1.5707963267948966, 0.0, 0.0, 0.0, 0.0]","[0.0, -1.5707963267948966, 0.0, 0.0, 0.0, 0.0]",0.002,7,1
0,-1,"[9.965038043446839e-05, -1.570810934106344, 1.6514454976856996e-05, -1.6168957092332903e-05, -2.9865895406544496e-05, -2.9865895406544496e-05]","[-0.00021223098156042397, 5.252619223588265e-18, -0.0, -0.0001232719951076433, -0.00011247745715081692, -7.118886423995718e-05]","[0.0, -1.5707963267948966, 0.0, 0.0, 0.0, 0.0]","[0.0, -1.5707963267948966, 0.0, 0.0, 0.0, 0.0]",0.002,7,1
0,-1,"[3.412198930163868e-05, -1.5707458036743738, 1.6514454976856996e-05, 3.34221073607921e-05, 6.369221955537796e-05, -4.178682436162262e-05]","[-0.0002003494737436995, 3.063161182965964e-29, -0.0, -0.00018491265655029565, -0.00010283833398716524, -7.801347965141758e-05]","[0.0, -1.5707963267948966, 0.0, 0.0, 0.0, 0.0]","[0.0, -1.5707963267948966, 0.0, 0.0, 0.0, 0.0]",0.002,7,1
0,-1,"[1.4390943761100061e-06, -1.5707755054284753, 7.468858827763825e-05, 1.637517895503038e-05, -5.418459047490387e-05, -2.2236500875294496e-05]","[-0.0007912141736596823, -4.609010284184478e-05, -0.0, -6.0462050896603614e-05, -8.998566772788763e-05, -6.817073153797537e-05]","[0.0, -1.5707963267948966, 0.0, 0.0, 0.0, 0.0]","[0.0, -1.5707963267948966, 0.0, 0.0, 0.0, 0.0]",0.002,7,1
0,-1,"[7.118749635992572e-05, -1.570754550757858, 1.6514454976856996e-05, 1.6271557612412835e-07, -1.732503072560121e-06, 3.163814471918158e-05]","[-0.0005830011214129627, -8.18100998059298e-31, -0.0, -3.115379877272062e-05, -5.657724955199228e-09, -3.834591666418419e-08]","[0.0, -1.5707963267948966, 0.0, 0.0, 0.0, 0.0]","[0.0, -1.5707963267948966, 0.0, 0.0, 0.0, 0.0]",0.002,7,1
0,-1,"[3.530550020514056e-05, -1.5707501729778706, 5.3707753316700746e-05, -1.6168957092332903e-05, -1.4607106344044496e-05, -3.4634266988575746e-05]","[0.0004504090757109225, -0.0001589884195709601, -0.0, -2.7364414563635364e-05, -1.0282645232246451e-13, -6.969185970505387e-13]","[0.0, -1.5707963267948966, 0.0, 0.0, 0.0, 0.0]","[0.0, -1.5707963267948966, 0.0, 0.0, 0.0, 0.0]",0.002,7,1
0,-1,"[1.016092392092105e-05, -1.5707829517180762, -8.58306884765625e-06, 3.34221073607921e-05, 1.407316085533239e-05, -3.892580141240387e-05]","[1.0598504296410738e-09, -0.0001932300947373733, -0.0, -2.2010322936694138e-05, -3.3964942699706214e-23, -2.302015270986037e-22]","[0.0, -1.5707963267948966, 0.0, 0.0, 0.0, 0.0]","[0.0, -1.5707963267948966, 0.0, 0.0, 0.0, 0.0]",0.002,7,1
0,-1,"[1.3942881196271628e-06, -1.5707293863564082, 1.6514454976856996e-05, 3.262157104444441e-06, -2.6051198140919496e-05, -8.885060445606996e-06]","[1.4925718253687974e-26, -0.00010101691441377625, -0.0, -3.6058125260751694e-05, -5.1860955863958225e-05, -4.96478120593455e-33]","[0.0, -1.5707963267948966, 0.0, 0.0, 0.0, 0.0]","[0.0, -1.5707963267948966, 0.0, 0.0, 0.0, 0.0]",0.002,7,1
0,-1,"[8.863114635460079e-05, -1.570791750886503, 8.885060445606996e-06, -2.4990444519090715e-05, 1.0888100405281875e-05, -2.9865895406544496e-05]","[8.743307152621172e-22, -2.26296804457279e-23, -0.0, -2.8173240934847854e-05, -3.5384632626703436e-17, -0.0]","[0.0, -1.5707963267948966, 0.0, 0.0, 0.0, 0.0]","[0.0, -1.5707963267948966, 0.0, 0.0, 0.0, 0.0]",0.002,7,1
0,-1,"[3.8504600524902344e-05, -1.5707829959540796, 2.080598940068512e-05, 3.771364178462022e-05, 4.3289182940497994e-05, -2.9865895406544496e-05]","[1.6519627336232403e-40, -4.275361614655017e-42, -0.0, -3.6540597648127005e-05, -4.982787618830531e-29, -0.0]","[0.0, -1.5707963267948966, 0.0, 0.0, 0.0, 0.0]","[0.0, -1.5707963267948966, 0.0, 0.0, 0.0, 0.0]",0.002,7,1
0,-1,"[6.798839604016393e-05, -1.5707501729778706, -2.8074264264432713e-05, -1.1758213378953997e-05, -7.516542543584137e-05, -3.4634266988575746e-05]","[0.0, 0.0, -0.0, -3.422470763325691e-05, -5.9129076282477e-35, -0.0]","[0.0, -1.5707963267948966, 0.0, 0.0, 0.0, 0.0]","[0.0, -1.5707963267948966, 0.0, 0.0, 0.0, 0.0]",0.002,7,1
0,-1,"[3.530550020514056e-05, -1.5708362064757289, 4.941621889287262e-05, -1.604974780278212e-05, 2.2637845177087e-05, 2.8848648071289062e-05]","[0.0, 0.0, -0.0, -3.218489291612059e-05, -7.016721800413657e-41, -0.0]","[0.0, -1.5707963267948966, 0.0, 0.0, 0.0, 0.0]","[0.0, -1.5707963267948966, 0.0, 0.0, 0.0, 0.0]",0.002,7,1
0,-1,"[-1.0315571920216371e-05, -1.570778564815857, 2.080598940068512e-05, 3.771364178462022e-05, -1.0315571920216371e-05, 4.068898851983249e-05]","[0.0, 0.0, -0.0, -3.25388000987914e-08, -0.0, -0.0]","[0.0, -1.5707963267948966, 0.0, 0.0, 0.0, 0.0]","[0.0, -1.5707963267948966, 0.0, 0.0, 0.0, 0.0]",0.002,7,1
0,-1,"[2.658367156982422e-05, -1.5707381713730975, 4.593526021778871e-06, 4.573459289503035e-06, -7.135072817021637e-05, 1.2433050869731233e-05]","[0.0, 0.0, -0.0, -8.327644658630215e-25, -0.0, -0.0]","[0.0, -1.5707963267948966, 0.0, 0.0, 0.0, 0.0]","[0.0, -1.5707963267948966, 0.0, 0.0, 0.0, 0.0]",0.002,7,1
0,-1,"[2.6226043701171875e-06, -1.57081999401235, 5.3707753316700746e-05, 3.3302898071241316e-05, 2.714770562306512e-05, -8.885060445606996e-06]","[0.0, 0.0, -0.0, -1.7960315336296048e-35, -0.0, -0.0]","[0.0, -1.5707963267948966, 0.0, 0.0, 0.0, 0.0]","[0.0, -1.5707963267948966, 0.0, 0.0, 0.0, 0.0]",0.002,7,1
0,-1,"[5.054473876953125e-05, -1.570766643886902, 3.0199159795074593e-07, -3.0559352417469654e-06, 5.1848408475052565e-05, 1.2451278962544166e-05]","[0.0, 0.0, -0.0, -2.1312348343916143e-41, -0.0, -0.0]","[0.0, -1.5707963267948966, 0.0, 0.0, 0.0, 0.0]","[0.0, -1.5707963267948966, 0.0, 0.0, 0.0, 0.0]",0.002,7,1
0,-1,"[3.527943044900894e-05, -1.5708066425719203, -8.58306884765625e-06, -8.658771850633684e-06, -1.7468129293263246e-05, -2.9865895406544496e-05]","[0.0, 0.0, -0.0, -0.0, -0.0, -0.0]","[0.0, -1.5707963267948966, 0.0, 0.0, 0.0, 0.0]","[0.0, -1.5707963267948966, 0.0, 0.0, 0.0, 0.0]",0.002,7,1
0,1,"[9.962423064280301e-05, -1.5705151551849958, 0.00018388429750615387, 9.409963574213975e-05, 0.00016083827358670533, 0.00010823631600942463]","[0.044293250888586044, 0.2082412838935852, 0.14474721252918243, 0.07544451951980591, 0.06020427867770195, 0.06586550921201706]","[0.05879002119914294, -1.5120063055957536, 0.05879002119914294, 0.05879002119914294, 0.05879002119914294, 0.05879002119914294]","[0.05879002119914294, -1.5120063055957536, 0.05879002119914294, 0.05879002119914294, 0.05879002119914294, 0.05879002119914294]",0.002,7,1
0,2,"[9.962423064280301e-05, -1.5705151551849958, 0.00018388429750615387, 9.409963574213975e-05, 0.00016083827358670533, 0.00010823631600942463]","[0.044293250888586044, 0.2082412838935852, 0.14474721252918243, 0.07544451951980591, 0.06020427867770195, 0.06586550921201706]","[0.05936660287344685, -1.5114297239214498, 0.05936660287344685, 0.05936660287344685, 0.05936660287344685, 0.05936660287344685]","[0.05936660287344685, -1.5114297239214498, 0.05936660287344685, 0.05936660287344685, 0.05936660287344685, 0.05936660287344685]",0.002,7,1
0,3,"[0.0001771087700035423, -1.5701962047936213, 0.00035363832582646637, 0.0002875763126830577, 0.0003206198161933571, 0.00033161044120788574]","[0.05648024380207062, 0.257009357213974, 0.17387115955352783, 0.11622823774814606, 0.09770993143320084, 0.10262756794691086]","[0.05994301779578886, -1.5108533089991076, 0.05994301779578886, 0.05994301779578886, 0.05994301779578886, 0.05994301779578886]","[0.05994301779578886, -1.5108533089991076, 0.05994301779578886, 0.05994301779578886, 0.05994301779578886, 0.05994301779578886]",0.002,7,1
0,4,"[0.0003344833676237613, -1.5697708946284656, 0.0006912390338342789, 0.00041894494976801866, 0.000591074232943356, 0.0005473975907079875]","[0.07086873054504395, 0.263237863779068, 0.16782402992248535, 0.12529689073562622, 0.11695545166730881, 0.11939126998186111]","[0.06051926434710513, -1.5102770624477915, 0.06051926434710513, 0.06051926434710513, 0.06051926434710513, 0.06051926434710513]","[0.06051926434710513, -1.5102770624477915, 0.06051926434710513, 0.06051926434710513, 0.06051926434710513, 0.06051926434710513]",0.002,7,1
0,5,"[0.0004966756096109748, -1.5692808394417916, 0.0010517279254358414, 0.000648184413574171, 0.000839662563521415, 0.0007542544626630843]","[0.0997936949133873, 0.24507664144039154, 0.17671333253383636, 0.12486550956964493, 0.12687985599040985, 0.12925878167152405]","[0.06109534090880478, -1.5097009858860917, 0.06109534090880478, 0.06109534090880478, 0.06109534090880478, 0.06109534090880478]","[0.06109534090880478, -1.5097009858860917, 0.06109534090880478, 0.06109534090880478, 0.06109534090880478, 0.06109534090880478]",0.002,7,1
0,6,"[0.0008755666203796864, -1.56875413612973, 0.0015838781939905289, 0.0009043651768187999, 0.0010156937642022967, 0.001048186793923378]","[0.12285397946834564, 0.24809874594211578, 0.19437436759471893, 0.13535991311073303, 0.14101703464984894, 0.1412176489830017]","[0.061671245862774365, -1.5091250809321222, 0.061671245862774365, 0.061671245862774365, 0.061671245862774365, 0.061671245862774365]","[0.061671245862774365, -1.5091250809321222, 0.061671245862774365, 0.061671245862774365, 0.061671245862774365, 0.061671245862774365]",0.002,7,1
0,7,"[0.0012192969443276525, -1.568309851722308, 0.0020635763751428726, 0.0013703542896728038, 0.0012516241986304522, 0.0013883411884307861]","[0.1537109911441803, 0.2542639970779419, 0.21026477217674255, 0.15772892534732819, 0.1569979041814804, 0.15759900212287903]","[0.06224697759138249, -1.508549349203514, 0.06224697759138249, 0.06224697759138249, 0.06224697759138249, 0.06224697759138249]","[0.06224697759138249, -1.508549349203514, 0.06224697759138249, 0.06224697759138249, 0.06224697759138249, 0.06224697759138249]",0.002,7,1
0,8,"[0.0018038973212242126, -1.5679284865367045, 0.0025523344623010757, 0.0019523340412597179, 0.001544533995911479, 0.0017288780072703958]","[0.19121643900871277, 0.2285073846578598, 0.20536017417907715, 0.1814275085926056, 0.17331719398498535, 0.17543479800224304]","[0.06282253447748433, -1.5079737923174121, 0.06282253447748433, 0.06282253447748433, 0.06282253447748433, 0.06282253447748433]","[0.06282253447748433, -1.5079737923174121, 0.06282253447748433, 0.06282253447748433, 0.06282253447748433, 0.06282253447748433]",0.002,7,1
0,9,"[0.0021931759547442198, -1.5676568977399548, 0.00283223787416631, 0.0023771959492187023, 0.001940485555678606, 0.0020784568041563034]","[0.2176603227853775, 0.18260793387889862, 0.1732923686504364, 0.2073557823896408, 0.1867476999759674, 0.19076243042945862]","[0.06339791490442616, -1.5073984118904704, 0.06339791490442616, 0.06339791490442616, 0.06339791490442616, 0.06339791490442616]","[0.06339791490442616, -1.5073984118904704, 0.06339791490442616, 0.06339791490442616, 0.06339791490442616, 0.06339791490442616]",0.002,7,1
0,10,"[0.002536988817155361, -1.567398483199515, 0.0030244032489221695, 0.0027149158665160655, 0.002348728245124221, 0.0025070381816476583]","[0.2258153110742569, 0.15273655951023102, 0.1850631684064865, 0.22575260698795319, 0.20180615782737732, 0.20910511910915375]","[0.06397311725604987, -1.5068232095388467, 0.06397311725604987, 0.06397311725604987, 0.06397311725604987, 0.06397311725604987]","[0.06397311725604987, -1.5068232095388467, 0.06397311725604987, 0.06397311725604987, 0.06397311725604987, 0.06397311725604987]",0.002,7,1
0,11,"[0.002940720645710826, -1.5671181420660396, 0.003236118947164357, 0.0029875475117187023, 0.002887287177145481, 0.002962589031085372]","[0.23248137533664703, 0.1348540186882019, 0.20515809953212738, 0.2264500856399536, 0.22208543121814728, 0.2227158546447754]","[0.0645481399166976, -1.506248186878199, 0.0645481399166976, 0.0645481399166976, 0.0645481399166976, 0.0645481399166976]","[0.0645481399166976, -1.506248186878199, 0.0645481399166976, 0.0645481399166976, 0.0645481399166976, 0.0645481399166976]",0.002,7,1
0,12,"[0.0033128196373581886, -1.5668485162644465, 0.003701035176412404, 0.0033079820820312023, 0.0034585229586809874, 0.0034138604532927275]","[0.24291683733463287, 0.1685119867324829, 0.20965731143951416, 0.21998697519302368, 0.2456570416688919, 0.23583300411701202]","[0.06512298127121614, -1.5056733455236804, 0.06512298127121614, 0.06512298127121614, 0.06512298127121614, 0.06512298127121614]","[0.06512298127121614, -1.5056733455236804, 0.06512298127121614, 0.06512298127121614, 0.06512298127121614, 0.06512298127121614]",0.002,7,1
0,13,"[0.003896306501701474, -1.5665038049085815, 0.004191223775045216, 0.0036839681812743663, 0.003977061249315739, 0.003911670763045549]","[0.255060076713562, 0.21581722795963287, 0.21679489314556122, 0.22510743141174316, 0.2639823257923126, 0.250406950712204]","[0.06569763970496163, -1.505098687089935, 0.06569763970496163, 0.06569763970496163, 0.06569763970496163, 0.06569763970496163]","[0.06569763970496163, -1.505098687089935, 0.06569763970496163, 0.06569763970496163, 0.06569763970496163, 0.06569763970496163]",0.002,7,1
0,14,"[0.004468563478440046, -1.5660761806978662, 0.004719082509176076, 0.004352970714233351, 0.004498446825891733, 0.0045052748173475266]","[0.2699539065361023, 0.2270587682723999, 0.23778246343135834, 0.24355527758598328, 0.27731308341026306, 0.2623392939567566]","[0.06627211360380393, -1.5045242131910925, 0.06627211360380393, 0.06627211360380393, 0.06627211360380393, 0.06627211360380393]","[0.06627211360380393, -1.5045242131910925, 0.06627211360380393, 0.06627211360380393, 0.06627211360380393, 0.06627211360380393]",0.002,7,1
0,15,"[0.005104518961161375, -1.5655664767003437, 0.005366150532857716, 0.005063219661376905, 0.004989717621356249, 0.004986921790987253]","[0.28533676266670227, 0.23432575166225433, 0.2616848945617676, 0.2761858105659485, 0.28576043248176575, 0.28119543194770813]","[0.06684640135413125, -1.5039499254407653, 0.06684640135413125, 0.06684640135413125, 0.06684640135413125, 0.06684640135413125]","[0.06684640135413125, -1.5039499254407653, 0.06684640135413125, 0.06684640135413125, 0.06684640135413125, 0.06684640135413125]",0.002,7,1
0,16,"[0.005833897739648819, -1.5650090675665815, 0.005917374287740529, 0.005807800883911085, 0.005494375247508287, 0.005637106951326132]","[0.3039981722831726, 0.24642053246498108, 0.28011763095855713, 0.3078341782093048, 0.2941088080406189, 0.2962981164455414]","[0.06742050134285471, -1.503375825452042, 0.06742050134285471, 0.06742050134285471, 0.06742050134285471, 0.06742050134285471]","[0.06742050134285471, -1.503375825452042, 0.06742050134285471, 0.06742050134285471, 0.06742050134285471, 0.06742050134285471]",0.002,7,1
0,17,"[0.006570170167833567, -1.5645183252966781, 0.006420914326803029, 0.00644485532727046, 0.006192046217620373, 0.006267908029258251]","[0.32055920362472534, 0.2615717053413391, 0.291144460439682, 0.3253980875015259, 0.3028169870376587, 0.3094490170478821]","[0.06799441195741276, -1.5028019148374838, 0.06799441195741276, 0.06799441195741276, 0.06799441195741276, 0.06799441195741276]","[0.06799441195741276, -1.5028019148374838, 0.06799441195741276, 0.06799441195741276, 0.06799441195741276, 0.06799441195741276]",0.002,7,1
0,18,"[0.007137157954275608, -1.563936512251832, 0.006994072590963185, 0.006919189090393019, 0.00685762008652091, 0.006878071930259466]","[0.33138808608055115, 0.277231901884079, 0.29727041721343994, 0.3286721110343933, 0.31801000237464905, 0.3198389410972595]","[0.06856813158577582, -1.5022281952091208, 0.06856813158577582, 0.06856813158577582, 0.06856813158577582, 0.06856813158577582]","[0.06856813158577582, -1.5022281952091208, 0.06856813158577582, 0.06856813158577582, 0.06856813158577582, 0.06856813158577582]",0.002,7,1
0,19,"[0.007651899475604296, -1.5634179476513346, 0.007585827504293263, 0.007520719165466261, 0.00760782603174448, 0.0075581735000014305]","[0.33833301067352295, 0.2873959541320801, 0.30882883071899414, 0.32407140731811523, 0.33437561988830566, 0.3313659131526947]","[0.06914165861645073, -1.5016546681784457, 0.06914165861645073, 0.06914165861645073, 0.06914165861645073, 0.06914165861645073]","[0.06914165861645073, -1.5016546681784457, 0.06914165861645073, 0.06914165861645073, 0.06914165861645073, 0.06914165861645073]",0.002,7,1
0,20,"[0.008276919834315777, -1.5627822599238534, 0.008241955433980763, 0.008108540172241163, 0.00830872356891632, 0.008234773762524128]","[0.3407782316207886, 0.3004278838634491, 0.31646937131881714, 0.3227354884147644, 0.3490007519721985, 0.34067919850349426]","[0.06971499143848532, -1.5010813353564112, 0.06971499143848532, 0.06971499143848532, 0.06971499143848532, 0.06971499143848532]","[0.06971499143848532, -1.5010813353564112, 0.06971499143848532, 0.06971499143848532, 0.06971499143848532, 0.06971499143848532]",0.002,7,1
0,21,"[0.008973648771643639, -1.5621438895216961, 0.008938137684957326, 0.008933945293090773, 0.009055725298821926, 0.0089199747890234]","[0.3476221561431885, 0.3144070506095886, 0.3295518755912781, 0.33100906014442444, 0.3591865003108978, 0.350948303937912]","[0.07028812844147295, -1.5005081983534236, 0.07028812844147295, 0.07028812844147295, 0.07028812844147295, 0.07028812844147295]","[0.07028812844147295, -1.5005081983534236, 0.07028812844147295, 0.07028812844147295, 0.07028812844147295, 0.07028812844147295]",0.002,7,1
0,22,"[0.009774942882359028, -1.5614519662088533, 0.0096514860736292, 0.009661241168640089, 0.009601886384189129, 0.009594657458364964]","[0.3592860996723175, 0.324642151594162, 0.3414405286312103, 0.35264191031455994, 0.3672173321247101, 0.3630296289920807]","[0.07086106801555694, -1.4999352587793395, 0.07086106801555694, 0.07086106801555694, 0.07086106801555694, 0.07086106801555694]","[0.07086106801555694, -1.4999352587793395, 0.07086106801555694, 0.07086106801555694, 0.07086106801555694, 0.07086106801555694]",0.002,7,1
0,23,"[0.010628137737512589, -1.5606730545735736, 0.010412518178121388, 0.010546966190002394, 0.010354052297770977, 0.010364972986280918]","[0.37554672360420227, 0.3383251130580902, 0.3529917895793915, 0.37525710463523865, 0.3717155456542969, 0.3737271726131439]","[0.07143380855143525, -1.4993625182434613, 0.07143380855143525, 0.07143380855143525, 0.07143380855143525, 0.07143380855143525]","[0.07143380855143525, -1.4993625182434613, 0.07143380855143525, 0.07143380855143525, 0.07143380855143525, 0.07143380855143525]",0.002,7,1
0,24,"[0.011322284117341042, -1.5600108479014416, 0.01117116609682256, 0.0113338667103271, 0.0111178457736969, 0.011144530028104782]","[0.38854002952575684, 0.3522090017795563, 0.36348438262939453, 0.39380910992622375, 0.3770781457424164, 0.38276365399360657]","[0.07200634844036483, -1.4987899783545318, 0.07200634844036483, 0.07200634844036483, 0.07200634844036483, 0.07200634844036483]","[0.07200634844036483, -1.4987899783545318, 0.07200634844036483, 0.07200634844036483, 0.07200634844036483, 0.07200634844036483]",0.002,7,1
0,25,"[0.012095027603209019, -1.5592505450225254, 0.011893097554342091, 0.012180491084716749, 0.011918717063963413, 0.011909188702702522]","[0.39505401253700256, 0.36311766505241394, 0.3773484230041504, 0.40117815136909485, 0.384724885225296, 0.39152806997299194]","[0.07257868607416625, -1.4982176407207304, 0.07257868607416625, 0.07257868607416625, 0.07257868607416625, 0.07257868607416625]","[0.07257868607416625, -1.4982176407207304, 0.07257868607416625, 0.07257868607416625, 0.07257868607416625, 0.07257868607416625]",0.002,7,1
0,26,"[0.012787332758307457, -1.5584991670078416, 0.01267558733095342, 0.0129360395618896, 0.012681175023317337, 0.012681304477155209]","[0.39860209822654724, 0.37426266074180603, 0.38447344303131104, 0.4025375545024872, 0.3979664444923401, 0.39962708950042725]","[0.07315081984522818, -1.4976455069496684, 0.07315081984522818, 0.07315081984522818, 0.07315081984522818, 0.07315081984522818]","[0.07315081984522818, -1.4976455069496684, 0.07315081984522818, 0.07315081984522818, 0.07315081984522818, 0.07315081984522818]",0.002,7,1
0,27,"[0.013619686476886272, -1.5576946719414373, 0.013506714497701466, 0.013679786319396925, 0.01359348464757204, 0.013452308252453804]","[0.4007876515388489, 0.3861027956008911, 0.38946932554244995, 0.39919719099998474, 0.4085198938846588, 0.40878719091415405]","[0.07372274814651193, -1.4970735786483846, 0.07372274814651193, 0.07372274814651193, 0.07372274814651193, 0.07372274814651193]","[0.07372274814651193, -1.4970735786483846, 0.07372274814651193, 0.07372274814651193, 0.07372274814651193, 0.07372274814651193]",0.002,7,1
0,28,"[0.0145006338134408, -1.5568298057517787, 0.014224831257955373, 0.014465852374694776, 0.014384777285158634, 0.014343678951263428]","[0.4085312783718109, 0.3960288166999817, 0.39962270855903625, 0.40083804726600647, 0.4183993339538574, 0.4158281683921814]","[0.0742944693715559, -1.4965018574233406, 0.0742944693715559, 0.0742944693715559, 0.0742944693715559, 0.0742944693715559]","[0.0742944693715559, -1.4965018574233406, 0.0742944693715559, 0.0742944693715559, 0.0742944693715559, 0.0742944693715559]",0.002,7,1
0,29,"[0.01537020318210125, -1.5559896130910893, 0.015072170888082326, 0.015297814006469679, 0.015200257301330566, 0.015133455395698547]","[0.41991323232650757, 0.4091377258300781, 0.40850919485092163, 0.4054090976715088, 0.42348936200141907, 0.42025724053382874]","[0.07486598191448017, -1.4959303448804164, 0.07486598191448017, 0.07486598191448017, 0.07486598191448017, 0.07486598191448017]","[0.07486598191448017, -1.4959303448804164, 0.07486598191448017, 0.07486598191448017, 0.07486598191448017, 0.07486598191448017]",0.002,7,1
0,30,"[0.01619652286171913, -1.55510117978368, 0.015888039265767873, 0.01617555200543208, 0.016014888882637024, 0.01592331938445568]","[0.4275476336479187, 0.4201620817184448, 0.41455158591270447, 0.4160424470901489, 0.42887046933174133, 0.4275035560131073]","[0.07543728416999097, -1.4953590426249055, 0.07543728416999097, 0.07543728416999097, 0.07543728416999097, 0.07543728416999097]","[0.07543728416999097, -1.4953590426249055, 0.07543728416999097, 0.07543728416999097, 0.07543728416999097, 0.07543728416999097]",0.002,7,1
0,31,"[0.01702297292649746, -1.554208082412817, 0.016793553029195607, 0.017085238093994093, 0.016880523413419724, 0.01685318723320961]","[0.4332072138786316, 0.4248317778110504, 0.42411699891090393, 0.4270915687084198, 0.4336663484573364, 0.4353506565093994]","[0.07600837453338521, -1.4947879522615113, 0.07600837453338521, 0.07600837453338521, 0.07600837453338521, 0.07600837453338521]","[0.07600837453338521, -1.4947879522615113, 0.07600837453338521, 0.07600837453338521, 0.07600837453338521, 0.07600837453338521]",0.002,7,1
0,32,"[0.017889250069856644, -1.5533131913146754, 0.017662827168599904, 0.01800028860058589, 0.017732851207256317, 0.017758164554834366]","[0.43563657999038696, 0.43222498893737793, 0.43032708764076233, 0.4387694299221039, 0.437065988779068, 0.4416268467903137]","[0.07657925140055495, -1.4942170753943416, 0.07657925140055495, 0.07657925140055495, 0.07657925140055495, 0.07657925140055495]","[0.07657925140055495, -1.4942170753943416, 0.07657925140055495, 0.07657925140055495, 0.07657925140055495, 0.07657925140055495]",0.002,7,1
0,33,"[0.018793435767292976, -1.5523873654058953, 0.0185321013080042, 0.018825216884277296, 0.01860133931040764, 0.018620045855641365]","[0.43826010823249817, 0.4360799193382263, 0.44049692153930664, 0.44316279888153076, 0.4431428015232086, 0.4463159143924713]","[0.07714991316799193, -1.4936464136269045, 0.07714991316799193, 0.07714991316799193, 0.07714991316799193, 0.07714991316799193]","[0.07714991316799193, -1.4936464136269045, 0.07714991316799193, 0.07714991316799193, 0.07714991316799193, 0.07714991316799193]",0.002,7,1
0,34,"[0.019691960886120796, -1.5514706385186692, 0.019428078328267873, 0.019614263171813917, 0.01958443596959114, 0.01957819238305092]","[0.44507306814193726, 0.4437411427497864, 0.4456917345523834, 0.44465750455856323, 0.45183491706848145, 0.4516903758049011]","[0.0777203582327921, -1.4930759685621044, 0.0777203582327921, 0.0777203582327921, 0.0777203582327921, 0.0777203582327921]","[0.0777203582327921, -1.4930759685621044, 0.0777203582327921, 0.0777203582327921, 0.0777203582327921, 0.0777203582327921]",0.002,7,1
0,35,"[0.02056114748120308, -1.5504778020880003, 0.02028352419008428, 0.02047817289318843, 0.02045178785920143, 0.02043994888663292]","[0.4503791034221649, 0.45038291811943054, 0.45291876792907715, 0.446589857339859, 0.45624616742134094, 0.4573160707950592]","[0.07829058499266005, -1.4925057418022365, 0.07829058499266005, 0.07829058499266005, 0.07829058499266005, 0.07829058499266005]","[0.07829058499266005, -1.4925057418022365, 0.07829058499266005, 0.07829058499266005, 0.07829058499266005, 0.07829058499266005]",0.002,7,1
0,36,"[0.021476173773407936, -1.5496331055513402, 0.021253410969869435, 0.021384401912353468, 0.02136853151023388, 0.02135932631790638]","[0.4571250081062317, 0.4583706557750702, 0.45419561862945557, 0.4487910568714142, 0.46208304166793823, 0.461135596036911]","[0.07886059184591358, -1.491935734948983, 0.07886059184591358, 0.07886059184591358, 0.07886059184591358, 0.07886059184591358]","[0.07886059184591358, -1.491935734948983, 0.07886059184591358, 0.07886059184591358, 0.07886059184591358, 0.07886059184591358]",0.002,7,1
0,37,"[0.022324614226818085, -1.5486433704248448, 0.02217275301088506, 0.02232329427685542, 0.022335274145007133, 0.02232501283288002]","[0.457712858915329, 0.46206122636795044, 0.4577389061450958, 0.45793184638023376, 0.4648746848106384, 0.46385645866394043]","[0.07943037719148822, -1.4913659496034084, 0.07943037719148822, 0.07943037719148822, 0.07943037719148822, 0.07943037719148822]","[0.07943037719148822, -1.4913659496034084, 0.07943037719148822, 0.07943037719148822, 0.07943037719148822, 0.07943037719148822]",0.002,7,1
0,38,"[0.023251790553331375, -1.5477001194706936, 0.023093525563375294, 0.023210092181823683, 0.023274673148989677, 0.02328602410852909]","[0.4621841609477997, 0.4650843143463135, 0.46150827407836914, 0.4643625319004059, 0.46723809838294983, 0.46711429953575134]","[0.07999993942894161, -1.4907963873659549, 0.07999993942894161, 0.07999993942894161, 0.07999993942894161, 0.07999993942894161]","[0.07999993942894161, -1.4907963873659549, 0.07999993942894161, 0.07999993942894161, 0.07999993942894161, 0.07999993942894161]",0.002,7,1
0,39,"[0.024245338514447212, -1.546744392519333, 0.024059120808736623, 0.024194999332092237, 0.02416340447962284, 0.024236276745796204]","[0.464832067489624, 0.4679967164993286, 0.46564507484436035, 0.4694252908229828, 0.4700779914855957, 0.4690079987049103]","[0.08056927695845807, -1.4902270498364385, 0.08056927695845807, 0.08056927695845807, 0.08056927695845807, 0.08056927695845807]","[0.08056927695845807, -1.4902270498364385, 0.08056927695845807, 0.08056927695845807, 0.08056927695845807, 0.08056927695845807]",0.002,7,1
0,40,"[0.025105101987719536, -1.5456533965519448, 0.024965588246480763, 0.025051041240356398, 0.025097453966736794, 0.025134524330496788]","[0.4695805013179779, 0.4715070426464081, 0.4714299142360687, 0.4749993681907654, 0.4710862934589386, 0.4726441204547882]","[0.08113838818085317, -1.4896579386140434, 0.08113838818085317, 0.08113838818085317, 0.08113838818085317, 0.08113838818085317]","[0.08113838818085317, -1.4896579386140434, 0.08113838818085317, 0.08113838818085317, 0.08113838818085317, 0.08113838818085317]",0.002,7,1
0,41,"[0.02605571784079075, -1.5447165493718167, 0.025916878377095998, 0.025978727931640577, 0.02610471099615097, 0.02615000493824482]","[0.47337767481803894, 0.47580793499946594, 0.4730565547943115, 0.47877979278564453, 0.474509060382843, 0.47343090176582336]","[0.08170727149757809, -1.4890890552973184, 0.08170727149757809, 0.08170727149757809, 0.08170727149757809, 0.08170727149757809]","[0.08170727149757809, -1.4890890552973184, 0.08170727149757809, 0.08170727149757809, 0.08170727149757809, 0.08170727149757809]",0.002,7,1
0,42,"[0.027029214426875114, -1.5437205240926524, 0.02692729631532842, 0.026892228717468214, 0.02708144672214985, 0.027073979377746582]","[0.4773768186569214, 0.4798617362976074, 0.4790070354938507, 0.4807068109512329, 0.48020675778388977, 0.47602149844169617]","[0.08227592531072411, -1.4885204014841724, 0.08227592531072411, 0.08227592531072411, 0.08227592531072411, 0.08227592531072411]","[0.08227592531072411, -1.4885204014841724, 0.08227592531072411, 0.08227592531072411, 0.08227592531072411, 0.08227592531072411]",0.002,7,1
0,43,"[0.02790285460650921, -1.542739988570549, 0.0278704802142542, 0.027855201358459425, 0.028049089014530182, 0.028086088597774506]","[0.4797402620315552, 0.4810096323490143, 0.48082831501960754, 0.4821822941303253, 0.4822755455970764, 0.48087793588638306]","[0.08284434802302726, -1.4879519787718694, 0.08284434802302726, 0.08284434802302726, 0.08284434802302726, 0.08284434802302726]","[0.08284434802302726, -1.4879519787718694, 0.08284434802302726, 0.08284434802302726, 0.08284434802302726, 0.08284434802302726]",0.002,7,1
0,44,"[0.02886008843779564, -1.54176855579529, 0.028844658528463185, 0.028832121486328077, 0.02906353399157524, 0.02905469946563244]","[0.4800872504711151, 0.4837937653064728, 0.48229679465293884, 0.4846569895744324, 0.48534122109413147, 0.4823112487792969]","[0.08341253803787262, -1.487383788757024, 0.08341253803787262, 0.08341253803787262, 0.08341253803787262, 0.08341253803787262]","[0.08341253803787262, -1.487383788757024, 0.08341253803787262, 0.08341253803787262, 0.08341253803787262, 0.08341253803787262]",0.002,7,1
0,45,"[0.029708055779337883, -1.5407638077488919, 0.029866997395650685, 0.02975265562023921, 0.030058791860938072, 0.030007928609848022]","[0.4799973964691162, 0.4838629961013794, 0.4836694002151489, 0.48955976963043213, 0.4881932735443115, 0.4837821424007416]","[0.0839804937592989, -1.4868158330355976, 0.0839804937592989, 0.0839804937592989, 0.0839804937592989, 0.0839804937592989]","[0.0839804937592989, -1.4868158330355976, 0.0839804937592989, 0.0839804937592989, 0.0839804937592989, 0.0839804937592989]",0.002,7,1
0,46,"[0.030724352225661278, -1.5397828345051785, 0.03080779710878545, 0.0307125288197021, 0.03099662810564041, 0.031000280752778053]","[0.48314666748046875, 0.48484840989112854, 0.4873623251914978, 0.49148252606391907, 0.48893892765045166, 0.4861142039299011]","[0.08454821359200293, -1.4862481132028935, 0.08454821359200293, 0.08454821359200293, 0.08454821359200293, 0.08454821359200293]","[0.08454821359200293, -1.4862481132028935, 0.08454821359200293, 0.08454821359200293, 0.08454821359200293, 0.08454821359200293]",0.002,7,1
0,47,"[0.031775858253240585, -1.5387769949487229, 0.031752888356344044, 0.03168766080822749, 0.0320306122303009, 0.031989213079214096]","[0.4854520261287689, 0.48391538858413696, 0.4865475594997406, 0.4931362569332123, 0.4888068437576294, 0.48692959547042847]","[0.08511569594134409, -1.4856806308535524, 0.08511569594134409, 0.08511569594134409, 0.08511569594134409, 0.08511569594134409]","[0.08511569594134409, -1.4856806308535524, 0.08511569594134409, 0.08511569594134409, 0.08511569594134409, 0.08511569594134409]",0.002,7,1
0,48,"[0.032695282250642776, -1.5377836164883156, 0.032775227223531544, 0.03276209413494868, 0.032949741929769516, 0.03293081372976303]","[0.488813579082489, 0.48370561003685, 0.48867687582969666, 0.496086448431015, 0.4914984107017517, 0.4879824221134186]","[0.08568293921334884, -1.4851133875815477, 0.08568293921334884, 0.08568293921334884, 0.08568293921334884, 0.08568293921334884]","[0.08568293921334884, -1.4851133875815477, 0.08568293921334884, 0.08568293921334884, 0.08568293921334884, 0.08568293921334884]",0.002,7,1
0,49,"[0.03371917083859444, -1.5368761991015454, 0.033750359212056935, 0.03381411611523433, 0.03392345830798149, 0.033948998898267746]","[0.4898796081542969, 0.4868575632572174, 0.4877830743789673, 0.49673548340797424, 0.49014151096343994, 0.4882301390171051]","[0.08624994181471513, -1.4845463849801814, 0.08624994181471513, 0.08624994181471513, 0.08624994181471513, 0.08624994181471513]","[0.08624994181471513, -1.4845463849801814, 0.08624994181471513, 0.08624994181471513, 0.08624994181471513, 0.08624994181471513]",0.002,7,1
0,50,"[0.03465339168906212, -1.5358599510839959, 0.03473884264101201, 0.034770293826721144, 0.034969545900821686, 0.03487377613782883]","[0.4895920753479004, 0.4870605766773224, 0.48798200488090515, 0.4984721541404724, 0.48891380429267883, 0.4881815016269684]","[0.08681670215281696, -1.4839796246420796, 0.08681670215281696, 0.08681670215281696, 0.08681670215281696, 0.08681670215281696]","[0.08681670215281696, -1.4839796246420796, 0.08681670215281696, 0.08681670215281696, 0.08681670215281696, 0.08681670215281696]",0.002,7,1
0,51,"[0.03558621183037758, -1.5348722052625199, 0.03574210802187139, 0.03588060914959712, 0.03591557592153549, 0.03588336706161499]","[0.4874279201030731, 0.4860870838165283, 0.48712486028671265, 0.5002615451812744, 0.48868438601493835, 0.48964545130729675]","[0.0873832186357088, -1.4834131081591877, 0.0873832186357088, 0.0873832186357088, 0.0873832186357088, 0.0873832186357088]","[0.0873832186357088, -1.4834131081591877, 0.0873832186357088, 0.0873832186357088, 0.0873832186357088, 0.0873832186357088]",0.002,7,1
0,52,"[0.0366097055375576, -1.533883885746338, 0.03667623201479131, 0.036876006717346144, 0.03693138435482979, 0.03684505075216293]","[0.49092891812324524, 0.4863911271095276, 0.49054983258247375, 0.4998264014720917, 0.4884398877620697, 0.48989781737327576]","[0.08794948967213004, -1.4828468371227665, 0.08794948967213004, 0.08794948967213004, 0.08794948967213004, 0.08794948967213004]","[0.08794948967213004, -1.4828468371227665, 0.08794948967213004, 0.08794948967213004, 0.08794948967213004, 0.08794948967213004]",0.002,7,1
0,53,"[0.037664756178855896, -1.5329090629569073, 0.03765613237489873, 0.03785841047253413, 0.03784780949354172, 0.03783046826720238]","[0.4913041889667511, 0.48875662684440613, 0.4895414710044861, 0.4958879053592682, 0.4908824563026428, 0.4924177825450897]","[0.08851551367150956, -1.482280813123387, 0.08851551367150956, 0.08851551367150956, 0.08851551367150956, 0.08851551367150956]","[0.08851551367150956, -1.482280813123387, 0.08851551367150956, 0.08851551367150956, 0.08851551367150956, 0.08851551367150956]",0.002,7,1
0,54,"[0.03864962235093117, -1.5318800334683438, 0.038688007985250294, 0.0388834911533813, 0.038878317922353745, 0.03877633064985275]","[0.4925651252269745, 0.4908636510372162, 0.49164000153541565, 0.4911465644836426, 0.4909602999687195, 0.49053633213043213]","[0.08908128904397009, -1.4817150377509265, 0.08908128904397009, 0.08908128904397009, 0.08908128904397009, 0.08908128904397009]","[0.08908128904397009, -1.4817150377509265, 0.08908128904397009, 0.08908128904397009, 0.08908128904397009, 0.08908128904397009]",0.002,7,1
0,55,"[0.03964420408010483, -1.5309373524836083, 0.039728943501607716, 0.039915605182311964, 0.03979584574699402, 0.03976810723543167]","[0.49393028020858765, 0.48904889822006226, 0.4914785325527191, 0.48995736241340637, 0.49268507957458496, 0.4919824004173279]","[0.08964681420033266, -1.481149512594564, 0.08964681420033266, 0.08964681420033266, 0.08964681420033266, 0.08964681420033266]","[0.08964681420033266, -1.481149512594564, 0.08964681420033266, 0.08964681420033266, 0.08964681420033266, 0.08964681420033266]",0.002,7,1
0,56,"[0.04056071490049362, -1.5300317902914067, 0.04074126878847295, 0.04098777353253169, 0.04081248492002487, 0.040737684816122055]","[0.49297022819519043, 0.4901377856731415, 0.49056822061538696, 0.4902763366699219, 0.4918121099472046, 0.49205881357192993]","[0.09021208755212123, -1.4805842392427753, 0.09021208755212123, 0.09021208755212123, 0.09021208755212123, 0.09021208755212123]","[0.09021208755212123, -1.4805842392427753, 0.09021208755212123, 0.09021208755212123, 0.09021208755212123, 0.09021208755212123]",0.002,7,1
0,57,"[0.04153772071003914, -1.5291131113520642, 0.04166728654970342, 0.04197828351940913, 0.04172718897461891, 0.041666917502880096]","[0.4893903434276581, 0.4887614846229553, 0.49326983094215393, 0.4929560422897339, 0.4888055920600891, 0.49295979738235474]","[0.09077710751156703, -1.4800192192833295, 0.09077710751156703, 0.09077710751156703, 0.09077710751156703, 0.09077710751156703]","[0.09077710751156703, -1.4800192192833295, 0.09077710751156703, 0.09077710751156703, 0.09077710751156703, 0.09077710751156703]",0.002,7,1
0,58,"[0.04254782572388649, -1.528101985608675, 0.04268533388246709, 0.04288165151562495, 0.04271392896771431, 0.0426563024520874]","[0.4893087148666382, 0.4859336018562317, 0.4887844920158386, 0.4921490252017975, 0.48922407627105713, 0.4922771155834198]","[0.09134187249161291, -1.4794544543032837, 0.09134187249161291, 0.09134187249161291, 0.09134187249161291, 0.09134187249161291]","[0.09134187249161291, -1.4794544543032837, 0.09134187249161291, 0.09134187249161291, 0.09134187249161291, 0.09134187249161291]",0.002,7,1
0,59,"[0.04346126317977905, -1.5271613274565716, 0.04361182848085576, 0.043832703227661085, 0.04372917860746384, 0.04360106214880943]","[0.488952100276947, 0.48779603838920593, 0.48791131377220154, 0.4896472096443176, 0.49079006910324097, 0.4927619993686676]","[0.091906380905918, -1.4788899458889786, 0.091906380905918, 0.091906380905918, 0.091906380905918, 0.091906380905918]","[0.091906380905918, -1.4788899458889786, 0.091906380905918, 0.091906380905918, 0.091906380905918, 0.091906380905918]",0.002,7,1
0,60,"[0.044529154896736145, -1.5261682507446785, 0.04457122484316045, 0.04479579507794185, 0.04463788494467735, 0.04453548043966293]","[0.4905639886856079, 0.4841613471508026, 0.4860031306743622, 0.4820071756839752, 0.490733802318573, 0.490945428609848]","[0.09247063116886214, -1.4783256956260344, 0.09247063116886214, 0.09247063116886214, 0.09247063116886214, 0.09247063116886214]","[0.09247063116886214, -1.4783256956260344, 0.09247063116886214, 0.09247063116886214, 0.09247063116886214, 0.09247063116886214]",0.002,7,1
0,61,"[0.045505501329898834, -1.5252297681621094, 0.045479599629537404, 0.04583828031506343, 0.045664556324481964, 0.045528918504714966]","[0.4861813485622406, 0.4834384620189667, 0.4844851493835449, 0.47737643122673035, 0.49095332622528076, 0.49190086126327515]","[0.09303462169555024, -1.4777617050993463, 0.09303462169555024, 0.09303462169555024, 0.09303462169555024, 0.09303462169555024]","[0.09303462169555024, -1.4777617050993463, 0.09303462169555024, 0.09303462169555024, 0.09303462169555024, 0.09303462169555024]",0.002,7,1
0,62,"[0.046410348266363144, -1.5242661100677033, 0.04648811021913701, 0.04685453950848384, 0.04666898772120476, 0.04649228975176811]","[0.48866453766822815, 0.4818251132965088, 0.48275476694107056, 0.47805532813072205, 0.48804232478141785, 0.49019482731819153]","[0.09359835090181669, -1.4771979758930798, 0.09359835090181669, 0.09359835090181669, 0.09359835090181669, 0.09359835090181669]","[0.09359835090181669, -1.4771979758930798, 0.09359835090181669, 0.09359835090181669, 0.09359835090181669, 0.09359835090181669]",0.002,7,1
0,63,"[0.04741363227367401, -1.5233522665551682, 0.047390286122457326, 0.047816796893737745, 0.04752441123127937, 0.047521717846393585]","[0.48829108476638794, 0.48074600100517273, 0.4845336377620697, 0.4821593463420868, 0.48674914240837097, 0.4899226725101471]","[0.09416181720422998, -1.4766345095906666, 0.09416181720422998, 0.09416181720422998, 0.09416181720422998, 0.09416181720422998]","[0.09416181720422998, -1.4766345095906666, 0.09416181720422998, 0.09416181720422998, 0.09416181720422998, 0.09416181720422998]",0.002,7,1
0,64,"[0.048424623906612396, -1.522439320837595, 0.04830056825746709, 0.04881410181011958, 0.04850999265909195, 0.04845582693815231]","[0.48460283875465393, 0.4795859456062317, 0.48139581084251404, 0.48355358839035034, 0.4838162660598755, 0.48978736996650696]","[0.09472501902009701, -1.4760713077747996, 0.09472501902009701, 0.09472501902009701, 0.09472501902009701, 0.09472501902009701]","[0.09472501902009701, -1.4760713077747996, 0.09472501902009701, 0.09472501902009701, 0.09472501902009701, 0.09472501902009701]",0.002,7,1
0,65,"[0.04942059516906738, -1.5214780543795605, 0.04930621782411748, 0.04962758600201411, 0.04940393567085266, 0.04942431300878525]","[0.4849575161933899, 0.47375908493995667, 0.48029863834381104, 0.4809640944004059, 0.48294317722320557, 0.4866372048854828]","[0.09528795476746764, -1.475508372027429, 0.09528795476746764, 0.09528795476746764, 0.09528795476746764, 0.09528795476746764]","[0.09528795476746764, -1.475508372027429, 0.09528795476746764, 0.09528795476746764, 0.09528795476746764, 0.09528795476746764]",0.002,7,1
0,66,"[0.05035647749900818, -1.5205971536091347, 0.05022174516786748, 0.05055539190258784, 0.05042676627635956, 0.050385989248752594]","[0.48511043190956116, 0.4731864929199219, 0.47936147451400757, 0.47698044776916504, 0.48317235708236694, 0.48441460728645325]","[0.09585062286513904, -1.4749457039297575, 0.09585062286513904, 0.09585062286513904, 0.09585062286513904, 0.09585062286513904]","[0.09585062286513904, -1.4749457039297575, 0.09585062286513904, 0.09585062286513904, 0.09585062286513904, 0.09585062286513904]",0.002,7,1
0,67,"[0.05130154639482498, -1.5195796017399807, 0.051207844411031544, 0.05147306501354976, 0.051373522728681564, 0.05136951804161072]","[0.4813482165336609, 0.46991586685180664, 0.4756087064743042, 0.4716905355453491, 0.48300430178642273, 0.48252835869789124]","[0.09641302173266018, -1.4743833050622364, 0.09641302173266018, 0.09641302173266018, 0.09641302173266018, 0.09641302173266018]","[0.09641302173266018, -1.4743833050622364, 0.09641302173266018, 0.09641302173266018, 0.09641302173266018, 0.09641302173266018]",0.002,7,1
0,68,"[0.05231582000851631, -1.5186363619617005, 0.05212623277773076, 0.052383585567138624, 0.052382003515958786, 0.05232388526201248]","[0.4801054894924164, 0.4685080051422119, 0.4746842086315155, 0.46983733773231506, 0.48159849643707275, 0.48269790410995483]","[0.0969751497903362, -1.4738211770045604, 0.0969751497903362, 0.0969751497903362, 0.0969751497903362, 0.0969751497903362]","[0.0969751497903362, -1.4738211770045604, 0.0969751497903362, 0.0969751497903362, 0.0969751497903362, 0.0969751497903362]",0.002,7,1
0,69,"[0.053262099623680115, -1.5177137789181252, 0.05306989351381475, 0.053363128299377394, 0.05328432843089104, 0.05334983393549919]","[0.47860783338546753, 0.466746985912323, 0.47554585337638855, 0.4731234312057495, 0.47746697068214417, 0.47967588901519775]","[0.09753700545923298, -1.4732593213356635, 0.09753700545923298, 0.09753700545923298, 0.09753700545923298, 0.09753700545923298]","[0.09753700545923298, -1.4732593213356635, 0.09753700545923298, 0.09753700545923298, 0.09753700545923298, 0.09753700545923298]",0.002,7,1
0,70,"[0.0542275495827198, -1.5167818938246747, 0.054023090993062794, 0.05426923810925288, 0.05422785505652428, 0.05431390926241875]","[0.47635725140571594, 0.463482141494751, 0.47180700302124023, 0.4753841757774353, 0.4765797555446625, 0.47660937905311584]","[0.09809858716118151, -1.472697739633715, 0.09809858716118151, 0.09809858716118151, 0.09809858716118151, 0.09809858716118151]","[0.09809858716118151, -1.472697739633715, 0.09809858716118151, 0.09809858716118151, 0.09809858716118151, 0.09809858716118151]",0.002,7,1
0,71,"[0.055206120014190674, -1.5158542816391964, 0.054989163075582326, 0.05519024908032222, 0.055229805409908295, 0.05523562431335449]","[0.47555115818977356, 0.4582953155040741, 0.4688078761100769, 0.47442108392715454, 0.4736517071723938, 0.47461119294166565]","[0.09865989331878224, -1.4721364334761142, 0.09865989331878224, 0.09865989331878224, 0.09865989331878224, 0.09865989331878224]","[0.09865989331878224, -1.4721364334761142, 0.09865989331878224, 0.09865989331878224, 0.09865989331878224, 0.09865989331878224]",0.002,7,1
0,72,"[0.056151799857616425, -1.5149929982474823, 0.05590421358217412, 0.056129975909851026, 0.05617760866880417, 0.056273266673088074]","[0.4725593030452728, 0.45763325691223145, 0.46619120240211487, 0.47211316227912903, 0.4728141129016876, 0.4712434411048889]","[0.0992209223554096, -1.4715754044394869, 0.0992209223554096, 0.0992209223554096, 0.0992209223554096, 0.0992209223554096]","[0.0992209223554096, -1.4715754044394869, 0.0992209223554096, 0.0992209223554096, 0.0992209223554096, 0.0992209223554096]",0.002,7,1
0,73,"[0.057069081813097, -1.514032931332924, 0.056786362324849904, 0.05703048288311763, 0.05709296837449074, 0.05716070532798767]","[0.4721088111400604, 0.45359474420547485, 0.4629918336868286, 0.4683300852775574, 0.4723595082759857, 0.46785110235214233]","[0.09978167269521644, -1.47101465409968, 0.09978167269521644, 0.09978167269521644, 0.09978167269521644, 0.09978167269521644]","[0.09978167269521644, -1.47101465409968, 0.09978167269521644, 0.09978167269521644, 0.09978167269521644, 0.09978167269521644]",0.002,7,1
0,74,"[0.05798647180199623, -1.5131619361094018, 0.05773002306093389, 0.057925863856933546, 0.05807676538825035, 0.058153171092271805]","[0.4702267348766327, 0.4530494213104248, 0.4639560580253601, 0.46739113330841064, 0.46794313192367554, 0.4658949375152588]","[0.10034214276313845, -1.4704541840317582, 0.10034214276313845, 0.10034214276313845, 0.10034214276313845, 0.10034214276313845]","[0.10034214276313845, -1.4704541840317582, 0.10034214276313845, 0.10034214276313845, 0.10034214276313845, 0.10034214276313845]",0.002,7,1
0,75,"[0.05891633778810501, -1.5122060415199776, 0.05873281160463506, 0.05889741956677241, 0.05899624526500702, 0.059077173471450806]","[0.46675023436546326, 0.45264238119125366, 0.460340678691864, 0.46589112281799316, 0.4661167562007904, 0.4634808599948883]","[0.10090233098489851, -1.4698939958099981, 0.10090233098489851, 0.10090233098489851, 0.10090233098489851, 0.10090233098489851]","[0.10090233098489851, -1.4698939958099981, 0.10090233098489851, 0.10090233098489851, 0.10090233098489851, 0.10090233098489851]",0.002,7,1
0,76,"[0.05984059348702431, -1.511257143025734, 0.059578720723287404, 0.05985550462689204, 0.05992969498038292, 0.06000679358839989]","[0.46246984601020813, 0.4528268575668335, 0.46014833450317383, 0.4671187698841095, 0.46359550952911377, 0.4605616629123688]","[0.10146223578701119, -1.4693340910078854, 0.10146223578701119, 0.10146223578701119, 0.10146223578701119, 0.10146223578701119]","[0.10146223578701119, -1.4693340910078854, 0.10146223578701119, 0.10146223578701119, 0.10146223578701119, 0.10146223578701119]",0.002,7,1
0,77,"[0.060676444321870804, -1.5104085777750988, 0.06046659151186162, 0.06065659105267329, 0.06089378148317337, 0.06089704483747482]","[0.4622761309146881, 0.45054954290390015, 0.45874306559562683, 0.4661392271518707, 0.458602637052536, 0.45758259296417236]","[0.1020218555967871, -1.4687744711981094, 0.1020218555967871, 0.1020218555967871, 0.1020218555967871, 0.1020218555967871]","[0.1020218555967871, -1.4687744711981094, 0.1020218555967871, 0.1020218555967871, 0.1020218555967871, 0.1020218555967871]",0.002,7,1
0,78,"[0.06163465976715088, -1.5094714362970372, 0.06141549745668584, 0.06165091573681636, 0.061848465353250504, 0.0618862509727478]","[0.4595964550971985, 0.44811558723449707, 0.4553318917751312, 0.4634770452976227, 0.45725446939468384, 0.4562499523162842]","[0.10258118884233744, -1.4682151379525592, 0.10258118884233744, 0.10258118884233744, 0.10258118884233744, 0.10258118884233744]","[0.10258118884233744, -1.4682151379525592, 0.10258118884233744, 0.10258118884233744, 0.10258118884233744, 0.10258118884233744]",0.002,7,1
0,79,"[0.06252416223287582, -1.5085607816329976, 0.06237680116762334, 0.06252674638714595, 0.06275980174541473, 0.06283091008663177]","[0.45627155900001526, 0.4475155174732208, 0.45465919375419617, 0.4598749279975891, 0.4561360478401184, 0.45241403579711914]","[0.10314023395257824, -1.4676560928423183, 0.10314023395257824, 0.10314023395257824, 0.10314023395257824, 0.10314023395257824]","[0.10314023395257824, -1.4676560928423183, 0.10314023395257824, 0.10314023395257824, 0.10314023395257824, 0.10314023395257824]",0.002,7,1
0,80,"[0.06341369450092316, -1.507600263958313, 0.06327897707094365, 0.0634506183811645, 0.06367281824350357, 0.06370186060667038]","[0.45361989736557007, 0.44544464349746704, 0.4520362317562103, 0.45669034123420715, 0.4510292112827301, 0.4492657780647278]","[0.1036989893572349, -1.4670973374376617, 0.1036989893572349, 0.1036989893572349, 0.1036989893572349, 0.1036989893572349]","[0.1036989893572349, -1.4670973374376617, 0.1036989893572349, 0.1036989893572349, 0.1036989893572349, 0.1036989893572349]",0.002,7,1
0,81,"[0.06435784697532654, -1.506759100859501, 0.06418973604311162, 0.06444828092541499, 0.06456371396780014, 0.06463208049535751]","[0.45234522223472595, 0.4455646574497223, 0.45071378350257874, 0.45520782470703125, 0.4484941363334656, 0.44723477959632874]","[0.10425745348684658, -1.46653887330805, 0.10425745348684658, 0.10425745348684658, 0.10425745348684658, 0.10425745348684658]","[0.10425745348684658, -1.46653887330805, 0.10425745348684658, 0.10425745348684658, 0.10425745348684658, 0.10425745348684658]",0.002,7,1
0,82,"[0.0652722492814064, -1.5057797890952607, 0.06512672105898076, 0.06528286516156001, 0.06549321860074997, 0.06549670547246933]","[0.44769808650016785, 0.44392022490501404, 0.4465411603450775, 0.4517991840839386, 0.44619041681289673, 0.4437158405780792]","[0.10481562477277054, -1.465980702022126, 0.10481562477277054, 0.10481562477277054, 0.10481562477277054, 0.10481562477277054]","[0.10481562477277054, -1.465980702022126, 0.10481562477277054, 0.10481562477277054, 0.10481562477277054, 0.10481562477277054]",0.002,7,1
0,83,"[0.06618613749742508, -1.504904606645443, 0.06601936021913701, 0.06626824914898677, 0.06634863466024399, 0.06636727601289749]","[0.4454563558101654, 0.44504374265670776, 0.4447333514690399, 0.4492496848106384, 0.4416562020778656, 0.4418692886829376]","[0.10537350164718662, -1.46542282514771, 0.10537350164718662, 0.10537350164718662, 0.10537350164718662, 0.10537350164718662]","[0.10537350164718662, -1.46542282514771, 0.10537350164718662, 0.10537350164718662, 0.10537350164718662, 0.10537350164718662]",0.002,7,1
0,84,"[0.06705327332019806, -1.5039388102344056, 0.06697303453554326, 0.06708983957257075, 0.06722482293844223, 0.06725752353668213]","[0.44176146388053894, 0.44314661622047424, 0.4414753317832947, 0.4440849721431732, 0.43675050139427185, 0.4381472170352936]","[0.1059310825431016, -1.4648652442517949, 0.1059310825431016, 0.1059310825431016, 0.1059310825431016, 0.1059310825431016]","[0.1059310825431016, -1.4648652442517949, 0.1059310825431016, 0.1059310825431016, 0.1059310825431016, 0.1059310825431016]",0.002,7,1
0,85,"[0.06794185936450958, -1.5030738499811669, 0.06779557863344365, 0.06799010812725825, 0.06810908019542694, 0.06812279671430588]","[0.4383833110332489, 0.44262343645095825, 0.43990010023117065, 0.44108846783638, 0.4362132251262665, 0.4364693760871887]","[0.10648836589435366, -1.464307960900543, 0.10648836589435366, 0.10648836589435366, 0.10648836589435366, 0.10648836589435366]","[0.10648836589435366, -1.464307960900543, 0.10648836589435366, 0.10648836589435366, 0.10648836589435366, 0.10648836589435366]",0.002,7,1
0,86,"[0.06884770095348358, -1.502196566467621, 0.06865817705263311, 0.06889526426281734, 0.06899599730968475, 0.06897351145744324]","[0.43611493706703186, 0.4423495829105377, 0.4383522868156433, 0.4337094724178314, 0.43606480956077576, 0.4328664541244507]","[0.1070453501356167, -1.4637509766592798, 0.1070453501356167, 0.1070453501356167, 0.1070453501356167, 0.1070453501356167]","[0.1070453501356167, -1.4637509766592798, 0.1070453501356167, 0.1070453501356167, 0.1070453501356167, 0.1070453501356167]",0.002,7,1
0,87,"[0.06971447169780731, -1.5013090086034317, 0.06963569322694951, 0.06977121412243648, 0.06986398249864578, 0.06982120126485825]","[0.43247097730636597, 0.4412938356399536, 0.4374898672103882, 0.42952531576156616, 0.4311828315258026, 0.43199777603149414]","[0.1076020337024048, -1.4631942930924917, 0.1076020337024048, 0.1076020337024048, 0.1076020337024048, 0.1076020337024048]","[0.1076020337024048, -1.4631942930924917, 0.1076020337024048, 0.1076020337024048, 0.1076020337024048, 0.1076020337024048]",0.002,7,1
0,88,"[0.07054447382688522, -1.5003723737648507, 0.07047111192812139, 0.07066254198040767, 0.07067631185054779, 0.07061508297920227]","[0.431406706571579, 0.44116875529289246, 0.43653789162635803, 0.42996156215667725, 0.42698386311531067, 0.43042898178100586]","[0.10815841503107655, -1.46263791176382, 0.10815841503107655, 0.10815841503107655, 0.10815841503107655, 0.10815841503107655]","[0.10815841503107655, -1.46263791176382, 0.10815841503107655, 0.10815841503107655, 0.10815841503107655, 0.10815841503107655]",0.002,7,1
0,89,"[0.07136880606412888, -1.4995109152844925, 0.07141334215273076, 0.07160930215801997, 0.07157082855701447, 0.07147063314914703]","[0.4263734817504883, 0.4386942386627197, 0.43520838022232056, 0.4301098883152008, 0.425720751285553, 0.4278385043144226]","[0.10871449255883957, -1.462081834236057, 0.10871449255883957, 0.10871449255883957, 0.10871449255883957, 0.10871449255883957]","[0.10871449255883957, -1.462081834236057, 0.10871449255883957, 0.10871449255883957, 0.10871449255883957, 0.10871449255883957]",0.002,7,1
0,90,"[0.07225260138511658, -1.4986469906619568, 0.07220298448671514, 0.07244984685864253, 0.0723724290728569, 0.07229643315076828]","[0.4236524999141693, 0.43924760818481445, 0.4304935038089752, 0.42748570442199707, 0.4221394658088684, 0.4273455739021301]","[0.10927026472375466, -1.4615260620711419, 0.10927026472375466, 0.10927026472375466, 0.10927026472375466, 0.10927026472375466]","[0.10927026472375466, -1.4615260620711419, 0.10927026472375466, 0.10927026472375466, 0.10927026472375466, 0.10927026472375466]",0.002,7,1
0,91,"[0.07305026799440384, -1.4977722254446526, 0.07304603258241826, 0.07326666891064448, 0.07318093627691269, 0.07306185364723206]","[0.42198070883750916, 0.43401846289634705, 0.42693719267845154, 0.4233417212963104, 0.4199103116989136, 0.4220663011074066]","[0.1098257299647405, -1.460970596830156, 0.1098257299647405, 0.1098257299647405, 0.1098257299647405, 0.1098257299647405]","[0.1098257299647405, -1.460970596830156, 0.1098257299647405, 0.1098257299647405, 0.1098257299647405, 0.1098257299647405]",0.002,7,1
0,92,"[0.0738842710852623, -1.4968796458891411, 0.0739062468158167, 0.07421354829754634, 0.07404110580682755, 0.07397167384624481]","[0.4165671467781067, 0.431662917137146, 0.4256132245063782, 0.4176073968410492, 0.4183814823627472, 0.4209384322166443]","[0.11038088672157781, -1.4604154400733187, 0.11038088672157781, 0.11038088672157781, 0.11038088672157781, 0.11038088672157781]","[0.11038088672157781, -1.4604154400733187, 0.11038088672157781, 0.11038088672157781, 0.11038088672157781, 0.11038088672157781]",0.002,7,1
0,93,"[0.0747336745262146, -1.4960469168475647, 0.07477361360658819, 0.07501451551403804, 0.07490301877260208, 0.07476646453142166]","[0.4156135022640228, 0.42916232347488403, 0.42257022857666016, 0.412131130695343, 0.4180625379085541, 0.418583482503891]","[0.11093573343491375, -1.4598605933599829, 0.11093573343491375, 0.11093573343491375, 0.11093573343491375, 0.11093573343491375]","[0.11093573343491375, -1.4598605933599829, 0.11093573343491375, 0.11093573343491375, 0.11093573343491375, 0.11093573343491375]",0.002,7,1
0,94,"[0.07555312663316727, -1.4951909345439454, 0.07560521761049444, 0.0758630472370605, 0.07563904672861099, 0.07563097029924393]","[0.41172266006469727, 0.427655965089798, 0.41891807317733765, 0.4094665050506592, 0.4157460331916809, 0.4176740348339081]","[0.11149026854626641, -1.4593060582486301, 0.11149026854626641, 0.11149026854626641, 0.11149026854626641, 0.11149026854626641]","[0.11149026854626641, -1.4593060582486301, 0.11149026854626641, 0.11149026854626641, 0.11149026854626641, 0.11149026854626641]",0.002,7,1
0,95,"[0.07633291184902191, -1.4943346691182633, 0.07650739351381475, 0.07672063886608882, 0.0764625295996666, 0.07639860361814499]","[0.40948981046676636, 0.424732506275177, 0.4154241681098938, 0.4063141345977783, 0.41302675008773804, 0.41558611392974854]","[0.11204449049802913, -1.4587518362968674, 0.11204449049802913, 0.11204449049802913, 0.11204449049802913, 0.11204449049802913]","[0.11204449049802913, -1.4587518362968674, 0.11204449049802913, 0.11204449049802913, 0.11204449049802913, 0.11204449049802913]",0.002,7,1
0,96,"[0.07718496769666672, -1.4935495045832177, 0.07729846635927373, 0.07749967157330317, 0.07725276798009872, 0.07724213600158691]","[0.4085507392883301, 0.42294415831565857, 0.4149525761604309, 0.40548568964004517, 0.40691614151000977, 0.4113236665725708]","[0.11259839773347476, -1.4581979290614218, 0.11259839773347476, 0.11259839773347476, 0.11259839773347476, 0.11259839773347476]","[0.11259839773347476, -1.4581979290614218, 0.11259839773347476, 0.11259839773347476, 0.11259839773347476, 0.11259839773347476]",0.002,7,1
0,97,"[0.0780181735754013, -1.4926970315030594, 0.07808190981020147, 0.0782591539570312, 0.07808596640825272, 0.07800788432359695]","[0.404994398355484, 0.4188900291919708, 0.4108501970767975, 0.401144415140152, 0.40643221139907837, 0.40899842977523804]","[0.11315198869676027, -1.4576443380981363, 0.11315198869676027, 0.11315198869676027, 0.11315198869676027, 0.11315198869676027]","[0.11315198869676027, -1.4576443380981363, 0.11315198869676027, 0.11315198869676027, 0.11315198869676027, 0.11315198869676027]",0.002,7,1
0,98,"[0.07884108275175095, -1.4918949168971558, 0.07892257372011358, 0.07905952512707515, 0.07889580726623535, 0.07878594845533371]","[0.4039825201034546, 0.4141886532306671, 0.40662869811058044, 0.3983907401561737, 0.40514490008354187, 0.4056747853755951]","[0.11370526183293096, -1.4570910649619655, 0.11370526183293096, 0.11370526183293096, 0.11370526183293096, 0.11370526183293096]","[0.11370526183293096, -1.4570910649619655, 0.11370526183293096, 0.11370526183293096, 0.11370526183293096, 0.11370526183293096]",0.002,7,1
0,99,"[0.07965143024921417, -1.4910217312029381, 0.07966930070985967, 0.0798676449009399, 0.0796743854880333, 0.07963904738426208]","[0.4006941318511963, 0.41019919514656067, 0.4046708047389984, 0.3940141499042511, 0.402566522359848, 0.4047776460647583]","[0.11425821558792479, -1.4565381112069717, 0.11425821558792479, 0.11425821558792479, 0.11425821558792479, 0.11425821558792479]","[0.11425821558792479, -1.4565381112069717, 0.11425821558792479, 0.11425821558792479, 0.11425821558792479, 0.11425821558792479]",0.002,7,1
0,100,"[0.08037647604942322, -1.4902582478574296, 0.08044892946352178, 0.08059565603222651, 0.08046947419643402, 0.08050426840782166]","[0.39659544825553894, 0.40431272983551025, 0.401679664850235, 0.3907025456428528, 0.3995152413845062, 0.40118536353111267]","[0.11481084840857694, -1.4559854783863195, 0.11481084840857694, 0.11481084840857694, 0.11481084840857694, 0.11481084840857694]","[0.11481084840857694, -1.4559854783863195, 0.11481084840857694, 0.11481084840857694, 0.11481084840857694, 0.11481084840857694]",0.002,7,1
0,101,"[0.08121151477098465, -1.4894635167768975, 0.0813515822040003, 0.08139721929516597, 0.0812714472413063, 0.08130475878715515]","[0.39499688148498535, 0.40269070863723755, 0.39779889583587646, 0.38994088768959045, 0.3960592448711395, 0.39704447984695435]","[0.11536315874262389, -1.4554331680522727, 0.11536315874262389, 0.11536315874262389, 0.11536315874262389, 0.11536315874262389]","[0.11536315874262389, -1.4554331680522727, 0.11536315874262389, 0.11536315874262389, 0.11536315874262389, 0.11536315874262389]",0.002,7,1
0,102,"[0.08201048523187637, -1.4886560303023835, 0.08203250566591436, 0.08224014818157954, 0.08205905556678772, 0.08209065347909927]","[0.39262422919273376, 0.39682504534721375, 0.39617395401000977, 0.3885415196418762, 0.39369431138038635, 0.39577019214630127]","[0.11591514503870809, -1.4548811817561884, 0.11591514503870809, 0.11591514503870809, 0.11591514503870809, 0.11591514503870809]","[0.11591514503870809, -1.4548811817561884, 0.11591514503870809, 0.11591514503870809, 0.11591514503870809, 0.11591514503870809]",0.002,7,1
0,103,"[0.08286226540803909, -1.4878933739713212, 0.082893196736471, 0.08290748178448482, 0.08282073587179184, 0.0828699991106987]","[0.39105167984962463, 0.3934136629104614, 0.3917708396911621, 0.3852311074733734, 0.39086124300956726, 0.3925572335720062]","[0.11646680574638203, -1.4543295210485145, 0.11646680574638203, 0.11646680574638203, 0.11646680574638203, 0.11646680574638203]","[0.11646680574638203, -1.4543295210485145, 0.11646680574638203, 0.11646680574638203, 0.11646680574638203, 0.11646680574638203]",0.002,7,1
0,104,"[0.0836656242609024, -1.4870698389462014, 0.08363563219179326, 0.08371023714031978, 0.08366763591766357, 0.08364944159984589]","[0.3901904225349426, 0.3899632692337036, 0.3899659514427185, 0.38300463557243347, 0.3893004357814789, 0.38948383927345276]","[0.11701813931611282, -1.4537781874787838, 0.11701813931611282, 0.11701813931611282, 0.11701813931611282, 0.11701813931611282]","[0.11701813931611282, -1.4537781874787838, 0.11701813931611282, 0.11701813931611282, 0.11701813931611282, 0.11701813931611282]",0.002,7,1
0,105,"[0.08436271548271179, -1.4863930878094216, 0.0844038168536585, 0.08443550645794673, 0.08439356088638306, 0.08443674445152283]","[0.38638392090797424, 0.3865436613559723, 0.38881656527519226, 0.38450944423675537, 0.38661646842956543, 0.3855973780155182]","[0.11756914419928645, -1.45322718259561, 0.11756914419928645, 0.11756914419928645, 0.11756914419928645, 0.11756914419928645]","[0.11756914419928645, -1.45322718259561, 0.11756914419928645, 0.11756914419928645, 0.11756914419928645, 0.11756914419928645]",0.002,7,1
0,106,"[0.08517085015773773, -1.4855760347894211, 0.08513814607729131, 0.08514289438214107, 0.08510910719633102, 0.08526109904050827]","[0.38368508219718933, 0.3812066614627838, 0.384378045797348, 0.38196516036987305, 0.38230186700820923, 0.3818715214729309]","[0.11811981884821209, -1.4526765079466846, 0.11811981884821209, 0.11811981884821209, 0.11811981884821209, 0.11811981884821209]","[0.11811981884821209, -1.4526765079466846, 0.11811981884821209, 0.11811981884821209, 0.11811981884821209, 0.11811981884821209]",0.002,7,1
0,107,"[0.08598028123378754, -1.4848650854877015, 0.08583242097963506, 0.08587138235058589, 0.08589373528957367, 0.08600734919309616]","[0.38291817903518677, 0.37604886293411255, 0.38112306594848633, 0.3801737129688263, 0.38106024265289307, 0.3793220520019531]","[0.11867016171612652, -1.45212616507877, 0.11867016171612652, 0.11867016171612652, 0.11867016171612652, 0.11867016171612652]","[0.11867016171612652, -1.45212616507877, 0.11867016171612652, 0.11867016171612652, 0.11867016171612652, 0.11867016171612652]",0.002,7,1
0,108,"[0.08673805743455887, -1.4840770599297066, 0.08669549623598272, 0.08662168561901851, 0.08661355078220367, 0.08674945682287216]","[0.37872573733329773, 0.37179169058799744, 0.37683403491973877, 0.3785339891910553, 0.377467542886734, 0.37618836760520935]","[0.11922017125719844, -1.451576155537698, 0.11922017125719844, 0.11922017125719844, 0.11922017125719844, 0.11922017125719844]","[0.11922017125719844, -1.451576155537698, 0.11922017125719844, 0.11922017125719844, 0.11922017125719844, 0.11922017125719844]",0.002,7,1
0,109,"[0.08751771599054337, -1.4832926628044625, 0.08741408983339483, 0.08736328660931392, 0.08742181211709976, 0.0875394269824028]","[0.3760295510292053, 0.36831364035606384, 0.37598833441734314, 0.3757390081882477, 0.3757301867008209, 0.37328580021858215]","[0.11976984592653282, -1.4510264808683637, 0.11976984592653282, 0.11976984592653282, 0.11976984592653282, 0.11976984592653282]","[0.11976984592653282, -1.4510264808683637, 0.11976984592653282, 0.11976984592653282, 0.11976984592653282, 0.11976984592653282]",0.002,7,1
0,110,"[0.08826854825019836, -1.4826149579933663, 0.08812839189638311, 0.08807234346356196, 0.08816392719745636, 0.08829009532928467]","[0.37290388345718384, 0.36564335227012634, 0.3701479434967041, 0.3745364844799042, 0.3736400008201599, 0.36817264556884766]","[0.12031918418017519, -1.4504771426147214, 0.12031918418017519, 0.12031918418017519, 0.12031918418017519, 0.12031918418017519]","[0.12031918418017519, -1.4504771426147214, 0.12031918418017519, 0.12031918418017519, 0.12031918418017519, 0.12031918418017519]",0.002,7,1
0,111,"[0.08901193737983704, -1.4818545442870636, 0.08884841600526983, 0.08884648858990474, 0.08901038020849228, 0.08903633058071136]","[0.37048718333244324, 0.36147114634513855, 0.3704221844673157, 0.371660977602005, 0.3707219362258911, 0.36580872535705566]","[0.12086818447511613, -1.4499281423197805, 0.12086818447511613, 0.12086818447511613, 0.12086818447511613, 0.12086818447511613]","[0.12086818447511613, -1.4499281423197805, 0.12086818447511613, 0.12086818447511613, 0.12086818447511613, 0.12086818447511613]",0.002,7,1
0,112,"[0.08966109901666641, -1.4811305341175576, 0.08963281313051397, 0.08958224832501216, 0.08961445838212967, 0.08981335163116455]","[0.3682906925678253, 0.35895612835884094, 0.368493914604187, 0.3703419864177704, 0.36592820286750793, 0.36411920189857483]","[0.12141684526929539, -1.4493794815256011, 0.12141684526929539, 0.12141684526929539, 0.12141684526929539, 0.12141684526929539]","[0.12141684526929539, -1.4493794815256011, 0.12141684526929539, 0.12141684526929539, 0.12141684526929539, 0.12141684526929539]",0.002,7,1
0,113,"[0.09040948748588562, -1.4804129612496872, 0.09036142030824834, 0.09025482713665767, 0.09044409543275833, 0.09051170945167542]","[0.3656081259250641, 0.3548631966114044, 0.36633461713790894, 0.36801618337631226, 0.3640078902244568, 0.3626355528831482]","[0.12196516502160637, -1.44883116177329, 0.12196516502160637, 0.12196516502160637, 0.12196516502160637, 0.12196516502160637]","[0.12196516502160637, -1.44883116177329, 0.12196516502160637, 0.12196516502160637, 0.12196516502160637, 0.12196516502160637]",0.002,7,1
0,114,"[0.09110458940267563, -1.4797536593726655, 0.09108335176576787, 0.09095518171276851, 0.09119540452957153, 0.0912882536649704]","[0.3626430630683899, 0.35466551780700684, 0.3628484606742859, 0.36674758791923523, 0.3621976971626282, 0.3594459295272827]","[0.12251314219190039, -1.4482831846029962, 0.12251314219190039, 0.12251314219190039, 0.12251314219190039, 0.12251314219190039]","[0.12251314219190039, -1.4482831846029962, 0.12251314219190039, 0.12251314219190039, 0.12251314219190039, 0.12251314219190039]",0.002,7,1
0,115,"[0.09179972112178802, -1.4789978352240105, 0.0917747656451624, 0.09169821321453853, 0.09194528311491013, 0.09193283319473267]","[0.36073485016822815, 0.3525576889514923, 0.3605147898197174, 0.36363667249679565, 0.3600633144378662, 0.35639825463294983]","[0.12306077524099104, -1.4477355515539054, 0.12306077524099104, 0.12306077524099104, 0.12306077524099104, 0.12306077524099104]","[0.12306077524099104, -1.4477355515539054, 0.12306077524099104, 0.12306077524099104, 0.12306077524099104, 0.12306077524099104]",0.002,7,1
0,116,"[0.09248216450214386, -1.4783231180957337, 0.09248239198793584, 0.09238736211743159, 0.09266765415668488, 0.09262418001890182]","[0.35842615365982056, 0.34925687313079834, 0.3574272096157074, 0.3604647219181061, 0.35615628957748413, 0.3534870445728302]","[0.12360806263065853, -1.447188264164238, 0.12360806263065853, 0.12360806263065853, 0.12360806263065853, 0.12360806263065853]","[0.12360806263065853, -1.447188264164238, 0.12360806263065853, 0.12360806263065853, 0.12360806263065853, 0.12360806263065853]",0.002,7,1
0,117,"[0.09323973953723907, -1.477594719534256, 0.09317666689027959, 0.09310214101757808, 0.09331165999174118, 0.09341411292552948]","[0.35511285066604614, 0.34643667936325073, 0.3556343615055084, 0.35711348056793213, 0.35549238324165344, 0.3525713086128235]","[0.12415500282365388, -1.4466413239712428, 0.12415500282365388, 0.12415500282365388, 0.12415500282365388, 0.12415500282365388]","[0.12415500282365388, -1.4466413239712428, 0.12415500282365388, 0.12415500282365388, 0.12415500282365388, 0.12415500282365388]",0.002,7,1
0,118,"[0.09393763542175293, -1.4769408342293282, 0.0939257780658167, 0.09384445726361079, 0.09407062083482742, 0.09407668560743332]","[0.3530206084251404, 0.3422424793243408, 0.3519660234451294, 0.35715198516845703, 0.35055094957351685, 0.349418044090271]","[0.12470159428370346, -1.446094732511193, 0.12470159428370346, 0.12470159428370346, 0.12470159428370346, 0.12470159428370346]","[0.12470159428370346, -1.446094732511193, 0.12470159428370346, 0.12470159428370346, 0.12470159428370346, 0.12470159428370346]",0.002,7,1
0,119,"[0.09462998062372208, -1.476198138003685, 0.0946739355670374, 0.09460298597302241, 0.09471217542886734, 0.09477086365222931]","[0.35328447818756104, 0.34450122714042664, 0.35166388750076294, 0.3563731014728546, 0.3491099774837494, 0.34676462411880493]","[0.1252478354755131, -1.4455484913193835, 0.1252478354755131, 0.1252478354755131, 0.1252478354755131, 0.1252478354755131]","[0.1252478354755131, -1.4455484913193835, 0.1252478354755131, 0.1252478354755131, 0.1252478354755131, 0.1252478354755131]",0.002,7,1
0,120,"[0.09528855979442596, -1.475507677798607, 0.09534055391420537, 0.09532706319775386, 0.09548798948526382, 0.09547945111989975]","[0.34875041246414185, 0.33968594670295715, 0.34833472967147827, 0.3569306433200836, 0.3454323709011078, 0.34501752257347107]","[0.1257937248647725, -1.445002601930124, 0.1257937248647725, 0.1257937248647725, 0.1257937248647725, 0.1257937248647725]","[0.1257937248647725, -1.445002601930124, 0.1257937248647725, 0.1257937248647725, 0.1257937248647725, 0.1257937248647725]",0.002,7,1
0,121,"[0.09601303189992905, -1.4748189833811303, 0.09607583681215459, 0.09596149503674312, 0.09614637494087219, 0.09619173407554626]","[0.34700900316238403, 0.339964359998703, 0.3471541106700897, 0.35114991664886475, 0.3429589569568634, 0.34230899810791016]","[0.1263392609181595, -1.444457065876737, 0.1263392609181595, 0.1263392609181595, 0.1263392609181595, 0.1263392609181595]","[0.1263392609181595, -1.444457065876737, 0.1263392609181595, 0.1263392609181595, 0.1263392609181595, 0.1263392609181595]",0.002,7,1
0,122,"[0.09671273082494736, -1.4740951222232361, 0.09678441682924444, 0.0967532831379394, 0.0968574583530426, 0.09686784446239471]","[0.34222355484962463, 0.3391692340373993, 0.3421584665775299, 0.3476027548313141, 0.3401390016078949, 0.33863651752471924]","[0.1268844421033444, -1.4439118846915522, 0.1268844421033444, 0.1268844421033444, 0.1268844421033444, 0.1268844421033444]","[0.1268844421033444, -1.4439118846915522, 0.1268844421033444, 0.1268844421033444, 0.1268844421033444, 0.1268844421033444]",0.002,7,1
0,123,"[0.09740643203258514, -1.4734441500953217, 0.09740668932069951, 0.0974152523228149, 0.09749054163694382, 0.09748096764087677]","[0.3406785726547241, 0.3374592661857605, 0.3375079929828644, 0.34453991055488586, 0.33868229389190674, 0.33737969398498535]","[0.12742926688899436, -1.4433670599059023, 0.12742926688899436, 0.12742926688899436, 0.12742926688899436, 0.12742926688899436]","[0.12742926688899436, -1.4433670599059023, 0.12742926688899436, 0.12742926688899436, 0.12742926688899436, 0.12742926688899436]",0.002,7,1
0,124,"[0.09800028800964355, -1.4727326569012185, 0.09818393388857061, 0.09808198987927241, 0.09819226711988449, 0.0981326699256897]","[0.33815357089042664, 0.3368981182575226, 0.33525335788726807, 0.3401504456996918, 0.3379638195037842, 0.33502626419067383]","[0.12797373374477752, -1.442822593050119, 0.12797373374477752, 0.12797373374477752, 0.12797373374477752, 0.12797373374477752]","[0.12797373374477752, -1.442822593050119, 0.12797373374477752, 0.12797373374477752, 0.12797373374477752, 0.12797373374477752]",0.002,7,1
0,125,"[0.0987858846783638, -1.4720847767642518, 0.09880191484560186, 0.0987737613865356, 0.09880091995000839, 0.09882102161645889]","[0.3370625078678131, 0.33576318621635437, 0.3355136811733246, 0.3380649983882904, 0.3356226980686188, 0.3336709141731262]","[0.12851784114136747, -1.4422784856535291, 0.12851784114136747, 0.12851784114136747, 0.12851784114136747, 0.12851784114136747]","[0.12851784114136747, -1.4422784856535291, 0.12851784114136747, 0.12851784114136747, 0.12851784114136747, 0.12851784114136747]",0.002,7,1
0,126,"[0.09941985458135605, -1.4714009550264855, 0.09948522249330694, 0.09944669782604976, 0.09949276596307755, 0.09949389100074768]","[0.3321106731891632, 0.3356930911540985, 0.3335096836090088, 0.3353751301765442, 0.33348318934440613, 0.3314477503299713]","[0.12906158755044736, -1.4417347392444493, 0.12906158755044736, 0.12906158755044736, 0.12906158755044736, 0.12906158755044736]","[0.12906158755044736, -1.4417347392444493, 0.12906158755044736, 0.12906158755044736, 0.12906158755044736, 0.12906158755044736]",0.002,7,1
0,127,"[0.10011511296033859, -1.4707174611142655, 0.10012561479677373, 0.10014013826336665, 0.10018060356378555, 0.10012346506118774]","[0.33223456144332886, 0.33400940895080566, 0.33122140169143677, 0.3318426311016083, 0.3305627107620239, 0.33156582713127136]","[0.12960497144471436, -1.4411913553501823, 0.12960497144471436, 0.12960497144471436, 0.12960497144471436, 0.12960497144471436]","[0.12960497144471436, -1.4411913553501823, 0.12960497144471436, 0.12960497144471436, 0.12960497144471436, 0.12960497144471436]",0.002,7,1
0,128,"[0.10071802139282227, -1.4700442117503663, 0.10080081621278936, 0.100833459491394, 0.1007775068283081, 0.10078773647546768]","[0.3304433524608612, 0.3327658772468567, 0.33192628622055054, 0.32994160056114197, 0.328190416097641, 0.32919368147850037]","[0.13014799129788393, -1.4406483354970125, 0.13014799129788393, 0.13014799129788393, 0.13014799129788393, 0.13014799129788393]","[0.13014799129788393, -1.4406483354970125, 0.13014799129788393, 0.13014799129788393, 0.13014799129788393, 0.13014799129788393]",0.002,7,1
0,129,"[0.10144198685884476, -1.4694420558265229, 0.10151178041567022, 0.1015208202549438, 0.10153048485517502, 0.101423479616642]","[0.32706159353256226, 0.3342079222202301, 0.32960087060928345, 0.3287566304206848, 0.32546257972717285, 0.32784512639045715]","[0.13069064558469398, -1.4401056812102027, 0.13069064558469398, 0.13069064558469398, 0.13069064558469398, 0.13069064558469398]","[0.13069064558469398, -1.4401056812102027, 0.13069064558469398, 0.13069064558469398, 0.13069064558469398, 0.13069064558469398]",0.002,7,1
0,130,"[0.10202445089817047, -1.4687252652696152, 0.1021350065814417, 0.10220663129772944, 0.10207359492778778, 0.10200496762990952]","[0.3246556222438812, 0.3299988806247711, 0.32577160000801086, 0.32652536034584045, 0.32550856471061707, 0.32768216729164124]","[0.13123293278090936, -1.4395633940139871, 0.13123293278090936, 0.13123293278090936, 0.13123293278090936, 0.13123293278090936]","[0.13123293278090936, -1.4395633940139871, 0.13123293278090936, 0.13123293278090936, 0.13123293278090936, 0.13123293278090936]",0.002,7,1
0,131,"[0.10268194228410721, -1.4680850964835663, 0.10279447237123662, 0.10283450662579341, 0.10269364714622498, 0.10265731811523438]","[0.32371363043785095, 0.33092910051345825, 0.3250182867050171, 0.32257315516471863, 0.32351750135421753, 0.3255058825016022]","[0.1317748513633259, -1.4390214754315707, 0.1317748513633259, 0.1317748513633259, 0.1317748513633259, 0.1317748513633259]","[0.1317748513633259, -1.4390214754315707, 0.1317748513633259, 0.1317748513633259, 0.1317748513633259, 0.1317748513633259]",0.002,7,1
0,132,"[0.10334216803312302, -1.4674798783710976, 0.10342151323427373, 0.10349123060192866, 0.10340527445077896, 0.10332062840461731]","[0.3200893700122833, 0.32802721858024597, 0.32404202222824097, 0.32009628415107727, 0.32169637084007263, 0.3238942325115204]","[0.1323163998097749, -1.4384799269851216, 0.1323163998097749, 0.1323163998097749, 0.1323163998097749, 0.1323163998097749]","[0.1323163998097749, -1.4384799269851216, 0.1323163998097749, 0.1323163998097749, 0.1323163998097749, 0.1323163998097749]",0.002,7,1
0,133,"[0.10396590083837509, -1.4667899322560807, 0.10407907167543584, 0.10416118680920405, 0.10405241698026657, 0.10390743613243103]","[0.3211091160774231, 0.32609644532203674, 0.321934312582016, 0.3175472617149353, 0.31992173194885254, 0.3212604820728302]","[0.13285757659912725, -1.4379387501957692, 0.13285757659912725, 0.13285757659912725, 0.13285757659912725, 0.13285757659912725]","[0.13285757659912725, -1.4379387501957692, 0.13285757659912725, 0.13285757659912725, 0.13285757659912725, 0.13285757659912725]",0.002,7,1
0,134,"[0.10456856340169907, -1.4661296171000977, 0.10477143922914678, 0.10483078538861079, 0.10466502606868744, 0.10460042953491211]","[0.3181977868080139, 0.3237912654876709, 0.31856364011764526, 0.31732332706451416, 0.3189408779144287, 0.3199346661567688]","[0.13339838021129782, -1.4373979465835987, 0.13339838021129782, 0.13339838021129782, 0.13339838021129782, 0.13339838021129782]","[0.13339838021129782, -1.4373979465835987, 0.13339838021129782, 0.13339838021129782, 0.13339838021129782, 0.13339838021129782]",0.002,7,1
0,135,"[0.1052195206284523, -1.465523124938347, 0.10535699525942022, 0.10547511159863276, 0.10530093312263489, 0.10516774654388428]","[0.31704896688461304, 0.32431352138519287, 0.31746000051498413, 0.3169267177581787, 0.3182592988014221, 0.3186876177787781]","[0.13393880912724965, -1.4368575176676468, 0.13393880912724965, 0.13393880912724965, 0.13393880912724965, 0.13393880912724965]","[0.13393880912724965, -1.4368575176676468, 0.13393880912724965, 0.13393880912724965, 0.13393880912724965, 0.13393880912724965]",0.002,7,1
0,136,"[0.10582972317934036, -1.4649163049510499, 0.10604888597597295, 0.10607854902233882, 0.10588297247886658, 0.10581847280263901]","[0.31479302048683167, 0.32133373618125916, 0.3180540204048157, 0.31360936164855957, 0.31704431772232056, 0.3184504508972168]","[0.13447886182899826, -1.4363174649658983, 0.13447886182899826, 0.13447886182899826, 0.13447886182899826, 0.13447886182899826]","[0.13447886182899826, -1.4363174649658983, 0.13447886182899826, 0.13447886182899826, 0.13447886182899826, 0.13447886182899826]",0.002,7,1
0,137,"[0.10649070143699646, -1.4642919611981888, 0.10669213930238897, 0.10670749723400874, 0.10650083422660828, 0.10643449425697327]","[0.3143947422504425, 0.31673675775527954, 0.3135215938091278, 0.30977606773376465, 0.313996285200119, 0.3166200518608093]","[0.1350185367996159, -1.4357777899952806, 0.1350185367996159, 0.1350185367996159, 0.1350185367996159, 0.1350185367996159]","[0.1350185367996159, -1.4357777899952806, 0.1350185367996159, 0.1350185367996159, 0.1350185367996159, 0.1350185367996159]",0.002,7,1
0,138,"[0.1071789339184761, -1.4636982765844841, 0.10727101961244756, 0.10737363874401851, 0.10709556192159653, 0.10709235072135925]","[0.31349191069602966, 0.3178726136684418, 0.3128548264503479, 0.30805185437202454, 0.31356725096702576, 0.3160559833049774]","[0.13555783252323578, -1.4352384942716607, 0.13555783252323578, 0.13555783252323578, 0.13555783252323578, 0.13555783252323578]","[0.13555783252323578, -1.4352384942716607, 0.13555783252323578, 0.13555783252323578, 0.13555783252323578, 0.13555783252323578]",0.002,7,1
0,139,"[0.10776486992835999, -1.4630288046649476, 0.107887093220846, 0.10798649370159907, 0.10775209963321686, 0.10766171663999557]","[0.3089231848716736, 0.3155878186225891, 0.3111088275909424, 0.3040938079357147, 0.3116036355495453, 0.3141263723373413]","[0.13609674748505646, -1.43469957930984, 0.13609674748505646, 0.13609674748505646, 0.13609674748505646, 0.13609674748505646]","[0.13609674748505646, -1.43469957930984, 0.13609674748505646, 0.13609674748505646, 0.13609674748505646, 0.13609674748505646]",0.002,7,1
0,140,"[0.10842005163431168, -1.4624750328115006, 0.10851556459535772, 0.10855750619854732, 0.10840034484863281, 0.10829001665115356]","[0.31102481484413147, 0.3144078254699707, 0.3073909282684326, 0.30349400639533997, 0.30879032611846924, 0.313809871673584]","[0.13663528017134585, -1.4341610466235508, 0.13663528017134585, 0.13663528017134585, 0.13663528017134585, 0.13663528017134585]","[0.13663528017134585, -1.4341610466235508, 0.13663528017134585, 0.13663528017134585, 0.13663528017134585, 0.13663528017134585]",0.002,7,1
0,141,"[0.10901053249835968, -1.4618136522224923, 0.10904342332948858, 0.10915343343701167, 0.10893160849809647, 0.1089092493057251]","[0.3090815544128418, 0.31211650371551514, 0.30606070160865784, 0.30345872044563293, 0.30843502283096313, 0.3110519051551819]","[0.1371734290694457, -1.4336228977254508, 0.1371734290694457, 0.1371734290694457, 0.1371734290694457, 0.1371734290694457]","[0.1371734290694457, -1.4336228977254508, 0.1371734290694457, 0.1371734290694457, 0.1371734290694457, 0.1371734290694457]",0.002,7,1
0,142,"[0.10962539911270142, -1.4612260472825547, 0.10968524614442998, 0.10977153360333247, 0.10959974676370621, 0.10953229665756226]","[0.30851972103118896, 0.3102755546569824, 0.305714875459671, 0.3007562756538391, 0.308939665555954, 0.3085063397884369]","[0.13771119266777582, -1.4330851341271207, 0.13771119266777582, 0.13771119266777582, 0.13771119266777582, 0.13771119266777582]","[0.13771119266777582, -1.4330851341271207, 0.13771119266777582, 0.13771119266777582, 0.13771119266777582, 0.13771119266777582]",0.002,7,1
0,143,"[0.11026093363761902, -1.46061476439748, 0.11028606096376592, 0.11038426935162349, 0.11022359877824783, 0.11017046123743057]","[0.30362993478775024, 0.3074772357940674, 0.30284351110458374, 0.2978110611438751, 0.30546504259109497, 0.30840685963630676]","[0.13824856945583813, -1.4325477573390584, 0.13824856945583813, 0.13824856945583813, 0.13824856945583813, 0.13824856945583813]","[0.13824856945583813, -1.4325477573390584, 0.13824856945583813, 0.13824856945583813, 0.13824856945583813, 0.13824856945583813]",0.002,7,1
0,144,"[0.11085138469934464, -1.4599894148162385, 0.11090404192079717, 0.11097745477642817, 0.11075165867805481, 0.1107616126537323]","[0.3045458197593689, 0.3068595230579376, 0.3026708662509918, 0.2967378497123718, 0.3033316433429718, 0.30677545070648193]","[0.13878555792422115, -1.4320107688706754, 0.13878555792422115, 0.13878555792422115, 0.13878555792422115, 0.13878555792422115]","[0.13878555792422115, -1.4320107688706754, 0.13878555792422115, 0.13878555792422115, 0.13878555792422115, 0.13878555792422115]",0.002,7,1
0,145,"[0.11148771643638611, -1.4594155487469216, 0.11144811311830694, 0.1115540701099853, 0.1113327145576477, 0.1113719716668129]","[0.3025461435317993, 0.30379268527030945, 0.3000766932964325, 0.2951267957687378, 0.3033216595649719, 0.3046271502971649]","[0.13932215656460414, -1.4314741702302924, 0.13932215656460414, 0.13932215656460414, 0.13932215656460414, 0.13932215656460414]","[0.13932215656460414, -1.4314741702302924, 0.13932215656460414, 0.13932215656460414, 0.13932215656460414, 0.13932215656460414]",0.002,7,1
0,146,"[0.1120956540107727, -1.4588681545904656, 0.11210138002504522, 0.1121794420429687, 0.11203178763389587, 0.11195254325866699]","[0.29922470450401306, 0.30180326104164124, 0.29902467131614685, 0.29629772901535034, 0.30246081948280334, 0.3036075532436371]","[0.13985836386976125, -1.4309379629251353, 0.13985836386976125, 0.13985836386976125, 0.13985836386976125, 0.13985836386976125]","[0.13985836386976125, -1.4309379629251353, 0.13985836386976125, 0.13985836386976125, 0.13985836386976125, 0.13985836386976125]",0.002,7,1
0,147,"[0.11267738789319992, -1.4582596731236954, 0.11268026033510381, 0.11276940881695552, 0.11259309202432632, 0.11259083449840546]","[0.30121320486068726, 0.29886922240257263, 0.2973756194114685, 0.2953035235404968, 0.3010315001010895, 0.3027638792991638]","[0.14039417833356588, -1.4304021484613307, 0.14039417833356588, 0.14039417833356588, 0.14039417833356588, 0.14039417833356588]","[0.14039417833356588, -1.4304021484613307, 0.14039417833356588, 0.14039417833356588, 0.14039417833356588, 0.14039417833356588]",0.002,7,1
0,148,"[0.11329030990600586, -1.457634688620903, 0.11325294176210576, 0.11334852754559321, 0.11319176107645035, 0.11323896795511246]","[0.2978808283805847, 0.29623499512672424, 0.29537513852119446, 0.2950095534324646, 0.29992803931236267, 0.3001765012741089]","[0.14092959845099487, -1.4298667283439017, 0.14092959845099487, 0.14092959845099487, 0.14092959845099487, 0.14092959845099487]","[0.14092959845099487, -1.4298667283439017, 0.14092959845099487, 0.14092959845099487, 0.14092959845099487, 0.14092959845099487]",0.002,7,1
0,149,"[0.11388468742370605, -1.4570639070919533, 0.11384374300111944, 0.11390547334637446, 0.11380742490291595, 0.11384014785289764]","[0.29695847630500793, 0.2964876592159271, 0.2941126227378845, 0.2934378981590271, 0.29982542991638184, 0.30015385150909424]","[0.14146462271813265, -1.429331704076764, 0.14146462271813265, 0.14146462271813265, 0.14146462271813265, 0.14146462271813265]","[0.14146462271813265, -1.429331704076764, 0.14146462271813265, 0.14146462271813265, 0.14146462271813265, 0.14146462271813265]",0.002,7,1
0,150,"[0.114516980946064, -1.4564686727574845, 0.11444074312318975, 0.11444990217175288, 0.11437534540891647, 0.11440693587064743]","[0.29588180780410767, 0.2956642210483551, 0.29395532608032227, 0.2912171185016632, 0.2963765859603882, 0.2972854971885681]","[0.14199924963217567, -1.428797077162721, 0.14199924963217567, 0.14199924963217567, 0.14199924963217567, 0.14199924963217567]","[0.14199924963217567, -1.428797077162721, 0.14199924963217567, 0.14199924963217567, 0.14199924963217567, 0.14199924963217567]",0.002,7,1
0,151,"[0.1150505468249321, -1.4559224855950852, 0.11505204836000615, 0.11500768243756099, 0.11495482921600342, 0.11503373086452484]","[0.2941628396511078, 0.29442575573921204, 0.2930711507797241, 0.29246437549591064, 0.2951216697692871, 0.296384334564209]","[0.1425334776914364, -1.4282628491034601, 0.1425334776914364, 0.1425334776914364, 0.1425334776914364, 0.1425334776914364]","[0.1425334776914364, -1.4282628491034601, 0.1425334776914364, 0.1425334776914364, 0.1425334776914364, 0.1425334776914364]",0.002,7,1
0,152,"[0.11564257740974426, -1.4553136390498658, 0.11557370821108037, 0.11554328977551265, 0.11556115001440048, 0.1155807301402092]","[0.2921951711177826, 0.293599009513855, 0.29269957542419434, 0.29228100180625916, 0.2950827181339264, 0.2934201955795288]","[0.14306730539534757, -1.427729021399549, 0.14306730539534757, 0.14306730539534757, 0.14306730539534757, 0.14306730539534757]","[0.14306730539534757, -1.427729021399549, 0.14306730539534757, 0.14306730539534757, 0.14306730539534757, 0.14306730539534757]",0.002,7,1
0,153,"[0.11616393178701401, -1.454741121535637, 0.11619598070253545, 0.11609189092602534, 0.11618558317422867, 0.11623294651508331]","[0.2893960177898407, 0.2899259328842163, 0.2896977663040161, 0.2915712594985962, 0.2934114933013916, 0.291530579328537]","[0.14360073124446657, -1.42719559555043, 0.14360073124446657, 0.14360073124446657, 0.14360073124446657, 0.14360073124446657]","[0.14360073124446657, -1.42719559555043, 0.14360073124446657, 0.14360073124446657, 0.14360073124446657, 0.14360073124446657]",0.002,7,1
0,154,"[0.116714246571064, -1.4542278435877343, 0.11671334901918584, 0.1166890102573852, 0.11675557494163513, 0.11677921563386917]","[0.28922051191329956, 0.287788987159729, 0.28837525844573975, 0.2912265658378601, 0.291888028383255, 0.2907923460006714]","[0.14413375374047951, -1.4266625730544171, 0.14413375374047951, 0.14413375374047951, 0.14413375374047951, 0.14413375374047951]","[0.14413375374047951, -1.4266625730544171, 0.14413375374047951, 0.14413375374047951, 0.14413375374047951, 0.14413375374047951]",0.002,7,1
0,155,"[0.11736678332090378, -1.4535868552378197, 0.11732751527895147, 0.11722533285107417, 0.11730506271123886, 0.1173366829752922]","[0.28916919231414795, 0.2851647436618805, 0.28786394000053406, 0.29193314909935, 0.29039159417152405, 0.2888581156730652]","[0.1446663713862054, -1.4261299554086913, 0.1446663713862054, 0.1446663713862054, 0.1446663713862054, 0.1446663713862054]","[0.1446663713862054, -1.4261299554086913, 0.1446663713862054, 0.1446663713862054, 0.1446663713862054, 0.1446663713862054]",0.002,7,1
0,156,"[0.11804553866386414, -1.4530175265720864, 0.11781627336610967, 0.1178101736256103, 0.11793336272239685, 0.11800848692655563]","[0.2865605652332306, 0.28485235571861267, 0.2844235301017761, 0.29110613465309143, 0.290082722902298, 0.2878205180168152]","[0.14519858268560046, -1.4255977441092962, 0.14519858268560046, 0.14519858268560046, 0.14519858268560046, 0.14519858268560046]","[0.14519858268560046, -1.4255977441092962, 0.14519858268560046, 0.14519858268560046, 0.14519858268560046, 0.14519858268560046]",0.002,7,1
