Arnibjarnst/BoxLift/logs/ur_rtde/trajectory_dur=10.0_delay=0.2_gain=100_lh=0.1_real.csv
arm_idx,step,actual_q,actual_qd,target_q,expected_q,loop_time,robot_mode,safety_mode
0,-1,"[-0.039711777363912404, -1.6104632816710414, -0.03978020325303078, -0.03986533105883794, -0.039757553731099904, -0.039754692708150685]","[0.045367687940597534, 0.04903027042746544, 0.04480690881609917, 0.04784496873617172, 0.04476061090826988, 0.04501838609576225]","[0.0, -1.5707963267948966, 0.0, 0.0, 0.0, 0.0]","[0.0, -1.5707963267948966, 0.0, 0.0, 0.0, 0.0]",0.002,7,1
0,-1,"[-0.038915459309713185, -1.6096111736693324, -0.038850050419569016, -0.038989142780639696, -0.038866821919576466, -0.03882152238954717]","[0.06072103977203369, 0.06026927009224892, 0.05968538299202919, 0.06450880318880081, 0.06197382137179375, 0.061843596398830414]","[0.0, -1.5707963267948966, 0.0, 0.0, 0.0, 0.0]","[0.0, -1.5707963267948966, 0.0, 0.0, 0.0, 0.0]",0.002,7,1
0,-1,"[-0.038343254719869435, -1.6089917622008265, -0.03839132934808731, -0.038485602741577196, -0.038367573414937794, -0.03832704225649053]","[0.0702519342303276, 0.06838357448577881, 0.06794676929712296, 0.07287529855966568, 0.06951916217803955, 0.06974226236343384]","[0.0, -1.5707963267948966, 0.0, 0.0, 0.0, 0.0]","[0.0, -1.5707963267948966, 0.0, 0.0, 0.0, 0.0]",0.002,7,1
0,-1,"[-0.03729707399477178, -1.6079455814757289, -0.037300966680049896, -0.03735430658374028, -0.03715497652162725, -0.037195984517232716]","[0.0823884829878807, 0.08099241554737091, 0.08311903476715088, 0.08749072253704071, 0.08668296039104462, 0.08652263134717941]","[0.0, -1.5707963267948966, 0.0, 0.0, 0.0, 0.0]","[0.0, -1.5707963267948966, 0.0, 0.0, 0.0, 0.0]",0.002,7,1
0,-1,"[-0.036176506672994435, -1.60691561321401, -0.03621997684240341, -0.036181167965271044, -0.03608066240419561, -0.03609019914735967]","[0.09683957695960999, 0.09379252791404724, 0.09585736691951752, 0.10071571916341782, 0.09501750022172928, 0.09677081555128098]","[0.0, -1.5707963267948966, 0.0, 0.0, 0.0, 0.0]","[0.0, -1.5707963267948966, 0.0, 0.0, 0.0, 0.0]",0.002,7,1
0,-1,"[-0.03228933015932256, -1.6029640636839808, -0.03226985037326813, -0.03223510206256108, -0.03210574785341436, -0.03216725984682256]","[0.13123354315757751, 0.12797701358795166, 0.13233061134815216, 0.13115543127059937, 0.12765488028526306, 0.1284528225660324]","[0.0, -1.5707963267948966, 0.0, 0.0, 0.0, 0.0]","[0.0, -1.5707963267948966, 0.0, 0.0, 0.0, 0.0]",0.002,7,1
0,-1,"[-0.03148347536195928, -1.6021439037718714, -0.03145303949713707, -0.03143234670672612, -0.03128368059267217, -0.03132659593691045]","[0.13694344460964203, 0.13490818440914154, 0.136368066072464, 0.13808919489383698, 0.1329057216644287, 0.1337912380695343]","[0.0, -1.5707963267948966, 0.0, 0.0, 0.0, 0.0]","[0.0, -1.5707963267948966, 0.0, 0.0, 0.0, 0.0]",0.002,7,1
0,-1,"[-0.028888527547017873, -1.599537035027975, -0.028801385313272476, -0.02881522596392827, -0.028673950825826466, -0.028750244771138966]","[0.15384216606616974, 0.15214097499847412, 0.1529390960931778, 0.1535709798336029, 0.15146669745445251, 0.15087637305259705]","[0.0, -1.5707963267948966, 0.0, 0.0, 0.0, 0.0]","[0.0, -1.5707963267948966, 0.0, 0.0, 0.0, 0.0]",0.002,7,1
0,-1,"[-0.02292949358095342, -1.593893667260641, -0.022950226441025734, -0.02281363428149419, -0.022922817860738576, -0.022967163716451466]","[0.18885871767997742, 0.1872161626815796, 0.18681442737579346, 0.18760187923908234, 0.18701723217964172, 0.1895829737186432]","[0.0, -1.5707963267948966, 0.0, 0.0, 0.0, 0.0]","[0.0, -1.5707963267948966, 0.0, 0.0, 0.0, 0.0]",0.002,7,1
0,-1,"[-0.020250622426168263, -1.591212888757223, -0.020223472267389297, -0.019989804630615282, -0.020192448292867482, -0.020201985036031544]","[0.20430409908294678, 0.20020803809165955, 0.20113322138786316, 0.19986040890216827, 0.20360422134399414, 0.20566099882125854]","[0.0, -1.5707963267948966, 0.0, 0.0, 0.0, 0.0]","[0.0, -1.5707963267948966, 0.0, 0.0, 0.0, 0.0]",0.002,7,1
0,-1,"[-0.01716787019838506, -1.5881864033141078, -0.017275184392929077, -0.01699741304431157, -0.017217461262838185, -0.017182175313131154]","[0.18141824007034302, 0.18951557576656342, 0.18509234488010406, 0.1763300746679306, 0.1863131821155548, 0.18584755063056946]","[0.0, -1.5707963267948966, 0.0, 0.0, 0.0, 0.0]","[0.0, -1.5707963267948966, 0.0, 0.0, 0.0, 0.0]",0.002,7,1
0,-1,"[-0.015048805867330373, -1.5860277614989222, -0.015150930732488632, -0.01489301145587163, -0.015096966420308888, -0.015092198048726857]","[0.17179226875305176, 0.18320706486701965, 0.17330002784729004, 0.16831815242767334, 0.17506662011146545, 0.17516784369945526]","[0.0, -1.5707963267948966, 0.0, 0.0, 0.0, 0.0]","[0.0, -1.5707963267948966, 0.0, 0.0, 0.0, 0.0]",0.002,7,1
0,-1,"[-0.01369792619814092, -1.584633012811178, -0.013772960752248764, -0.013605908756591845, -0.013738934193746388, -0.01362640062441045]","[0.16412578523159027, 0.1692100614309311, 0.1653771549463272, 0.1622760146856308, 0.16731825470924377, 0.16775257885456085]","[0.0, -1.5707963267948966, 0.0, 0.0, 0.0, 0.0]","[0.0, -1.5707963267948966, 0.0, 0.0, 0.0, 0.0]",0.002,7,1
0,-1,"[-0.011761490498678029, -1.5827990971007289, -0.011845440603792667, -0.011739687328674364, -0.011770073567525685, -0.011765305195943654]","[0.1543169468641281, 0.15547490119934082, 0.15340562164783478, 0.15285728871822357, 0.15745548903942108, 0.15462712943553925]","[0.0, -1.5707963267948966, 0.0, 0.0, 0.0, 0.0]","[0.0, -1.5707963267948966, 0.0, 0.0, 0.0, 0.0]",0.002,7,1
0,-1,"[-0.009785000477926076, -1.5806542835631312, -0.00981633085757494, -0.009736136799194384, -0.009715859089986623, -0.009679142628804982]","[0.13704319298267365, 0.14097082614898682, 0.14182721078395844, 0.1417131870985031, 0.14187680184841156, 0.1388603299856186]","[0.0, -1.5707963267948966, 0.0, 0.0, 0.0, 0.0]","[0.0, -1.5707963267948966, 0.0, 0.0, 0.0, 0.0]",0.002,7,1
0,-1,"[-0.007123772297994435, -1.5779997311034144, -0.007209418341517448, -0.007167415027954149, -0.007158581410543263, -0.007052246724263966]","[0.12074737995862961, 0.12204745411872864, 0.12057746946811676, 0.12529827654361725, 0.11968029290437698, 0.11836708337068558]","[0.0, -1.5707963267948966, 0.0, 0.0, 0.0, 0.0]","[0.0, -1.5707963267948966, 0.0, 0.0, 0.0, 0.0]",0.002,7,1
0,-1,"[-0.006261173878804982, -1.577031751672262, -0.006272477097809315, -0.006306723957397509, -0.0062134901629846695, -0.00617391267885381]","[0.11274567246437073, 0.11461681127548218, 0.1124725341796875, 0.1142713725566864, 0.1127285435795784, 0.11035450547933578]","[0.0, -1.5707963267948966, 0.0, 0.0, 0.0, 0.0]","[0.0, -1.5707963267948966, 0.0, 0.0, 0.0, 0.0]",0.002,7,1
0,-1,"[-0.0049775282489221695, -1.5757118664183558, -0.0049837310798466206, -0.004932836895324755, -0.004984680806295216, -0.004895035420553029]","[0.10073177516460419, 0.10644777119159698, 0.10111340135335922, 0.10334764420986176, 0.10047195106744766, 0.09920957684516907]","[0.0, -1.5707963267948966, 0.0, 0.0, 0.0, 0.0]","[0.0, -1.5707963267948966, 0.0, 0.0, 0.0, 0.0]",0.002,7,1
0,-1,"[-0.003934685383931935, -1.5744840107359828, -0.003876528237015009, -0.00392194211993413, -0.003793064747945607, -0.0037348906146448257]","[0.08922325074672699, 0.09062836319208145, 0.09252798557281494, 0.09035598486661911, 0.08771081268787384, 0.08581560105085373]","[0.0, -1.5707963267948966, 0.0, 0.0, 0.0, 0.0]","[0.0, -1.5707963267948966, 0.0, 0.0, 0.0, 0.0]",0.002,7,1
0,-1,"[-0.002888981495992482, -1.573482175866598, -0.002855663187801838, -0.002885298138000536, -0.00286275545229131, -0.0028002897845667007]","[0.07721314579248428, 0.0772504210472107, 0.08197484165430069, 0.07785926014184952, 0.07446330040693283, 0.07412450760602951]","[0.0, -1.5707963267948966, 0.0, 0.0, 0.0, 0.0]","[0.0, -1.5707963267948966, 0.0, 0.0, 0.0, 0.0]",0.002,7,1
0,-1,"[-0.002049271260396779, -1.572634836236471, -0.0019500028574839234, -0.0020430845073242665, -0.0019119421588342789, -0.0019982496844690445]","[0.0659819170832634, 0.06459194421768188, 0.06672731041908264, 0.06539418548345566, 0.06417343765497208, 0.06487829238176346]","[0.0, -1.5707963267948966, 0.0, 0.0, 0.0, 0.0]","[0.0, -1.5707963267948966, 0.0, 0.0, 0.0, 0.0]",0.002,7,1
0,-1,"[-0.0013406912433069351, -1.5719973049559535, -0.0013277851976454258, -0.0014094871333618642, -0.0012863318072717789, -0.001241032277242482]","[0.05328633636236191, 0.050710584968328476, 0.052496444433927536, 0.05301697552204132, 0.0512707345187664, 0.05133749544620514]","[0.0, -1.5707963267948966, 0.0, 0.0, 0.0, 0.0]","[0.0, -1.5707963267948966, 0.0, 0.0, 0.0, 0.0]",0.002,7,1
0,-1,"[-0.0008309523211877945, -1.5714770756163539, -0.0007500696228817105, -0.0007596772960205556, -0.0007241407977502945, -0.0007045904742639664]","[0.04181253910064697, 0.038667842745780945, 0.04204174876213074, 0.041546765714883804, 0.039914682507514954, 0.038772765547037125]","[0.0, -1.5707963267948966, 0.0, 0.0, 0.0, 0.0]","[0.0, -1.5707963267948966, 0.0, 0.0, 0.0, 0.0]",0.002,7,1
0,-1,"[-0.00042754808534795075, -1.5711266003050746, -0.0003064435732085258, -0.0004143279841919423, -0.000340763722554982, -0.00035936037172490387]","[0.029797790572047234, 0.025456121191382408, 0.028579944744706154, 0.02853064425289631, 0.027123108506202698, 0.027041547000408173]","[0.0, -1.5707963267948966, 0.0, 0.0, 0.0, 0.0]","[0.0, -1.5707963267948966, 0.0, 0.0, 0.0, 0.0]",0.002,7,1
0,-1,"[-0.00016814867128545075, -1.570902486840719, -8.552134386263788e-05, -0.000179604893066454, -0.00012571016420537262, -9.900728334599762e-05]","[0.017023304477334023, 0.015189891681075096, 0.017007680609822273, 0.017105307430028915, 0.015275276266038418, 0.014527318067848682]","[0.0, -1.5707963267948966, 0.0, 0.0, 0.0, 0.0]","[0.0, -1.5707963267948966, 0.0, 0.0, 0.0, 0.0]",0.002,7,1
0,-1,"[-4.941621889287262e-05, -1.5706912847711756, 2.938905824834137e-05, -4.442155871586806e-05, -5.036989320927887e-05, -9.805360902959137e-05]","[0.0036911629140377045, 0.0032296604476869106, 0.0031475925352424383, 0.0030201885383576155, 0.0015509624499827623, 0.0016553370514884591]","[0.0, -1.5707963267948966, 0.0, 0.0, 0.0, 0.0]","[0.0, -1.5707963267948966, 0.0, 0.0, 0.0, 0.0]",0.002,7,1
0,-1,"[-0.00010520616640263825, -1.5707092961859708, -1.4781951904296875e-05, -7.183969531254775e-05, -8.994737734013825e-05, -0.00014192262758427887]","[-0.0030432334169745445, 0.014471790753304958, 0.0049017248675227165, 0.00035460913204587996, -0.0009802691638469696, -0.00043047452345490456]","[0.0, -1.5707963267948966, 0.0, 0.0, 0.0, 0.0]","[0.0, -1.5707963267948966, 0.0, 0.0, 0.0, 0.0]",0.002,7,1
0,-1,"[-7.325807680302887e-05, -1.570779637699463, -8.365273242816329e-05, -8.817136798100478e-05, -0.00014335313905888825, -8.041063417607575e-05]","[0.0005093628424219787, -0.004494500812143087, -0.0038209548220038414, 1.842273741203826e-05, 0.00013040822523180395, 0.00011214820551685989]","[0.0, -1.5707963267948966, 0.0, 0.0, 0.0, 0.0]","[0.0, -1.5707963267948966, 0.0, 0.0, 0.0, 0.0]",0.002,7,1
0,-1,"[-4.0356312887013246e-05, -1.5708910427489222, -6.29425048828125e-05, -3.858030352787978e-05, -6.086031068974762e-05, -9.709993471318512e-05]","[1.1525978468093084e-13, -0.005537333432585001, -0.0008443688275292516, 0.0008009746088646352, 0.0002800558868329972, 6.413485243683681e-05]","[0.0, -1.5707963267948966, 0.0, 0.0, 0.0, 0.0]","[0.0, -1.5707963267948966, 0.0, 0.0, 0.0, 0.0]",0.002,7,1
0,-1,"[-3.163014547169496e-06, -1.5709053478636683, -0.0001030096027534455, -5.6342487670946184e-05, -0.000119511281148732, -3.5587941304981996e-05]","[6.721579568901666e-25, -0.0017820978537201881, -0.0007421774207614362, 0.0001911802974063903, 0.0005718735628761351, 8.983740553958341e-05]","[0.0, -1.5707963267948966, 0.0, 0.0, 0.0, 0.0]","[0.0, -1.5707963267948966, 0.0, 0.0, 0.0, 0.0]",0.002,7,1
0,-1,"[-4.0356312887013246e-05, -1.570836683312887, -5.8591365814208984e-05, -6.826341662602431e-05, -5.3707753316700746e-05, -8.041063417607575e-05]","[3.9198126888495045e-36, -0.0005540261045098305, -0.0004066539404448122, 0.00040751902270130813, 0.0010510861175134778, 0.00012062327732564881]","[0.0, -1.5707963267948966, 0.0, 0.0, 0.0, 0.0]","[0.0, -1.5707963267948966, 0.0, 0.0, 0.0, 0.0]",0.002,7,1
0,-1,"[-6.896654237920075e-05, -1.570799013177389, -5.1021575927734375e-05, -5.193174395756728e-05, -4.560152162724762e-05, -2.366701234990387e-05]","[0.0, 0.00031731813214719296, -0.0002333950251340866, 0.0005227988585829735, 0.00070400774711743, 0.00017934649076778442]","[0.0, -1.5707963267948966, 0.0, 0.0, 0.0, 0.0]","[0.0, -1.5707963267948966, 0.0, 0.0, 0.0, 0.0]",0.002,7,1
0,-1,"[-4.941621889287262e-05, -1.5708581409850062, -3.910064697265625e-05, -2.367914233403212e-05, -7.898012270146637e-05, -5.6568776265919496e-05]","[0.0, 0.0005524425068870187, -0.0001272957306355238, 0.0006139671895653009, 0.0009077864233404398, 0.00047551048919558525]","[0.0, -1.5707963267948966, 0.0, 0.0, 0.0, 0.0]","[0.0, -1.5707963267948966, 0.0, 0.0, 0.0, 0.0]",0.002,7,1
0,-1,"[-2.1282826558888246e-05, -1.570878644982809, -2.2805856133345515e-05, -1.6168957092332903e-05, -8.408223287403871e-06, -8.231798280888825e-05]","[0.0004912146250717342, 5.410793164628558e-05, -9.656452311901376e-05, 0.0006815863307565451, 0.001435010344721377, 0.0005730254342779517]","[0.0, -1.5707963267948966, 0.0, 0.0, 0.0, 0.0]","[0.0, -1.5707963267948966, 0.0, 0.0, 0.0, 0.0]",0.002,7,1
0,-1,"[-4.9893056051075746e-05, -1.5708939037718714, -0.00012487061030697078, -3.560007128911025e-05, -3.701845277959137e-05, -3.2726918355763246e-05]","[0.00038674354436807334, 3.3501529492446867e-17, -2.1065516193630174e-05, 0.0003209009300917387, 0.0007241073180921376, 0.0006012360099703074]","[0.0, -1.5707963267948966, 0.0, 0.0, 0.0, 0.0]","[0.0, -1.5707963267948966, 0.0, 0.0, 0.0, 0.0]",0.002,7,1
0,-1,"[-5.418459047490387e-05, -1.5708981953062953, -5.1021575927734375e-05, -4.8832302429246965e-05, -5.895296205693512e-05, 0.0]","[0.00022965764219406992, -8.033576408272847e-12, -3.663054581881653e-10, 0.00025172397727146745, 0.0004092743038199842, 0.0006195577443577349]","[0.0, -1.5707963267948966, 0.0, 0.0, 0.0, 0.0]","[0.0, -1.5707963267948966, 0.0, 0.0, 0.0, 0.0]",0.002,7,1
0,-1,"[-1.2222920553028871e-05, -1.5708548031248988, -6.293367187026888e-05, -1.6168957092332903e-05, -4.560152162724762e-05, 0.0]","[0.0002095140953315422, 0.0009504733025096357, -5.1586241560846106e-27, 0.0001877806498669088, 0.00028394898981787264, 0.00038639784906990826]","[0.0, -1.5707963267948966, 0.0, 0.0, 0.0, 0.0]","[0.0, -1.5707963267948966, 0.0, 0.0, 0.0, 0.0]",0.002,7,1
0,-1,"[-2.1282826558888246e-05, -1.570850511590475, -5.217970465309918e-05, 4.573459289503035e-06, 1.8411581550026312e-05, -8.885060445606996e-06]","[0.00026601433637551963, 0.0005536539247259498, -4.036075888886911e-40, 0.00020344418589957058, 0.0002466738224029541, 0.0003015090187545866]","[0.0, -1.5707963267948966, 0.0, 0.0, 0.0, 0.0]","[0.0, -1.5707963267948966, 0.0, 0.0, 0.0, 0.0]",0.002,7,1
0,-1,"[-2.1282826558888246e-05, -1.570841451684469, -2.5986435503000394e-05, 9.103412292432722e-06, -3.0819569722950746e-05, -1.1746083394825746e-05]","[1.575879468873609e-05, 0.00030508721829392016, -0.0, 0.000175160588696599, 0.0002129397471435368, 0.0002768395352177322]","[0.0, -1.5707963267948966, 0.0, 0.0, 0.0, 0.0]","[0.0, -1.5707963267948966, 0.0, 0.0, 0.0, 0.0]",0.002,7,1
0,-1,"[-2.8912221090138246e-05, -1.570895334283346, -6.095026037655771e-06, 1.649438824458116e-05, 2.279573709529359e-05, -2.080598940068512e-05]","[9.19002226583395e-17, 0.0001301565207540989, -0.0, 0.0001715613907435909, 0.00020090799080207944, 0.00017900379316415638]","[0.0, -1.5707963267948966, 0.0, 0.0, 0.0, 0.0]","[0.0, -1.5707963267948966, 0.0, 0.0, 0.0, 0.0]",0.002,7,1
0,-1,"[-5.070363179981996e-06, -1.57086243251943, -3.356059460202232e-05, -1.1758213378953997e-05, -4.750887026006012e-05, -2.080598940068512e-05]","[5.35932858967011e-28, 0.00010091132571687922, -0.0, 0.00015010146307758987, 0.00016864969802554697, 0.00017309837858192623]","[0.0, -1.5707963267948966, 0.0, 0.0, 0.0, 0.0]","[0.0, -1.5707963267948966, 0.0, 0.0, 0.0, 0.0]",0.002,7,1
0,-1,"[-1.6514454976856996e-05, -1.570834299127096, -7.171426113927737e-05, 4.236280407710069e-05, 2.2778129277867265e-05, -3.2726918355763246e-05]","[0.0, 4.83720468764659e-05, -0.0, 0.00010788412328111008, 0.00014347150863613933, 0.00015585498476866633]","[0.0, -1.5707963267948966, 0.0, 0.0, 0.0, 0.0]","[0.0, -1.5707963267948966, 0.0, 0.0, 0.0, 0.0]",0.002,7,1
0,-1,"[4.291534423828125e-06, -1.570834299127096, -7.171426113927737e-05, 1.6271557612412835e-07, -1.7468129293263246e-05, 1.9651750335469842e-05]","[0.0, 8.73191820573993e-05, -0.0, 9.844333544606343e-05, 0.00012767045700456947, 0.0001434354780940339]","[0.0, -1.5707963267948966, 0.0, 0.0, 0.0, 0.0]","[0.0, -1.5707963267948966, 0.0, 0.0, 0.0, 0.0]",0.002,7,1
0,-1,"[-5.418459047490387e-05, -1.570904394189352, -7.176694634836167e-05, 3.354131665034288e-05, 2.0146371753071435e-06, 1.235380841535516e-05]","[0.0, 0.0003170556447003037, -0.0, 9.052175300894305e-05, 0.00011465767602203414, 0.00014759329496882856]","[0.0, -1.5707963267948966, 0.0, 0.0, 0.0, 0.0]","[0.0, -1.5707963267948966, 0.0, 0.0, 0.0, 0.0]",0.002,7,1
0,-1,"[-8.279481996709137e-05, -1.57086243251943, -7.169906166382134e-05, 2.0905131957960066e-05, 1.5459536371054128e-05, 3.3555504614923848e-06]","[0.0, 0.00025541908689774573, -0.0, 7.934853783808649e-05, 9.730216697789729e-05, 0.00012004793825326487]","[0.0, -1.5707963267948966, 0.0, 0.0, 0.0, 0.0]","[0.0, -1.5707963267948966, 0.0, 0.0, 0.0, 0.0]",0.002,7,1
0,-1,"[-4.7032033101856996e-05, -1.5708548031248988, -7.170772732933983e-05, 1.6271557612412835e-07, -6.024037496388246e-06, -4.593526021778871e-06]","[0.0, 0.0002388844295637682, -0.0, 6.848070916021243e-05, 8.14511877251789e-05, 9.680442599346861e-05]","[0.0, -1.5707963267948966, 0.0, 0.0, 0.0, 0.0]","[0.0, -1.5707963267948966, 0.0, 0.0, 0.0, 0.0]",0.002,7,1
0,-1,"[-1.2222920553028871e-05, -1.570867200891012, -7.917649782029912e-05, 3.640233959956163e-05, -6.024037496388246e-06, 7.82193001214182e-06]","[0.0, 0.0001945928088389337, -0.0, 6.27511108177714e-05, 8.813346357783303e-05, 8.573787636123598e-05]","[0.0, -1.5707963267948966, 0.0, 0.0, 0.0, 0.0]","[0.0, -1.5707963267948966, 0.0, 0.0, 0.0, 0.0]",0.002,7,1
0,-1,"[-5.070363179981996e-06, -1.570843359033102, -8.365273242816329e-05, 3.354131665034288e-05, 6.4373016357421875e-06, 3.337860107421875e-06]","[0.0, 0.0002555501996539533, 6.0069553001085296e-05, 5.8660476497607306e-05, 8.151104702847078e-05, 7.827938679838553e-05]","[0.0, -1.5707963267948966, 0.0, 0.0, 0.0, 0.0]","[0.0, -1.5707963267948966, 0.0, 0.0, 0.0, 0.0]",0.002,7,1
0,-1,"[-5.070363179981996e-06, -1.5708595714964808, -2.7223368306295015e-05, -3.703058276371962e-05, 1.1036873729608487e-05, 2.4228163965744898e-05]","[0.0, 0.0008701836341060698, 6.52674789307639e-05, 5.3120875236345455e-05, 7.272863149410114e-05, 6.871645018691197e-05]","[0.0, -1.5707963267948966, 0.0, 0.0, 0.0, 0.0]","[0.0, -1.5707963267948966, 0.0, 0.0, 0.0, 0.0]",0.002,7,1
0,-1,"[-9.361897603810121e-06, -1.5708023510374964, -5.224976848694496e-05, -4.156053576664931e-05, 3.9083039155229926e-05, -7.788287561538709e-07]","[0.0, 0.00047468108823522925, 5.28828204551246e-05, 6.998905455191107e-09, 6.48665736662224e-05, 6.0414240579120815e-05]","[0.0, -1.5707963267948966, 0.0, 0.0, 0.0, 0.0]","[0.0, -1.5707963267948966, 0.0, 0.0, 0.0, 0.0]",0.002,7,1
0,-1,"[-3.320375551396637e-05, -1.5708214245238246, -3.910064697265625e-05, -1.6168957092332903e-05, 3.912449028575793e-05, -5.547200338185121e-06]","[0.0, 0.0001460128405597061, 0.00015344555140472949, 6.435069851685731e-22, 2.145192468105961e-09, 5.264045830699615e-05]","[0.0, -1.5707963267948966, 0.0, 0.0, 0.0, 0.0]","[0.0, -1.5707963267948966, 0.0, 0.0, 0.0, 0.0]",0.002,7,1
0,-1,"[-6.324449648076325e-05, -1.5708548031248988, -6.844782910775393e-05, 1.2083644531202253e-05, 4.814672138309106e-05, -8.885060445606996e-06]","[0.0, -0.00011248044029343873, 0.00014089465548750013, 1.387858131684285e-32, 4.6265588140328914e-20, 9.038500503599778e-10]","[0.0, -1.5707963267948966, 0.0, 0.0, 0.0, 0.0]","[0.0, -1.5707963267948966, 0.0, 0.0, 0.0, 0.0]",0.002,7,1
0,-1,"[-3.797212709599762e-05, -1.570784406071045, -5.5325977882603183e-05, -8.897190429735247e-06, -2.652803529912262e-05, 7.836818440409843e-06]","[0.0, -5.6631652114447206e-05, 0.00015515231643803418, 4.5836472768064766e-42, 1.528213674735673e-29, 2.985536264045166e-19]","[0.0, -1.5707963267948966, 0.0, 0.0, 0.0, 0.0]","[0.0, -1.5707963267948966, 0.0, 0.0, 0.0, 0.0]",0.002,7,1
0,-1,"[7.173776339186588e-06, -1.5708567104735316, -4.7857309255050495e-05, 3.354131665034288e-05, 2.0146371753071435e-06, -4.3217335836231996e-05]","[0.0, -2.368138484598603e-05, 0.00018452068616170436, 0.0, 1.1840734363325155e-36, 2.313219665061536e-26]","[0.0, -1.5707963267948966, 0.0, 0.0, 0.0, 0.0]","[0.0, -1.5707963267948966, 0.0, 0.0, 0.0, 0.0]",0.002,7,1
0,-1,"[2.08302717510378e-05, -1.5708023510374964, 1.7468129293263246e-05, 2.9130572936963972e-05, -6.024037496388246e-06, 3.337860107421875e-06]","[0.0, -2.8416725676234814e-21, 0.00038923625834286213, 0.0, 0.0, 4.988944495331512e-37]","[0.0, -1.5707963267948966, 0.0, 0.0, 0.0, 0.0]","[0.0, -1.5707963267948966, 0.0, 0.0, 0.0, 0.0]",0.002,7,1
0,-1,"[-1.6514454976856996e-05, -1.5708524189391078, -4.78464353363961e-05, -3.703058276371962e-05, 1.8358230590820312e-05, 7.858017852413468e-06]","[0.0, -1.6571727036653022e-32, 0.00035690469667315483, 0.0, 0.0, 3.923635700109488e-44]","[0.0, -1.5707963267948966, 0.0, 0.0, 0.0, 0.0]","[0.0, -1.5707963267948966, 0.0, 0.0, 0.0, 0.0]",0.002,7,1
0,-1,"[-1.2222920553028871e-05, -1.5708524189391078, -1.8433929653838277e-05, -3.405035052495009e-05, -2.175966371709137e-05, 7.845834261388518e-06]","[0.0, -9.668959403841238e-44, 0.00014570844359695911, 0.0, 0.0, 0.0]","[0.0, -1.5707963267948966, 0.0, 0.0, 0.0, 0.0]","[0.0, -1.5707963267948966, 0.0, 0.0, 0.0, 0.0]",0.002,7,1
0,-1,"[-1.2222920553028871e-05, -1.5708142719664515, -9.231558215105906e-05, -3.416955981450087e-05, 2.280170338053722e-05, 1.9669532775878906e-05]","[0.0, 0.0, -1.2927493975587252e-18, 0.0, 0.0, 0.0]","[0.0, -1.5707963267948966, 0.0, 0.0, 0.0, 0.0]","[0.0, -1.5707963267948966, 0.0, 0.0, 0.0, 0.0]",0.002,7,1
0,-1,"[-5.895296205693512e-05, -1.5708400211729945, -5.536954267881811e-05, 4.573459289503035e-06, -1.732503072560121e-06, -3.8448964254200746e-05]","[-8.51409204187803e-05, 0.0, -7.538903056343314e-30, 0.0, 0.0, 0.0]","[0.0, -1.5707963267948966, 0.0, 0.0, 0.0, 0.0]","[0.0, -1.5707963267948966, 0.0, 0.0, 0.0, 0.0]",0.002,7,1
0,-1,"[-1.4130269185841371e-05, -1.5708524189391078, -6.731611210852861e-05, -1.1758213378953997e-05, 6.006765033816919e-05, 2.418634539935738e-05]","[-8.179446886494756e-20, 0.0, -0.0, 0.0, 0.0, 0.0]","[0.0, -1.5707963267948966, 0.0, 0.0, 0.0, 0.0]","[0.0, -1.5707963267948966, 0.0, 0.0, 0.0, 0.0]",0.002,7,1
0,-1,"[-5.070363179981996e-06, -1.5708476505675257, -3.479624501778744e-05, -2.057970080571181e-05, -4.3217335836231996e-05, 2.7179718017578125e-05]","[-1.1518994442254142e-36, 0.0, -0.0, 0.0, 0.0, 0.0]","[0.0, -1.5707963267948966, 0.0, 0.0, 0.0, 0.0]","[0.0, -1.5707963267948966, 0.0, 0.0, 0.0, 0.0]",0.002,7,1
0,1,"[-4.7032033101856996e-05, -1.570719750405562, 3.8448964254200746e-05, 9.600698437495225e-05, 7.965493568917736e-05, 8.538270049029961e-05]","[0.021149281412363052, 0.09717470407485962, 0.06501096487045288, 0.03472394868731499, 0.03246326744556427, 0.03306229040026665]","[0.04418479434657463, -1.5266115324483218, 0.04418479434657463, 0.04418479434657463, 0.04418479434657463, 0.04418479434657463]","[0.04418479434657463, -1.5266115324483218, 0.04418479434657463, 0.04418479434657463, 0.04418479434657463, 0.04418479434657463]",0.002,7,1
0,2,"[-4.7032033101856996e-05, -1.570719750405562, 3.8448964254200746e-05, 9.600698437495225e-05, 7.965493568917736e-05, 8.538270049029961e-05]","[0.021149281412363052, 0.09717470407485962, 0.06501096487045288, 0.03472394868731499, 0.03246326744556427, 0.03306229040026665]","[0.04461996713404648, -1.52617635966085, 0.04461996713404648, 0.04461996713404648, 0.04461996713404648, 0.04461996713404648]","[0.04461996713404648, -1.52617635966085, 0.04461996713404648, 0.04461996713404648, 0.04461996713404648, 0.04461996713404648]",0.002,7,1
0,3,"[-1.732503072560121e-06, -1.5706042821005504, 0.00014335313905888825, 0.0001337963291625499, 0.00014748790999874473, 0.00020199322898406535]","[0.029904207214713097, 0.11629945039749146, 0.08087466657161713, 0.05403757095336914, 0.05370669811964035, 0.05316181853413582]","[0.045055069432306895, -1.5257412573625897, 0.045055069432306895, 0.045055069432306895, 0.045055069432306895, 0.045055069432306895]","[0.045055069432306895, -1.5257412573625897, 0.045055069432306895, 0.045055069432306895, 0.045055069432306895, 0.045055069432306895]",0.002,7,1
0,4,"[0.00019964610692113638, -1.570452959076949, 0.000226322804586232, 0.00023929655041499132, 0.0003215322212781757, 0.00029234218527562916]","[0.032844193279743195, 0.10953383147716522, 0.07582550495862961, 0.05758775398135185, 0.05827001482248306, 0.059187401086091995]","[0.045490100553995036, -1.5253062262409016, 0.045490100553995036, 0.045490100553995036, 0.045490100553995036, 0.045490100553995036]","[0.045490100553995036, -1.5253062262409016, 0.045490100553995036, 0.045490100553995036, 0.045490100553995036, 0.045490100553995036]",0.002,7,1
0,5,"[0.0002562713634688407, -1.570259227159415, 0.0005229155169885757, 0.00037960588421626085, 0.0004583608533721417, 0.0004047983675263822]","[0.04481866955757141, 0.10093996673822403, 0.07578375935554504, 0.057570215314626694, 0.05858822539448738, 0.059490304440259933]","[0.04592505981186254, -1.524871266983034, 0.04592505981186254, 0.04592505981186254, 0.04592505981186254, 0.04592505981186254]","[0.04592505981186254, -1.524871266983034, 0.04592505981186254, 0.04592505981186254, 0.04592505981186254, 0.04592505981186254]",0.002,7,1
0,6,"[0.0004196380323264748, -1.5701348568876092, 0.0006402174579065445, 0.000531001681945753, 0.0005094127263873816, 0.0005411560996435583]","[0.05659481883049011, 0.10333237797021866, 0.08361352980136871, 0.06291703134775162, 0.06117964908480644, 0.06089353561401367]","[0.0463599465187745, -1.524436380276122, 0.0463599465187745, 0.0463599465187745, 0.0463599465187745, 0.0463599465187745]","[0.0463599465187745, -1.524436380276122, 0.0463599465187745, 0.0463599465187745, 0.0463599465187745, 0.0463599465187745]",0.002,7,1
0,7,"[0.0005442450055852532, -1.5699003777447906, 0.0007665793048303726, 0.0007077890583495616, 0.0006011357181705534, 0.0006495248526334763]","[0.07227407395839691, 0.09462981671094894, 0.0859888345003128, 0.07141615450382233, 0.06566600501537323, 0.06696375459432602]","[0.0467947599877107, -1.5240015668071858, 0.0467947599877107, 0.0467947599877107, 0.0467947599877107, 0.0467947599877107]","[0.0467947599877107, -1.5240015668071858, 0.0467947599877107, 0.0467947599877107, 0.0467947599877107, 0.0467947599877107]",0.002,7,1
0,8,"[0.0006853509112261236, -1.5697868278114875, 0.0009153524981897476, 0.0008786159702758312, 0.000816277286503464, 0.0007975201588124037]","[0.07997898012399673, 0.07820253819227219, 0.07295196503400803, 0.08114613592624664, 0.07166481763124466, 0.07618072628974915]","[0.047229499531766576, -1.52356682726313, 0.047229499531766576, 0.047229499531766576, 0.047229499531766576, 0.047229499531766576]","[0.047229499531766576, -1.52356682726313, 0.047229499531766576, 0.047229499531766576, 0.047229499531766576, 0.047229499531766576]",0.002,7,1
0,9,"[0.0009105437784455717, -1.5697210142719378, 0.0010560194598596695, 0.0009760099598388194, 0.0009588351240381598, 0.0009415779495611787]","[0.09025926142930984, 0.04836975410580635, 0.06903216242790222, 0.08060482889413834, 0.07919052988290787, 0.07882324606180191]","[0.047664164464154356, -1.5231321623307421, 0.047664164464154356, 0.047664164464154356, 0.047664164464154356, 0.047664164464154356]","[0.047664164464154356, -1.5231321623307421, 0.047664164464154356, 0.047664164464154356, 0.047664164464154356, 0.047664164464154356]",0.002,7,1
0,10,"[0.0010947983246296644, -1.5695649788579722, 0.0012276808368127945, 0.0010897356220702648, 0.0011107750469818711, 0.0011003933614119887]","[0.09619037061929703, 0.05603249371051788, 0.08250220119953156, 0.08232901245355606, 0.08826834708452225, 0.08577894419431686]","[0.048098754098204126, -1.5226975726966925, 0.048098754098204126, 0.048098754098204126, 0.048098754098204126, 0.048098754098204126]","[0.048098754098204126, -1.5226975726966925, 0.048098754098204126, 0.048098754098204126, 0.048098754098204126, 0.048098754098204126]",0.002,7,1
0,11,"[0.001279472722671926, -1.5693788027022784, 0.0013969580279749039, 0.0013235050388793468, 0.001311881234869361, 0.001346267876215279]","[0.10156690329313278, 0.08689986169338226, 0.09504705667495728, 0.09097369015216827, 0.09749694168567657, 0.09362158179283142]","[0.048533267747364967, -1.5222630590475317, 0.048533267747364967, 0.048533267747364967, 0.048533267747364967, 0.048533267747364967]","[0.048533267747364967, -1.5222630590475317, 0.048533267747364967, 0.048533267747364967, 0.048533267747364967, 0.048533267747364967]",0.002,7,1
0,12,"[0.0014385217800736427, -1.5692229313175012, 0.0015609900103967789, 0.0015694338032226085, 0.001549325417727232, 0.0015217636246234179]","[0.10601422935724258, 0.09618116915225983, 0.09919153153896332, 0.09666991233825684, 0.10377263277769089, 0.10161158442497253]","[0.048967704725205966, -1.5218286220696906, 0.048967704725205966, 0.048967704725205966, 0.048967704725205966, 0.048967704725205966]","[0.048967704725205966, -1.5218286220696906, 0.048967704725205966, 0.048967704725205966, 0.048967704725205966, 0.048967704725205966]",0.002,7,1
0,13,"[0.001699611428193748, -1.5690354515430336, 0.0018065611468713882, 0.0017803150364379405, 0.0017069781897589564, 0.0017119814874604344]","[0.11273130029439926, 0.0998227521777153, 0.10456901043653488, 0.10561621189117432, 0.11118147522211075, 0.11092735826969147]","[0.049402064345417336, -1.5213942624494792, 0.049402064345417336, 0.049402064345417336, 0.049402064345417336, 0.049402064345417336]","[0.049402064345417336, -1.5213942624494792, 0.049402064345417336, 0.049402064345417336, 0.049402064345417336, 0.049402064345417336]",0.002,7,1
0,14,"[0.0019156186608597636, -1.5688177771265437, 0.0020468870746057632, 0.0019965606876830577, 0.0019909481052309275, 0.0020235783886164427]","[0.11966679990291595, 0.1062861829996109, 0.11274909973144531, 0.11562523990869522, 0.11318811774253845, 0.11427658051252365]","[0.04983634592181149, -1.5209599808730851, 0.04983634592181149, 0.04983634592181149, 0.04983634592181149, 0.04983634592181149]","[0.04983634592181149, -1.5209599808730851, 0.04983634592181149, 0.04983634592181149, 0.04983634592181149, 0.04983634592181149]",0.002,7,1
0,15,"[0.002241233829408884, -1.5685474307141085, 0.0022576490985315445, 0.0022227007099608898, 0.0022598898503929377, 0.0021692824084311724]","[0.1267092525959015, 0.11484409868717194, 0.12164026498794556, 0.12158799171447754, 0.12180018424987793, 0.12294416129589081]","[0.05027054876832418, -1.5205257780265724, 0.05027054876832418, 0.05027054876832418, 0.05027054876832418, 0.05027054876832418]","[0.05027054876832418, -1.5205257780265724, 0.05027054876832418, 0.05027054876832418, 0.05027054876832418, 0.05027054876832418]",0.002,7,1
0,16,"[0.0025173677131533623, -1.5682760272505512, 0.0025470892535608414, 0.002499981517456007, 0.002495812950655818, 0.0024703305680304766]","[0.1374594271183014, 0.12262628227472305, 0.12780429422855377, 0.12721963226795197, 0.12808586657047272, 0.12692062556743622]","[0.05070467219901544, -1.5200916545958811, 0.05070467219901544, 0.05070467219901544, 0.05070467219901544, 0.05070467219901544]","[0.05070467219901544, -1.5200916545958811, 0.05070467219901544, 0.05070467219901544, 0.05070467219901544, 0.05070467219901544]",0.002,7,1
0,17,"[0.0027527727652341127, -1.5680288500482966, 0.0028489271747034195, 0.002751632327697706, 0.0027436965610831976, 0.002764579141512513]","[0.14213064312934875, 0.13282957673072815, 0.1347717046737671, 0.13467425107955933, 0.1355048567056656, 0.13423369824886322]","[0.051138715528070866, -1.5196576112668256, 0.051138715528070866, 0.051138715528070866, 0.051138715528070866, 0.051138715528070866]","[0.051138715528070866, -1.5196576112668256, 0.051138715528070866, 0.051138715528070866, 0.051138715528070866, 0.051138715528070866]",0.002,7,1
0,18,"[0.0030782977119088173, -1.567764842450135, 0.0031207243548792007, 0.002964778537414503, 0.0030462832655757666, 0.003050772240385413]","[0.14866846799850464, 0.1341201812028885, 0.14099003374576569, 0.14175230264663696, 0.14195938408374786, 0.14089372754096985]","[0.051572678069802536, -1.519223648725094, 0.051572678069802536, 0.051572678069802536, 0.051572678069802536, 0.051572678069802536]","[0.051572678069802536, -1.519223648725094, 0.051572678069802536, 0.051572678069802536, 0.051572678069802536, 0.051572678069802536]",0.002,7,1
0,19,"[0.0033874737564474344, -1.5674484900994976, 0.0034220854388635757, 0.0033079820820312023, 0.003341914853081107, 0.003319242736324668]","[0.15425918996334076, 0.14355430006980896, 0.14813433587551117, 0.148194819688797, 0.14637866616249084, 0.14773300290107727]","[0.05200655913865015, -1.5187897676562465, 0.05200655913865015, 0.05200655913865015, 0.05200655913865015, 0.05200655913865015]","[0.05200655913865015, -1.5187897676562465, 0.05200655913865015, 0.05200655913865015, 0.05200655913865015, 0.05200655913865015]",0.002,7,1
0,20,"[0.003636318724602461, -1.5671317095733066, 0.0037534872638147476, 0.00359909116711421, 0.0036696274764835835, 0.0036338840145617723]","[0.15940675139427185, 0.15004388988018036, 0.153706356883049, 0.15105433762073517, 0.1548035442829132, 0.15459154546260834]","[0.05244035804918214, -1.5183559687457144, 0.05244035804918214, 0.05244035804918214, 0.05244035804918214, 0.05244035804918214]","[0.05244035804918214, -1.5183559687457144, 0.05244035804918214, 0.05244035804918214, 0.05244035804918214, 0.05244035804918214]",0.002,7,1
0,21,"[0.0040716612711548805, -1.566878525806107, 0.00404531160463506, 0.0038701730915526866, 0.004003549925982952, 0.004008641932159662]","[0.16550317406654358, 0.1578526645898819, 0.1600339710712433, 0.15842758119106293, 0.16103626787662506, 0.16058000922203064]","[0.05287407411609672, -1.5179222526787999, 0.05287407411609672, 0.05287407411609672, 0.05287407411609672, 0.05287407411609672]","[0.05287407411609672, -1.5179222526787999, 0.05287407411609672, 0.05287407411609672, 0.05287407411609672, 0.05287407411609672]",0.002,7,1
0,22,"[0.004412156064063311, -1.5664882546155532, 0.004394833241597951, 0.0042838293262938976, 0.004332605749368668, 0.004282775800675154]","[0.17337113618850708, 0.16441895067691803, 0.16595621407032013, 0.16545119881629944, 0.16767850518226624, 0.1651831865310669]","[0.05330770665422299, -1.5174886201406736, 0.05330770665422299, 0.05330770665422299, 0.05330770665422299, 0.05330770665422299]","[0.05330770665422299, -1.5174886201406736, 0.05330770665422299, 0.05330770665422299, 0.05330770665422299, 0.05330770665422299]",0.002,7,1
0,23,"[0.004766000434756279, -1.5661267571016033, 0.004770580922262013, 0.004680438632629347, 0.004702399484813213, 0.004651716444641352]","[0.18145804107189178, 0.17094986140727997, 0.17546555399894714, 0.17383217811584473, 0.1726665049791336, 0.17432983219623566]","[0.05374125497852198, -1.5170550718163747, 0.05374125497852198, 0.05374125497852198, 0.05374125497852198, 0.05374125497852198]","[0.05374125497852198, -1.5170550718163747, 0.05374125497852198, 0.05374125497852198, 0.05374125497852198, 0.05374125497852198]",0.002,7,1
0,24,"[0.005184739362448454, -1.565747268298157, 0.005156342183248341, 0.005011721248290968, 0.005062762647867203, 0.005082036834210157]","[0.1849931925535202, 0.17955325543880463, 0.1810980886220932, 0.1836031675338745, 0.17826582491397858, 0.18137620389461517]","[0.05417471840408779, -1.5166216083908088, 0.05417471840408779, 0.05417471840408779, 0.05417471840408779, 0.05417471840408779]","[0.05417471840408779, -1.5166216083908088, 0.05417471840408779, 0.05417471840408779, 0.05417471840408779, 0.05417471840408779]",0.002,7,1
0,25,"[0.005552477668970823, -1.5653617184473951, 0.005581680928365529, 0.005422874087951612, 0.005473936442285776, 0.005387982353568077]","[0.19202789664268494, 0.18564915657043457, 0.18680419027805328, 0.1897851526737213, 0.18633906543254852, 0.18658000230789185]","[0.05460809624614861, -1.516188230548748, 0.05460809624614861, 0.05460809624614861, 0.05460809624614861, 0.05460809624614861]","[0.05460809624614861, -1.516188230548748, 0.05460809624614861, 0.05460809624614861, 0.05460809624614861, 0.05460809624614861]",0.002,7,1
0,26,"[0.005915260408073664, -1.5649825397743662, 0.005917374287740529, 0.005843206042907667, 0.005878830328583717, 0.005783369764685631]","[0.1958276480436325, 0.19137808680534363, 0.19276881217956543, 0.1947208195924759, 0.19015122950077057, 0.1921943873167038]","[0.05504138782006785, -1.5157549389748286, 0.05504138782006785, 0.05504138782006785, 0.05504138782006785, 0.05504138782006785]","[0.05504138782006785, -1.5157549389748286, 0.05504138782006785, 0.05504138782006785, 0.05504138782006785, 0.05504138782006785]",0.002,7,1
0,27,"[0.00634609954431653, -1.5646312863430758, 0.0063431898700159195, 0.006206317538879347, 0.0062661683186888695, 0.006145361345261335]","[0.19990921020507812, 0.19744037091732025, 0.19746556878089905, 0.19542749226093292, 0.19631437957286835, 0.19677141308784485]","[0.055474592441345186, -1.5153217343535514, 0.055474592441345186, 0.055474592441345186, 0.055474592441345186, 0.055474592441345186]","[0.055474592441345186, -1.5153217343535514, 0.055474592441345186, 0.055474592441345186, 0.055474592441345186, 0.055474592441345186]",0.002,7,1
0,28,"[0.006744883023202419, -1.564223702331521, 0.0067055861102502945, 0.006598516101501417, 0.006643530447036028, 0.006590180564671755]","[0.20579983294010162, 0.2030521184206009, 0.20464035868644714, 0.1993698626756668, 0.20413008332252502, 0.20370633900165558]","[0.0559077094256177, -1.5148886173692788, 0.0559077094256177, 0.0559077094256177, 0.0559077094256177, 0.0559077094256177]","[0.0559077094256177, -1.5148886173692788, 0.0559077094256177, 0.0559077094256177, 0.0559077094256177, 0.0559077094256177]",0.002,7,1
0,29,"[0.007153100799769163, -1.5637871439433475, 0.007093254719869435, 0.007018848056457472, 0.007025317754596472, 0.006998379714787006]","[0.21250908076763153, 0.2111130654811859, 0.2088184803724289, 0.20538930594921112, 0.20812168717384338, 0.20922961831092834]","[0.05634073808866088, -1.5144555887062356, 0.05634073808866088, 0.05634073808866088, 0.05634073808866088, 0.05634073808866088]","[0.05634073808866088, -1.5144555887062356, 0.05634073808866088, 0.05634073808866088, 0.05634073808866088, 0.05634073808866088]",0.002,7,1
0,30,"[0.007592461071908474, -1.5633608464016397, 0.007596317921773732, 0.007515593166015577, 0.007480629254132509, 0.007459254935383797]","[0.21656416356563568, 0.2170589715242386, 0.21602080762386322, 0.21221254765987396, 0.2142101675271988, 0.21626074612140656]","[0.05677367774638972, -1.514022649048507, 0.05677367774638972, 0.05677367774638972, 0.05677367774638972, 0.05677367774638972]","[0.05677367774638972, -1.514022649048507, 0.05677367774638972, 0.05677367774638972, 0.05677367774638972, 0.05677367774638972]",0.002,7,1
0,31,"[0.008053131401538849, -1.5629183773747464, 0.008082214985982716, 0.007966442699096632, 0.007943244650959969, 0.007882650941610336]","[0.22266516089439392, 0.22026591002941132, 0.22313103079795837, 0.21945254504680634, 0.2205958068370819, 0.22156456112861633]","[0.05720652771485992, -1.5135897990800367, 0.05720652771485992, 0.05720652771485992, 0.05720652771485992, 0.05720652771485992]","[0.05720652771485992, -1.5135897990800367, 0.05720652771485992, 0.05720652771485992, 0.05720652771485992, 0.05720652771485992]",0.002,7,1
0,32,"[0.008473105728626251, -1.5624865929460903, 0.008525673543111623, 0.008413596744201612, 0.008371721021831036, 0.008326145820319653]","[0.22936105728149414, 0.22674110531806946, 0.2275858074426651, 0.22625324130058289, 0.22326521575450897, 0.2269279807806015]","[0.057639287310268766, -1.5131570394846279, 0.057639287310268766, 0.057639287310268766, 0.057639287310268766, 0.057639287310268766]","[0.057639287310268766, -1.5131570394846279, 0.057639287310268766, 0.057639287310268766, 0.057639287310268766, 0.057639287310268766]",0.002,7,1
0,33,"[0.008942880667746067, -1.5620141693255682, 0.00893575349916631, 0.008917971248290968, 0.00879986397922039, 0.008713385090231895]","[0.23233024775981903, 0.23248635232448578, 0.2320629507303238, 0.2307412028312683, 0.22942005097866058, 0.23219257593154907]","[0.05807195584895635, -1.5127243709459401, 0.05807195584895635, 0.05807195584895635, 0.05807195584895635, 0.05807195584895635]","[0.05807195584895635, -1.5127243709459401, 0.05807195584895635, 0.05807195584895635, 0.05807195584895635, 0.05807195584895635]",0.002,7,1
0,34,"[0.009422817267477512, -1.561487353672721, 0.009466473256246388, 0.009404702777526808, 0.009271979331970215, 0.009241776540875435]","[0.2356964349746704, 0.23925253748893738, 0.238091841340065, 0.23541654646396637, 0.23629190027713776, 0.23912420868873596]","[0.05850453264740661, -1.51229179414749, 0.05850453264740661, 0.05850453264740661, 0.05850453264740661, 0.05850453264740661]","[0.05850453264740661, -1.51229179414749, 0.05850453264740661, 0.05850453264740661, 0.05850453264740661, 0.05850453264740661]",0.002,7,1
0,35,"[0.009903037920594215, -1.5610334754786273, 0.009923283253804982, 0.009842677707336378, 0.009813623502850533, 0.009665112011134624]","[0.24113832414150238, 0.2406531572341919, 0.2414841204881668, 0.23748943209648132, 0.2406269609928131, 0.24265506863594055]","[0.05893701702224843, -1.511859309772648, 0.05893701702224843, 0.05893701702224843, 0.05893701702224843, 0.05893701702224843]","[0.05893701702224843, -1.511859309772648, 0.05893701702224843, 0.05893701702224843, 0.05893701702224843, 0.05893701702224843]",0.002,7,1
0,36,"[0.010336182080209255, -1.5605816899663587, 0.010390583668844044, 0.01031593858685298, 0.010269672609865665, 0.010158414952456951]","[0.24611595273017883, 0.24541087448596954, 0.24420638382434845, 0.24190451204776764, 0.24509784579277039, 0.24630725383758545]","[0.059369408290256664, -1.5114269185046398, 0.059369408290256664, 0.059369408290256664, 0.059369408290256664, 0.059369408290256664]","[0.059369408290256664, -1.5114269185046398, 0.059369408290256664, 0.059369408290256664, 0.059369408290256664, 0.059369408290256664]",0.002,7,1
0,37,"[0.010908136144280434, -1.560023646136262, 0.010907951985494435, 0.010834498996398878, 0.010757258161902428, 0.010698627680540085]","[0.25173529982566833, 0.2504521906375885, 0.24914057552814484, 0.24696917831897736, 0.24977746605873108, 0.2503323256969452]","[0.05980170576835331, -1.5109946210265432, 0.05980170576835331, 0.05980170576835331, 0.05980170576835331, 0.05980170576835331]","[0.05980170576835331, -1.5109946210265432, 0.05980170576835331, 0.05980170576835331, 0.05980170576835331, 0.05980170576835331]",0.002,7,1
0,38,"[0.011350385844707489, -1.5595810052803536, 0.01142913499941045, 0.011360808009765577, 0.011254264973104, 0.011203981935977936]","[0.2556558847427368, 0.25318676233291626, 0.25388121604919434, 0.25207918882369995, 0.25317299365997314, 0.2564477324485779]","[0.060233908773608465, -1.510562418021288, 0.060233908773608465, 0.060233908773608465, 0.060233908773608465, 0.060233908773608465]","[0.060233908773608465, -1.510562418021288, 0.060233908773608465, 0.060233908773608465, 0.060233908773608465, 0.060233908773608465]",0.002,7,1
0,39,"[0.01189967431128025, -1.559039620017149, 0.011983219777242482, 0.011820359820983839, 0.011763002723455429, 0.011694351211190224]","[0.25774261355400085, 0.258190780878067, 0.2586968243122101, 0.2563927471637726, 0.2589617967605591, 0.261949360370636]","[0.060666016623241524, -1.510130310171655, 0.060666016623241524, 0.060666016623241524, 0.060666016623241524, 0.060666016623241524]","[0.060666016623241524, -1.510130310171655, 0.060666016623241524, 0.060666016623241524, 0.060666016623241524, 0.060666016623241524]",0.002,7,1
0,40,"[0.01242035161703825, -1.558502546777465, 0.012488190327779591, 0.012396259898803663, 0.012267321348190308, 0.012222209945321083]","[0.26373374462127686, 0.2620942294597626, 0.2615388035774231, 0.26249974966049194, 0.26394033432006836, 0.26672735810279846]","[0.061098028634622194, -1.5096982981602745, 0.061098028634622194, 0.061098028634622194, 0.061098028634622194, 0.061098028634622194]","[0.061098028634622194, -1.5096982981602745, 0.061098028634622194, 0.061098028634622194, 0.061098028634622194, 0.061098028634622194]",0.002,7,1
0,41,"[0.013026457279920578, -1.5579674255898972, 0.012998882924215138, 0.012916250819824171, 0.01273699477314949, 0.012770511209964752]","[0.2691587507724762, 0.2683408856391907, 0.2655361294746399, 0.26655611395835876, 0.2681386470794678, 0.27102524042129517]","[0.06152994412527155, -1.509266382669625, 0.06152994412527155, 0.06152994412527155, 0.06152994412527155, 0.06152994412527155]","[0.06152994412527155, -1.509266382669625, 0.06152994412527155, 0.06152994412527155, 0.06152994412527155, 0.06152994412527155]",0.002,7,1
0,42,"[0.013535902835428715, -1.5574514784714957, 0.013525311146871388, 0.013483210200927687, 0.013340259902179241, 0.013281735591590405]","[0.27135902643203735, 0.27387040853500366, 0.2685145139694214, 0.2696644067764282, 0.27334994077682495, 0.27673599123954773]","[0.06196176241286319, -1.5088345643820333, 0.06196176241286319, 0.06196176241286319, 0.06196176241286319, 0.06196176241286319]","[0.06196176241286319, -1.5088345643820333, 0.06196176241286319, 0.06196176241286319, 0.06196176241286319, 0.06196176241286319]",0.002,7,1
0,43,"[0.014113690704107285, -1.556849500430264, 0.01406413713564092, 0.014021082515380812, 0.01385501679033041, 0.013879694044589996]","[0.27602022886276245, 0.2788275182247162, 0.2742156982421875, 0.27150285243988037, 0.27692216634750366, 0.2794884741306305]","[0.062393482815224256, -1.5084028439796724, 0.062393482815224256, 0.062393482815224256, 0.062393482815224256, 0.062393482815224256]","[0.062393482815224256, -1.5084028439796724, 0.062393482815224256, 0.062393482815224256, 0.062393482815224256, 0.062393482815224256]",0.002,7,1
0,44,"[0.01464001927524805, -1.5563563111102958, 0.014624897633687794, 0.01457027971234126, 0.014484990388154984, 0.014422115869820118]","[0.2801794707775116, 0.2835931181907654, 0.2790246605873108, 0.27587106823921204, 0.28258711099624634, 0.2825915515422821]","[0.06282510465033653, -1.50797122214456, 0.06282510465033653, 0.06282510465033653, 0.06282510465033653, 0.06282510465033653]","[0.06282510465033653, -1.50797122214456, 0.06282510465033653, 0.06282510465033653, 0.06282510465033653, 0.06282510465033653]",0.002,7,1
0,45,"[0.015246331691741943, -1.5557786890170355, 0.015166584645406544, 0.015173478717468214, 0.015029717236757278, 0.014985808171331882]","[0.28465771675109863, 0.2849801778793335, 0.2819904386997223, 0.28095725178718567, 0.2842611074447632, 0.28483182191848755]","[0.06325662723633747, -1.507539699558559, 0.06325662723633747, 0.06325662723633747, 0.06325662723633747, 0.06325662723633747]","[0.06325662723633747, -1.507539699558559, 0.06325662723633747, 0.06325662723633747, 0.06325662723633747, 0.06325662723633747]",0.002,7,1
0,46,"[0.015780018642544746, -1.555211847913899, 0.015755955372945607, 0.01579372465100093, 0.015634605661034584, 0.015554090030491352]","[0.2868250608444214, 0.2900123596191406, 0.28485238552093506, 0.2843457758426666, 0.28802168369293213, 0.28960543870925903]","[0.0636880498915214, -1.5071082769033752, 0.0636880498915214, 0.0636880498915214, 0.0636880498915214, 0.0636880498915214]","[0.0636880498915214, -1.5071082769033752, 0.0636880498915214, 0.0636880498915214, 0.0636880498915214, 0.0636880498915214]",0.002,7,1
0,47,"[0.01641020178794861, -1.554631409501173, 0.016278568898336232, 0.016275210971496534, 0.016173530369997025, 0.016137974336743355]","[0.29089659452438354, 0.2917405068874359, 0.28894558548927307, 0.28791049122810364, 0.29392701387405396, 0.29404425621032715]","[0.06411937193434043, -1.506676954860556, 0.06411937193434043, 0.06411937193434043, 0.06411937193434043, 0.06411937193434043]","[0.06411937193434043, -1.506676954860556, 0.06411937193434043, 0.06411937193434043, 0.06411937193434043, 0.06411937193434043]",0.002,7,1
0,48,"[0.016993742436170578, -1.5540268340012808, 0.016897026692525685, 0.01685444890942378, 0.016763068735599518, 0.01678372547030449]","[0.29413360357284546, 0.29418545961380005, 0.29541683197021484, 0.2898169159889221, 0.297125905752182, 0.2972029447555542]","[0.06455059268340568, -1.506245734111491, 0.06455059268340568, 0.06455059268340568, 0.06455059268340568, 0.06455059268340568]","[0.06455059268340568, -1.506245734111491, 0.06455059268340568, 0.06455059268340568, 0.06455059268340568, 0.06455059268340568]",0.002,7,1
0,49,"[0.017577283084392548, -1.5534132470241566, 0.01750499406923467, 0.017460747356079054, 0.017379531636834145, 0.01732935570180416]","[0.29769715666770935, 0.2971104383468628, 0.29516562819480896, 0.2930362820625305, 0.30075374245643616, 0.30100715160369873]","[0.06498171145748827, -1.5058146153374083, 0.06498171145748827, 0.06498171145748827, 0.06498171145748827, 0.06498171145748827]","[0.06498171145748827, -1.5058146153374083, 0.06498171145748827, 0.06498171145748827, 0.06498171145748827, 0.06498171145748827]",0.002,7,1
0,50,"[0.018214989453554153, -1.552860715692379, 0.018040959035054982, 0.01804630338635249, 0.017950117588043213, 0.017900561913847923]","[0.30068063735961914, 0.2997633218765259, 0.296860009431839, 0.2982560098171234, 0.30297160148620605, 0.30385324358940125]","[0.06541272757552037, -1.5053835992193763, 0.06541272757552037, 0.06541272757552037, 0.06541272757552037, 0.06541272757552037]","[0.06541272757552037, -1.5053835992193763, 0.06541272757552037, 0.06541272757552037, 0.06541272757552037, 0.06541272757552037]",0.002,7,1
0,51,"[0.018846197053790092, -1.552260023807623, 0.018694225941793263, 0.018641634578369093, 0.01855030283331871, 0.01855423115193844]","[0.30358564853668213, 0.3045528829097748, 0.3016345798969269, 0.302099347114563, 0.3071802258491516, 0.3057219684123993]","[0.06584364035659639, -1.5049526864383003, 0.06584364035659639, 0.06584364035659639, 0.06584364035659639, 0.06584364035659639]","[0.06584364035659639, -1.5049526864383003, 0.06584364035659639, 0.06584364035659639, 0.06584364035659639, 0.06584364035659639]",0.002,7,1
0,52,"[0.019411807879805565, -1.551613425170519, 0.019316021596090138, 0.019274874324462843, 0.019122453406453133, 0.01918748766183853]","[0.30834636092185974, 0.3069549798965454, 0.3054836690425873, 0.3078010678291321, 0.3115070164203644, 0.3109947741031647]","[0.06627444911997396, -1.5045218776749225, 0.06627444911997396, 0.06627444911997396, 0.06627444911997396, 0.06627444911997396]","[0.06627444911997396, -1.5045218776749225, 0.06627444911997396, 0.06627444911997396, 0.06627444911997396, 0.06627444911997396]",0.002,7,1
0,53,"[0.020055560395121574, -1.5510225773653765, 0.019877258931295216, 0.01981477319683833, 0.019790446385741234, 0.019789719954133034]","[0.31009936332702637, 0.3088095486164093, 0.3091202974319458, 0.31138476729393005, 0.31341731548309326, 0.31473609805107117]","[0.06670515318507503, -1.5040911736098215, 0.06670515318507503, 0.06670515318507503, 0.06670515318507503, 0.06670515318507503]","[0.06670515318507503, -1.5040911736098215, 0.06670515318507503, 0.06670515318507503, 0.06670515318507503, 0.06670515318507503]",0.002,7,1
0,54,"[0.020678143948316574, -1.5503464688411732, 0.020551029835836232, 0.02043704568829341, 0.020466148853302002, 0.020453859120607376]","[0.3132632374763489, 0.31177762150764465, 0.31209900975227356, 0.31603434681892395, 0.31641948223114014, 0.31776517629623413]","[0.06713575187148693, -1.5036605749234095, 0.06713575187148693, 0.06713575187148693, 0.06713575187148693, 0.06713575187148693]","[0.06713575187148693, -1.5036605749234095, 0.06713575187148693, 0.06713575187148693, 0.06713575187148693, 0.06713575187148693]",0.002,7,1
0,55,"[0.021346021443605423, -1.5497462221286078, 0.021146599446431935, 0.021054072971008253, 0.02114817127585411, 0.02112274244427681]","[0.3172573447227478, 0.3144485652446747, 0.31596821546554565, 0.3172234296798706, 0.32045915722846985, 0.3211117088794708]","[0.06756624449896355, -1.503230082295933, 0.06756624449896355, 0.06756624449896355, 0.06756624449896355, 0.06756624449896355]","[0.06756624449896355, -1.503230082295933, 0.06756624449896355, 0.06756624449896355, 0.06756624449896355, 0.06756624449896355]",0.002,7,1
0,56,"[0.02198960818350315, -1.5490896248123427, 0.02180797258485967, 0.021673603648803663, 0.021738193929195404, 0.021786022931337357]","[0.3194960057735443, 0.314855694770813, 0.3191433846950531, 0.3221994638442993, 0.32232654094696045, 0.3219183087348938]","[0.0679966303874262, -1.5027996964074704, 0.0679966303874262, 0.0679966303874262, 0.0679966303874262, 0.0679966303874262]","[0.0679966303874262, -1.5027996964074704, 0.0679966303874262, 0.0679966303874262, 0.0679966303874262, 0.0679966303874262]",0.002,7,1
0,57,"[0.022610679268836975, -1.548433793043234, 0.022423569356099904, 0.022340221995971632, 0.022395601496100426, 0.02235976792871952]","[0.3199559450149536, 0.3180781304836273, 0.32201525568962097, 0.32399463653564453, 0.3258311450481415, 0.324190616607666]","[0.06842690885696494, -1.5023694179379317, 0.06842690885696494, 0.06842690885696494, 0.06842690885696494, 0.06842690885696494]","[0.06842690885696494, -1.5023694179379317, 0.06842690885696494, 0.06842690885696494, 0.06842690885696494, 0.06842690885696494]",0.002,7,1
0,58,"[0.02322874590754509, -1.5478028816035767, 0.023080174122945607, 0.022964640254638624, 0.02302311174571514, 0.023090286180377007]","[0.32493525743484497, 0.31831222772598267, 0.3224199116230011, 0.3267405927181244, 0.32809844613075256, 0.32673296332359314]","[0.0688570792278394, -1.5019392475670572, 0.0688570792278394, 0.0688570792278394, 0.0688570792278394, 0.0688570792278394]","[0.0688570792278394, -1.5019392475670572, 0.0688570792278394, 0.0688570792278394, 0.0688570792278394, 0.0688570792278394]",0.002,7,1
0,59,"[0.023929664865136147, -1.547133383607008, 0.02374440828432256, 0.023578448886535597, 0.023748157545924187, 0.023703910410404205]","[0.32507240772247314, 0.31921207904815674, 0.3232068717479706, 0.3290114104747772, 0.3314194977283478, 0.3287723660469055]","[0.0692871408204801, -1.5015091859744165, 0.0692871408204801, 0.0692871408204801, 0.0692871408204801, 0.0692871408204801]","[0.0692871408204801, -1.5015091859744165, 0.0692871408204801, 0.0692871408204801, 0.0692871408204801, 0.0692871408204801]",0.002,7,1
0,60,"[0.02452061139047146, -1.5464453355273982, 0.024355236683980763, 0.02424721300091548, 0.024327173829078674, 0.024343308061361313]","[0.3292534649372101, 0.3218769431114197, 0.3244626522064209, 0.3309125304222107, 0.33242347836494446, 0.3303172290325165]","[0.06971709295548933, -1.5010792338394072, 0.06971709295548933, 0.06971709295548933, 0.06971709295548933, 0.06971709295548933]","[0.06971709295548933, -1.5010792338394072, 0.06971709295548933, 0.06971709295548933, 0.06971709295548933, 0.06971709295548933]",0.002,7,1
0,61,"[0.02523937076330185, -1.545780948629119, 0.024998966847554982, 0.024871631259582472, 0.024961896240711212, 0.025085177272558212]","[0.3316338360309601, 0.32497191429138184, 0.330522358417511, 0.3357645273208618, 0.33295756578445435, 0.3332264721393585]","[0.07014693495364233, -1.5006493918412542, 0.07014693495364233, 0.07014693495364233, 0.07014693495364233, 0.07014693495364233]","[0.07014693495364233, -1.5006493918412542, 0.07014693495364233, 0.07014693495364233, 0.07014693495364233, 0.07014693495364233]",0.002,7,1
0,62,"[0.02585582807660103, -1.5451129724136372, 0.025701347981588185, 0.025558992023132276, 0.025704750791192055, 0.02574010193347931]","[0.3336993157863617, 0.32747259736061096, 0.33051934838294983, 0.3383418023586273, 0.3357386887073517, 0.33310753107070923]","[0.07057666613588828, -1.5002196606590084, 0.07057666613588828, 0.07057666613588828, 0.07057666613588828, 0.07057666613588828]","[0.07057666613588828, -1.5002196606590084, 0.07057666613588828, 0.07057666613588828, 0.07057666613588828, 0.07057666613588828]",0.002,7,1
0,63,"[0.026507409289479256, -1.5444483042559405, 0.026348416005269826, 0.02623693525280757, 0.026365650817751884, 0.02642352320253849]","[0.3358553946018219, 0.32993146777153015, 0.3354053199291229, 0.34177061915397644, 0.3380618989467621, 0.3352832496166229]","[0.07100628582335153, -1.499790040971545, 0.07100628582335153, 0.07100628582335153, 0.07100628582335153, 0.07100628582335153]","[0.07100628582335153, -1.499790040971545, 0.07100628582335153, 0.07100628582335153, 0.07100628582335153, 0.07100628582335153]",0.002,7,1
0,64,"[0.027149252593517303, -1.543724564169981, 0.027019325886861623, 0.02688388406719966, 0.02702355571091175, 0.027066707611083984]","[0.33848637342453003, 0.33083388209342957, 0.33755943179130554, 0.3439635932445526, 0.3403546214103699, 0.3384634852409363]","[0.07143579333733246, -1.4993605334575641, 0.07143579333733246, 0.07143579333733246, 0.07143579333733246, 0.07143579333733246]","[0.07143579333733246, -1.4993605334575641, 0.07143579333733246, 0.07143579333733246, 0.07143579333733246, 0.07143579333733246]",0.002,7,1
0,65,"[0.027819689363241196, -1.5430970036289473, 0.02774507204164678, 0.027566834087036085, 0.02776695042848587, 0.02778160572052002]","[0.34118300676345825, 0.3337874114513397, 0.340783953666687, 0.34501492977142334, 0.34078001976013184, 0.3418242633342743]","[0.07186518799930869, -1.498931138795588, 0.07186518799930869, 0.07186518799930869, 0.07186518799930869, 0.07186518799930869]","[0.07186518799930869, -1.498931138795588, 0.07186518799930869, 0.07186518799930869, 0.07186518799930869, 0.07186518799930869]",0.002,7,1
0,66,"[0.028556011617183685, -1.5424013634077092, 0.02833587328066045, 0.02823118745770259, 0.028469329699873924, 0.028514321893453598]","[0.34001877903938293, 0.33602744340896606, 0.34294527769088745, 0.34588977694511414, 0.34535983204841614, 0.3431433439254761]","[0.07229446913093615, -1.4985018576639604, 0.07229446913093615, 0.07229446913093615, 0.07229446913093615, 0.07229446913093615]","[0.07229446913093615, -1.4985018576639604, 0.07229446913093615, 0.07229446913093615, 0.07229446913093615, 0.07229446913093615]",0.002,7,1
0,67,"[0.029208295047283173, -1.5416798175177355, 0.029120747243062794, 0.028941436404846144, 0.029148779809474945, 0.029193846508860588]","[0.3422617018222809, 0.33900466561317444, 0.3427017033100128, 0.34998250007629395, 0.34526389837265015, 0.34508100152015686]","[0.07272363605405009, -1.4980726907408464, 0.07272363605405009, 0.07272363605405009, 0.07272363605405009, 0.07272363605405009]","[0.07272363605405009, -1.4980726907408464, 0.07272363605405009, 0.07272363605405009, 0.07272363605405009, 0.07272363605405009]",0.002,7,1
0,68,"[0.029829075559973717, -1.5410335560194035, 0.029808823262349904, 0.029646916980407667, 0.02984539046883583, 0.02988203801214695]","[0.346061110496521, 0.3394436538219452, 0.34553107619285583, 0.3511952757835388, 0.34823182225227356, 0.34474050998687744]","[0.07315268809066618, -1.4976436387042305, 0.07315268809066618, 0.07315268809066618, 0.07315268809066618, 0.07315268809066618]","[0.07315268809066618, -1.4976436387042305, 0.07315268809066618, 0.07315268809066618, 0.07315268809066618, 0.07315268809066618]",0.002,7,1
0,69,"[0.03058231994509697, -1.5403642014465113, 0.03049642244447881, 0.03038422643627925, 0.030535656958818436, 0.030578680336475372]","[0.3475673794746399, 0.342254638671875, 0.3484010100364685, 0.35457852482795715, 0.34744417667388916, 0.3466883599758148]","[0.07358162456298162, -1.4972147022319149, 0.07358162456298162, 0.07358162456298162, 0.07358162456298162, 0.07358162456298162]","[0.07358162456298162, -1.4972147022319149, 0.07358162456298162, 0.07358162456298162, 0.07358162456298162, 0.07358162456298162]",0.002,7,1
0,70,"[0.031231150031089783, -1.5396638673594971, 0.031174961720601857, 0.031114740962646437, 0.03127049282193184, 0.03128868341445923]","[0.3477398455142975, 0.3426799476146698, 0.3484531044960022, 0.3566823899745941, 0.34843215346336365, 0.34892594814300537]","[0.07401044479337612, -1.4967858820015205, 0.07401044479337612, 0.07401044479337612, 0.07401044479337612, 0.07401044479337612]","[0.07401044479337612, -1.4967858820015205, 0.07401044479337612, 0.07401044479337612, 0.07401044479337612, 0.07401044479337612]",0.002,7,1
0,71,"[0.03193270042538643, -1.5388886605254193, 0.031949822102681935, 0.03174523889508052, 0.03195476531982422, 0.032017696648836136]","[0.35132572054862976, 0.3461945056915283, 0.3508381247520447, 0.35837793350219727, 0.348489373922348, 0.3504142463207245]","[0.07443914810441309, -1.4963571786904835, 0.07443914810441309, 0.07443914810441309, 0.07443914810441309, 0.07443914810441309]","[0.07443914810441309, -1.4963571786904835, 0.07443914810441309, 0.07443914810441309, 0.07443914810441309, 0.07443914810441309]",0.002,7,1
0,72,"[0.03262130171060562, -1.5382115554860611, 0.032648865376607716, 0.03252844392742915, 0.03265470638871193, 0.03267578408122063]","[0.3539333939552307, 0.3463989496231079, 0.3509039580821991, 0.35909169912338257, 0.3523070514202118, 0.34987911581993103]","[0.07486773381884058, -1.495928592976056, 0.07486773381884058, 0.07486773381884058, 0.07486773381884058, 0.07486773381884058]","[0.07486773381884058, -1.495928592976056, 0.07486773381884058, 0.07486773381884058, 0.07486773381884058, 0.07486773381884058]",0.002,7,1
0,73,"[0.03326839953660965, -1.5374952678433438, 0.03327924409975225, 0.03324071943249507, 0.033404577523469925, 0.03338784724473953]","[0.35334932804107666, 0.34838539361953735, 0.3516889810562134, 0.3582277297973633, 0.3517279624938965, 0.3516867756843567]","[0.07529620125959248, -1.495500125535304, 0.07529620125959248, 0.07529620125959248, 0.07529620125959248, 0.07529620125959248]","[0.07529620125959248, -1.495500125535304, 0.07529620125959248, 0.07529620125959248, 0.07529620125959248, 0.07529620125959248]",0.002,7,1
0,74,"[0.03393265977501869, -1.5367593628219147, 0.034035507832662404, 0.03396539270367427, 0.03411579132080078, 0.034083250910043716]","[0.35564225912094116, 0.3517322838306427, 0.35130879282951355, 0.3566746711730957, 0.35349714756011963, 0.3508394956588745]","[0.07572454974978947, -1.4950717770451072, 0.07572454974978947, 0.07572454974978947, 0.07572454974978947, 0.07572454974978947]","[0.07572454974978947, -1.4950717770451072, 0.07572454974978947, 0.07572454974978947, 0.07572454974978947, 0.07572454974978947]",0.002,7,1
0,75,"[0.03476390242576599, -1.5360609714737912, 0.03478986421693975, 0.03468255578961177, 0.03480452299118042, 0.034781962633132935]","[0.35430172085762024, 0.3524206578731537, 0.3511630594730377, 0.3583860993385315, 0.3534800708293915, 0.3526173233985901]","[0.07615277861274017, -1.4946435481821565, 0.07615277861274017, 0.07615277861274017, 0.07615277861274017, 0.07615277861274017]","[0.07615277861274017, -1.4946435481821565, 0.07615277861274017, 0.07615277861274017, 0.07615277861274017, 0.07615277861274017]",0.002,7,1
0,76,"[0.03546121343970299, -1.5353744638017197, 0.035487000142232716, 0.035464687938354444, 0.03552481159567833, 0.035466548055410385]","[0.3557760417461395, 0.3542059659957886, 0.3519565761089325, 0.3588186502456665, 0.3550425171852112, 0.3530789613723755]","[0.07658088717194218, -1.4942154396229543, 0.07658088717194218, 0.07658088717194218, 0.07658088717194218, 0.07658088717194218]","[0.07658088717194218, -1.4942154396229543, 0.07658088717194218, 0.07658088717194218, 0.07658088717194218, 0.07658088717194218]",0.002,7,1
0,77,"[0.036236733198165894, -1.5346435506692906, 0.036196533833638966, 0.03619675218548579, 0.036224231123924255, 0.03621121123433113]","[0.35720038414001465, 0.35613909363746643, 0.3559814393520355, 0.3589616119861603, 0.3564794063568115, 0.35403287410736084]","[0.07700887475108316, -1.4937874520438135, 0.07700887475108316, 0.07700887475108316, 0.07700887475108316, 0.07700887475108316]","[0.07700887475108316, -1.4937874520438135, 0.07700887475108316, 0.07700887475108316, 0.07700887475108316, 0.07700887475108316]",0.002,7,1
0,78,"[0.03695114701986313, -1.5338837888887902, 0.03691989580263311, 0.0369301277348022, 0.03696554899215698, 0.03692334145307541]","[0.35832345485687256, 0.35803139209747314, 0.3581008017063141, 0.3580632209777832, 0.3546130955219269, 0.3555293381214142]","[0.07743674067404187, -1.4933595861208546, 0.07743674067404187, 0.07743674067404187, 0.07743674067404187, 0.07743674067404187]","[0.07743674067404187, -1.4933595861208546, 0.07743674067404187, 0.07743674067404187, 0.07743674067404187, 0.07743674067404187]",0.002,7,1
0,79,"[0.03766454756259918, -1.5331767623177548, 0.03766805330385381, 0.03771047174420161, 0.03769195079803467, 0.037601225078105927]","[0.3588409721851349, 0.3600933849811554, 0.357686311006546, 0.3593822121620178, 0.3566484749317169, 0.357914537191391]","[0.07786448426488929, -1.4929318425300073, 0.07786448426488929, 0.07786448426488929, 0.07786448426488929, 0.07786448426488929]","[0.07786448426488929, -1.4929318425300073, 0.07786448426488929, 0.07786448426488929, 0.07786448426488929, 0.07786448426488929]",0.002,7,1
0,80,"[0.03833511099219322, -1.5324669827571888, 0.03836709657777959, 0.03844682752575679, 0.03836137428879738, 0.03831525519490242]","[0.3600952923297882, 0.3606780171394348, 0.3612682521343231, 0.36061930656433105, 0.3566693961620331, 0.3573164939880371]","[0.07829210484788961, -1.492504221947007, 0.07829210484788961, 0.07829210484788961, 0.07829210484788961, 0.07829210484788961]","[0.07829210484788961, -1.492504221947007, 0.07829210484788961, 0.07829210484788961, 0.07829210484788961, 0.07829210484788961]",0.002,7,1
0,81,"[0.039032626897096634, -1.531687931423523, 0.039149109517232716, 0.03914324819531245, 0.039091337472200394, 0.03901321813464165]","[0.35840654373168945, 0.36319026350975037, 0.362115740776062, 0.3615616261959076, 0.3578249514102936, 0.3592988848686218]","[0.07871960174750138, -1.4920767250473952, 0.07871960174750138, 0.07871960174750138, 0.07871960174750138, 0.07871960174750138]","[0.07871960174750138, -1.4920767250473952, 0.07871960174750138, 0.07871960174750138, 0.07871960174750138, 0.07871960174750138]",0.002,7,1
0,82,"[0.039841145277023315, -1.5309969385019322, 0.03979093233217412, 0.03989617406811519, 0.03984624519944191, 0.03973737731575966]","[0.3586827218532562, 0.36249756813049316, 0.35914143919944763, 0.3606697618961334, 0.35864296555519104, 0.3605245351791382]","[0.07914697428837855, -1.491649352506518, 0.07914697428837855, 0.07914697428837855, 0.07914697428837855, 0.07914697428837855]","[0.07914697428837855, -1.491649352506518, 0.07914697428837855, 0.07914697428837855, 0.07914697428837855, 0.07914697428837855]",0.002,7,1
0,83,"[0.040509775280952454, -1.5303047348609944, 0.04055530229677373, 0.040591879481933546, 0.04054826498031616, 0.04045276343822479]","[0.3601054549217224, 0.3633280396461487, 0.360236257314682, 0.35812872648239136, 0.3592263460159302, 0.3617267906665802]","[0.07957422179537149, -1.4912221049995251, 0.07957422179537149, 0.07957422179537149, 0.07957422179537149, 0.07957422179537149]","[0.07957422179537149, -1.4912221049995251, 0.07957422179537149, 0.07957422179537149, 0.07957422179537149, 0.07957422179537149]",0.002,7,1
0,84,"[0.041252221912145615, -1.5295930628529568, 0.04134494463075811, 0.041359468097351026, 0.04123677313327789, 0.041140541434288025]","[0.359373539686203, 0.36526429653167725, 0.36172348260879517, 0.3572227656841278, 0.35965603590011597, 0.36221423745155334]","[0.08000134359352813, -1.4907949832013685, 0.08000134359352813, 0.08000134359352813, 0.08000134359352813, 0.08000134359352813]","[0.08000134359352813, -1.4907949832013685, 0.08000134359352813, 0.08000134359352813, 0.08000134359352813, 0.08000134359352813]",0.002,7,1
0,85,"[0.041959479451179504, -1.5288432736745854, 0.04199058214296514, 0.04208771764721675, 0.04194067791104317, 0.04181108996272087]","[0.3623524010181427, 0.3631613254547119, 0.36133331060409546, 0.3578323423862457, 0.36010271310806274, 0.3631325662136078]","[0.08042833900809497, -1.4903679877868017, 0.08042833900809497, 0.08042833900809497, 0.08042833900809497, 0.08042833900809497]","[0.08042833900809497, -1.4903679877868017, 0.08042833900809497, 0.08042833900809497, 0.08042833900809497, 0.08042833900809497]",0.002,7,1
0,86,"[0.0426398329436779, -1.5281003837338467, 0.042739216481344044, 0.04282466947521968, 0.04271204024553299, 0.042546581476926804]","[0.3600863516330719, 0.36441510915756226, 0.3611474633216858, 0.35919567942619324, 0.36106938123703003, 0.3637429475784302]","[0.08085520736451816, -1.4899411194303784, 0.08085520736451816, 0.08085520736451816, 0.08085520736451816, 0.08085520736451816]","[0.08085520736451816, -1.4899411194303784, 0.08085520736451816, 0.08085520736451816, 0.08085520736451816, 0.08085520736451816]",0.002,7,1
0,87,"[0.043395694345235825, -1.5273788955858727, 0.04345065752138311, 0.04356472074475093, 0.043302908539772034, 0.04332464933395386]","[0.3614804148674011, 0.3668472468852997, 0.3620551526546478, 0.36016806960105896, 0.3613833785057068, 0.36583104729652405]","[0.08128194798844461, -1.489514378806452, 0.08128194798844461, 0.08128194798844461, 0.08128194798844461, 0.08128194798844461]","[0.08128194798844461, -1.489514378806452, 0.08128194798844461, 0.08128194798844461, 0.08128194798844461, 0.08128194798844461]",0.002,7,1
0,88,"[0.04412342235445976, -1.5266447600773354, 0.04416495958437139, 0.04433207094158931, 0.04407340660691261, 0.044007375836372375]","[0.3622993230819702, 0.362298846244812, 0.3616250157356262, 0.3590461015701294, 0.3620484471321106, 0.3657950460910797]","[0.08170856020572298, -1.4890877665891735, 0.08170856020572298, 0.08170856020572298, 0.08170856020572298, 0.08170856020572298]","[0.08170856020572298, -1.4890877665891735, 0.08170856020572298, 0.08170856020572298, 0.08170856020572298, 0.08170856020572298]",0.002,7,1
0,89,"[0.04485398530960083, -1.5259703260711213, 0.04488069215883428, 0.04502777635540767, 0.044894538819789886, 0.04473062604665756]","[0.3617575168609619, 0.36437341570854187, 0.36084410548210144, 0.3574567437171936, 0.36332184076309204, 0.36549142003059387]","[0.0821350433424048, -1.4886612834524917, 0.0821350433424048, 0.0821350433424048, 0.0821350433424048, 0.0821350433424048]","[0.0821350433424048, -1.4886612834524917, 0.0821350433424048, 0.0821350433424048, 0.0821350433424048, 0.0821350433424048]",0.002,7,1
0,90,"[0.045578256249427795, -1.525231533949711, 0.045601669942037404, 0.045724912280700636, 0.045546840876340866, 0.04543739929795265]","[0.3589804172515869, 0.3639722466468811, 0.3618062138557434, 0.35528767108917236, 0.3628755211830139, 0.3647870719432831]","[0.0825613967247455, -1.488234930070151, 0.0825613967247455, 0.0825613967247455, 0.0825613967247455, 0.0825613967247455]","[0.0825613967247455, -1.488234930070151, 0.0825613967247455, 0.0825613967247455, 0.0825613967247455, 0.0825613967247455]",0.002,7,1
0,91,"[0.04631543159484863, -1.5245150674930592, 0.046252075825826466, 0.046487613315246534, 0.04620114341378212, 0.04619815945625305]","[0.3632842004299164, 0.363806813955307, 0.36020657420158386, 0.35521602630615234, 0.3625389337539673, 0.3662465512752533]","[0.0829876196792055, -1.4878087071156911, 0.0829876196792055, 0.0829876196792055, 0.0829876196792055, 0.0829876196792055]","[0.0829876196792055, -1.4878087071156911, 0.0829876196792055, 0.0829876196792055, 0.0829876196792055, 0.0829876196792055]",0.002,7,1
0,92,"[0.04701671749353409, -1.5238122430494805, 0.047076050435201466, 0.04713420450176997, 0.04697662591934204, 0.046856969594955444]","[0.3618866801261902, 0.36451655626296997, 0.35922735929489136, 0.3567013442516327, 0.36361607909202576, 0.365103542804718]","[0.08341371153245129, -1.4873826152624452, 0.08341371153245129, 0.08341371153245129, 0.08341371153245129, 0.08341371153245129]","[0.08341371153245129, -1.4873826152624452, 0.08341371153245129, 0.08341371153245129, 0.08341371153245129, 0.08341371153245129]",0.002,7,1
0,93,"[0.04767227917909622, -1.52313723162327, 0.047684494649068654, 0.04789225637402339, 0.047692254185676575, 0.047596950083971024]","[0.3619333505630493, 0.36122411489486694, 0.3634231984615326, 0.3571077585220337, 0.362812876701355, 0.3655611574649811]","[0.08383967161135646, -1.48695665518354, 0.08383967161135646, 0.08383967161135646, 0.08383967161135646, 0.08383967161135646]","[0.08383967161135646, -1.48695665518354, 0.08383967161135646, 0.08383967161135646, 0.08383967161135646, 0.08383967161135646]",0.002,7,1
0,94,"[0.04849423095583916, -1.5224254627576848, 0.04837972322572881, 0.048576875323913526, 0.04836307838559151, 0.04837781563401222]","[0.36017146706581116, 0.36178240180015564, 0.36045634746551514, 0.35691115260124207, 0.36216744780540466, 0.3653746545314789]","[0.08426549924300272, -1.4865308275518938, 0.08426549924300272, 0.08426549924300272, 0.08426549924300272, 0.08426549924300272]","[0.08426549924300272, -1.4865308275518938, 0.08426549924300272, 0.08426549924300272, 0.08426549924300272, 0.08426549924300272]",0.002,7,1
0,95,"[0.04918266832828522, -1.5216775436750432, 0.049063984547750294, 0.04928521692242427, 0.04911981150507927, 0.049049343913793564]","[0.36231333017349243, 0.3592369258403778, 0.3622511029243469, 0.35709819197654724, 0.3616224527359009, 0.364411860704422]","[0.0846911937546811, -1.4861051330402155, 0.0846911937546811, 0.0846911937546811, 0.0846911937546811, 0.0846911937546811]","[0.0846911937546811, -1.4861051330402155, 0.0846911937546811, 0.0846911937546811, 0.0846911937546811, 0.0846911937546811]",0.002,7,1
0,96,"[0.04988910257816315, -1.520989367072918, 0.04985076585878545, 0.05001942693676753, 0.04984905943274498, 0.04983363300561905]","[0.36176154017448425, 0.35903242230415344, 0.3603799641132355, 0.3573110103607178, 0.36289867758750916, 0.3643435835838318]","[0.08511675447389287, -1.4856795723210037, 0.08511675447389287, 0.08511675447389287, 0.08511675447389287, 0.08511675447389287]","[0.08511675447389287, -1.4856795723210037, 0.08511675447389287, 0.08511675447389287, 0.08511675447389287, 0.08511675447389287]",0.002,7,1
0,97,"[0.050635937601327896, -1.520267267977335, 0.05054217973817998, 0.050686998958251905, 0.05055150017142296, 0.05049029365181923]","[0.36231884360313416, 0.3563896119594574, 0.3571855425834656, 0.35748347640037537, 0.363280713558197, 0.3639555871486664]","[0.0855421807283507, -1.4852541460665458, 0.0855421807283507, 0.0855421807283507, 0.0855421807283507, 0.0855421807283507]","[0.0855421807283507, -1.4852541460665458, 0.0855421807283507, 0.0855421807283507, 0.0855421807283507, 0.0855421807283507]",0.002,7,1
0,98,"[0.0513995960354805, -1.5195844893208523, 0.05124980608095342, 0.05138926088299556, 0.05127650126814842, 0.05127519369125366]","[0.3609367311000824, 0.35460638999938965, 0.35798725485801697, 0.3573061227798462, 0.36200660467147827, 0.3637898862361908]","[0.08596747184597962, -1.484828854948917, 0.08596747184597962, 0.08596747184597962, 0.08596747184597962, 0.08596747184597962]","[0.08596747184597962, -1.484828854948917, 0.08596747184597962, 0.08596747184597962, 0.08596747184597962, 0.08596747184597962]",0.002,7,1
0,99,"[0.05213507264852524, -1.5188467626324673, 0.05195790926088506, 0.052066369647643995, 0.05196383222937584, 0.05198297277092934]","[0.35920634865760803, 0.35572025179862976, 0.357949435710907, 0.3564806580543518, 0.3638250231742859, 0.3630869388580322]","[0.0863926271549182, -1.4844036996399783, 0.0863926271549182, 0.0863926271549182, 0.0863926271549182, 0.0863926271549182]","[0.0863926271549182, -1.4844036996399783, 0.0863926271549182, 0.0863926271549182, 0.0863926271549182, 0.0863926271549182]",0.002,7,1
0,100,"[0.05278251692652702, -1.5181860637715836, 0.05267841020692998, 0.05279664575543208, 0.052664488554000854, 0.05275196209549904]","[0.35934364795684814, 0.3544381260871887, 0.35846978425979614, 0.3599174916744232, 0.3604222536087036, 0.3633962571620941]","[0.08681764598351958, -1.483978680811377, 0.08681764598351958, 0.08681764598351958, 0.08681764598351958, 0.08681764598351958]","[0.08681764598351958, -1.483978680811377, 0.08681764598351958, 0.08681764598351958, 0.08681764598351958, 0.08681764598351958]",0.002,7,1
0,101,"[0.0535641647875309, -1.5174903509071846, 0.05338937440981084, 0.05344776689495845, 0.05343754589557648, 0.053495533764362335]","[0.360629141330719, 0.35314515233039856, 0.3567216992378235, 0.36076873540878296, 0.36186403036117554, 0.36046725511550903]","[0.08724252766035244, -1.4835537991345442, 0.08724252766035244, 0.08724252766035244, 0.08724252766035244, 0.08724252766035244]","[0.08724252766035244, -1.4835537991345442, 0.08724252766035244, 0.08724252766035244, 0.08724252766035244, 0.08724252766035244]",0.002,7,1
0,102,"[0.054285965859889984, -1.5167544719627877, 0.0540393034564417, 0.05414990961041255, 0.05404387041926384, 0.05417319014668465]","[0.3590281307697296, 0.35087066888809204, 0.35671985149383545, 0.3590649962425232, 0.36030814051628113, 0.36045417189598083]","[0.08766727151420217, -1.4831290552806944, 0.08766727151420217, 0.08766727151420217, 0.08766727151420217, 0.08766727151420217]","[0.08766727151420217, -1.4831290552806944, 0.08766727151420217, 0.08766727151420217, 0.08766727151420217, 0.08766727151420217]",0.002,7,1
0,103,"[0.05495437979698181, -1.5160124835423012, 0.05476981798280889, 0.05486123144116206, 0.054858673363924026, 0.054962918162345886]","[0.35866278409957886, 0.3485238552093506, 0.35518062114715576, 0.3575296401977539, 0.36063501238822937, 0.3585776090621948]","[0.08809187687407186, -1.4827044499208246, 0.08809187687407186, 0.08809187687407186, 0.08809187687407186, 0.08809187687407186]","[0.08809187687407186, -1.4827044499208246, 0.08809187687407186, 0.08809187687407186, 0.08809187687407186, 0.08809187687407186]",0.002,7,1
0,104,"[0.05573880299925804, -1.5153349836221714, 0.055455986653463185, 0.055542274112365675, 0.055555377155542374, 0.05566178262233734]","[0.35756415128707886, 0.34802594780921936, 0.3522091507911682, 0.35936808586120605, 0.35966956615448, 0.35820406675338745]","[0.0885163430691834, -1.4822799837257132, 0.0885163430691834, 0.0885163430691834, 0.0885163430691834, 0.0885163430691834]","[0.0885163430691834, -1.4822799837257132, 0.0885163430691834, 0.0885163430691834, 0.0885163430691834, 0.0885163430691834]",0.002,7,1
0,105,"[0.056488603353500366, -1.5146581319025536, 0.0562518278705042, 0.05624835073437495, 0.05630825459957123, 0.056331928819417953]","[0.3592729866504669, 0.34696412086486816, 0.35238367319107056, 0.3584921360015869, 0.3590034246444702, 0.3553876280784607]","[0.08894066942897857, -1.481855657365918, 0.08894066942897857, 0.08894066942897857, 0.08894066942897857, 0.08894066942897857]","[0.08894066942897857, -1.481855657365918, 0.08894066942897857, 0.08894066942897857, 0.08894066942897857, 0.08894066942897857]",0.002,7,1
0,106,"[0.057154931128025055, -1.513932754551508, 0.056922737752096, 0.05692092954602046, 0.05700017139315605, 0.057095639407634735]","[0.3554012179374695, 0.34752312302589417, 0.35244637727737427, 0.3580010235309601, 0.35971108078956604, 0.3539048135280609]","[0.08936485528312, -1.4814314715117765, 0.08936485528312, 0.08936485528312, 0.08936485528312, 0.08936485528312]","[0.08936485528312, -1.4814314715117765, 0.08936485528312, 0.08936485528312, 0.08936485528312, 0.08936485528312]",0.002,7,1
0,107,"[0.05785847827792168, -1.513203715240099, 0.05763751665224248, 0.05765788137402339, 0.0577242411673069, 0.05787631496787071]","[0.3568040132522583, 0.34688693284988403, 0.35312893986701965, 0.35698553919792175, 0.3560422658920288, 0.35378071665763855]","[0.08978889996149231, -1.4810074268334041, 0.08978889996149231, 0.08978889996149231, 0.08978889996149231, 0.08978889996149231]","[0.08978889996149231, -1.4810074268334041, 0.08978889996149231, 0.08978889996149231, 0.08978889996149231, 0.08978889996149231]",0.002,7,1
0,108,"[0.058593787252902985, -1.512447291319706, 0.05832082429994756, 0.05834118902172847, 0.05847412720322609, 0.05855388939380646]","[0.3538696765899658, 0.34657609462738037, 0.35158562660217285, 0.35767605900764465, 0.3550984561443329, 0.353157639503479]","[0.09021280279420313, -1.4805835240006935, 0.09021280279420313, 0.09021280279420313, 0.09021280279420313, 0.09021280279420313]","[0.09021280279420313, -1.4805835240006935, 0.09021280279420313, 0.09021280279420313, 0.09021280279420313, 0.09021280279420313]",0.002,7,1
0,109,"[0.05925346910953522, -1.5118479964188118, 0.059066120778219044, 0.05902938425030513, 0.059243615716695786, 0.059311043471097946]","[0.3531549274921417, 0.3460324704647064, 0.3522352874279022, 0.35797175765037537, 0.35525044798851013, 0.3518056273460388]","[0.09063656311158419, -1.4801597636833124, 0.09063656311158419, 0.09063656311158419, 0.09063656311158419, 0.09063656311158419]","[0.09063656311158419, -1.4801597636833124, 0.09063656311158419, 0.09063656311158419, 0.09063656311158419, 0.09063656311158419]",0.002,7,1
0,110,"[0.059931423515081406, -1.5111268807998677, 0.059799973164693654, 0.0597274738499145, 0.05993156135082245, 0.0599854476749897]","[0.3521248400211334, 0.34636518359184265, 0.3517788052558899, 0.35670721530914307, 0.3536566495895386, 0.35142725706100464]","[0.09106018024419235, -1.4797361465507042, 0.09106018024419235, 0.09106018024419235, 0.09106018024419235, 0.09106018024419235]","[0.09106018024419235, -1.4797361465507042, 0.09106018024419235, 0.09106018024419235, 0.09106018024419235, 0.09106018024419235]",0.002,7,1
0,111,"[0.06066419184207916, -1.5103956770947953, 0.06047946611513311, 0.06040935098614497, 0.06064837425947189, 0.060693345963954926]","[0.3540334403514862, 0.34574130177497864, 0.35131511092185974, 0.35635384917259216, 0.3511678874492645, 0.3490367829799652]","[0.0914836535228107, -1.4793126732720858, 0.0914836535228107, 0.0914836535228107, 0.0914836535228107, 0.0914836535228107]","[0.0914836535228107, -1.4793126732720858, 0.0914836535228107, 0.0914836535228107, 0.0914836535228107, 0.0914836535228107]",0.002,7,1
0,112,"[0.0613420195877552, -1.5096949648908158, 0.061133686696187794, 0.06111876546826167, 0.06138279661536217, 0.06141289323568344]","[0.3498498499393463, 0.3443238139152527, 0.34919628500938416, 0.35386204719543457, 0.3508111834526062, 0.34822502732276917]","[0.09190698227844955, -1.478889344516447, 0.09190698227844955, 0.09190698227844955, 0.09190698227844955, 0.09190698227844955]","[0.09190698227844955, -1.478889344516447, 0.09190698227844955, 0.09190698227844955, 0.09190698227844955, 0.09190698227844955]",0.002,7,1
0,113,"[0.06200798973441124, -1.5090253551355381, 0.061841789876119435, 0.061856551761291456, 0.0621267668902874, 0.06211620941758156]","[0.3493914008140564, 0.3463236689567566, 0.34861457347869873, 0.35322970151901245, 0.3492056131362915, 0.34698715806007385]","[0.09233016584234753, -1.4784661609525491, 0.09233016584234753, 0.09233016584234753, 0.09233016584234753, 0.09233016584234753]","[0.09233016584234753, -1.4784661609525491, 0.09233016584234753, 0.09233016584234753, 0.09233016584234753, 0.09233016584234753]",0.002,7,1
0,114,"[0.06273572891950607, -1.5082637456110497, 0.06257039705385381, 0.06256155549969478, 0.06276898831129074, 0.06283167004585266]","[0.34639835357666016, 0.345014750957489, 0.34856754541397095, 0.35200509428977966, 0.3486206531524658, 0.34493014216423035]","[0.09275320354597265, -1.478043123248924, 0.09275320354597265, 0.09275320354597265, 0.09275320354597265, 0.09275320354597265]","[0.09275320354597265, -1.478043123248924, 0.09275320354597265, 0.09275320354597265, 0.09275320354597265, 0.09275320354597265]",0.002,7,1
0,115,"[0.06337558478116989, -1.5075973135283967, 0.06330663362611944, 0.06331889211621089, 0.06348957866430283, 0.06353072822093964]","[0.34787482023239136, 0.3430018723011017, 0.3451355993747711, 0.35119789838790894, 0.3445322513580322, 0.3440523147583008]","[0.09317609472102331, -1.4776202320738732, 0.09317609472102331, 0.09317609472102331, 0.09317609472102331, 0.09317609472102331]","[0.09317609472102331, -1.4776202320738732, 0.09317609472102331, 0.09317609472102331, 0.09317609472102331, 0.09317609472102331]",0.002,7,1
0,116,"[0.0640883818268776, -1.5069226262024422, 0.06402141252626592, 0.06395332395520015, 0.06420383602380753, 0.06417728960514069]","[0.3466637432575226, 0.34333550930023193, 0.3459005355834961, 0.350145161151886, 0.34500062465667725, 0.3428283631801605]","[0.09359883869942948, -1.477197488095467, 0.09359883869942948, 0.09359883869942948, 0.09359883869942948, 0.09359883869942948]","[0.09359883869942948, -1.477197488095467, 0.09359883869942948, 0.09359883869942948, 0.09359883869942948, 0.09359883869942948]",0.002,7,1
0,117,"[0.06474267691373825, -1.5062066701105614, 0.06463557878603154, 0.06475786745037837, 0.06482820957899094, 0.06489367038011551]","[0.3438771963119507, 0.3431532382965088, 0.3452615737915039, 0.34917178750038147, 0.3411034941673279, 0.3415029048919678]","[0.09402143481335355, -1.476774891981543, 0.09402143481335355, 0.09402143481335355, 0.09402143481335355, 0.09402143481335355]","[0.09402143481335355, -1.476774891981543, 0.09402143481335355, 0.09402143481335355, 0.09402143481335355, 0.09402143481335355]",0.002,7,1
0,118,"[0.06541132181882858, -1.5054826748422165, 0.06538898149599248, 0.06545464574780269, 0.06554650515317917, 0.06560291349887848]","[0.3420874774456024, 0.3431120812892914, 0.34397345781326294, 0.3463863432407379, 0.3425869047641754, 0.33969414234161377]","[0.0944438823951916, -1.476352444399705, 0.0944438823951916, 0.0944438823951916, 0.0944438823951916, 0.0944438823951916]","[0.0944438823951916, -1.476352444399705, 0.0944438823951916, 0.0944438823951916, 0.0944438823951916, 0.0944438823951916]",0.002,7,1
0,119,"[0.06610778719186783, -1.5048597168973465, 0.06604129472841436, 0.06613032400097651, 0.06622707098722458, 0.06626109033823013]","[0.3414572775363922, 0.3432932496070862, 0.33991241455078125, 0.34492602944374084, 0.3386053740978241, 0.33809158205986023]","[0.09486618077757428, -1.4759301460173222, 0.09486618077757428, 0.09486618077757428, 0.09486618077757428, 0.09486618077757428]","[0.09486618077757428, -1.4759301460173222, 0.09486618077757428, 0.09486618077757428, 0.09486618077757428, 0.09486618077757428]",0.002,7,1
0,120,"[0.06680941581726074, -1.5041054499200364, 0.06676990190614873, 0.06676797449078364, 0.06697005033493042, 0.06693727523088455]","[0.3393441438674927, 0.34130802750587463, 0.3392501175403595, 0.3413018584251404, 0.33814337849617004, 0.33552998304367065]","[0.09528832929336797, -1.4755079975015286, 0.09528832929336797, 0.09528832929336797, 0.09528832929336797, 0.09528832929336797]","[0.09528832929336797, -1.4755079975015286, 0.09528832929336797, 0.09528832929336797, 0.09528832929336797, 0.09528832929336797]",0.002,7,1
0,121,"[0.0675894245505333, -1.5034056094339867, 0.06750709215273076, 0.06748013078656001, 0.0675792545080185, 0.06753509491682053]","[0.33891522884368896, 0.33978408575057983, 0.33841672539711, 0.33809736371040344, 0.3377216160297394, 0.3352366089820862]","[0.09571032727567588, -1.4750859995192207, 0.09571032727567588, 0.09571032727567588, 0.09571032727567588, 0.09571032727567588]","[0.09571032727567588, -1.4750859995192207, 0.09571032727567588, 0.09571032727567588, 0.09571032727567588, 0.09571032727567588]",0.002,7,1
0,122,"[0.06821500509977341, -1.5027500477484246, 0.06811315218080694, 0.06821827470745845, 0.06824454665184021, 0.06818842887878418]","[0.33767446875572205, 0.3404289782047272, 0.3382635712623596, 0.33840447664260864, 0.3360622227191925, 0.33635368943214417]","[0.09613217405783886, -1.4746641527370576, 0.09613217405783886, 0.09613217405783886, 0.09613217405783886, 0.09613217405783886]","[0.09613217405783886, -1.4746641527370576, 0.09613217405783886, 0.09613217405783886, 0.09613217405783886, 0.09613217405783886]",0.002,7,1
0,123,"[0.0689215213060379, -1.5020591032556077, 0.06883412996401006, 0.06891552984204097, 0.06892470270395279, 0.06885160505771637]","[0.3357151448726654, 0.33991554379463196, 0.3357878625392914, 0.33596277236938477, 0.3352281153202057, 0.33441439270973206]","[0.09655386897343679, -1.4742424578214597, 0.09655386897343679, 0.09655386897343679, 0.09655386897343679, 0.09655386897343679]","[0.09655386897343679, -1.4742424578214597, 0.09655386897343679, 0.09655386897343679, 0.09655386897343679, 0.09655386897343679]",0.002,7,1
0,124,"[0.06955000013113022, -1.5014047932675858, 0.06951791444887334, 0.06958298265423579, 0.06962112337350845, 0.06957294046878815]","[0.33425140380859375, 0.33922454714775085, 0.33567187190055847, 0.3357422947883606, 0.3307163417339325, 0.3340056836605072]","[0.09697541135628937, -1.4738209154386073, 0.09697541135628937, 0.09697541135628937, 0.09697541135628937, 0.09697541135628937]","[0.09697541135628937, -1.4738209154386073, 0.09697541135628937, 0.09697541135628937, 0.09697541135628937, 0.09697541135628937]",0.002,7,1
0,125,"[0.07020863145589828, -1.5006839048913498, 0.07018596330751592, 0.07021860658612056, 0.07018222659826279, 0.07022028416395187]","[0.3321116864681244, 0.3403339684009552, 0.33640044927597046, 0.3344166874885559, 0.330396831035614, 0.33284881711006165]","[0.0973968005404573, -1.4733995262544393, 0.0973968005404573, 0.0973968005404573, 0.0973968005404573, 0.0973968005404573]","[0.0973968005404573, -1.4733995262544393, 0.0973968005404573, 0.0973968005404573, 0.0973968005404573, 0.0973968005404573]",0.002,7,1
0,126,"[0.07088858634233475, -1.5000214663198967, 0.07084972063173467, 0.07093159734692378, 0.07090539485216141, 0.07085520029067993]","[0.3292258679866791, 0.3362780511379242, 0.33310553431510925, 0.332238107919693, 0.3294947147369385, 0.33151015639305115]","[0.09781803586024324, -1.4729782909346534, 0.09781803586024324, 0.09781803586024324, 0.09781803586024324, 0.09781803586024324]","[0.09781803586024324, -1.4729782909346534, 0.09781803586024324, 0.09781803586024324, 0.09781803586024324, 0.09781803586024324]",0.002,7,1
0,127,"[0.07159219682216644, -1.4993832048824807, 0.07153779665102178, 0.07155923425640864, 0.07161535322666168, 0.07151089608669281]","[0.32848137617111206, 0.3366493880748749, 0.33228418231010437, 0.3289567530155182, 0.33042454719543457, 0.3320182263851166]","[0.09823911665019303, -1.4725572101447035, 0.09823911665019303, 0.09823911665019303, 0.09823911665019303, 0.09823911665019303]","[0.09823911665019303, -1.4725572101447035, 0.09823911665019303, 0.09823911665019303, 0.09823911665019303, 0.09823911665019303]",0.002,7,1
0,128,"[0.07220853865146637, -1.4986785662225266, 0.07215673128236944, 0.07225195943798823, 0.07223361730575562, 0.07218407094478607]","[0.32804813981056213, 0.33498066663742065, 0.32985684275627136, 0.32428672909736633, 0.32811275124549866, 0.3302232623100281]","[0.09866004224509654, -1.4721362845498, 0.09866004224509654, 0.09866004224509654, 0.09866004224509654, 0.09866004224509654]","[0.09866004224509654, -1.4721362845498, 0.09866004224509654, 0.09866004224509654, 0.09866004224509654, 0.09866004224509654]",0.002,7,1
0,129,"[0.07284460961818695, -1.4979905274561425, 0.07276803651918584, 0.07291631280865474, 0.07278086990118027, 0.07277039438486099]","[0.32617655396461487, 0.3323799669742584, 0.326656311750412, 0.3239079415798187, 0.3282199203968048, 0.32810527086257935]","[0.09908081197998884, -1.4717155148149077, 0.09908081197998884, 0.09908081197998884, 0.09908081197998884, 0.09908081197998884]","[0.09908081197998884, -1.4717155148149077, 0.09908081197998884, 0.09908081197998884, 0.09908081197998884, 0.09908081197998884]",0.002,7,1
0,130,"[0.07349716871976852, -1.4973732766560097, 0.07351476350893194, 0.0736357408710937, 0.07349855452775955, 0.07341346144676208]","[0.3251495361328125, 0.3303755521774292, 0.3246834874153137, 0.3241499960422516, 0.32338598370552063, 0.3263254761695862]","[0.09950142519015123, -1.4712949016047454, 0.09950142519015123, 0.09950142519015123, 0.09950142519015123, 0.09950142519015123]","[0.09950142519015123, -1.4712949016047454, 0.09950142519015123, 0.09950142519015123, 0.09950142519015123, 0.09950142519015123]",0.002,7,1
0,131,"[0.07417832314968109, -1.4966957581094285, 0.07411319414247686, 0.07425932466473384, 0.07410323619842529, 0.07405441999435425]","[0.3223300278186798, 0.3318846821784973, 0.3248732089996338, 0.32391875982284546, 0.3223288059234619, 0.3265421688556671]","[0.09992188121111227, -1.4708744455837843, 0.09992188121111227, 0.09992188121111227, 0.09992188121111227, 0.09992188121111227]","[0.09992188121111227, -1.4708744455837843, 0.09992188121111227, 0.09992188121111227, 0.09992188121111227, 0.09992188121111227]",0.002,7,1
0,132,"[0.07487543672323227, -1.496093028490879, 0.07483178773988897, 0.07492022096600337, 0.0747988298535347, 0.07473792880773544]","[0.3235309422016144, 0.3270602226257324, 0.3235291838645935, 0.3211967647075653, 0.32375001907348633, 0.3259318470954895]","[0.10034217937864888, -1.4704541474162476, 0.10034217937864888, 0.10034217937864888, 0.10034217937864888, 0.10034217937864888]","[0.10034217937864888, -1.4704541474162476, 0.10034217937864888, 0.10034217937864888, 0.10034217937864888, 0.10034217937864888]",0.002,7,1
0,133,"[0.07540854811668396, -1.495393344467022, 0.07537633577455694, 0.07556454717602534, 0.07542593777179718, 0.07538266479969025]","[0.3200591206550598, 0.3259281516075134, 0.32115206122398376, 0.31885257363319397, 0.32227689027786255, 0.325065016746521]","[0.10076231902878728, -1.4700340077661094, 0.10076231902878728, 0.10076231902878728, 0.10076231902878728, 0.10076231902878728]","[0.10076231902878728, -1.4700340077661094, 0.10076231902878728, 0.10076231902878728, 0.10076231902878728, 0.10076231902878728]",0.002,7,1
0,134,"[0.07606928050518036, -1.4947773304632683, 0.07610828081239873, 0.07623438417401118, 0.07603864371776581, 0.07596544921398163]","[0.3193226158618927, 0.3248913884162903, 0.31811583042144775, 0.3152855932712555, 0.3209035396575928, 0.3236328959465027]","[0.10118229949780419, -1.4696140272970923, 0.10118229949780419, 0.10118229949780419, 0.10118229949780419, 0.10118229949780419]","[0.10118229949780419, -1.4696140272970923, 0.10118229949780419, 0.10118229949780419, 0.10118229949780419, 0.10118229949780419]",0.002,7,1
0,135,"[0.07674822211265564, -1.4941512060216446, 0.07667714754213506, 0.07685796796765132, 0.0766291618347168, 0.07662899047136307]","[0.31849879026412964, 0.32071563601493835, 0.3180050849914551, 0.3127498924732208, 0.31950870156288147, 0.3210190534591675]","[0.10160212012222773, -1.4691942066726689, 0.10160212012222773, 0.10160212012222773, 0.10160212012222773, 0.10160212012222773]","[0.10160212012222773, -1.4691942066726689, 0.10160212012222773, 0.10160212012222773, 0.10160212012222773, 0.10160212012222773]",0.002,7,1
0,136,"[0.0773501992225647, -1.4934705805829545, 0.07727319398988897, 0.0774661737629394, 0.07729224115610123, 0.07723640650510788]","[0.3175923824310303, 0.3198528587818146, 0.3167387843132019, 0.3113057017326355, 0.3158722221851349, 0.3183050751686096]","[0.10202178023883857, -1.468774546556058, 0.10202178023883857, 0.10202178023883857, 0.10202178023883857, 0.10202178023883857]","[0.10202178023883857, -1.468774546556058, 0.10202178023883857, 0.10202178023883857, 0.10202178023883857, 0.10202178023883857]",0.002,7,1
0,137,"[0.07796663790941238, -1.4929247734001656, 0.07794601122011358, 0.07810024797406001, 0.07788615673780441, 0.07789996266365051]","[0.31491854786872864, 0.31688758730888367, 0.3150617182254791, 0.3105420172214508, 0.3165375590324402, 0.3177466094493866]","[0.10244127918467097, -1.4683550476102256, 0.10244127918467097, 0.10244127918467097, 0.10244127918467097, 0.10244127918467097]","[0.10244127918467097, -1.4683550476102256, 0.10244127918467097, 0.10244127918467097, 0.10244127918467097, 0.10244127918467097]",0.002,7,1
0,138,"[0.07861775159835815, -1.492297039633133, 0.07857400575746709, 0.07873420297589107, 0.07851219177246094, 0.07850436866283417]","[0.3131426274776459, 0.31726253032684326, 0.3115800619125366, 0.3066965341567993, 0.315775603055954, 0.31678149104118347]","[0.10286061629701376, -1.4679357104978827, 0.10286061629701376, 0.10286061629701376, 0.10286061629701376, 0.10286061629701376]","[0.10286061629701376, -1.4679357104978827, 0.10286061629701376, 0.10286061629701376, 0.10286061629701376, 0.10286061629701376]",0.002,7,1
0,139,"[0.07928262650966644, -1.4916568931988259, 0.07919389406313115, 0.07931189119305415, 0.07921254634857178, 0.07908955216407776]","[0.31229355931282043, 0.3129842281341553, 0.3125549852848053, 0.3059050440788269, 0.313750296831131, 0.3162934482097626]","[0.10327979091341144, -1.4675165358814852, 0.10327979091341144, 0.10327979091341144, 0.10327979091341144, 0.10327979091341144]","[0.10327979091341144, -1.4675165358814852, 0.10327979091341144, 0.10327979091341144, 0.10327979091341144, 0.10327979091341144]",0.002,7,1
0,140,"[0.07990509271621704, -1.4910200771740456, 0.0798261801349085, 0.0798695522495727, 0.07977810502052307, 0.07975514978170395]","[0.30990952253341675, 0.3126452565193176, 0.30866044759750366, 0.30474722385406494, 0.31150519847869873, 0.3133283257484436]","[0.10369880237166522, -1.4670975244232314, 0.10369880237166522, 0.10369880237166522, 0.10369880237166522, 0.10369880237166522]","[0.10369880237166522, -1.4670975244232314, 0.10369880237166522, 0.10369880237166522, 0.10369880237166522, 0.10369880237166522]",0.002,7,1
0,141,"[0.08048592507839203, -1.490396538083889, 0.08038551012148076, 0.08053283273663325, 0.08040541410446167, 0.08043583482503891]","[0.3083413243293762, 0.30725979804992676, 0.30610910058021545, 0.3045097291469574, 0.3101471960544586, 0.3114084005355835]","[0.10411765000983408, -1.4666786767850626, 0.10411765000983408, 0.10411765000983408, 0.10411765000983408, 0.10411765000983408]","[0.10411765000983408, -1.4666786767850626, 0.10411765000983408, 0.10411765000983408, 0.10411765000983408, 0.10411765000983408]",0.002,7,1
0,142,"[0.08115866035223007, -1.489851252441742, 0.08098966280092412, 0.08117811262097163, 0.08095967024564743, 0.08100081235170364]","[0.30804646015167236, 0.30637475848197937, 0.30551424622535706, 0.3035513758659363, 0.3090359568595886, 0.30881816148757935]","[0.10453633316623578, -1.4662599936286607, 0.10453633316623578, 0.10453633316623578, 0.10453633316623578, 0.10453633316623578]","[0.10453633316623578, -1.4662599936286607, 0.10453633316623578, 0.10453633316623578, 0.10453633316623578, 0.10453633316623578]",0.002,7,1
0,143,"[0.08177481591701508, -1.4892655623010178, 0.08160573640932256, 0.0817381578632812, 0.08165774494409561, 0.08163797855377197]","[0.3057228624820709, 0.30401521921157837, 0.3039027750492096, 0.302176833152771, 0.3076820969581604, 0.3075551986694336]","[0.10495485117944792, -1.4658414756154485, 0.10495485117944792, 0.10495485117944792, 0.10495485117944792, 0.10495485117944792]","[0.10495485117944792, -1.4658414756154485, 0.10495485117944792, 0.10495485117944792, 0.10495485117944792, 0.10495485117944792]",0.002,7,1
0,144,"[0.08234485238790512, -1.4885901001146813, 0.08220416704286748, 0.08235446989025874, 0.08223070949316025, 0.08223675191402435]","[0.3035293519496918, 0.30316638946533203, 0.3027293384075165, 0.3007620573043823, 0.30688634514808655, 0.3073536157608032]","[0.10537320338830898, -1.4654231234065875, 0.10537320338830898, 0.10537320338830898, 0.10537320338830898, 0.10537320338830898]","[0.10537320338830898, -1.4654231234065875, 0.10537320338830898, 0.10537320338830898, 0.10537320338830898, 0.10537320338830898]",0.002,7,1
0,145,"[0.08300849050283432, -1.488018513923027, 0.08279592195619756, 0.08287910997357173, 0.08286953717470169, 0.08287765830755234]","[0.30386513471603394, 0.3003407418727875, 0.30003848671913147, 0.2978582978248596, 0.3028857409954071, 0.30429014563560486]","[0.10579138913191942, -1.4650049376629772, 0.10579138913191942, 0.10579138913191942, 0.10579138913191942, 0.10579138913191942]","[0.10579138913191942, -1.4650049376629772, 0.10579138913191942, 0.10579138913191942, 0.10579138913191942, 0.10579138913191942]",0.002,7,1
