Arnibjarnst/BoxLift/logs/ur_rtde/trajectory_dur=5.0_delay=0.2_gain=100_lh=0.05_real.csv
arm_idx,step,actual_q,actual_qd,target_q,expected_q,loop_time,robot_mode,safety_mode
0,-1,"[0.0447835698723793, -1.526045413022377, 0.04480487505067998, 0.044768019313476515, 0.04486146196722984, 0.04482116550207138]","[-0.037429314106702805, -0.03717753291130066, -0.036707401275634766, -0.034344349056482315, -0.03405051305890083, -0.034018054604530334]","[0.0, -1.5707963267948966, 0.0, 0.0, 0.0, 0.0]","[0.0, -1.5707963267948966, 0.0, 0.0, 0.0, 0.0]",0.002,7,1
0,-1,"[0.043997809290885925, -1.5268339116922398, 0.04409677187074834, 0.044163866634033155, 0.044224947690963745, 0.04415896162390709]","[-0.05186853185296059, -0.052794404327869415, -0.05172654241323471, -0.049331746995449066, -0.05098550021648407, -0.05007287859916687]","[0.0, -1.5707963267948966, 0.0, 0.0, 0.0, 0.0]","[0.0, -1.5707963267948966, 0.0, 0.0, 0.0, 0.0]",0.002,7,1
0,-1,"[0.04325832426548004, -1.5275858093849202, 0.0432360808001917, 0.04336778699841304, 0.04347755387425423, 0.04340898245573044]","[-0.06403616070747375, -0.06782107055187225, -0.06291540712118149, -0.061690542846918106, -0.06492189317941666, -0.06657801568508148]","[0.0, -1.5707963267948966, 0.0, 0.0, 0.0, 0.0]","[0.0, -1.5707963267948966, 0.0, 0.0, 0.0, 0.0]",0.002,7,1
0,-1,"[0.042205989360809326, -1.5285855320147057, 0.04231292406191045, 0.04233805715527339, 0.042518068104982376, 0.04236705228686333]","[-0.07932235300540924, -0.07799197733402252, -0.07792692631483078, -0.07796461135149002, -0.08072654902935028, -0.08033032715320587]","[0.0, -1.5707963267948966, 0.0, 0.0, 0.0, 0.0]","[0.0, -1.5707963267948966, 0.0, 0.0, 0.0, 0.0]",0.002,7,1
0,-1,"[0.04117778316140175, -1.529631895279028, 0.0412676970111292, 0.041211052531860304, 0.041442710906267166, 0.04134350270032883]","[-0.08977694809436798, -0.08928822726011276, -0.09044761210680008, -0.09375154227018356, -0.09362000972032547, -0.09435097873210907]","[0.0, -1.5707963267948966, 0.0, 0.0, 0.0, 0.0]","[0.0, -1.5707963267948966, 0.0, 0.0, 0.0, 0.0]",0.002,7,1
0,-1,"[0.04019726812839508, -1.5305882592550297, 0.040263001118795216, 0.04023568212475581, 0.0404106006026268, 0.04040107503533363]","[-0.10136042535305023, -0.0972759872674942, -0.09812156111001968, -0.09971776604652405, -0.10357558727264404, -0.1028580442070961]","[0.0, -1.5707963267948966, 0.0, 0.0, 0.0, 0.0]","[0.0, -1.5707963267948966, 0.0, 0.0, 0.0, 0.0]",0.002,7,1
0,-1,"[0.038904011249542236, -1.5318018843284626, 0.03898221651186162, 0.03897850095715327, 0.039081063121557236, 0.039084140211343765]","[-0.11120633780956268, -0.11140725016593933, -0.11125093698501587, -0.10932251811027527, -0.11430662125349045, -0.11484814435243607]","[0.0, -1.5707963267948966, 0.0, 0.0, 0.0, 0.0]","[0.0, -1.5707963267948966, 0.0, 0.0, 0.0, 0.0]",0.002,7,1
0,-1,"[0.03751945123076439, -1.5332046721926709, 0.03752166429628545, 0.037483378047607374, 0.0376327782869339, 0.037617508322000504]","[-0.12373707443475723, -0.12499276548624039, -0.12434174865484238, -0.12178690731525421, -0.12573982775211334, -0.12755224108695984]","[0.0, -1.5707963267948966, 0.0, 0.0, 0.0, 0.0]","[0.0, -1.5707963267948966, 0.0, 0.0, 0.0, 0.0]",0.002,7,1
0,-1,"[0.035034723579883575, -1.5355959881893178, 0.035111252461568654, 0.0350690323063354, 0.035186897963285446, 0.03515581041574478]","[-0.14131250977516174, -0.1430482566356659, -0.1412600874900818, -0.1387292444705963, -0.14503444731235504, -0.14465323090553284]","[0.0, -1.5707963267948966, 0.0, 0.0, 0.0, 0.0]","[0.0, -1.5707963267948966, 0.0, 0.0, 0.0, 0.0]",0.002,7,1
0,-1,"[0.031071452423930168, -1.5396720816246052, 0.031034294758931935, 0.03095976888623042, 0.031091811135411263, 0.03111070580780506]","[-0.16585658490657806, -0.1689222753047943, -0.1669345200061798, -0.16508609056472778, -0.16814403235912323, -0.16744141280651093]","[0.0, -1.5707963267948966, 0.0, 0.0, 0.0, 0.0]","[0.0, -1.5707963267948966, 0.0, 0.0, 0.0, 0.0]",0.002,7,1
0,-1,"[0.02933056280016899, -1.5415072229555626, 0.029326740895406544, 0.029255672092102003, 0.029312878847122192, 0.029362881556153297]","[-0.17573192715644836, -0.1760988086462021, -0.17443764209747314, -0.17434269189834595, -0.17903319001197815, -0.1772417277097702]","[0.0, -1.5707963267948966, 0.0, 0.0, 0.0, 0.0]","[0.0, -1.5707963267948966, 0.0, 0.0, 0.0, 0.0]",0.002,7,1
0,-1,"[0.02638433314859867, -1.5444589641741295, 0.026406113301412404, 0.026326580638549757, 0.02631368115544319, 0.026336319744586945]","[-0.19547101855278015, -0.19068938493728638, -0.1921224743127823, -0.19283226132392883, -0.19382290542125702, -0.193376824259758]","[0.0, -1.5707963267948966, 0.0, 0.0, 0.0, 0.0]","[0.0, -1.5707963267948966, 0.0, 0.0, 0.0, 0.0]",0.002,7,1
0,-1,"[0.024023454636335373, -1.54688240334902, 0.02396852174867803, 0.024017258281372023, 0.02385134994983673, 0.023851796984672546]","[-0.2067820280790329, -0.20346972346305847, -0.20722918212413788, -0.20575274527072906, -0.20461571216583252, -0.20474568009376526]","[0.0, -1.5707963267948966, 0.0, 0.0, 0.0, 0.0]","[0.0, -1.5707963267948966, 0.0, 0.0, 0.0, 0.0]",0.002,7,1
0,-1,"[0.02025185525417328, -1.5505872567049046, 0.020304028187887013, 0.020377321834228468, 0.020149530842900276, 0.02014676295220852]","[-0.20424562692642212, -0.17424634099006653, -0.18833662569522858, -0.2029934525489807, -0.19556568562984467, -0.19466632604599]","[0.0, -1.5707963267948966, 0.0, 0.0, 0.0, 0.0]","[0.0, -1.5707963267948966, 0.0, 0.0, 0.0, 0.0]",0.002,7,1
0,-1,"[0.015377132222056389, -1.555452636708953, 0.015494648610250294, 0.015434547061584425, 0.015290169045329094, 0.015301504172384739]","[-0.17654602229595184, -0.17769977450370789, -0.1773543357849121, -0.18039503693580627, -0.17583467066287994, -0.1750851571559906]","[0.0, -1.5707963267948966, 0.0, 0.0, 0.0, 0.0]","[0.0, -1.5707963267948966, 0.0, 0.0, 0.0, 0.0]",0.002,7,1
0,-1,"[0.013950243592262268, -1.5567618219977994, 0.014096562062398732, 0.014057798976562452, 0.013935144990682602, 0.014032673090696335]","[-0.16682228446006775, -0.16711440682411194, -0.16724127531051636, -0.17168103158473969, -0.1700621247291565, -0.1692047119140625]","[0.0, -1.5707963267948966, 0.0, 0.0, 0.0, 0.0]","[0.0, -1.5707963267948966, 0.0, 0.0, 0.0, 0.0]",0.002,7,1
0,-1,"[0.012335997074842453, -1.5583306162482877, 0.012553040181295216, 0.012353821391723585, 0.012399464845657349, 0.012412619777023792]","[-0.15983490645885468, -0.15554919838905334, -0.15929244458675385, -0.1621929407119751, -0.15722538530826569, -0.15646502375602722]","[0.0, -1.5707963267948966, 0.0, 0.0, 0.0, 0.0]","[0.0, -1.5707963267948966, 0.0, 0.0, 0.0, 0.0]",0.002,7,1
0,-1,"[0.011091070249676704, -1.559497226295509, 0.011258427296773732, 0.011130018825195265, 0.01122802309691906, 0.011193744838237762]","[-0.1508059948682785, -0.14962804317474365, -0.15126995742321014, -0.14968241751194, -0.15114305913448334, -0.15096032619476318]","[0.0, -1.5707963267948966, 0.0, 0.0, 0.0, 0.0]","[0.0, -1.5707963267948966, 0.0, 0.0, 0.0, 0.0]",0.002,7,1
0,-1,"[0.008626610040664673, -1.561961395000555, 0.0087359587298792, 0.008637233371398878, 0.008664785884320736, 0.008694697171449661]","[-0.13180546462535858, -0.12964306771755219, -0.13276495039463043, -0.13037988543510437, -0.13370776176452637, -0.13377775251865387]","[0.0, -1.5707963267948966, 0.0, 0.0, 0.0, 0.0]","[0.0, -1.5707963267948966, 0.0, 0.0, 0.0, 0.0]",0.002,7,1
0,-1,"[0.005917582660913467, -1.5646493786810716, 0.006051365529195607, 0.0058321195789794444, 0.006013687700033188, 0.006037064827978611]","[-0.10992740094661713, -0.11361195147037506, -0.11283758282661438, -0.11010417342185974, -0.10945656895637512, -0.11082226037979126]","[0.0, -1.5707963267948966, 0.0, 0.0, 0.0, 0.0]","[0.0, -1.5707963267948966, 0.0, 0.0, 0.0, 0.0]",0.002,7,1
0,-1,"[0.005161410663276911, -1.5654966731420537, 0.005124870930806935, 0.0050647693821410655, 0.005197216756641865, 0.0052212863229215145]","[-0.10181836783885956, -0.1058487594127655, -0.10573377460241318, -0.10013346374034882, -0.10348596423864365, -0.10374349355697632]","[0.0, -1.5707963267948966, 0.0, 0.0, 0.0, 0.0]","[0.0, -1.5707963267948966, 0.0, 0.0, 0.0, 0.0]",0.002,7,1
0,-1,"[0.003716806648299098, -1.5668583282134314, 0.0037673155414026382, 0.003754420871398878, 0.0038346070796251297, 0.0038716390263289213]","[-0.08711248636245728, -0.09302012622356415, -0.09022482484579086, -0.08628925681114197, -0.08801694214344025, -0.09069979190826416]","[0.0, -1.5707963267948966, 0.0, 0.0, 0.0, 0.0]","[0.0, -1.5707963267948966, 0.0, 0.0, 0.0, 0.0]",0.002,7,1
0,-1,"[0.0027913693338632584, -1.5678903779811044, 0.0027883688556116226, 0.0027547317692260265, 0.0028850433882325888, 0.002912242664024234]","[-0.07681982219219208, -0.08308858424425125, -0.07511964440345764, -0.07379557192325592, -0.07524605095386505, -0.07656099647283554]","[0.0, -1.5707963267948966, 0.0, 0.0, 0.0, 0.0]","[0.0, -1.5707963267948966, 0.0, 0.0, 0.0, 0.0]",0.002,7,1
0,-1,"[0.001943719806149602, -1.5687163814767082, 0.001927677785054982, 0.0019840437122802257, 0.002023858018219471, 0.0020276454742997885]","[-0.06485411524772644, -0.06866450607776642, -0.06424496322870255, -0.06225380674004555, -0.06407390534877777, -0.06365739554166794]","[0.0, -1.5707963267948966, 0.0, 0.0, 0.0, 0.0]","[0.0, -1.5707963267948966, 0.0, 0.0, 0.0, 0.0]",0.002,7,1
0,-1,"[0.0014381706714630127, -1.569269969859608, 0.001454655324117482, 0.0015049415775756358, 0.0015799942193552852, 0.0015269904397428036]","[-0.056043319404125214, -0.058417290449142456, -0.05524591729044914, -0.0540141835808754, -0.05660012736916542, -0.05498391017317772]","[0.0, -1.5707963267948966, 0.0, 0.0, 0.0, 0.0]","[0.0, -1.5707963267948966, 0.0, 0.0, 0.0, 0.0]",0.002,7,1
0,-1,"[0.0009865760803222656, -1.569755839799047, 0.0010135809527795914, 0.0010060507008056163, 0.0010107130510732532, 0.0010231239721179008]","[-0.04579632356762886, -0.049071360379457474, -0.0451420359313488, -0.04488542675971985, -0.04685535654425621, -0.04759771004319191]","[0.0, -1.5707963267948966, 0.0, 0.0, 0.0, 0.0]","[0.0, -1.5707963267948966, 0.0, 0.0, 0.0, 0.0]",0.002,7,1
0,-1,"[0.0005516260862350464, -1.5702387389358883, 0.0005028883563440445, 0.0005499559589843273, 0.000599732855334878, 0.0005613608518615365]","[-0.03400903567671776, -0.036016810685396194, -0.03457632288336754, -0.034621551632881165, -0.03432469442486763, -0.03481040522456169]","[0.0, -1.5707963267948966, 0.0, 0.0, 0.0, 0.0]","[0.0, -1.5707963267948966, 0.0, 0.0, 0.0, 0.0]",0.002,7,1
0,-1,"[0.00012108683586120605, -1.5707066171274455, 0.00018769899477177887, 0.00020019590344233507, 0.00019860267639160156, 0.00020243051403667778]","[-0.019741347059607506, -0.02345895580947399, -0.02083028107881546, -0.019873633980751038, -0.020291319116950035, -0.020592160522937775]","[0.0, -1.5707963267948966, 0.0, 0.0, 0.0, 0.0]","[0.0, -1.5707963267948966, 0.0, 0.0, 0.0, 0.0]",0.002,7,1
0,-1,"[2.6226043701171875e-06, -1.5709072552123011, -3.911889871233143e-05, 7.848321881098741e-05, 8.794355380814523e-05, 0.00010051912977360189]","[-0.007392141968011856, -0.011527180671691895, -0.008931695483624935, -0.007525213062763214, -0.007515324279665947, -0.00784046109765768]","[0.0, -1.5707963267948966, 0.0, 0.0, 0.0, 0.0]","[0.0, -1.5707963267948966, 0.0, 0.0, 0.0, 0.0]",0.002,7,1
0,-1,"[7.462501525878906e-05, -1.5709392033019007, -5.2736122597707435e-05, 1.8316456298350658e-06, 0.00013499260239768773, 6.758856034139171e-05]","[0.004236153792589903, -0.008479824289679527, -0.0009181758505292237, -0.00038985663559287786, 0.0002772575244307518, 0.0004578617517836392]","[0.0, -1.5707963267948966, 0.0, 0.0, 0.0, 0.0]","[0.0, -1.5707963267948966, 0.0, 0.0, 0.0, 0.0]",0.002,7,1
0,-1,"[9.101629257202148e-05, -1.570883413354391, 2.9865895406544496e-05, 6.024419750971788e-05, 7.768869545543566e-05, 6.756782386219129e-05]","[0.0005298815085552633, 0.005036179441958666, 0.004223968368023634, -7.980023838172201e-06, -0.0002280214976053685, 0.00018051524239126593]","[0.0, -1.5707963267948966, 0.0, 0.0, 0.0, 0.0]","[0.0, -1.5707963267948966, 0.0, 0.0, 0.0, 0.0]",0.002,7,1
0,-1,"[8.6492087575607e-05, -1.5707591790017723, 8.565584291631012e-05, 8.849679913325303e-05, 7.059574272716418e-05, 8.826256089378148e-05]","[-9.596923337085173e-05, 0.0016274955123662949, 0.0007783356122672558, 5.198576014109335e-10, -0.0003820016572717577, 5.6275373250258554e-11]","[0.0, -1.5707963267948966, 0.0, 0.0, 0.0, 0.0]","[0.0, -1.5707963267948966, 0.0, 0.0, 0.0, 0.0]",0.002,7,1
0,-1,"[6.692409806419164e-05, -1.5708114109435023, 3.606477846318512e-05, 6.024419750971788e-05, 9.943576878868043e-05, 4.6834760723868385e-05]","[-5.4780484788352624e-05, 0.00020723789930343628, 0.0001373352570226416, -0.0004781839088536799, -0.0005597026320174336, -0.00044214920490048826]","[0.0, -1.5707963267948966, 0.0, 0.0, 0.0, 0.0]","[0.0, -1.5707963267948966, 0.0, 0.0, 0.0, 0.0]",0.002,7,1
0,-1,"[5.3459643822861835e-05, -1.5707649021608923, 5.704561342412262e-05, 7.669507946772569e-05, 6.308531737886369e-05, 6.756782386219129e-05]","[-1.6729766443707161e-12, 1.3927441422367792e-08, -0.00014049257151782513, -0.0004262324364390224, -0.0005000013625249267, -0.0005719686159864068]","[0.0, -1.5707963267948966, 0.0, 0.0, 0.0, 0.0]","[0.0, -1.5707963267948966, 0.0, 0.0, 0.0, 0.0]",0.002,7,1
0,-1,"[6.566357478732243e-05, -1.5708142719664515, -1.9073486328125e-06, 4.832326855463975e-05, 1.0583389666862786e-06, 3.4952165151480585e-05]","[-9.756272744061598e-24, 8.122040551983576e-20, -7.254050433402881e-05, -0.00046276990906335413, -0.0008021554676815867, -0.0005503157153725624]","[0.0, -1.5707963267948966, 0.0, 0.0, 0.0, 0.0]","[0.0, -1.5707963267948966, 0.0, 0.0, 0.0, 0.0]",0.002,7,1
0,-1,"[8.654594421386719e-05, -1.570774047051902, 8.279481996709137e-05, 5.738317456049913e-05, 2.5963783627958037e-05, 6.453498644987121e-05]","[-5.689545334492234e-35, 4.736516248502751e-31, -4.8891743062995374e-05, -0.0006949033122509718, -0.0006068944348953664, -0.0007404108764603734]","[0.0, -1.5707963267948966, 0.0, 0.0, 0.0, 0.0]","[0.0, -1.5707963267948966, 0.0, 0.0, 0.0, 0.0]",0.002,7,1
0,-1,"[8.36310355225578e-05, -1.5708490810790003, 6.181398500615387e-05, 1.0891551635694441e-05, 5.317283466865774e-06, 2.7179718017578125e-05]","[-0.0, -5.092952414997853e-05, -3.687241405714303e-05, -0.0010605949210003018, -0.0007765666232444346, -0.0008415700285695493]","[0.0, -1.5707963267948966, 0.0, 0.0, 0.0, 0.0]","[0.0, -1.5707963267948966, 0.0, 0.0, 0.0, 0.0]",0.002,7,1
0,-1,"[7.462501525878906e-05, -1.5708114109435023, -9.059906005859375e-06, 2.4481410644483503e-05, 6.396687967935577e-05, 4.8218367737717927e-05]","[0.0, -5.345988165808377e-20, -2.7770211090683006e-05, -0.0005508236936293542, -0.0005220597959123552, -0.0009222205262631178]","[0.0, -1.5707963267948966, 0.0, 0.0, 0.0, 0.0]","[0.0, -1.5707963267948966, 0.0, 0.0, 0.0, 0.0]",0.002,7,1
0,-1,"[3.70891866623424e-05, -1.570778564815857, 1.1746083394825746e-05, -1.3665562011766497e-05, 3.457402635831386e-05, 2.8639242373174056e-05]","[0.0, -2.3237500336998633e-29, -2.405847772024572e-05, -0.0007967336568981409, -0.0005264139035716653, -0.0004904068191535771]","[0.0, -1.5707963267948966, 0.0, 0.0, 0.0, 0.0]","[0.0, -1.5707963267948966, 0.0, 0.0, 0.0, 0.0]",0.002,7,1
0,-1,"[7.917261245893314e-05, -1.5707649384824727, 2.7958546773731996e-05, 5.023061718745225e-05, 7.629042374901474e-05, 4.8200607125181705e-05]","[0.0, 6.91552777425386e-05, -1.9392840840737335e-05, -0.0004619900428224355, -0.0003584572405088693, -0.0002969692286569625]","[0.0, -1.5707963267948966, 0.0, 0.0, 0.0, 0.0]","[0.0, -1.5707963267948966, 0.0, 0.0, 0.0, 0.0]",0.002,7,1
0,-1,"[9.556087024975568e-05, -1.5707934659770508, 5.0846730367481996e-05, 1.661359753413194e-05, 3.8918558857403696e-05, -7.788287561538709e-07]","[-8.38866617414169e-05, -0.0001104385155485943, -4.3965017539449036e-05, -0.00021289038704708219, -0.0001749848306644708, -0.00021695405303034931]","[0.0, -1.5707963267948966, 0.0, 0.0, 0.0, 0.0]","[0.0, -1.5707963267948966, 0.0, 0.0, 0.0, 0.0]",0.002,7,1
0,-1,"[-3.163014547169496e-06, -1.5708071194090785, -1.9073486328125e-06, 9.222621581983503e-06, 2.7137279175803997e-05, -2.9865895406544496e-05]","[-0.0001169926836155355, -8.155750401783735e-05, -2.8116681278334e-05, -0.00019465239893179387, -0.00016124371904879808, -0.00017916123033501208]","[0.0, -1.5707963267948966, 0.0, 0.0, 0.0, 0.0]","[0.0, -1.5707963267948966, 0.0, 0.0, 0.0, 0.0]",0.002,7,1
0,-1,"[5.0508617277955636e-05, -1.5707951380484992, 6.80128680627945e-05, -2.081811938481337e-05, 2.2664957214146852e-05, -2.9865895406544496e-05]","[-0.00027620690525509417, -4.166199720281871e-13, -2.5707358872750774e-05, -0.00018745918350759894, -0.00016105969552882016, -0.00015588630049023777]","[0.0, -1.5707963267948966, 0.0, 0.0, 0.0, 0.0]","[0.0, -1.5707963267948966, 0.0, 0.0, 0.0, 0.0]",0.002,7,1
0,-1,"[4.2977797420462593e-05, -1.570808549920553, 2.557436098271637e-05, 2.9130572936963972e-05, 1.0912895049841609e-05, 2.7197616873309016e-05]","[-0.00028184967231936753, 0.0006506417412310839, -2.3678368961554952e-05, -0.00016228649474214762, -0.00015959407028276473, -9.806285379454494e-05]","[0.0, -1.5707963267948966, 0.0, 0.0, 0.0, 0.0]","[0.0, -1.5707963267948966, 0.0, 0.0, 0.0, 0.0]",0.002,7,1
0,-1,"[3.852265945170075e-05, -1.5708042583861292, 5.418459047490387e-05, -3.7269001342821184e-05, -3.034273256474762e-05, 3.390852498341701e-06]","[-0.0002474587527103722, 0.0001773439726093784, -2.1171854314161465e-05, -0.00011491952318465337, -0.0001558915537316352, -8.19828492240049e-05]","[0.0, -1.5707963267948966, 0.0, 0.0, 0.0, 0.0]","[0.0, -1.5707963267948966, 0.0, 0.0, 0.0, 0.0]",0.002,7,1
0,-1,"[7.144211122067645e-05, -1.5708261928954066, 5.704561342412262e-05, 9.222621581983503e-06, 2.2664993593934923e-05, -7.788287561538709e-07]","[-0.0001957241474883631, -0.00036711618304252625, -3.626712003427662e-21, -4.120268931728788e-05, -0.00012596997839864343, -6.53219103696756e-05]","[0.0, -1.5707963267948966, 0.0, 0.0, 0.0, 0.0]","[0.0, -1.5707963267948966, 0.0, 0.0, 0.0, 0.0]",0.002,7,1
0,-1,"[2.2113323211669922e-05, -1.5708385906615199, 2.7958546773731996e-05, -4.367237426805559e-06, -8.885060445606996e-06, 1.964569128176663e-05]","[-0.00019897207675967366, -0.00022145526600070298, -4.287615593057126e-05, -3.4824286558432505e-05, -0.00011521817941684276, -7.408438978018239e-05]","[0.0, -1.5707963267948966, 0.0, 0.0, 0.0, 0.0]","[0.0, -1.5707963267948966, 0.0, 0.0, 0.0, 0.0]",0.002,7,1
0,-1,"[1.898689879453741e-05, -1.5707975826659144, 8.279481996709137e-05, 1.9951457641553816e-05, 1.0921484317805152e-05, 1.230507405125536e-05]","[-0.0007294384995475411, 0.00011557512334547937, -1.8006736354436725e-05, -2.6591796995489858e-05, -0.00011482177069410682, -6.675768236164004e-05]","[0.0, -1.5707963267948966, 0.0, 0.0, 0.0, 0.0]","[0.0, -1.5707963267948966, 0.0, 0.0, 0.0, 0.0]",0.002,7,1
0,-1,"[5.5002918088575825e-05, -1.5707860750010987, -1.3828277587890625e-05, 1.2083644531202253e-05, 1.955433253897354e-05, 2.4144410417648032e-05]","[-0.00044052579323761165, 8.585119940107688e-05, -1.525907646282576e-05, -4.164815618423745e-05, -9.86414379440248e-05, -6.007378760841675e-05]","[0.0, -1.5707963267948966, 0.0, 0.0, 0.0, 0.0]","[0.0, -1.5707963267948966, 0.0, 0.0, 0.0, 0.0]",0.002,7,1
0,-1,"[3.106879739789292e-05, -1.570779637699463, 3.2726918355763246e-05, 6.370126690669053e-05, -2.652803529912262e-05, 3.5953522456111386e-05]","[-0.00032673412351869047, 3.6411864524569895e-21, -7.84850271884352e-05, -3.166455280734226e-05, -8.090643677860498e-05, -5.983646836623874e-21]","[0.0, -1.5707963267948966, 0.0, 0.0, 0.0, 0.0]","[0.0, -1.5707963267948966, 0.0, 0.0, 0.0, 0.0]",0.002,7,1
0,-1,"[2.79634004982654e-05, -1.5708281002440394, 8.885060445606996e-06, 4.692668579053816e-06, 2.3871420125942677e-05, 5.70621486986056e-05]","[-0.00039784758700989187, 3.822094698683706e-36, -6.367692549247295e-05, -4.163708945270628e-05, -7.336876296903938e-05, -1.9764780822635555e-30]","[0.0, -1.5707963267948966, 0.0, 0.0, 0.0, 0.0]","[0.0, -1.5707963267948966, 0.0, 0.0, 0.0, 0.0]",0.002,7,1
0,-1,"[7.1376557571056765e-06, -1.5708161793150843, -9.059906005859375e-06, -2.367914233403212e-05, -6.024037496388246e-06, 3.5953522456111386e-05]","[-0.00017709429084789008, 0.0, -5.7696084695635363e-05, -3.5598455724539235e-05, -2.7227645051780547e-12, -1.821688003622262e-43]","[0.0, -1.5707963267948966, 0.0, 0.0, 0.0, 0.0]","[0.0, -1.5707963267948966, 0.0, 0.0, 0.0, 0.0]",0.002,7,1
0,-1,"[8.481119584757835e-05, -1.570753008727781, 2.080598940068512e-05, 2.114355053706163e-05, -5.609193910771637e-05, 3.5953522456111386e-05]","[-0.00014797512267250568, 0.0, -5.1139148126821965e-05, -3.381510396138765e-05, -4.948494525418446e-17, -0.0]","[0.0, -1.5707963267948966, 0.0, 0.0, 0.0, 0.0]","[0.0, -1.5707963267948966, 0.0, 0.0, 0.0, 0.0]",0.002,7,1
0,-1,"[4.745418482343666e-05, -1.5707951590582816, 2.366701234990387e-05, -1.6288166381883684e-05, 2.7137279175803997e-05, 1.961907219083514e-05]","[-0.00011135596287203953, 4.989159424440004e-05, -4.1668452468002215e-05, -3.073567495448515e-05, -1.634553537910562e-26, -0.0]","[0.0, -1.5707963267948966, 0.0, 0.0, 0.0, 0.0]","[0.0, -1.5707963267948966, 0.0, 0.0, 0.0, 0.0]",0.002,7,1
0,-1,"[6.093075717217289e-05, -1.5708066425719203, 6.024037496388246e-06, -1.9149189331102434e-05, -4.3217335836231996e-05, 1.087188684323337e-05]","[-6.86890707584098e-05, 1.1639890440395817e-11, -5.3785828640684485e-05, -2.7377466960132324e-10, -8.269120621679963e-35, -0.0]","[0.0, -1.5707963267948966, 0.0, 0.0, 0.0, 0.0]","[0.0, -1.5707963267948966, 0.0, 0.0, 0.0, 0.0]",0.002,7,1
0,-1,"[-1.8421803609669496e-05, -1.5707814997488931, -2.86102294921875e-06, -2.367914233403212e-05, 3.5735603887587786e-05, -2.080598940068512e-05]","[-6.241184746613726e-05, 3.77118672298132e-19, 4.5631438183590944e-08, -4.9757243715065156e-15, -1.5028729848098658e-39, -0.0]","[0.0, -1.5707963267948966, 0.0, 0.0, 0.0, 0.0]","[0.0, -1.5707963267948966, 0.0, 0.0, 0.0, 0.0]",0.002,7,1
0,-1,"[1.9028906535822898e-05, -1.5707860869227552, 5.8476124898731996e-05, -4.367237426805559e-06, 2.2673606508760713e-05, 2.4120330635923892e-05]","[-5.062943455413915e-05, 7.125263576863328e-38, 8.62158024081699e-27, -7.006707241747737e-27, -0.0, -0.0]","[0.0, -1.5707963267948966, 0.0, 0.0, 0.0, 0.0]","[0.0, -1.5707963267948966, 0.0, 0.0, 0.0, 0.0]",0.002,7,1
0,-1,"[1.0037440006271936e-05, -1.5707694926789664, 1.6514454976856996e-05, 1.2083644531202253e-05, -1.732503072560121e-06, 1.964569128176663e-05]","[-4.7932979214238e-05, 1.723597111119525e-43, 2.0820147291517085e-32, -1.950343927618786e-30, -0.0, -0.0]","[0.0, -1.5707963267948966, 0.0, 0.0, 0.0, 0.0]","[0.0, -1.5707963267948966, 0.0, 0.0, 0.0, 0.0]",0.002,7,1
0,-1,"[4.01021316065453e-05, -1.5708066425719203, 3.701845277959137e-05, -9.016399719286028e-06, -1.3176594869435121e-05, -8.885060445606996e-06]","[-5.8699832152342424e-05, 0.0, 9.049585482609669e-42, -2.3144083993839245e-36, -0.0, -0.0]","[0.0, -1.5707963267948966, 0.0, 0.0, 0.0, 0.0]","[0.0, -1.5707963267948966, 0.0, 0.0, 0.0, 0.0]",0.002,7,1
0,-1,"[4.29839055868797e-05, -1.5707951771836015, 4.0356312887013246e-05, -2.546728167729384e-05, -2.175966371709137e-05, 1.0871888662222773e-05]","[-4.012313002021983e-05, 0.0, -0.0, -1.793662034335766e-43, -0.0, -0.0]","[0.0, -1.5707963267948966, 0.0, 0.0, 0.0, 0.0]","[0.0, -1.5707963267948966, 0.0, 0.0, 0.0, 0.0]",0.002,7,1
0,-1,"[-1.732503072560121e-06, -1.5707695108051958, 2.080598940068512e-05, -1.1758213378953997e-05, -2.175966371709137e-05, 3.337860107421875e-06]","[-4.843374699703418e-05, 0.0, -0.0, -0.0, -0.0, -0.0]","[0.0, -1.5707963267948966, 0.0, 0.0, 0.0, 0.0]","[0.0, -1.5707963267948966, 0.0, 0.0, 0.0, 0.0]",0.002,7,1
0,-1,"[3.8504600524902344e-05, -1.570764884356624, 6.977711812794496e-06, -4.918993029789931e-05, -1.0315571920216371e-05, 3.5953522456111386e-05]","[-4.538108623819426e-05, 0.0, -0.0, -0.0, -0.0, -0.0]","[0.0, -1.5707963267948966, 0.0, 0.0, 0.0, 0.0]","[0.0, -1.5707963267948966, 0.0, 0.0, 0.0, 0.0]",0.002,7,1
0,-1,"[5.196034908294678e-05, -1.5707649658073315, 3.701845277959137e-05, -2.546728167729384e-05, 5.196857455302961e-05, 3.329104401927907e-06]","[-4.1223833250114694e-05, 0.0, -0.0, -0.0, -0.0, -0.0]","[0.0, -1.5707963267948966, 0.0, 0.0, 0.0, 0.0]","[0.0, -1.5707963267948966, 0.0, 0.0, 0.0, 0.0]",0.002,7,1
0,1,"[3.107769589405507e-05, -1.5708190403380335, 3.129640688115387e-05, 2.9130572936963972e-05, -1.732503072560121e-06, 2.4173534256988205e-05]","[-1.6444929159696515e-21, 0.0, -0.0, -0.0, -0.0, -0.0]","[0.08765894793109064, -1.4831373788638058, 0.08765894793109064, 0.08765894793109064, 0.08765894793109064, 0.08765894793109064]","[0.08765894793109064, -1.4831373788638058, 0.08765894793109064, 0.08765894793109064, 0.08765894793109064, 0.08765894793109064]",0.002,7,1
0,2,"[4.299585270928219e-05, -1.5706569167417292, 0.00013381639589482575, 9.767591442866319e-05, 8.794355380814523e-05, 0.00011691356485243887]","[0.033690549433231354, 0.16507819294929504, 0.11262194812297821, 0.0586063489317894, 0.04711950570344925, 0.05102825164794922]","[0.08850819476859928, -1.4822881320262973, 0.08850819476859928, 0.08850819476859928, 0.08850819476859928, 0.08850819476859928]","[0.08850819476859928, -1.4822881320262973, 0.08850819476859928, 0.08850819476859928, 0.08850819476859928, 0.08850819476859928]",0.002,7,1
0,3,"[4.299585270928219e-05, -1.5706569167417292, 0.00013381639589482575, 9.767591442866319e-05, 8.794355380814523e-05, 0.00011691356485243887]","[0.033690549433231354, 0.16507819294929504, 0.11262194812297821, 0.0586063489317894, 0.04711950570344925, 0.05102825164794922]","[0.08935688209272531, -1.4814394447021713, 0.08935688209272531, 0.08935688209272531, 0.08935688209272531, 0.08935688209272531]","[0.08935688209272531, -1.4814394447021713, 0.08935688209272531, 0.08935688209272531, 0.08935688209272531, 0.08935688209272531]",0.002,7,1
0,4,"[6.695691990898922e-05, -1.5703701291389116, 0.0003350416766565445, 0.00026254236187739366, 0.00026938581140711904, 0.00027831507031805813]","[0.04456857964396477, 0.19841794669628143, 0.13873349130153656, 0.08984102308750153, 0.07691409438848495, 0.08222909271717072]","[0.09020500453840717, -1.4805913222564895, 0.09020500453840717, 0.09020500453840717, 0.09020500453840717, 0.09020500453840717]","[0.09020500453840717, -1.4805913222564895, 0.09020500453840717, 0.09020500453840717, 0.09020500453840717, 0.09020500453840717]",0.002,7,1
0,5,"[0.0002740263007581234, -1.570068384611961, 0.0005753676043909195, 0.00033073007550044053, 0.00042155932169407606, 0.00042680668411776423]","[0.054903917014598846, 0.1957589089870453, 0.13750547170639038, 0.09803494065999985, 0.0905817523598671, 0.09595465660095215]","[0.09105255674415423, -1.4797437700507423, 0.09105255674415423, 0.09105255674415423, 0.09105255674415423, 0.09105255674415423]","[0.09105255674415423, -1.4797437700507423, 0.09105255674415423, 0.09105255674415423, 0.09105255674415423, 0.09105255674415423]",0.002,7,1
0,6,"[0.0004090367001481354, -1.5696573821226885, 0.0008800665484827164, 0.0005262333103637218, 0.0006463494501076639, 0.00063398975180462]","[0.07563625276088715, 0.1957075297832489, 0.14282478392124176, 0.10095586627721786, 0.10162126272916794, 0.10005438327789307]","[0.09189953335208066, -1.4788967934428159, 0.09189953335208066, 0.09189953335208066, 0.09189953335208066, 0.09189953335208066]","[0.09189953335208066, -1.4788967934428159, 0.09189953335208066, 0.09189953335208066, 0.09189953335208066, 0.09189953335208066]",0.002,7,1
0,7,"[0.0006792406784370542, -1.5692704135183995, 0.0012872854815881851, 0.0007578569599608898, 0.0008605027105659246, 0.000874893506988883]","[0.10280915349721909, 0.20821407437324524, 0.16327455639839172, 0.11208859831094742, 0.1145833358168602, 0.1156216412782669]","[0.0927459290079393, -1.4780503977869572, 0.0927459290079393, 0.0927459290079393, 0.0927459290079393, 0.0927459290079393]","[0.0927459290079393, -1.4780503977869572, 0.0927459290079393, 0.0927459290079393, 0.0927459290079393, 0.0927459290079393]",0.002,7,1
0,8,"[0.000977792195044458, -1.5687918314109375, 0.0017002264605920914, 0.0010170179554442882, 0.0010597252985462546, 0.0011117367539554834]","[0.12421349436044693, 0.21840690076351166, 0.17785848677158356, 0.12823668122291565, 0.12883105874061584, 0.12927988171577454]","[0.09359173836115567, -1.4772045884337408, 0.09359173836115567, 0.09359173836115567, 0.09359173836115567, 0.09359173836115567]","[0.09359173836115567, -1.4772045884337408, 0.09359173836115567, 0.09359173836115567, 0.09359173836115567, 0.09359173836115567]",0.002,7,1
0,9,"[0.0013182801194489002, -1.5684904302800824, 0.0020020643817346695, 0.0014856296726684093, 0.0012758845696225762, 0.0013998348731547594]","[0.15428295731544495, 0.20276565849781036, 0.17464850842952728, 0.15270669758319855, 0.14552634954452515, 0.14655303955078125]","[0.09443695606486147, -1.476359370730035, 0.09443695606486147, 0.09443695606486147, 0.09443695606486147, 0.09443695606486147]","[0.09443695606486147, -1.476359370730035, 0.09443695606486147, 0.09443695606486147, 0.09443695606486147, 0.09443695606486147]",0.002,7,1
0,10,"[0.0017802334623411298, -1.5682522026221086, 0.0023339430438440445, 0.0019215780445556163, 0.0014750208938494325, 0.0017246886854991317]","[0.17778722941875458, 0.16808144748210907, 0.1560295820236206, 0.17202405631542206, 0.1601022630929947, 0.16348238289356232]","[0.09528157677592872, -1.4755147500189678, 0.09528157677592872, 0.09528157677592872, 0.09528157677592872, 0.09528157677592872]","[0.09528157677592872, -1.4755147500189678, 0.09528157677592872, 0.09528157677592872, 0.09528157677592872, 0.09528157677592872]",0.002,7,1
0,11,"[0.0021028106566518545, -1.5680092543228348, 0.0025485197650354507, 0.0022273498722533702, 0.001898867660202086, 0.002072635106742382]","[0.1917210966348648, 0.13305430114269257, 0.17045938968658447, 0.19267061352729797, 0.1774144470691681, 0.17968538403511047]","[0.09612559515500335, -1.4746707316398933, 0.09612559515500335, 0.09612559515500335, 0.09612559515500335, 0.09612559515500335]","[0.09612559515500335, -1.4746707316398933, 0.09612559515500335, 0.09612559515500335, 0.09612559515500335, 0.09612559515500335]",0.002,7,1
0,12,"[0.0024175511207431555, -1.5677902573118736, 0.00281697908510381, 0.0024652916141967296, 0.0023490895982831717, 0.002435706090182066]","[0.201693594455719, 0.1684386432170868, 0.19563695788383484, 0.20268221199512482, 0.19638998806476593, 0.19713467359542847]","[0.09696900586653895, -1.4738273209283577, 0.09696900586653895, 0.09696900586653895, 0.09696900586653895, 0.09696900586653895]","[0.09696900586653895, -1.4738273209283577, 0.09696900586653895, 0.09696900586653895, 0.09696900586653895, 0.09696900586653895]",0.002,7,1
0,13,"[0.002758024726063013, -1.5674317132546385, 0.0031688849078577164, 0.002852006549499464, 0.002822376322001219, 0.0029027541168034077]","[0.2129489630460739, 0.1982177495956421, 0.1983792781829834, 0.2042049765586853, 0.21514497697353363, 0.21088720858097076]","[0.09781180357883058, -1.4729845232160659, 0.09781180357883058, 0.09781180357883058, 0.09781180357883058, 0.09781180357883058]","[0.09781180357883058, -1.4729845232160659, 0.09781180357883058, 0.09781180357883058, 0.09781180357883058, 0.09781180357883058]",0.002,7,1
0,14,"[0.003239448880776763, -1.567053409093507, 0.003548924122945607, 0.003233357066772413, 0.003282582387328148, 0.0033214534632861614]","[0.22893403470516205, 0.20711804926395416, 0.20824618637561798, 0.21265646815299988, 0.2384297400712967, 0.22740481793880463]","[0.09865398296404841, -1.472142343830848, 0.09865398296404841, 0.09865398296404841, 0.09865398296404841, 0.09865398296404841]","[0.09865398296404841, -1.472142343830848, 0.09865398296404841, 0.09865398296404841, 0.09865398296404841, 0.09865398296404841]",0.002,7,1
0,15,"[0.003744928166270256, -1.5667238023928185, 0.0041344801532190445, 0.003661914462707472, 0.0037810029461979866, 0.0038343886844813824]","[0.24618513882160187, 0.21639172732830048, 0.22537124156951904, 0.23073965311050415, 0.2527366578578949, 0.24495013058185577]","[0.0994955386982715, -1.4713007880966251, 0.0994955386982715, 0.0994955386982715, 0.0994955386982715, 0.0994955386982715]","[0.0994955386982715, -1.4713007880966251, 0.0994955386982715, 0.0994955386982715, 0.0994955386982715, 0.0994955386982715]",0.002,7,1
0,16,"[0.004403264261782169, -1.5662070198780675, 0.004683319722310841, 0.004362507457397413, 0.00430571474134922, 0.004379125311970711]","[0.2646142244338989, 0.23244212567806244, 0.2499280869960785, 0.2554679214954376, 0.2678781747817993, 0.2608550786972046]","[0.10033646546152125, -1.4704598613333753, 0.10033646546152125, 0.10033646546152125, 0.10033646546152125, 0.10033646546152125]","[0.10033646546152125, -1.4704598613333753, 0.10033646546152125, 0.10033646546152125, 0.10033646546152125, 0.10033646546152125]",0.002,7,1
0,17,"[0.004985883831977844, -1.565664315396436, 0.005202118550435841, 0.004974647159240675, 0.004790705628693104, 0.004886265378445387]","[0.2862825095653534, 0.24889585375785828, 0.2716574966907501, 0.28385746479034424, 0.2809193730354309, 0.28007572889328003]","[0.10117675793779526, -1.4696195688571012, 0.10117675793779526, 0.10117675793779526, 0.10117675793779526, 0.10117675793779526]","[0.10117675793779526, -1.4696195688571012, 0.10117675793779526, 0.10117675793779526, 0.10117675793779526, 0.10117675793779526]",0.002,7,1
0,18,"[0.005671132355928421, -1.5651660815677424, 0.005795303975240529, 0.005589290256164503, 0.005387658253312111, 0.005581273697316647]","[0.30511677265167236, 0.2688451409339905, 0.28862980008125305, 0.30873599648475647, 0.2954360842704773, 0.2991219758987427]","[0.10201641081510086, -1.4687799159797956, 0.10201641081510086, 0.10201641081510086, 0.10201641081510086, 0.10201641081510086]","[0.10201641081510086, -1.4687799159797956, 0.10201641081510086, 0.10201641081510086, 0.10201641081510086, 0.10201641081510086]",0.002,7,1
0,19,"[0.006279478315263987, -1.5646789993955572, 0.006347958241597951, 0.006199284190795851, 0.006053483579307795, 0.006107692141085863]","[0.32082581520080566, 0.2825661301612854, 0.3016033470630646, 0.32284557819366455, 0.31206175684928894, 0.31377938389778137]","[0.10285541878548858, -1.467940908009408, 0.10285541878548858, 0.10285541878548858, 0.10285541878548858, 0.10285541878548858]","[0.10285541878548858, -1.467940908009408, 0.10285541878548858, 0.10285541878548858, 0.10285541878548858, 0.10285541878548858]",0.002,7,1
0,20,"[0.006907820701599121, -1.5641347465901454, 0.006982151662008107, 0.006747289294860792, 0.006782470736652613, 0.006788981147110462]","[0.33350881934165955, 0.2984525263309479, 0.313087522983551, 0.3288251757621765, 0.33096686005592346, 0.3291289806365967]","[0.10369377654508585, -1.4671025502498107, 0.10369377654508585, 0.10369377654508585, 0.10369377654508585, 0.10369377654508585]","[0.10369377654508585, -1.4671025502498107, 0.10369377654508585, 0.10369377654508585, 0.10369377654508585, 0.10369377654508585]",0.002,7,1
0,21,"[0.007571129593998194, -1.5634943561493237, 0.007603470479146779, 0.007387562389038038, 0.007522109895944595, 0.00749629270285368]","[0.34375664591789246, 0.3129917085170746, 0.3293997049331665, 0.3335055708885193, 0.34935083985328674, 0.34476473927497864]","[0.10453147879413045, -1.466264848000766, 0.10453147879413045, 0.10453147879413045, 0.10453147879413045, 0.10453147879413045]","[0.10453147879413045, -1.466264848000766, 0.10453147879413045, 0.10453147879413045, 0.10453147879413045, 0.10453147879413045]",0.002,7,1
0,22,"[0.008209550753235817, -1.562799309646227, 0.008304897938863576, 0.008158965701721144, 0.00828933622688055, 0.008250332437455654]","[0.3563903570175171, 0.33015474677085876, 0.34167665243148804, 0.3464125692844391, 0.3657850921154022, 0.3590766489505768]","[0.10536852023700408, -1.4654278065578925, 0.10536852023700408, 0.10536852023700408, 0.10536852023700408, 0.10536852023700408]","[0.10536852023700408, -1.4654278065578925, 0.10536852023700408, 0.10536852023700408, 0.10536852023700408, 0.10536852023700408]",0.002,7,1
0,23,"[0.009003247134387493, -1.562160393489041, 0.009055439625875294, 0.008960052127502394, 0.008981139399111271, 0.008925022557377815]","[0.3728698492050171, 0.34828975796699524, 0.3583122789859772, 0.3622792959213257, 0.3803793787956238, 0.37361615896224976]","[0.1062048955822657, -1.464591431212631, 0.1062048955822657, 0.1062048955822657, 0.1062048955822657, 0.1062048955822657]","[0.1062048955822657, -1.464591431212631, 0.1062048955822657, 0.1062048955822657, 0.1062048955822657, 0.1062048955822657]",0.002,7,1
0,24,"[0.009901557117700577, -1.5613658049008627, 0.009758774434224904, 0.009883566493652296, 0.009743602015078068, 0.009713223204016685]","[0.39145466685295105, 0.36203810572624207, 0.37709781527519226, 0.3877970576286316, 0.39266011118888855, 0.39022958278656006]","[0.10704059954268516, -1.4637557272522115, 0.10704059954268516, 0.10704059954268516, 0.10704059954268516, 0.10704059954268516]","[0.10704059954268516, -1.4637557272522115, 0.10704059954268516, 0.10704059954268516, 0.10704059954268516, 0.10704059954268516]",0.002,7,1
0,25,"[0.010704071260988712, -1.5606101362830778, 0.010598007832662404, 0.01071731626477046, 0.010573088191449642, 0.010487696155905724]","[0.41052207350730896, 0.38041847944259644, 0.3926670253276825, 0.4118884205818176, 0.4050794839859009, 0.40668952465057373]","[0.10787562683527654, -1.46292069995962, 0.10787562683527654, 0.10787562683527654, 0.10787562683527654, 0.10787562683527654]","[0.10787562683527654, -1.46292069995962, 0.10787562683527654, 0.10787562683527654, 0.10787562683527654, 0.10787562683527654]",0.002,7,1
0,26,"[0.011503973044455051, -1.559891590183117, 0.011420075093404591, 0.01158849775280757, 0.011320863850414753, 0.01137638185173273]","[0.42636650800704956, 0.39899659156799316, 0.41044098138809204, 0.4317273795604706, 0.41701337695121765, 0.42259493470191956]","[0.1087099721813315, -1.462086354613565, 0.1087099721813315, 0.1087099721813315, 0.1087099721813315, 0.1087099721813315]","[0.1087099721813315, -1.462086354613565, 0.1087099721813315, 0.1087099721813315, 0.1087099721813315, 0.1087099721813315]",0.002,7,1
0,27,"[0.012341417372226715, -1.559024329563119, 0.0122607390033167, 0.01241116105999751, 0.012225181795656681, 0.012191853486001492]","[0.4369649291038513, 0.4136812090873718, 0.4254230856895447, 0.4424401521682739, 0.4353865385055542, 0.4387330412864685]","[0.10954363030645263, -1.461252696488444, 0.10954363030645263, 0.10954363030645263, 0.10954363030645263, 0.10954363030645263]","[0.10954363030645263, -1.461252696488444, 0.10954363030645263, 0.10954363030645263, 0.10954363030645263, 0.10954363030645263]",0.002,7,1
0,28,"[0.013230651617050171, -1.5581550945392628, 0.013212982808248341, 0.013339443797729444, 0.013073177076876163, 0.013144978322088718]","[0.44904160499572754, 0.4313521087169647, 0.4397679567337036, 0.45105600357055664, 0.45241591334342957, 0.4538646638393402]","[0.11037659594058698, -1.4604197308543097, 0.11037659594058698, 0.11037659594058698, 0.11037659594058698, 0.11037659594058698]","[0.11037659594058698, -1.4604197308543097, 0.11037659594058698, 0.11037659594058698, 0.11037659594058698, 0.11037659594058698]",0.002,7,1
0,29,"[0.014269962906837463, -1.5572018095156928, 0.01402312914003545, 0.014190478915832472, 0.014063503593206406, 0.014061978086829185]","[0.4618358314037323, 0.4494642913341522, 0.45459210872650146, 0.45617207884788513, 0.4696395695209503, 0.4701680839061737]","[0.11120886381805924, -1.4595874629768373, 0.11120886381805924, 0.11120886381805924, 0.11120886381805924, 0.11120886381805924]","[0.11120886381805924, -1.4595874629768373, 0.11120886381805924, 0.11120886381805924, 0.11120886381805924, 0.11120886381805924]",0.002,7,1
0,30,"[0.01522031333297491, -1.5562383097461243, 0.014933411275045216, 0.015193148250244093, 0.015098056755959988, 0.014950595796108246]","[0.47848397493362427, 0.4677603840827942, 0.47006604075431824, 0.4680320918560028, 0.4826096296310425, 0.48188769817352295]","[0.11204042867760493, -1.4587558981172917, 0.11204042867760493, 0.11204042867760493, 0.11204042867760493, 0.11204042867760493]","[0.11204042867760493, -1.4587558981172917, 0.11204042867760493, 0.11204042867760493, 0.11204042867760493, 0.11204042867760493]",0.002,7,1
0,31,"[0.016183599829673767, -1.555248874505498, 0.01596099535097295, 0.016146941775939894, 0.016008196398615837, 0.015988264232873917]","[0.49516457319259644, 0.4864064157009125, 0.4823794364929199, 0.4832285940647125, 0.4956054985523224, 0.4965616464614868]","[0.11287128526240384, -1.4579250415324927, 0.11287128526240384, 0.11287128526240384, 0.11287128526240384, 0.11287128526240384]","[0.11287128526240384, -1.4579250415324927, 0.11287128526240384, 0.11287128526240384, 0.11287128526240384, 0.11287128526240384]",0.002,7,1
0,32,"[0.017159482464194298, -1.554264822309353, 0.016928974782125294, 0.017218752498290968, 0.017018908634781837, 0.01708373799920082]","[0.5101497173309326, 0.5004432797431946, 0.498814195394516, 0.49908655881881714, 0.5081510543823242, 0.5106207132339478]","[0.11370142832011325, -1.4570948984747834, 0.11370142832011325, 0.11370142832011325, 0.11370142832011325, 0.11370142832011325]","[0.11370142832011325, -1.4570948984747834, 0.11370142832011325, 0.11370142832011325, 0.11370142832011325, 0.11370142832011325]",0.002,7,1
0,33,"[0.018202103674411774, -1.5531951759806653, 0.01799327531923467, 0.018278523082397413, 0.018060050904750824, 0.01805737428367138]","[0.5203315615653992, 0.5144805312156677, 0.5143967270851135, 0.5171365737915039, 0.520020604133606, 0.5245042443275452]","[0.11453085260290095, -1.4562654741919956, 0.11453085260290095, 0.11453085260290095, 0.11453085260290095, 0.11453085260290095]","[0.11453085260290095, -1.4562654741919956, 0.11453085260290095, 0.11453085260290095, 0.11453085260290095, 0.11453085260290095]",0.002,7,1
0,34,"[0.019302139058709145, -1.552178594549634, 0.019032780324117482, 0.019254966373107862, 0.0191197469830513, 0.01917503960430622]","[0.5317297577857971, 0.5304504632949829, 0.5307051539421082, 0.5336582660675049, 0.5351923704147339, 0.5382755994796753]","[0.11535955286747862, -1.4554367739274179, 0.11535955286747862, 0.11535955286747862, 0.11535955286747862, 0.11535955286747862]","[0.11535955286747862, -1.4554367739274179, 0.11535955286747862, 0.11535955286747862, 0.11535955286747862, 0.11535955286747862]",0.002,7,1
0,35,"[0.020323198288679123, -1.550965716396906, 0.020168606434957326, 0.020298882121704054, 0.020242275670170784, 0.020287398248910904]","[0.5464642643928528, 0.5457570552825928, 0.5484111309051514, 0.548469603061676, 0.549682080745697, 0.5525568723678589]","[0.11618752387513484, -1.4546088029197617, 0.11618752387513484, 0.11618752387513484, 0.11618752387513484, 0.11618752387513484]","[0.11618752387513484, -1.4546088029197617, 0.11618752387513484, 0.11618752387513484, 0.11618752387513484, 0.11618752387513484]",0.002,7,1
0,36,"[0.021453266963362694, -1.5497890592417498, 0.021236721669332326, 0.021342917079589796, 0.02134539932012558, 0.02135614864528179]","[0.5602799654006958, 0.5632318258285522, 0.5593293905258179, 0.5588657855987549, 0.5650045275688171, 0.5667625069618225]","[0.11701476039176834, -1.4537815664031282, 0.11701476039176834, 0.11701476039176834, 0.11701476039176834, 0.11701476039176834]","[0.11701476039176834, -1.4537815664031282, 0.11701476039176834, 0.11701476039176834, 0.11701476039176834, 0.11701476039176834]",0.002,7,1
0,37,"[0.022603772580623627, -1.5486297731152554, 0.02229625383485967, 0.022427244777343702, 0.022594956681132317, 0.022529328241944313]","[0.5737798810005188, 0.5771032571792603, 0.5702579021453857, 0.5720250010490417, 0.5774236917495728, 0.5773125290870667]","[0.11784125718792089, -1.4529550696069757, 0.11784125718792089, 0.11784125718792089, 0.11784125718792089, 0.11784125718792089]","[0.11784125718792089, -1.4529550696069757, 0.11784125718792089, 0.11784125718792089, 0.11784125718792089, 0.11784125718792089]",0.002,7,1
0,38,"[0.023766234517097473, -1.5474382278374215, 0.023522202168599904, 0.023529573077819776, 0.023666702210903168, 0.023729916661977768]","[0.5870333313941956, 0.5872147679328918, 0.5829224586486816, 0.5854191780090332, 0.5919068455696106, 0.5887731909751892]","[0.11866700903881057, -1.452129317756086, 0.11866700903881057, 0.11866700903881057, 0.11866700903881057, 0.11866700903881057]","[0.11866700903881057, -1.452129317756086, 0.11866700903881057, 0.11866700903881057, 0.11866700903881057, 0.11866700903881057]",0.002,7,1
0,39,"[0.024914728477597237, -1.5462592218867321, 0.024724308644429982, 0.02471415578808589, 0.024896789342164993, 0.0249385554343462]","[0.5988267064094543, 0.5983638167381287, 0.5923738479614258, 0.5991765856742859, 0.6042866110801697, 0.6010205745697021]","[0.11949201072436472, -1.451304316070532, 0.11949201072436472, 0.11949201072436472, 0.11949201072436472, 0.11949201072436472]","[0.11949201072436472, -1.451304316070532, 0.11949201072436472, 0.11949201072436472, 0.11949201072436472, 0.11949201072436472]",0.002,7,1
0,40,"[0.026124054566025734, -1.5448855192265292, 0.025961224232808888, 0.026025815601013136, 0.026175126433372498, 0.026197394356131554]","[0.6094560623168945, 0.6125003695487976, 0.6051319241523743, 0.6163073182106018, 0.6149365901947021, 0.6120021343231201]","[0.12031625702925285, -1.4504800697656437, 0.12031625702925285, 0.12031625702925285, 0.12031625702925285, 0.12031625702925285]","[0.12031625702925285, -1.4504800697656437, 0.12031625702925285, 0.12031625702925285, 0.12031625702925285, 0.12031625702925285]",0.002,7,1
0,41,"[0.02735956385731697, -1.543632048448064, 0.027141873036519826, 0.027281089419982862, 0.027390941977500916, 0.027448223903775215]","[0.6240228414535522, 0.6241468787193298, 0.6254087090492249, 0.6332953572273254, 0.6262525916099548, 0.6231831908226013]","[0.1211397427429197, -1.4496565840519768, 0.1211397427429197, 0.1211397427429197, 0.1211397427429197, 0.1211397427429197]","[0.1211397427429197, -1.4496565840519768, 0.1211397427429197, 0.1211397427429197, 0.1211397427429197, 0.1211397427429197]",0.002,7,1
0,42,"[0.02861698344349861, -1.5422945891371747, 0.02849466005434209, 0.028526349658630323, 0.02871309593319893, 0.028703417629003525]","[0.6370309591293335, 0.6386890411376953, 0.6398990750312805, 0.6461659669876099, 0.6374297738075256, 0.6372510194778442]","[0.12196246265961823, -1.4488338641352783, 0.12196246265961823, 0.12196246265961823, 0.12196246265961823, 0.12196246265961823]","[0.12196246265961823, -1.4488338641352783, 0.12196246265961823, 0.12196246265961823, 0.12196246265961823, 0.12196246265961823]",0.002,7,1
0,43,"[0.029885651543736458, -1.5409879603287955, 0.029807392750875294, 0.029782219524047804, 0.030062800273299217, 0.03006851114332676]","[0.6493821740150452, 0.6492799520492554, 0.6484351754188538, 0.6582079529762268, 0.6518126130104065, 0.6488775014877319]","[0.12278441157844236, -1.4480119152164541, 0.12278441157844236, 0.12278441157844236, 0.12278441157844236, 0.12278441157844236]","[0.12278441157844236, -1.4480119152164541, 0.12278441157844236, 0.12278441157844236, 0.12278441157844236, 0.12278441157844236]",0.002,7,1
0,44,"[0.03109375387430191, -1.5396735438010474, 0.031161133443013966, 0.031065269107482862, 0.03142727166414261, 0.03135203942656517]","[0.6606393456459045, 0.6592760682106018, 0.6597388386726379, 0.6661336421966553, 0.6648529171943665, 0.659912645816803]","[0.12360558430336005, -1.4471907424915365, 0.12360558430336005, 0.12360558430336005, 0.12360558430336005, 0.12360558430336005]","[0.12360558430336005, -1.4471907424915365, 0.12360558430336005, 0.12360558430336005, 0.12360558430336005, 0.12360558430336005]",0.002,7,1
0,45,"[0.032439667731523514, -1.5382206824472924, 0.0324786345111292, 0.03250734388317866, 0.032767873257398605, 0.03273211419582367]","[0.6693716645240784, 0.6697235703468323, 0.6694062948226929, 0.6769083142280579, 0.6747196912765503, 0.6699391007423401]","[0.12442597564324599, -1.4463703511516506, 0.12442597564324599, 0.12442597564324599, 0.12442597564324599, 0.12442597564324599]","[0.12442597564324599, -1.4463703511516506, 0.12442597564324599, 0.12442597564324599, 0.12442597564324599, 0.12442597564324599]",0.002,7,1
0,46,"[0.03382101655006409, -1.5368744035116215, 0.03382760683168584, 0.033893151874206495, 0.034131597727537155, 0.03410261496901512]","[0.6804291605949402, 0.6853991746902466, 0.6805248260498047, 0.6883544325828552, 0.6855204105377197, 0.6808299422264099]","[0.12524558041191447, -1.445550746382982, 0.12524558041191447, 0.12524558041191447, 0.12524558041191447, 0.12524558041191447]","[0.12524558041191447, -1.445550746382982, 0.12524558041191447, 0.12524558041191447, 0.12524558041191447, 0.12524558041191447]",0.002,7,1
0,47,"[0.03520878404378891, -1.5354792711189766, 0.035210434590474904, 0.03535608827557368, 0.03551733121275902, 0.03544357046484947]","[0.6930223703384399, 0.6954649090766907, 0.6900135278701782, 0.6994690895080566, 0.6932855844497681, 0.68951815366745]","[0.1260643934281522, -1.4447319333667443, 0.1260643934281522, 0.1260643934281522, 0.1260643934281522, 0.1260643934281522]","[0.1260643934281522, -1.4447319333667443, 0.1260643934281522, 0.1260643934281522, 0.1260643934281522, 0.1260643934281522]",0.002,7,1
0,48,"[0.03669126331806183, -1.5340768706849595, 0.03665668169130498, 0.03677813589062495, 0.03696725144982338, 0.036830075085163116]","[0.704816460609436, 0.7058486938476562, 0.7022544741630554, 0.7098562121391296, 0.7021366357803345, 0.701184093952179]","[0.12688240951575097, -1.4439139172791455, 0.12688240951575097, 0.12688240951575097, 0.12688240951575097, 0.12688240951575097]","[0.12688240951575097, -1.4439139172791455, 0.12688240951575097, 0.12688240951575097, 0.12688240951575097, 0.12688240951575097]",0.002,7,1
0,49,"[0.038069386035203934, -1.5326180172017594, 0.03813821474184209, 0.03827302038159175, 0.038322556763887405, 0.03824567049741745]","[0.7132893800735474, 0.717157781124115, 0.7144955396652222, 0.7212581038475037, 0.7128583192825317, 0.7134017944335938]","[0.12769962350354055, -1.443096703291356, 0.12769962350354055, 0.12769962350354055, 0.12769962350354055, 0.12769962350354055]","[0.12769962350354055, -1.443096703291356, 0.12769962350354055, 0.12769962350354055, 0.12769962350354055, 0.12769962350354055]",0.002,7,1
0,50,"[0.03953712061047554, -1.5311287094703694, 0.03956586519350225, 0.03979782640423579, 0.03975147753953934, 0.03969677537679672]","[0.7259779572486877, 0.7292376756668091, 0.7256783246994019, 0.7294102907180786, 0.7239020466804504, 0.7224439382553101]","[0.12851603022542116, -1.4422802965694754, 0.12851603022542116, 0.12851603022542116, 0.12851603022542116, 0.12851603022542116]","[0.12851603022542116, -1.4422802965694754, 0.12851603022542116, 0.12851603022542116, 0.12851603022542116, 0.12851603022542116]",0.002,7,1
0,51,"[0.041023265570402145, -1.5296935488334675, 0.04108030000795537, 0.041292234058044386, 0.04128255322575569, 0.041092485189437866]","[0.7384459376335144, 0.7418109178543091, 0.7348197102546692, 0.738591730594635, 0.735001802444458, 0.7341049313545227]","[0.12933162452039626, -1.4414647022745002, 0.12933162452039626, 0.12933162452039626, 0.12933162452039626, 0.12933162452039626]","[0.12933162452039626, -1.4414647022745002, 0.12933162452039626, 0.12933162452039626, 0.12933162452039626, 0.12933162452039626]",0.002,7,1
0,52,"[0.0424523763358593, -1.5281710189631958, 0.042554680501119435, 0.04286794244732661, 0.04268060252070427, 0.04258624091744423]","[0.7458558678627014, 0.7513912916183472, 0.7446342706680298, 0.7453053593635559, 0.7442997097969055, 0.7454163432121277]","[0.13014640123260515, -1.4406499255622913, 0.13014640123260515, 0.13014640123260515, 0.13014640123260515, 0.13014640123260515]","[0.13014640123260515, -1.4406499255622913, 0.13014640123260515, 0.13014640123260515, 0.13014640123260515, 0.13014640123260515]",0.002,7,1
0,53,"[0.04400844871997833, -1.5266692017069836, 0.044051472340719044, 0.044436736697814894, 0.0441364161670208, 0.04405263066291809]","[0.7528969049453735, 0.7603039741516113, 0.7544893026351929, 0.7578827738761902, 0.7543478608131409, 0.756904661655426]","[0.13096035521135554, -1.439835971583541, 0.13096035521135554, 0.13096035521135554, 0.13096035521135554, 0.13096035521135554]","[0.13096035521135554, -1.439835971583541, 0.13096035521135554, 0.13096035521135554, 0.13096035521135554, 0.13096035521135554]",0.002,7,1
0,54,"[0.04549354314804077, -1.525122345691063, 0.04562741914858037, 0.04597560941662593, 0.04568738490343094, 0.045575231313705444]","[0.7629480361938477, 0.7699267864227295, 0.763209342956543, 0.7647894620895386, 0.7647603154182434, 0.7680209279060364]","[0.13177348131115624, -1.4390228454837404, 0.13177348131115624, 0.13177348131115624, 0.13177348131115624, 0.13177348131115624]","[0.13177348131115624, -1.4390228454837404, 0.13177348131115624, 0.13177348131115624, 0.13177348131115624, 0.13177348131115624]",0.002,7,1
0,55,"[0.047120582312345505, -1.5236353252879162, 0.04707080522646123, 0.047484083766601515, 0.047237131744623184, 0.04711100831627846]","[0.7709420323371887, 0.7824723720550537, 0.7735539674758911, 0.7706989049911499, 0.7736048102378845, 0.777056097984314]","[0.1325857743917494, -1.4382105524031472, 0.1325857743917494, 0.1325857743917494, 0.1325857743917494, 0.1325857743917494]","[0.1325857743917494, -1.4382105524031472, 0.1325857743917494, 0.1325857743917494, 0.1325857743917494, 0.1325857743917494]",0.002,7,1
0,56,"[0.04862061142921448, -1.522010413264372, 0.048590962086812794, 0.04900281011547847, 0.04880997911095619, 0.04869895800948143]","[0.7856930494308472, 0.7909486889839172, 0.7809064388275146, 0.7757245302200317, 0.784041702747345, 0.7872222065925598]","[0.13339722931814335, -1.4373990974767532, 0.13339722931814335, 0.13339722931814335, 0.13339722931814335, 0.13339722931814335]","[0.13339722931814335, -1.4373990974767532, 0.13339722931814335, 0.13339722931814335, 0.13339722931814335, 0.13339722931814335]",0.002,7,1
0,57,"[0.050236791372299194, -1.52046728626404, 0.0501788298236292, 0.05055849134411616, 0.05033368617296219, 0.05030056834220886]","[0.7912901043891907, 0.798198938369751, 0.790489137172699, 0.7812924385070801, 0.7916937470436096, 0.7954219579696655]","[0.13420784096064478, -1.4365884858342517, 0.13420784096064478, 0.13420784096064478, 0.13420784096064478, 0.13420784096064478]","[0.13420784096064478, -1.4365884858342517, 0.13420784096064478, 0.13420784096064478, 0.13420784096064478, 0.13420784096064478]",0.002,7,1
0,58,"[0.05179247632622719, -1.5187935431352635, 0.0518267790423792, 0.052127404803893995, 0.05188742280006409, 0.05191170424222946]","[0.8004958033561707, 0.8020007610321045, 0.7976028919219971, 0.7921438813209534, 0.8015747666358948, 0.8037919402122498]","[0.13501760419489134, -1.4357787226000052, 0.13501760419489134, 0.13501760419489134, 0.13501760419489134, 0.13501760419489134]","[0.13501760419489134, -1.4357787226000052, 0.13501760419489134, 0.13501760419489134, 0.13501760419489134, 0.13501760419489134]",0.002,7,1
0,59,"[0.05343806743621826, -1.5171447408250351, 0.05338889757265264, 0.05364040910687251, 0.053559932857751846, 0.05357792228460312]","[0.806480884552002, 0.8105268478393555, 0.8083449006080627, 0.8054323792457581, 0.8092058897018433, 0.8133063912391663]","[0.13582651390188397, -1.4349698128930126, 0.13582651390188397, 0.13582651390188397, 0.13582651390188397, 0.13582651390188397]","[0.13582651390188397, -1.4349698128930126, 0.13582651390188397, 0.13582651390188397, 0.13582651390188397, 0.13582651390188397]",0.002,7,1
0,60,"[0.0551610141992569, -1.5155287955752392, 0.055046860371724904, 0.0551493602940063, 0.05518636107444763, 0.05523642152547836]","[0.8154495358467102, 0.8139256238937378, 0.8144216537475586, 0.8143821954727173, 0.8178632855415344, 0.820712685585022]","[0.13663456496801923, -1.4341617618268774, 0.13663456496801923, 0.13663456496801923, 0.13663456496801923, 0.13663456496801923]","[0.13663456496801923, -1.4341617618268774, 0.13663456496801923, 0.13663456496801923, 0.13663456496801923, 0.13663456496801923]",0.002,7,1
0,61,"[0.056743890047073364, -1.5138966602138062, 0.056621853505269826, 0.056715889567993116, 0.05687001720070839, 0.05686601251363754]","[0.8252294659614563, 0.81174236536026, 0.8181983232498169, 0.8231576681137085, 0.8282421827316284, 0.8257672190666199]","[0.13744175228512176, -1.4333545745097749, 0.13744175228512176, 0.13744175228512176, 0.13744175228512176, 0.13744175228512176]","[0.13744175228512176, -1.4333545745097749, 0.13744175228512176, 0.13744175228512176, 0.13744175228512176, 0.13744175228512176]",0.002,7,1
0,62,"[0.05836749076843262, -1.5122797612896939, 0.0582965056048792, 0.05839185296978755, 0.05856175348162651, 0.058627985417842865]","[0.8352172374725342, 0.8196933269500732, 0.829490602016449, 0.828129768371582, 0.8362510800361633, 0.8322354555130005]","[0.13824807075047635, -1.4325482560444203, 0.13824807075047635, 0.13824807075047635, 0.13824807075047635, 0.13824807075047635]","[0.13824807075047635, -1.4325482560444203, 0.13824807075047635, 0.13824807075047635, 0.13824807075047635, 0.13824807075047635]",0.002,7,1
0,63,"[0.06010456383228302, -1.5105753292194386, 0.05996734300722295, 0.06014864026989741, 0.06025082245469093, 0.06031040847301483]","[0.840803325176239, 0.824122428894043, 0.8349126577377319, 0.8407660126686096, 0.8424680829048157, 0.840252697467804]","[0.1390535152668604, -1.4317428115280362, 0.1390535152668604, 0.1390535152668604, 0.1390535152668604, 0.1390535152668604]","[0.1390535152668604, -1.4317428115280362, 0.1390535152668604, 0.1390535152668604, 0.1390535152668604, 0.1390535152668604]",0.002,7,1
0,64,"[0.0616791807115078, -1.5089596447399636, 0.0616686979876917, 0.06181625902142329, 0.061996083706617355, 0.06207835674285889]","[0.8497928380966187, 0.8298690915107727, 0.8432145118713379, 0.85396409034729, 0.8464577794075012, 0.8457293510437012]","[0.1398580807425761, -1.4309382460523206, 0.1398580807425761, 0.1398580807425761, 0.1398580807425761, 0.1398580807425761]","[0.1398580807425761, -1.4309382460523206, 0.1398580807425761, 0.1398580807425761, 0.1398580807425761, 0.1398580807425761]",0.002,7,1
0,65,"[0.06344728916883469, -1.5072830480388184, 0.06335240999330694, 0.0635869938084106, 0.06373123079538345, 0.06378097087144852]","[0.8556207418441772, 0.8362840414047241, 0.8498801589012146, 0.8647246956825256, 0.8519228100776672, 0.8542081117630005]","[0.14066176209148248, -1.430134564703414, 0.14066176209148248, 0.14066176209148248, 0.14066176209148248, 0.14066176209148248]","[0.14066176209148248, -1.430134564703414, 0.14066176209148248, 0.14066176209148248, 0.14066176209148248, 0.14066176209148248]",0.002,7,1
0,66,"[0.06513728201389313, -1.505608008509018, 0.06509334245790654, 0.06526760637249751, 0.06545856595039368, 0.0655083954334259]","[0.8626189231872559, 0.8388309478759766, 0.8530337810516357, 0.8700478672981262, 0.8595966100692749, 0.8594199419021606]","[0.14146455423302773, -1.4293317725618688, 0.14146455423302773, 0.14146455423302773, 0.14146455423302773, 0.14146455423302773]","[0.14146455423302773, -1.4293317725618688, 0.14146455423302773, 0.14146455423302773, 0.14146455423302773, 0.14146455423302773]",0.002,7,1
0,67,"[0.06693945080041885, -1.5039208021811028, 0.0668404738055628, 0.06706981241192622, 0.06726871430873871, 0.06718529760837555]","[0.8689889907836914, 0.8468647003173828, 0.8603600859642029, 0.8694079518318176, 0.8657166957855225, 0.8625959753990173]","[0.14226645209228123, -1.4285298747026154, 0.14226645209228123, 0.14226645209228123, 0.14226645209228123, 0.14226645209228123]","[0.14226645209228123, -1.4285298747026154, 0.14226645209228123, 0.14226645209228123, 0.14226645209228123, 0.14226645209228123]",0.002,7,1
0,68,"[0.06866667419672012, -1.5021839526346703, 0.068610970173971, 0.0688742834278564, 0.06897851079702377, 0.06890274584293365]","[0.8748274445533752, 0.8529962301254272, 0.8650256395339966, 0.8729144334793091, 0.8725402355194092, 0.8678743839263916]","[0.14306745059996573, -1.427728876194931, 0.14306745059996573, 0.14306745059996573, 0.14306745059996573, 0.14306745059996573]","[0.14306745059996573, -1.427728876194931, 0.14306745059996573, 0.14306745059996573, 0.14306745059996573, 0.14306745059996573]",0.002,7,1
0,69,"[0.07049810886383057, -1.500457265680172, 0.07033902803529912, 0.07061140119519038, 0.07073864340782166, 0.0705999881029129]","[0.8804465532302856, 0.8615238666534424, 0.870785117149353, 0.8771265149116516, 0.8763768672943115, 0.8747058510780334]","[0.14386754469248916, -1.4269287821024075, 0.14386754469248916, 0.14386754469248916, 0.14386754469248916, 0.14386754469248916]","[0.14386754469248916, -1.4269287821024075, 0.14386754469248916, 0.14386754469248916, 0.14386754469248916, 0.14386754469248916]",0.002,7,1
0,70,"[0.07229339331388474, -1.498716765349247, 0.07216102281679326, 0.07253651201214595, 0.07245868444442749, 0.07235723733901978]","[0.8872132301330566, 0.8699834942817688, 0.8809898495674133, 0.8837764263153076, 0.8793327212333679, 0.8813629746437073]","[0.14466672931197697, -1.4261295974829196, 0.14466672931197697, 0.14466672931197697, 0.14466672931197697, 0.14466672931197697]","[0.14466672931197697, -1.4261295974829196, 0.14466672931197697, 0.14466672931197697, 0.14466672931197697, 0.14466672931197697]",0.002,7,1
0,71,"[0.0740063413977623, -1.4969971191934128, 0.07388288179506475, 0.07436148702587886, 0.07415855675935745, 0.07407119125127792]","[0.8930342197418213, 0.8759551048278809, 0.8819488883018494, 0.8909680843353271, 0.8834565877914429, 0.8880595564842224]","[0.14546499940630384, -1.4253313273885928, 0.14546499940630384, 0.14546499940630384, 0.14546499940630384, 0.14546499940630384]","[0.14546499940630384, -1.4253313273885928, 0.14546499940630384, 0.14546499940630384, 0.14546499940630384, 0.14546499940630384]",0.002,7,1
0,72,"[0.07579579949378967, -1.495185950105526, 0.075691048298971, 0.07616273939099116, 0.07590620964765549, 0.07586889714002609]","[0.895167887210846, 0.88020259141922, 0.8897119760513306, 0.8967640399932861, 0.8902944922447205, 0.894199788570404]","[0.14626234992912576, -1.4245339768657708, 0.14626234992912576, 0.14626234992912576, 0.14626234992912576, 0.14626234992912576]","[0.14626234992912576, -1.4245339768657708, 0.14626234992912576, 0.14626234992912576, 0.14626234992912576, 0.14626234992912576]",0.002,7,1
0,73,"[0.07757050544023514, -1.4934567001513024, 0.07744151750673467, 0.07801322519268794, 0.07775159180164337, 0.07764771580696106]","[0.8981235027313232, 0.8877546191215515, 0.8945780992507935, 0.895713746547699, 0.8959301710128784, 0.8995956778526306]","[0.14705877583991184, -1.4237375509549848, 0.14705877583991184, 0.14705877583991184, 0.14705877583991184, 0.14705877583991184]","[0.14705877583991184, -1.4237375509549848, 0.14705877583991184, 0.14705877583991184, 0.14705877583991184, 0.14705877583991184]",0.002,7,1
0,74,"[0.07943006604909897, -1.4916192901185532, 0.07926446596254522, 0.07977406560864253, 0.07950340211391449, 0.07946383208036423]","[0.9035921692848206, 0.890855610370636, 0.8988895416259766, 0.894057035446167, 0.9031143188476562, 0.9076012969017029]","[0.1478542721039762, -1.4229420546909204, 0.1478542721039762, 0.1478542721039762, 0.1478542721039762, 0.1478542721039762]","[0.1478542721039762, -1.4229420546909204, 0.1478542721039762, 0.1478542721039762, 0.1478542721039762, 0.1478542721039762]",0.002,7,1
0,75,"[0.08126900345087051, -1.4898517218283196, 0.08101493517030889, 0.08147792398419185, 0.08133882284164429, 0.08125899732112885]","[0.9053813815116882, 0.8976675271987915, 0.9005831480026245, 0.8940664529800415, 0.907431423664093, 0.9097459316253662]","[0.14864883369250992, -1.4221474931023868, 0.14864883369250992, 0.14864883369250992, 0.14864883369250992, 0.14864883369250992]","[0.14864883369250992, -1.4221474931023868, 0.14864883369250992, 0.14864883369250992, 0.14864883369250992, 0.14864883369250992]",0.002,7,1
0,76,"[0.08305211365222931, -1.4880309787443657, 0.08284169832338506, 0.08323661863293452, 0.08310254663228989, 0.08311855047941208]","[0.9145380258560181, 0.9019984602928162, 0.9038739204406738, 0.8990619778633118, 0.9102375507354736, 0.9153739809989929]","[0.1494424555826126, -1.421353871212284, 0.1494424555826126, 0.1494424555826126, 0.1494424555826126, 0.1494424555826126]","[0.1494424555826126, -1.421353871212284, 0.1494424555826126, 0.1494424555826126, 0.1494424555826126, 0.1494424555826126]",0.002,7,1
0,77,"[0.08489984273910522, -1.4862184536508103, 0.08466989198793584, 0.08502320825543208, 0.08499027788639069, 0.08499077707529068]","[0.9165999293327332, 0.9072098135948181, 0.91167813539505, 0.9064955711364746, 0.9150065779685974, 0.9168752431869507]","[0.1502351327573243, -1.4205611940375722, 0.1502351327573243, 0.1502351327573243, 0.1502351327573243, 0.1502351327573243]","[0.1502351327573243, -1.4205611940375722, 0.1502351327573243, 0.1502351327573243, 0.1502351327573243, 0.1502351327573243]",0.002,7,1
0,78,"[0.08677408844232559, -1.4844092962196846, 0.08652240434755498, 0.0868726211735229, 0.0868578776717186, 0.08689732104539871]","[0.9186921119689941, 0.9087195992469788, 0.9136343598365784, 0.9140458703041077, 0.920559287071228, 0.9216681718826294]","[0.15102686020565723, -1.4197694665892393, 0.15102686020565723, 0.15102686020565723, 0.15102686020565723, 0.15102686020565723]","[0.15102686020565723, -1.4197694665892393, 0.15102686020565723, 0.15102686020565723, 0.15102686020565723, 0.15102686020565723]",0.002,7,1
0,79,"[0.08862544596195221, -1.4824766975692292, 0.08839160600771123, 0.08858124792065425, 0.08871780335903168, 0.08878996223211288]","[0.922405481338501, 0.9079618453979492, 0.912609875202179, 0.9237062335014343, 0.9226266741752625, 0.9218670129776001]","[0.1518176329226273, -1.4189786938722693, 0.1518176329226273, 0.1518176329226273, 0.1518176329226273, 0.1518176329226273]","[0.1518176329226273, -1.4189786938722693, 0.1518176329226273, 0.1518176329226273, 0.1518176329226273, 0.1518176329226273]",0.002,7,1
0,80,"[0.0904424861073494, -1.480645553474762, 0.09022981325258428, 0.09037296354260249, 0.09060930460691452, 0.09063978493213654]","[0.9264230132102966, 0.909354567527771, 0.9219045639038086, 0.9277158975601196, 0.9259544014930725, 0.9233199954032898]","[0.15260744590928588, -1.4181888808856107, 0.15260744590928588, 0.15260744590928588, 0.15260744590928588, 0.15260744590928588]","[0.15260744590928588, -1.4181888808856107, 0.15260744590928588, 0.15260744590928588, 0.15260744590928588, 0.15260744590928588]",0.002,7,1
0,81,"[0.09223399311304092, -1.4788051781109353, 0.09200984636415654, 0.09221403181042476, 0.09248042106628418, 0.09252510964870453]","[0.9286620616912842, 0.912753164768219, 0.9262508749961853, 0.9291279911994934, 0.9307042956352234, 0.92545086145401]","[0.1533962941727514, -1.4174000326221452, 0.1533962941727514, 0.1533962941727514, 0.1533962941727514, 0.1533962941727514]","[0.1533962941727514, -1.4174000326221452, 0.1533962941727514, 0.1533962941727514, 0.1533962941727514, 0.1533962941727514]",0.002,7,1
0,82,"[0.09407402575016022, -1.4768707987717171, 0.09385711351503545, 0.09411994993176265, 0.09436418116092682, 0.09443317353725433]","[0.9344477653503418, 0.9145849943161011, 0.9280722737312317, 0.93251633644104, 0.9312160015106201, 0.9275515675544739]","[0.1541841727262409, -1.4166121540686556, 0.1541841727262409, 0.1541841727262409, 0.1541841727262409, 0.1541841727262409]","[0.1541841727262409, -1.4166121540686556, 0.1541841727262409, 0.1541841727262409, 0.1541841727262409, 0.1541841727262409]",0.002,7,1
0,83,"[0.09586600214242935, -1.475072221165039, 0.09572250047792608, 0.09604625284161372, 0.09620165824890137, 0.09622910618782043]","[0.9325067400932312, 0.9160733222961426, 0.9276024699211121, 0.9367958307266235, 0.9308476448059082, 0.9300768375396729]","[0.1549710765891015, -1.415825250205795, 0.1549710765891015, 0.1549710765891015, 0.1549710765891015, 0.1549710765891015]","[0.1549710765891015, -1.415825250205795, 0.1549710765891015, 0.1549710765891015, 0.1549710765891015, 0.1549710765891015]",0.002,7,1
0,84,"[0.09780596196651459, -1.4732079741409798, 0.09761363664735967, 0.09790556013073726, 0.09814903140068054, 0.0981120616197586]","[0.9352030158042908, 0.9200102686882019, 0.9277114868164062, 0.9406735301017761, 0.9335923194885254, 0.9306128621101379]","[0.1557570007868419, -1.4150393260080547, 0.1557570007868419, 0.1557570007868419, 0.1557570007868419, 0.1557570007868419]","[0.1557570007868419, -1.4150393260080547, 0.1557570007868419, 0.1557570007868419, 0.1557570007868419, 0.1557570007868419]",0.002,7,1
0,85,"[0.0996442511677742, -1.4713318955949326, 0.09952956834901983, 0.09979764997448726, 0.10002024471759796, 0.09987454116344452]","[0.9367958903312683, 0.922684907913208, 0.932171106338501, 0.9407785534858704, 0.9348278045654297, 0.9307999014854431]","[0.1565419403511639, -1.4142543864437327, 0.1565419403511639, 0.1565419403511639, 0.1565419403511639, 0.1565419403511639]","[0.1565419403511639, -1.4142543864437327, 0.1565419403511639, 0.1565419403511639, 0.1565419403511639, 0.1565419403511639]",0.002,7,1
0,86,"[0.10156996548175812, -1.469422162776329, 0.10139638582338506, 0.10172240316357417, 0.10180778801441193, 0.10174297541379929]","[0.9352324604988098, 0.9259479641914368, 0.9365667104721069, 0.939734935760498, 0.9352462291717529, 0.9324244260787964]","[0.15732589031999372, -1.413470436474903, 0.15732589031999372, 0.15732589031999372, 0.15732589031999372, 0.15732589031999372]","[0.15732589031999372, -1.413470436474903, 0.15732589031999372, 0.15732589031999372, 0.15732589031999372, 0.15732589031999372]",0.002,7,1
0,87,"[0.1034756451845169, -1.467592031960823, 0.10332328477968389, 0.1037188011356811, 0.10366355627775192, 0.10359836369752884]","[0.9429983496665955, 0.933160662651062, 0.9375444054603577, 0.938022792339325, 0.9374086260795593, 0.9338169693946838]","[0.15810884573751346, -1.412687481057383, 0.15810884573751346, 0.15810884573751346, 0.15810884573751346, 0.15810884573751346]","[0.15810884573751346, -1.412687481057383, 0.15810884573751346, 0.15810884573751346, 0.15810884573751346, 0.15810884573751346]",0.002,7,1
0,88,"[0.10532136261463165, -1.4656786111048241, 0.10520297685732061, 0.10569147645916743, 0.10548921674489975, 0.10543192923069]","[0.9445133805274963, 0.9319454431533813, 0.9387428164482117, 0.9404235482215881, 0.9382993578910828, 0.9389650821685791]","[0.1588908016541923, -1.4119055251407042, 0.1588908016541923, 0.1588908016541923, 0.1588908016541923, 0.1588908016541923]","[0.1588908016541923, -1.4119055251407042, 0.1588908016541923, 0.1588908016541923, 0.1588908016541923, 0.1588908016541923]",0.002,7,1
0,89,"[0.10715700685977936, -1.463870884185173, 0.10710746446718389, 0.10763089239086909, 0.10729926824569702, 0.10720968246459961]","[0.9453820586204529, 0.9377859234809875, 0.9434890747070312, 0.9447655081748962, 0.9376246929168701, 0.9423924088478088]","[0.159671753126818, -1.4111245736680786, 0.159671753126818, 0.159671753126818, 0.159671753126818, 0.159671753126818]","[0.159671753126818, -1.4111245736680786, 0.159671753126818, 0.159671753126818, 0.159671753126818, 0.159671753126818]",0.002,7,1
0,90,"[0.1091078594326973, -1.461988942032196, 0.10895234743227178, 0.109577937717102, 0.1091962605714798, 0.10912463068962097]","[0.939759373664856, 0.939639151096344, 0.939897358417511, 0.9431599378585815, 0.9379931092262268, 0.9441875219345093]","[0.16045169521852784, -1.4103446315763688, 0.16045169521852784, 0.16045169521852784, 0.16045169521852784, 0.16045169521852784]","[0.16045169521852784, -1.4103446315763688, 0.16045169521852784, 0.16045169521852784, 0.16045169521852784, 0.16045169521852784]",0.002,7,1
0,91,"[0.11099621653556824, -1.460070790057518, 0.11084252992738897, 0.11138276636090083, 0.11112924665212631, 0.1110040470957756]","[0.9414739608764648, 0.9412254691123962, 0.9404557347297668, 0.9377715587615967, 0.9414529204368591, 0.9459465742111206]","[0.16123062299884008, -1.4095657037960565, 0.16123062299884008, 0.16123062299884008, 0.16123062299884008, 0.16123062299884008]","[0.16123062299884008, -1.4095657037960565, 0.16123062299884008, 0.16123062299884008, 0.16123062299884008, 0.16123062299884008]",0.002,7,1
0,92,"[0.11288569122552872, -1.4582102385214348, 0.11271554628481084, 0.11308090269055171, 0.11293624341487885, 0.11293723434209824]","[0.9414361715316772, 0.9458150863647461, 0.9434278607368469, 0.9319771528244019, 0.9435296654701233, 0.9457762837409973]","[0.16200853154368505, -1.4087877952512116, 0.16200853154368505, 0.16200853154368505, 0.16200853154368505, 0.16200853154368505]","[0.16200853154368505, -1.4087877952512116, 0.16200853154368505, 0.16200853154368505, 0.16200853154368505, 0.16200853154368505]",0.002,7,1
0,93,"[0.11477243155241013, -1.4562789362720032, 0.11459762254823858, 0.11495546876873775, 0.11489195376634598, 0.11483955383300781]","[0.9392245411872864, 0.9444908499717712, 0.9412941336631775, 0.9292614459991455, 0.9447987079620361, 0.9457163214683533]","[0.16278541593543633, -1.4080109108594603, 0.16278541593543633, 0.16278541593543633, 0.16278541593543633, 0.16278541593543633]","[0.16278541593543633, -1.4080109108594603, 0.16278541593543633, 0.16278541593543633, 0.16278541593543633, 0.16278541593543633]",0.002,7,1
0,94,"[0.11665138602256775, -1.4543853414109726, 0.11642676988710576, 0.1167493301578979, 0.11682680994272232, 0.1167694479227066]","[0.9404644966125488, 0.9463724493980408, 0.9424648284912109, 0.9343677163124084, 0.94439697265625, 0.9462699294090271]","[0.1635612712629417, -1.4072350555319548, 0.1635612712629417, 0.1635612712629417, 0.1635612712629417, 0.1635612712629417]","[0.1635612712629417, -1.4072350555319548, 0.1635612712629417, 0.1635612712629417, 0.1635612712629417, 0.1635612712629417]",0.002,7,1
0,95,"[0.11856227368116379, -1.4525348630598565, 0.11837846437563115, 0.11860053121533198, 0.11865966767072678, 0.11867421120405197]","[0.9419309496879578, 0.946581244468689, 0.9444923996925354, 0.9391995668411255, 0.9422723650932312, 0.9432234764099121]","[0.16433609262155432, -1.4064602341733423, 0.16433609262155432, 0.16433609262155432, 0.16433609262155432, 0.16433609262155432]","[0.16433609262155432, -1.4064602341733423, 0.16433609262155432, 0.16433609262155432, 0.16433609262155432, 0.16433609262155432]",0.002,7,1
0,96,"[0.12040635943412781, -1.45061910272155, 0.12022430101503545, 0.12040059148754878, 0.12056487798690796, 0.12058752030134201]","[0.9413820505142212, 0.9386101365089417, 0.9418720006942749, 0.9434853792190552, 0.9421423077583313, 0.9437023997306824]","[0.1651098751131637, -1.405686451681733, 0.1651098751131637, 0.1651098751131637, 0.1651098751131637, 0.1651098751131637]","[0.1651098751131637, -1.405686451681733, 0.1651098751131637, 0.1651098751131637, 0.1651098751131637, 0.1651098751131637]",0.002,7,1
0,97,"[0.12223970890045166, -1.4486449521831055, 0.12218696275819951, 0.12231449663128657, 0.12253588438034058, 0.12251891940832138]","[0.9410818815231323, 0.9417068362236023, 0.9431324005126953, 0.9452522993087769, 0.9405262470245361, 0.9406481981277466]","[0.1658826138462266, -1.40491371294867, 0.1658826138462266, 0.1658826138462266, 0.1658826138462266, 0.1658826138462266]","[0.1658826138462266, -1.40491371294867, 0.1658826138462266, 0.1658826138462266, 0.1658826138462266, 0.1658826138462266]",0.002,7,1
0,98,"[0.12406454235315323, -1.4467029136470337, 0.12400705019106084, 0.12408940374340816, 0.12445826083421707, 0.12443318217992783]","[0.9414545893669128, 0.9382104873657227, 0.9424018263816833, 0.9436689615249634, 0.9405593276023865, 0.9369663000106812]","[0.166654303935798, -1.4041420228590986, 0.166654303935798, 0.166654303935798, 0.166654303935798, 0.166654303935798]","[0.166654303935798, -1.4041420228590986, 0.166654303935798, 0.166654303935798, 0.166654303935798, 0.166654303935798]",0.002,7,1
0,99,"[0.12594540417194366, -1.4448531431010743, 0.12589770952333623, 0.12603179990734859, 0.12633655965328217, 0.1263398379087448]","[0.9399773478507996, 0.9361808896064758, 0.9417998194694519, 0.9417919516563416, 0.939096212387085, 0.9361763596534729]","[0.16742494050356208, -1.4033713862913344, 0.16742494050356208, 0.16742494050356208, 0.16742494050356208, 0.16742494050356208]","[0.16742494050356208, -1.4033713862913344, 0.16742494050356208, 0.16742494050356208, 0.16742494050356208, 0.16742494050356208]",0.002,7,1
0,100,"[0.12772198021411896, -1.4430236381343384, 0.12778121629823858, 0.1279781299778442, 0.12820303440093994, 0.12818290293216705]","[0.9372426271438599, 0.9346480369567871, 0.9363585114479065, 0.9413319826126099, 0.9363775253295898, 0.9347242712974548]","[0.1681945186778629, -1.4026018081170337, 0.1681945186778629, 0.1681945186778629, 0.1681945186778629, 0.1681945186778629]","[0.1681945186778629, -1.4026018081170337, 0.1681945186778629, 0.1681945186778629, 0.1681945186778629, 0.1681945186778629]",0.002,7,1
0,101,"[0.1297563910484314, -1.441130594616272, 0.12966710725893194, 0.1299171882816772, 0.1301271766424179, 0.13010334968566895]","[0.9368679523468018, 0.9319711327552795, 0.9327524304389954, 0.9409976005554199, 0.9319571852684021, 0.9309872984886169]","[0.16896303359373518, -1.4018332932011615, 0.16896303359373518, 0.16896303359373518, 0.16896303359373518, 0.16896303359373518]","[0.16896303359373518, -1.4018332932011615, 0.16896303359373518, 0.16896303359373518, 0.16896303359373518, 0.16896303359373518]",0.002,7,1
0,102,"[0.1316099613904953, -1.4393088978580018, 0.13153344789613897, 0.13169996320690913, 0.13189463317394257, 0.13183526694774628]","[0.9325422644615173, 0.9307734370231628, 0.9311429858207703, 0.937067985534668, 0.9321005940437317, 0.9292508959770203]","[0.16973048039293528, -1.4010658464019612, 0.16973048039293528, 0.16973048039293528, 0.16973048039293528, 0.16973048039293528]","[0.16973048039293528, -1.4010658464019612, 0.16973048039293528, 0.16973048039293528, 0.16973048039293528, 0.16973048039293528]",0.002,7,1
0,103,"[0.1335388422012329, -1.437393234377243, 0.1334918181048792, 0.13374774038281245, 0.13374613225460052, 0.13375148177146912]","[0.9333651661872864, 0.9299933314323425, 0.9294577240943909, 0.9342831373214722, 0.9276688098907471, 0.9275938272476196]","[0.17049685422397173, -1.4002994725709248, 0.17049685422397173, 0.17049685422397173, 0.17049685422397173, 0.17049685422397173]","[0.17049685422397173, -1.4002994725709248, 0.17049685422397173, 0.17049685422397173, 0.17049685422397173, 0.17049685422397173]",0.002,7,1
0,104,"[0.1354411542415619, -1.435606600051262, 0.13538676897157842, 0.13564173757519526, 0.1355857104063034, 0.13554155826568604]","[0.9328710436820984, 0.9316832423210144, 0.9312819838523865, 0.9305852651596069, 0.9266043901443481, 0.9257748126983643]","[0.17126215024213584, -1.3995341765527607, 0.17126215024213584, 0.17126215024213584, 0.17126215024213584, 0.17126215024213584]","[0.17126215024213584, -1.3995341765527607, 0.17126215024213584, 0.17126215024213584, 0.17126215024213584, 0.17126215024213584]",0.002,7,1
0,105,"[0.1372458040714264, -1.433709592824318, 0.1372130552874964, 0.1375700670429687, 0.13729403913021088, 0.1373407244682312]","[0.9299725294113159, 0.9312794208526611, 0.9292411208152771, 0.9300969243049622, 0.9221943020820618, 0.9257571697235107]","[0.1720263636095325, -1.398769963185364, 0.1720263636095325, 0.1720263636095325, 0.1720263636095325, 0.1720263636095325]","[0.1720263636095325, -1.398769963185364, 0.1720263636095325, 0.1720263636095325, 0.1720263636095325, 0.1720263636095325]",0.002,7,1
0,106,"[0.1390870213508606, -1.4318924111178895, 0.13900643983949834, 0.13949839651074214, 0.13914984464645386, 0.13916154205799103]","[0.9259151816368103, 0.9276454448699951, 0.9238854050636292, 0.9275653958320618, 0.9215406775474548, 0.926178514957428]","[0.1727894894951107, -1.3980068372997858, 0.1727894894951107, 0.1727894894951107, 0.1727894894951107, 0.1727894894951107]","[0.1727894894951107, -1.3980068372997858, 0.1727894894951107, 0.1727894894951107, 0.1727894894951107, 0.1727894894951107]",0.002,7,1
0,107,"[0.14092370867729187, -1.4300093066743393, 0.14088660875429326, 0.1413007217594604, 0.14101754128932953, 0.14100272953510284]","[0.920413613319397, 0.925959587097168, 0.9218665361404419, 0.921779215335846, 0.9200422167778015, 0.9249383211135864]","[0.17355152307469404, -1.3972448037202025, 0.17355152307469404, 0.17355152307469404, 0.17355152307469404, 0.17355152307469404]","[0.17355152307469404, -1.3972448037202025, 0.17355152307469404, 0.17355152307469404, 0.17355152307469404, 0.17355152307469404]",0.002,7,1
0,108,"[0.14282390475273132, -1.428145171408989, 0.14271337190736944, 0.14305965482678218, 0.14278538525104523, 0.14283813536167145]","[0.9161744713783264, 0.9229939579963684, 0.9171102643013, 0.9143537282943726, 0.9172693490982056, 0.9221810698509216]","[0.17431245953101113, -1.3964838672638855, 0.17431245953101113, 0.17431245953101113, 0.17431245953101113, 0.17431245953101113]","[0.17431245953101113, -1.3964838672638855, 0.17431245953101113, 0.17431245953101113, 0.17431245953101113, 0.17431245953101113]",0.002,7,1
0,109,"[0.14462286233901978, -1.4263454389623185, 0.14442617097963506, 0.14481501161541743, 0.1446310430765152, 0.14462265372276306]","[0.9138246178627014, 0.9187237024307251, 0.9123267531394958, 0.9047494530677795, 0.9162248373031616, 0.9171674251556396]","[0.17507229405372643, -1.3957240327411702, 0.17507229405372643, 0.17507229405372643, 0.17507229405372643, 0.17507229405372643]","[0.17507229405372643, -1.3957240327411702, 0.17507229405372643, 0.17507229405372643, 0.17507229405372643, 0.17507229405372643]",0.002,7,1
0,110,"[0.14647544920444489, -1.424456925397255, 0.14630252519716436, 0.14658312379803462, 0.14644794166088104, 0.14656086266040802]","[0.912234365940094, 0.9168581962585449, 0.9116018414497375, 0.8983842730522156, 0.9134647846221924, 0.9149102568626404]","[0.17583102183946997, -1.3949653049554267, 0.17583102183946997, 0.17583102183946997, 0.17583102183946997, 0.17583102183946997]","[0.17583102183946997, -1.3949653049554267, 0.17583102183946997, 0.17583102183946997, 0.17583102183946997, 0.17583102183946997]",0.002,7,1
0,111,"[0.14828795194625854, -1.4225946080735703, 0.14808351198305303, 0.14828698217358394, 0.14829514920711517, 0.14837197959423065]","[0.9094233512878418, 0.9094340801239014, 0.9094667434692383, 0.9005172848701477, 0.9111652374267578, 0.9100350141525269]","[0.17658863809186856, -1.394207688703028, 0.17658863809186856, 0.17658863809186856, 0.17658863809186856, 0.17658863809186856]","[0.17658863809186856, -1.394207688703028, 0.17658863809186856, 0.17658863809186856, 0.17658863809186856, 0.17658863809186856]",0.002,7,1
0,112,"[0.1501021385192871, -1.4207885277322312, 0.1498940626727503, 0.1501200634190063, 0.15007318556308746, 0.15021030604839325]","[0.9059111475944519, 0.9066145420074463, 0.9028184413909912, 0.9008187651634216, 0.9063379764556885, 0.9065688252449036]","[0.17734513802157542, -1.3934511887733212, 0.17734513802157542, 0.17734513802157542, 0.17734513802157542, 0.17734513802157542]","[0.17734513802157542, -1.3934511887733212, 0.17734513802157542, 0.17734513802157542, 0.17734513802157542, 0.17734513802157542]",0.002,7,1
0,113,"[0.1519031524658203, -1.4189804208329697, 0.15164643922914678, 0.1518358427235107, 0.15190087258815765, 0.15203718841075897]","[0.9000914096832275, 0.9004442095756531, 0.8992218375205994, 0.9022302627563477, 0.9038018584251404, 0.9002508521080017]","[0.17810051684630074, -1.3926958099485958, 0.17810051684630074, 0.17810051684630074, 0.17810051684630074, 0.17810051684630074]","[0.17810051684630074, -1.3926958099485958, 0.17810051684630074, 0.17810051684630074, 0.17810051684630074, 0.17810051684630074]",0.002,7,1
0,114,"[0.15370683372020721, -1.417126865392067, 0.1535556952105921, 0.15359310686077876, 0.15384598076343536, 0.15381774306297302]","[0.8965683579444885, 0.8932887315750122, 0.9002110958099365, 0.8987212777137756, 0.8982892036437988, 0.8957270979881287]","[0.17885476979084194, -1.3919415570040545, 0.17885476979084194, 0.17885476979084194, 0.17885476979084194, 0.17885476979084194]","[0.17885476979084194, -1.3919415570040545, 0.17885476979084194, 0.17885476979084194, 0.17885476979084194, 0.17885476979084194]",0.002,7,1
0,115,"[0.15537598729133606, -1.415406496529915, 0.15536243120302373, 0.1553535896488647, 0.15566368401050568, 0.15565703809261322]","[0.8956542015075684, 0.889218270778656, 0.8919285535812378, 0.8940293788909912, 0.8940485119819641, 0.8895774483680725]","[0.17960789208711384, -1.3911884347077828, 0.17960789208711384, 0.17960789208711384, 0.17960789208711384, 0.17960789208711384]","[0.17960789208711384, -1.3911884347077828, 0.17960789208711384, 0.17960789208711384, 0.17960789208711384, 0.17960789208711384]",0.002,7,1
0,116,"[0.15713195502758026, -1.4136078518680115, 0.1571601072894495, 0.15711550294842525, 0.15740899741649628, 0.15749235451221466]","[0.8907607197761536, 0.8808867931365967, 0.888091504573822, 0.891197144985199, 0.8899180889129639, 0.8851678967475891]","[0.18035987897417868, -1.3904364478207178, 0.18035987897417868, 0.18035987897417868, 0.18035987897417868, 0.18035987897417868]","[0.18035987897417868, -1.3904364478207178, 0.18035987897417868, 0.18035987897417868, 0.18035987897417868, 0.18035987897417868]",0.002,7,1
0,117,"[0.1589115411043167, -1.4118818205646058, 0.15889293352235967, 0.1589231926151733, 0.15921837091445923, 0.1592351794242859]","[0.8850836157798767, 0.8774091601371765, 0.8810931444168091, 0.8870721459388733, 0.8833217024803162, 0.8788474202156067]","[0.18111072569827633, -1.3896856010966203, 0.18111072569827633, 0.18111072569827633, 0.18111072569827633, 0.18111072569827633]","[0.18111072569827633, -1.3896856010966203, 0.18111072569827633, 0.18111072569827633, 0.18111072569827633, 0.18111072569827633]",0.002,7,1
0,118,"[0.1606541872024536, -1.41009375572715, 0.160654369984762, 0.16073803483929439, 0.16095951199531555, 0.1609361320734024]","[0.8812301754951477, 0.8700594902038574, 0.8726707100868225, 0.884147584438324, 0.8756090402603149, 0.872524619102478]","[0.1818604275128543, -1.3889358992820422, 0.1818604275128543, 0.1818604275128543, 0.1818604275128543, 0.1818604275128543]","[0.1818604275128543, -1.3889358992820422, 0.1818604275128543, 0.1818604275128543, 0.1818604275128543, 0.1818604275128543]",0.002,7,1
0,119,"[0.1624172180891037, -1.408407376413681, 0.16238528886903936, 0.16256920873608394, 0.1627586930990219, 0.1626630276441574]","[0.8730451464653015, 0.8650233745574951, 0.8700434565544128, 0.8802956342697144, 0.8718857169151306, 0.8695485591888428]","[0.18260897967859785, -1.3881873471162987, 0.18260897967859785, 0.18260897967859785, 0.18260897967859785, 0.18260897967859785]","[0.18260897967859785, -1.3881873471162987, 0.18260897967859785, 0.18260897967859785, 0.18260897967859785, 0.18260897967859785]",0.002,7,1
0,120,"[0.1642691045999527, -1.4066442412189026, 0.1642087141620081, 0.16433708250012202, 0.1644093543291092, 0.1643456071615219]","[0.8676847219467163, 0.8619146943092346, 0.8677424192428589, 0.8725687861442566, 0.8650240898132324, 0.8619925379753113]","[0.1833563774634597, -1.3874399493314369, 0.1833563774634597, 0.1833563774634597, 0.1833563774634597, 0.1833563774634597]","[0.1833563774634597, -1.3874399493314369, 0.1833563774634597, 0.1833563774634597, 0.1833563774634597, 0.1833563774634597]",0.002,7,1
0,121,"[0.16597485542297363, -1.4049866956523438, 0.16589099565614873, 0.16611508905377192, 0.16608162224292755, 0.16601254045963287]","[0.86565762758255, 0.8591721653938293, 0.8620675206184387, 0.8644498586654663, 0.8581116199493408, 0.8584583401679993]","[0.1841026161426903, -1.3866937106522061, 0.1841026161426903, 0.1841026161426903, 0.1841026161426903, 0.1841026161426903]","[0.1841026161426903, -1.3866937106522061, 0.1841026161426903, 0.1841026161426903, 0.1841026161426903, 0.1841026161426903]",0.002,7,1
0,122,"[0.1676795929670334, -1.4032360923341294, 0.1677025000201624, 0.1679190832325439, 0.16780222952365875, 0.16769984364509583]","[0.8619029521942139, 0.8548244833946228, 0.8580882549285889, 0.8597776293754578, 0.852260410785675, 0.8542681336402893]","[0.18484769099886728, -1.3859486357960293, 0.18484769099886728, 0.18484769099886728, 0.18484769099886728, 0.18484769099886728]","[0.18484769099886728, -1.3859486357960293, 0.18484769099886728, 0.18484769099886728, 0.18484769099886728, 0.18484769099886728]",0.002,7,1
0,123,"[0.16936278343200684, -1.4015623194030304, 0.16937047639955694, 0.16970984518017573, 0.16944649815559387, 0.1693594604730606]","[0.8562955260276794, 0.8515125513076782, 0.8532582521438599, 0.8568485379219055, 0.8444738984107971, 0.852089524269104]","[0.18559159732192573, -1.3852047294729708, 0.18559159732192573, 0.18559159732192573, 0.18559159732192573, 0.18559159732192573]","[0.18559159732192573, -1.3852047294729708, 0.18559159732192573, 0.18559159732192573, 0.18559159732192573, 0.18559159732192573]",0.002,7,1
0,124,"[0.17103400826454163, -1.3998646301082154, 0.17103177705873662, 0.1713692384907226, 0.17114193737506866, 0.17106623947620392]","[0.844456672668457, 0.8459919095039368, 0.8454450964927673, 0.8487436771392822, 0.8426545262336731, 0.8484488129615784]","[0.1863343304091875, -1.384461996385709, 0.1863343304091875, 0.1863343304091875, 0.1863343304091875, 0.1863343304091875]","[0.1863343304091875, -1.384461996385709, 0.1863343304091875, 0.1863343304091875, 0.1863343304091875, 0.1863343304091875]",0.002,7,1
0,125,"[0.17270104587078094, -1.3982304644635697, 0.17264825502504522, 0.17302600919689937, 0.17280451953411102, 0.1727595031261444]","[0.8387470245361328, 0.8417905569076538, 0.8405811786651611, 0.8352290391921997, 0.8401246070861816, 0.8449655771255493]","[0.18707588556539143, -1.3837204412295052, 0.18707588556539143, 0.18707588556539143, 0.18707588556539143, 0.18707588556539143]","[0.18707588556539143, -1.3837204412295052, 0.18707588556539143, 0.18707588556539143, 0.18707588556539143, 0.18707588556539143]",0.002,7,1
0,126,"[0.17441868782043457, -1.3964941215566178, 0.1743105093585413, 0.17467252790417476, 0.17442040145397186, 0.17434649169445038]","[0.8334704637527466, 0.8398828506469727, 0.8343656063079834, 0.8219516277313232, 0.835905909538269, 0.8377206921577454]","[0.18781625810272246, -1.382980068692174, 0.18781625810272246, 0.18781625810272246, 0.18781625810272246, 0.18781625810272246]","[0.18781625810272246, -1.382980068692174, 0.18781625810272246, 0.18781625810272246, 0.18781625810272246, 0.18781625810272246]",0.002,7,1
0,127,"[0.17606133222579956, -1.3948013645461579, 0.17590552965273076, 0.17622749387707515, 0.17612077295780182, 0.1759966015815735]","[0.8274006843566895, 0.8314564228057861, 0.8280031085014343, 0.8135629296302795, 0.8306843042373657, 0.8310156464576721]","[0.18855544334084182, -1.3822408834540547, 0.18855544334084182, 0.18855544334084182, 0.18855544334084182, 0.18855544334084182]","[0.18855544334084182, -1.3822408834540547, 0.18855544334084182, 0.18855544334084182, 0.18855544334084182, 0.18855544334084182]",0.002,7,1
0,128,"[0.1777467578649521, -1.3931181293777009, 0.17756301561464483, 0.17787913858380122, 0.17768897116184235, 0.17762115597724915]","[0.8228402733802795, 0.8248565793037415, 0.8215600848197937, 0.8113779425621033, 0.8258330225944519, 0.8263540863990784]","[0.1892934366069163, -1.3815028901879802, 0.1892934366069163, 0.1892934366069163, 0.1892934366069163, 0.1892934366069163]","[0.1892934366069163, -1.3815028901879802, 0.1892934366069163, 0.1892934366069163, 0.1892934366069163, 0.1892934366069163]",0.002,7,1
0,129,"[0.1793295443058014, -1.3914928299239655, 0.17919570604433233, 0.17940525590863032, 0.1793714016675949, 0.17938365042209625]","[0.8151628971099854, 0.8221932053565979, 0.8183546662330627, 0.8126072883605957, 0.8150243759155273, 0.8189241290092468]","[0.19003023323564783, -1.3807660935592487, 0.19003023323564783, 0.19003023323564783, 0.19003023323564783, 0.19003023323564783]","[0.19003023323564783, -1.3807660935592487, 0.19003023323564783, 0.19003023323564783, 0.19003023323564783, 0.19003023323564783]",0.002,7,1
0,130,"[0.18100494146347046, -1.3898624938777466, 0.180826489125387, 0.18091027318920894, 0.18095342814922333, 0.18100561201572418]","[0.8084371089935303, 0.8140671253204346, 0.8106811046600342, 0.80877286195755, 0.8098686933517456, 0.8124456405639648]","[0.19076582856930302, -1.3800304982255935, 0.19076582856930302, 0.19076582856930302, 0.19076582856930302, 0.19076582856930302]","[0.19076582856930302, -1.3800304982255935, 0.19076582856930302, 0.19076582856930302, 0.19076582856930302, 0.19076582856930302]",0.002,7,1
0,131,"[0.18260353803634644, -1.3883064997247239, 0.18244678178896123, 0.1824452120014648, 0.18258501589298248, 0.1826900839805603]","[0.8046770691871643, 0.8019400238990784, 0.806029200553894, 0.8035650849342346, 0.8038381338119507, 0.806449294090271]","[0.19150021795774258, -1.379296108837154, 0.19150021795774258, 0.19150021795774258, 0.19150021795774258, 0.19150021795774258]","[0.19150021795774258, -1.379296108837154, 0.19150021795774258, 0.19150021795774258, 0.19150021795774258, 0.19150021795774258]",0.002,7,1
0,132,"[0.18419739603996277, -1.3866259467652817, 0.18404657045473272, 0.18404237806286616, 0.18423578143119812, 0.18430472910404205]","[0.7968775629997253, 0.7978716492652893, 0.8003912568092346, 0.7978507280349731, 0.8002864122390747, 0.7986303567886353]","[0.19223339675845078, -1.3785629300364457, 0.19223339675845078, 0.19223339675845078, 0.19223339675845078, 0.19223339675845078]","[0.19223339675845078, -1.3785629300364457, 0.19223339675845078, 0.19223339675845078, 0.19223339675845078, 0.19223339675845078]",0.002,7,1
0,133,"[0.18576665222644806, -1.3849667620709916, 0.18559533754457647, 0.18566493570294185, 0.18592259287834167, 0.18590302765369415]","[0.7919345498085022, 0.7879347801208496, 0.7950705289840698, 0.7923074960708618, 0.7934638857841492, 0.7879248857498169]","[0.19296536033656458, -1.377830966458332, 0.19296536033656458, 0.19296536033656458, 0.19296536033656458, 0.19296536033656458]","[0.19296536033656458, -1.377830966458332, 0.19296536033656458, 0.19296536033656458, 0.19296536033656458, 0.19296536033656458]",0.002,7,1
0,134,"[0.18731048703193665, -1.383442298775055, 0.1871855894671839, 0.187228723163269, 0.18745726346969604, 0.18750129640102386]","[0.7863056659698486, 0.7816783785820007, 0.7862001061439514, 0.7870700359344482, 0.7862100601196289, 0.7811264991760254]","[0.19369610406490334, -1.377100222729993, 0.19369610406490334, 0.19369610406490334, 0.19369610406490334, 0.19369610406490334]","[0.19369610406490334, -1.377100222729993, 0.19369610406490334, 0.19369610406490334, 0.19369610406490334, 0.19369610406490334]",0.002,7,1
0,135,"[0.1888629049062729, -1.3818891507438202, 0.18870908418764287, 0.18880359708752437, 0.1890895515680313, 0.1890101432800293]","[0.7777669429779053, 0.7703213095664978, 0.7785228490829468, 0.7850223779678345, 0.775631308555603, 0.7750810384750366]","[0.19442562332399757, -1.376370703470899, 0.19442562332399757, 0.19442562332399757, 0.19442562332399757, 0.19442562332399757]","[0.19442562332399757, -1.376370703470899, 0.19442562332399757, 0.19442562332399757, 0.19442562332399757, 0.19442562332399757]",0.002,7,1
0,136,"[0.19040673971176147, -1.3802755039981385, 0.19030505815614873, 0.19038443147625728, 0.19060397148132324, 0.19058828055858612]","[0.7720454931259155, 0.764064610004425, 0.770210325717926, 0.779636025428772, 0.7665205597877502, 0.768506646156311]","[0.1951539135021186, -1.375642413292778, 0.1951539135021186, 0.1951539135021186, 0.1951539135021186, 0.1951539135021186]","[0.1951539135021186, -1.375642413292778, 0.1951539135021186, 0.1951539135021186, 0.1951539135021186, 0.1951539135021186]",0.002,7,1
0,137,"[0.19198837876319885, -1.378787786965706, 0.19189435640443975, 0.191936655635498, 0.19213637709617615, 0.19205838441848755]","[0.7644513845443726, 0.7584540247917175, 0.76340651512146, 0.7691591382026672, 0.7603519558906555, 0.7599759101867676]","[0.19588096999530732, -1.3749153567995893, 0.19588096999530732, 0.19588096999530732, 0.19588096999530732, 0.19588096999530732]","[0.19588096999530732, -1.3749153567995893, 0.19588096999530732, 0.19588096999530732, 0.19588096999530732, 0.19588096999530732]",0.002,7,1
0,138,"[0.19354328513145447, -1.3772718620351334, 0.1933987776385706, 0.19346944868054194, 0.19363467395305634, 0.19355399906635284]","[0.7548678517341614, 0.7503761649131775, 0.7553554773330688, 0.7582482695579529, 0.7551376223564148, 0.752289354801178]","[0.19660678820740363, -1.374189538587493, 0.19660678820740363, 0.19660678820740363, 0.19660678820740363, 0.19660678820740363]","[0.19660678820740363, -1.374189538587493, 0.19660678820740363, 0.19660678820740363, 0.19660678820740363, 0.19660678820740363]",0.002,7,1
0,139,"[0.1949497014284134, -1.3757675004056473, 0.1949403921710413, 0.19503025590863032, 0.19509248435497284, 0.19506700336933136]","[0.7496401071548462, 0.7419055104255676, 0.7510311007499695, 0.7493455410003662, 0.7465552687644958, 0.7452914714813232]","[0.19733136355007524, -1.3734649632448213, 0.19733136355007524, 0.19733136355007524, 0.19733136355007524, 0.19733136355007524]","[0.19733136355007524, -1.3734649632448213, 0.19733136355007524, 0.19733136355007524, 0.19733136355007524, 0.19733136355007524]",0.002,7,1
0,140,"[0.19657479226589203, -1.37429632366214, 0.19642240205873662, 0.1966649728962402, 0.19654734432697296, 0.19643732905387878]","[0.7392485737800598, 0.7338083982467651, 0.746513843536377, 0.7418750524520874, 0.7367975115776062, 0.7381876111030579]","[0.19805469144284696, -1.3727416353520496, 0.19805469144284696, 0.19805469144284696, 0.19805469144284696, 0.19805469144284696]","[0.19805469144284696, -1.3727416353520496, 0.19805469144284696, 0.19805469144284696, 0.19805469144284696, 0.19805469144284696]",0.002,7,1
0,141,"[0.197996586561203, -1.3728107672980805, 0.1979439894305628, 0.19815890371289058, 0.19797848165035248, 0.19794337451457977]","[0.7350000739097595, 0.730948805809021, 0.7371885180473328, 0.7351529598236084, 0.7289994359016418, 0.7312819361686707]","[0.19877676731312927, -1.3720195594817672, 0.19877676731312927, 0.19877676731312927, 0.19877676731312927, 0.19877676731312927]","[0.19877676731312927, -1.3720195594817672, 0.19877676731312927, 0.19877676731312927, 0.19877676731312927, 0.19877676731312927]",0.002,7,1
0,142,"[0.19939647614955902, -1.3713733118823548, 0.1993959585772913, 0.19962994634594722, 0.19944031536579132, 0.1993599236011505]","[0.7242337465286255, 0.7253421545028687, 0.7298239469528198, 0.7302342057228088, 0.7204276919364929, 0.7263699769973755]","[0.19949758659624753, -1.371298740198649, 0.19949758659624753, 0.19949758659624753, 0.19949758659624753, 0.19949758659624753]","[0.19949758659624753, -1.371298740198649, 0.19949758659624753, 0.19949758659624753, 0.19949758659624753, 0.19949758659624753]",0.002,7,1
0,143,"[0.20080262422561646, -1.3699601751616974, 0.20088750520815069, 0.20105592786755366, 0.20080368220806122, 0.20072856545448303]","[0.7153856158256531, 0.7188445925712585, 0.7199981808662415, 0.7177541255950928, 0.7153179049491882, 0.7209267020225525]","[0.20021714473547073, -1.3705791820594257, 0.20021714473547073, 0.20021714473547073, 0.20021714473547073, 0.20021714473547073]","[0.20021714473547073, -1.3705791820594257, 0.20021714473547073, 0.20021714473547073, 0.20021714473547073, 0.20021714473547073]",0.002,7,1
0,144,"[0.2022157907485962, -1.3685290527394791, 0.20229942003359014, 0.20249442636456294, 0.20220689475536346, 0.20216774940490723]","[0.7073819637298584, 0.7104836702346802, 0.7137861251831055, 0.7035955190658569, 0.708465039730072, 0.7130593657493591]","[0.20093543718204032, -1.3698608896128563, 0.20093543718204032, 0.20093543718204032, 0.20093543718204032, 0.20093543718204032]","[0.20093543718204032, -1.3698608896128563, 0.20093543718204032, 0.20093543718204032, 0.20093543718204032, 0.20093543718204032]",0.002,7,1
0,145,"[0.20367713272571564, -1.3671017748168488, 0.203651253377096, 0.20387296258892817, 0.20364420115947723, 0.20361317694187164]","[0.7006717920303345, 0.7050886154174805, 0.7022699117660522, 0.692656934261322, 0.7048028111457825, 0.7068015933036804]","[0.20165245939519896, -1.3691438673996976, 0.20165245939519896, 0.20165245939519896, 0.20165245939519896, 0.20165245939519896]","[0.20165245939519896, -1.3691438673996976, 0.20165245939519896, 0.20165245939519896, 0.20165245939519896, 0.20165245939519896]",0.002,7,1
