Arnibjarnst/BoxLift/logs/ur_rtde/trajectory_dur=5.0_delay=0.0_gain=100_lh=0.05_real.csv
arm_idx,step,actual_q,actual_qd,target_q,expected_q,loop_time,robot_mode,safety_mode
0,-1,"[-0.009603802357808888, -1.5804211101927699, -0.009667850099503994, -0.009684161548950243, -0.009661499653951466, -0.009626690541402638]","[0.03509771451354027, 0.03133060038089752, 0.033412735909223557, 0.03326677903532982, 0.03136521205306053, 0.03363513946533203]","[0.0, -1.5707963267948966, 0.0, 0.0, 0.0, 0.0]","[0.0, -1.5707963267948966, 0.0, 0.0, 0.0, 0.0]",0.002,7,1
0,-1,"[-0.009003941212789357, -1.5797473392882289, -0.008949548937380314, -0.009103135471679735, -0.009039227162496388, -0.009007279072896779]","[0.04720815643668175, 0.04906439036130905, 0.046473633497953415, 0.050291165709495544, 0.04885471984744072, 0.04828591272234917]","[0.0, -1.5707963267948966, 0.0, 0.0, 0.0, 0.0]","[0.0, -1.5707963267948966, 0.0, 0.0, 0.0, 0.0]",0.002,7,1
0,-1,"[-0.008454624806539357, -1.579160829583639, -0.008442002348601818, -0.008573965435363817, -0.008416000996724904, -0.008449379597799123]","[0.05679800361394882, 0.05777325481176376, 0.05740349739789963, 0.05835062265396118, 0.058904167264699936, 0.05779927223920822]","[0.0, -1.5707963267948966, 0.0, 0.0, 0.0, 0.0]","[0.0, -1.5707963267948966, 0.0, 0.0, 0.0, 0.0]",0.002,7,1
0,-1,"[-0.007542435322896779, -1.5782987080016078, -0.007613334339112043, -0.0076252979091187, -0.0075638929950159195, -0.007537666951314748]","[0.07037752121686935, 0.06932258605957031, 0.0699816569685936, 0.07494562119245529, 0.07180147618055344, 0.0709192156791687]","[0.0, -1.5707963267948966, 0.0, 0.0, 0.0, 0.0]","[0.0, -1.5707963267948966, 0.0, 0.0, 0.0, 0.0]",0.002,7,1
0,-1,"[-0.006258312855855763, -1.577029367486471, -0.006258666515350342, -0.006289438610412645, -0.006168190632955373, -0.006165329610006154]","[0.08904533833265305, 0.08600673824548721, 0.08652479946613312, 0.0931917056441307, 0.09146563708782196, 0.08992046117782593]","[0.0, -1.5707963267948966, 0.0, 0.0, 0.0, 0.0]","[0.0, -1.5707963267948966, 0.0, 0.0, 0.0, 0.0]",0.002,7,1
0,-1,"[-0.0054696241961877945, -1.5762931309142054, -0.005533632822334766, -0.005526141529418993, -0.00541097322572881, -0.005396668110982716]","[0.09959270060062408, 0.09661635756492615, 0.09513000398874283, 0.09938546270132065, 0.09912165999412537, 0.09755895286798477]","[0.0, -1.5707963267948966, 0.0, 0.0, 0.0, 0.0]","[0.0, -1.5707963267948966, 0.0, 0.0, 0.0, 0.0]",0.002,7,1
0,-1,"[-0.004281345997945607, -1.5751415691771449, -0.004311096854507923, -0.004327372913696337, -0.004206482564107716, -0.004206005726949513]","[0.09745173901319504, 0.054422684013843536, 0.0765167623758316, 0.08991891890764236, 0.09064820408821106, 0.09039252996444702]","[0.0, -1.5707963267948966, 0.0, 0.0, 0.0, 0.0]","[0.0, -1.5707963267948966, 0.0, 0.0, 0.0, 0.0]",0.002,7,1
0,-1,"[-0.0028832594500940445, -1.5735770664610804, -0.002887669252231717, -0.002864078884460497, -0.002739731465474904, -0.0027611891375940445]","[0.07475302368402481, 0.07906326651573181, 0.08104021102190018, 0.08107206225395203, 0.07125353813171387, 0.07346823811531067]","[0.0, -1.5707963267948966, 0.0, 0.0, 0.0, 0.0]","[0.0, -1.5707963267948966, 0.0, 0.0, 0.0, 0.0]",0.002,7,1
0,-1,"[-0.002065483723775685, -1.5727430782713832, -0.0019807666540145874, -0.0019983810237427235, -0.0018861929522913101, -0.0018838087665002945]","[0.06312359124422073, 0.0653902217745781, 0.06702694296836853, 0.06540938466787338, 0.06329488754272461, 0.06391404569149017]","[0.0, -1.5707963267948966, 0.0, 0.0, 0.0, 0.0]","[0.0, -1.5707963267948966, 0.0, 0.0, 0.0, 0.0]",0.002,7,1
0,-1,"[-0.0011981169330042007, -1.5719014606871546, -0.0010976225603371859, -0.001063541775085497, -0.0010831991778772476, -0.0010460058795374039]","[0.048428189009428024, 0.04900317266583443, 0.04831191152334213, 0.049359504133462906, 0.04471956565976143, 0.04597803205251694]","[0.0, -1.5707963267948966, 0.0, 0.0, 0.0, 0.0]","[0.0, -1.5707963267948966, 0.0, 0.0, 0.0, 0.0]",0.002,7,1
0,-1,"[-0.0008218924151819351, -1.5715071163573207, -0.0008106796885840595, -0.0007761281779785634, -0.0006402174579065445, -0.0007270018206995132]","[0.039543166756629944, 0.03857932984828949, 0.03989480808377266, 0.039223022758960724, 0.03919804468750954, 0.037133511155843735]","[0.0, -1.5707963267948966, 0.0, 0.0, 0.0, 0.0]","[0.0, -1.5707963267948966, 0.0, 0.0, 0.0, 0.0]",0.002,7,1
0,-1,"[-0.00044709840883427887, -1.571111341516012, -0.00039802794344723225, -0.00038130701098637587, -0.000371281300679982, -0.0003355185138147476]","[0.027906794100999832, 0.026689060032367706, 0.02827632986009121, 0.02782532200217247, 0.025472491979599, 0.026367181912064552]","[0.0, -1.5707963267948966, 0.0, 0.0, 0.0, 0.0]","[0.0, -1.5707963267948966, 0.0, 0.0, 0.0, 0.0]",0.002,7,1
0,-1,"[-0.00018769899477177887, -1.5709883175291957, -0.00017570859927218407, -0.00013406694445805556, -0.00017244020570927887, -0.0001404921161096695]","[0.016564667224884033, 0.015471966937184334, 0.015424705110490322, 0.016690941527485847, 0.01466294564306736, 0.014556806534528732]","[0.0, -1.5707963267948966, 0.0, 0.0, 0.0, 0.0]","[0.0, -1.5707963267948966, 0.0, 0.0, 0.0, 0.0]",0.002,7,1
0,-1,"[-0.0001862684832971695, -1.5709315739073695, -5.84721565246582e-05, -7.756174121098525e-05, -3.701845277959137e-05, -0.00012284914125615387]","[-0.003740261774510145, -0.005666450597345829, -0.0060584633611142635, -0.006521075498312712, -0.008176942355930805, -0.005561895202845335]","[0.0, -1.5707963267948966, 0.0, 0.0, 0.0, 0.0]","[0.0, -1.5707963267948966, 0.0, 0.0, 0.0, 0.0]",0.002,7,1
0,-1,"[-0.00013143221010381012, -1.570874353448385, -0.00016532785957679152, -3.369272265629775e-05, -4.0356312887013246e-05, -3.987947572881012e-05]","[-0.0005080198752693832, 0.0022968437988311052, 4.060364062752342e-07, -4.8430184307335367e-08, -0.0006048287032172084, -1.8584916688269004e-05]","[0.0, -1.5707963267948966, 0.0, 0.0, 0.0, 0.0]","[0.0, -1.5707963267948966, 0.0, 0.0, 0.0, 0.0]",0.002,7,1
0,-1,"[-0.00012427965273076325, -1.5709601841368617, -7.374308188445866e-05, -5.026281390385634e-05, -6.133714784795075e-05, -5.990663637334137e-05]","[-0.00020882485841866583, -0.0004756363923661411, -0.001225339830853045, -2.247803195132292e-06, 0.00022817056742496789, -9.402014892545899e-14]","[0.0, -1.5707963267948966, 0.0, 0.0, 0.0, 0.0]","[0.0, -1.5707963267948966, 0.0, 0.0, 0.0, 0.0]",0.002,7,1
0,-1,"[-0.00011331239809209137, -1.5709449253477992, -0.00010960466170217842, -8.829057727055556e-05, -6.133714784795075e-05, -5.990663637334137e-05]","[-0.0001592727203387767, -0.0025548567064106464, -0.0005683928611688316, -4.0852751737041615e-11, 0.00022370177612174302, -1.7087715114385684e-18]","[0.0, -1.5707963267948966, 0.0, 0.0, 0.0, 0.0]","[0.0, -1.5707963267948966, 0.0, 0.0, 0.0, 0.0]",0.002,7,1
0,-1,"[-8.1364308492482e-05, -1.5709778271117152, -0.00013496301835402846, -5.026281390385634e-05, -7.325807680302887e-05, -8.470216859990387e-05]","[7.994211773620918e-05, -0.000686422863509506, -0.0003844153543468565, 0.00037156103644520044, 0.0008074611541815102, -5.644298332408881e-28]","[0.0, -1.5707963267948966, 0.0, 0.0, 0.0, 0.0]","[0.0, -1.5707963267948966, 0.0, 0.0, 0.0, 0.0]",0.002,7,1
0,-1,"[-8.422533144170075e-05, -1.5709825954832972, -0.00013494491577148438, -0.0001229804805298329, -1.6514454976856996e-05, -3.0819569722950746e-05]","[6.0982587456237525e-05, -0.0003932796826120466, -0.0002693524875212461, 0.0005127796321175992, 0.000621554849203676, -2.8554220692228568e-36]","[0.0, -1.5707963267948966, 0.0, 0.0, 0.0, 0.0]","[0.0, -1.5707963267948966, 0.0, 0.0, 0.0, 0.0]",0.002,7,1
0,-1,"[-0.000146214162008107, -1.5708877048888148, -8.516013622283936e-05, -4.0130024292039934e-05, -5.799928774052887e-05, -5.6568776265919496e-05]","[7.196756632765755e-05, -4.272888709522249e-10, -7.637702947249636e-05, 0.0005447891307994723, 0.0006923010805621743, 0.00039264961378648877]","[0.0, -1.5707963267948966, 0.0, 0.0, 0.0, 0.0]","[0.0, -1.5707963267948966, 0.0, 0.0, 0.0, 0.0]",0.002,7,1
0,-1,"[-0.00013333955873662262, -1.5709601841368617, -0.00013042986392974854, -6.397188220219618e-05, -8.32716571252945e-05, -4.8939381734669496e-05]","[8.271542174043134e-05, 0.0008267459343187511, -3.0438855901593342e-05, 0.00042126429616473615, 0.0012485210318118334, 0.00041484448593109846]","[0.0, -1.5707963267948966, 0.0, 0.0, 0.0, 0.0]","[0.0, -1.5707963267948966, 0.0, 0.0, 0.0, 0.0]",0.002,7,1
0,-1,"[-9.137788881474762e-05, -1.5709272823729457, -0.00013211698387749493, -1.1758213378953997e-05, -4.941621889287262e-05, -1.1746083394825746e-05]","[8.466260624118149e-05, 0.0005754544981755316, -3.167801578777413e-13, 0.0004798673908226192, 0.0006599690532311797, 0.0005677720764651895]","[0.0, -1.5707963267948966, 0.0, 0.0, 0.0, 0.0]","[0.0, -1.5707963267948966, 0.0, 0.0, 0.0, 0.0]",0.002,7,1
0,-1,"[-0.0001290480243127945, -1.570991655389303, -0.00010309447679901496, -3.107011828618056e-05, 2.86102294921875e-06, -2.7958546773731996e-05]","[0.0001599063107278198, 0.00041007486288435757, -1.8473609759490335e-24, 0.00036117021227255464, 0.0017173356609418988, 0.00046802544966340065]","[0.0, -1.5707963267948966, 0.0, 0.0, 0.0, 0.0]","[0.0, -1.5707963267948966, 0.0, 0.0, 0.0, 0.0]",0.002,7,1
0,-1,"[-0.0001099745379846695, -1.5710035763182582, -0.00012753003102261573, -3.560007128911025e-05, -3.415742983037262e-05, -2.080598940068512e-05]","[0.0006660868530161679, 0.00029489072039723396, -1.0773219901899508e-35, 0.00039307287079282105, 0.0007351068779826164, 0.0007634825306013227]","[0.0, -1.5707963267948966, 0.0, 0.0, 0.0, 0.0]","[0.0, -1.5707963267948966, 0.0, 0.0, 0.0, 0.0]",0.002,7,1
0,-1,"[-0.00014716783632451325, -1.570937295953268, -0.00011850856390083209, 1.3752574584913191e-05, -2.175966371709137e-05, -5.3707753316700746e-05]","[0.0006314623751677573, 9.147094533545896e-05, -0.0, 0.00045414420310407877, 0.0004321790474932641, 0.0005996067193336785]","[0.0, -1.5707963267948966, 0.0, 0.0, 0.0, 0.0]","[0.0, -1.5707963267948966, 0.0, 0.0, 0.0, 0.0]",0.002,7,1
0,-1,"[-7.802644838506012e-05, -1.5708996258177699, -0.0001155997088062577, -7.228260376024309e-06, -5.036989320927887e-05, 1.9797820641542785e-05]","[0.0007439074106514454, 0.0001335702690994367, -0.0, 0.0003334935172460973, 0.00029193510999903083, 0.0005120958667248487]","[0.0, -1.5707963267948966, 0.0, 0.0, 0.0, 0.0]","[0.0, -1.5707963267948966, 0.0, 0.0, 0.0, 0.0]",0.002,7,1
0,-1,"[-0.00010711351503545075, -1.5709101162352503, -0.00012304204574320465, -7.228260376024309e-06, -1.732503072560121e-06, -3.4634266988575746e-05]","[0.0005459722597151995, 0.0015183108625933528, -0.0, 0.0002752230502665043, 0.0002811378217302263, 0.0004526211123447865]","[0.0, -1.5707963267948966, 0.0, 0.0, 0.0, 0.0]","[0.0, -1.5707963267948966, 0.0, 0.0, 0.0, 0.0]",0.002,7,1
0,-1,"[-0.00011140504945927887, -1.5709101162352503, -0.00011565065506147221, 1.3752574584913191e-05, 1.5483856259379536e-05, -5.8476124898731996e-05]","[0.0006298304069787264, 0.0012253457680344582, 0.0004615180951077491, 0.0002671552647370845, 0.00025706543237902224, 0.0003784886794164777]","[0.0, -1.5707963267948966, 0.0, 0.0, 0.0, 0.0]","[0.0, -1.5707963267948966, 0.0, 0.0, 0.0, 0.0]",0.002,7,1
0,-1,"[-7.230440248662262e-05, -1.5708891354002894, -0.00011112129868706688, 7.434482238721785e-06, 1.83313950401498e-05, -2.080598940068512e-05]","[0.0008480980177409947, 0.002035275101661682, 0.00039863737765699625, 0.00021889916388317943, 0.0004698584962170571, 0.0003127576783299446]","[0.0, -1.5707963267948966, 0.0, 0.0, 0.0, 0.0]","[0.0, -1.5707963267948966, 0.0, 0.0, 0.0, 0.0]",0.002,7,1
0,-1,"[-7.802644838506012e-05, -1.5708934269347132, -0.00015632808208465576, 1.2083644531202253e-05, 2.736245733103715e-05, -2.080598940068512e-05]","[0.001429973286576569, 0.0008375996840186417, 0.0003372806531842798, 0.00014788404223509133, 0.0003424990572966635, 0.00027732865419238806]","[0.0, -1.5707963267948966, 0.0, 0.0, 0.0, 0.0]","[0.0, -1.5707963267948966, 0.0, 0.0, 0.0, 0.0]",0.002,7,1
0,-1,"[1.430511474609375e-06, -1.5708490810790003, -0.00015178267494775355, -6.742895159916884e-05, 7.152557373046875e-06, 1.707267620076891e-05]","[0.0013492906000465155, 0.000620826322119683, 0.00027617596788331866, 0.00016061071073636413, 0.0002905629517044872, 0.0002487261954229325]","[0.0, -1.5707963267948966, 0.0, 0.0, 0.0, 0.0]","[0.0, -1.5707963267948966, 0.0, 0.0, 0.0, 0.0]",0.002,7,1
0,-1,"[-2.8912221090138246e-05, -1.5709272823729457, -0.00011672079563140869, 3.377973522944444e-05, -5.036989320927887e-05, 2.7179718017578125e-05]","[0.0003561957273632288, 0.00030583920306526124, 0.0002134817186743021, 0.00012726783461403102, 0.00019574695033952594, 0.00014871118764858693]","[0.0, -1.5707963267948966, 0.0, 0.0, 0.0, 0.0]","[0.0, -1.5707963267948966, 0.0, 0.0, 0.0, 0.0]",0.002,7,1
0,-1,"[-3.034273256474762e-05, -1.5709482632079066, -0.00014734268188476562, -7.228260376024309e-06, 2.2792817617300898e-05, -2.080598940068512e-05]","[0.00022317576804198325, 0.00017676697461865842, 0.0002218185254605487, 0.00010924410889856517, 0.0002064168220385909, 0.00012077063729520887]","[0.0, -1.5707963267948966, 0.0, 0.0, 0.0, 0.0]","[0.0, -1.5707963267948966, 0.0, 0.0, 0.0, 0.0]",0.002,7,1
0,-1,"[-6.324449648076325e-05, -1.570845743218893, -0.00014098224346525967, -5.658090625004775e-05, -2.4143849508106996e-05, 1.707267620076891e-05]","[0.00012796498776879162, 0.0020022455137223005, 0.0009269373258575797, 0.00010781994933495298, 0.00016518260235898197, 9.727392898639664e-05]","[0.0, -1.5707963267948966, 0.0, 0.0, 0.0, 0.0]","[0.0, -1.5707963267948966, 0.0, 0.0, 0.0, 0.0]",0.002,7,1
0,-1,"[-1.6514454976856996e-05, -1.5708524189391078, -7.486343383789062e-05, 2.5554294250440535e-05, 4.819488458451815e-05, 1.7072678019758314e-05]","[9.963157935999334e-05, 0.002519994042813778, 0.0011014696210622787, 0.00011150934733450413, 9.995001892093569e-05, 8.610558870714158e-05]","[0.0, -1.5707963267948966, 0.0, 0.0, 0.0, 0.0]","[0.0, -1.5707963267948966, 0.0, 0.0, 0.0, 0.0]",0.002,7,1
0,-1,"[-3.0199159795074593e-07, -1.5708023510374964, -3.011259832419455e-05, -7.228260376024309e-06, -1.9375477926075746e-05, 7.94625339040067e-06]","[8.157109550666064e-05, 0.0004982794052921236, 0.0010819670278578997, 0.00010222796845482662, 8.819068170851097e-05, 7.723798626102507e-05]","[0.0, -1.5707963267948966, 0.0, 0.0, 0.0, 0.0]","[0.0, -1.5707963267948966, 0.0, 0.0, 0.0, 0.0]",0.002,7,1
0,-1,"[-3.797212709599762e-05, -1.5708023510374964, -5.548893750528805e-05, 2.1024341247510847e-05, -1.7468129293263246e-05, 3.351163832121529e-05]","[6.413296068785712e-05, 1.4036105719546221e-13, 0.0006796392262913287, 8.419725782005116e-05, 0.00010494638991076499, 8.028375305002555e-05]","[0.0, -1.5707963267948966, 0.0, 0.0, 0.0, 0.0]","[0.0, -1.5707963267948966, 0.0, 0.0, 0.0, 0.0]",0.002,7,1
0,-1,"[-3.797212709599762e-05, -1.570812841454977, -4.201569390716031e-05, -9.135609008836809e-06, -1.3176594869435121e-05, -2.557436098271637e-05]","[5.613333632936701e-05, 8.185407120962077e-25, 0.0006415245588868856, 7.569890294689685e-05, 0.0001813915732782334, 7.370870298473164e-05]","[0.0, -1.5707963267948966, 0.0, 0.0, 0.0, 0.0]","[0.0, -1.5707963267948966, 0.0, 0.0, 0.0, 0.0]",0.002,7,1
0,-1,"[1.6339676221832633e-05, -1.5707886976054688, -4.804419950232841e-05, -1.6288166381883684e-05, 4.376030119601637e-05, -1.6514454976856996e-05]","[4.3478368752403185e-05, 0.0, 0.0011184231843799353, 6.12695439485833e-05, 0.00014179773279465735, 7.219696999527514e-05]","[0.0, -1.5707963267948966, 0.0, 0.0, 0.0, 0.0]","[0.0, -1.5707963267948966, 0.0, 0.0, 0.0, 0.0]",0.002,7,1
0,-1,"[-4.2263661519825746e-05, -1.570871492425436, -7.651480700587854e-05, 4.692668579053816e-06, 6.4373016357421875e-06, 3.356207116667065e-06]","[3.5019787901546806e-05, 0.0, -7.608175779677453e-26, 5.087860336061567e-05, 0.00010173118789680302, 8.266031370878891e-19]","[0.0, -1.5707963267948966, 0.0, 0.0, 0.0, 0.0]","[0.0, -1.5707963267948966, 0.0, 0.0, 0.0, 0.0]",0.002,7,1
0,-1,"[-9.361897603810121e-06, -1.570812841454977, -5.261009209789336e-05, -1.3546352722215715e-05, -1.732503072560121e-06, -3.4634266988575746e-05]","[3.329245373606682e-05, 0.0, -2.4649591237705345e-33, 2.1210694001183583e-07, 9.460218279855326e-05, 1.5023115988405073e-23]","[0.0, -1.5707963267948966, 0.0, 0.0, 0.0, 0.0]","[0.0, -1.5707963267948966, 0.0, 0.0, 0.0, 0.0]",0.002,7,1
0,-1,"[-2.557436098271637e-05, -1.570843359033102, 1.5083943502247621e-05, -1.6288166381883684e-05, -2.9865895406544496e-05, 1.52587890625e-05]","[3.099919922533445e-05, 0.0, -1.401298464324817e-44, 1.6434231498449817e-14, 8.560407877666876e-05, 1.164004316720966e-30]","[0.0, -1.5707963267948966, 0.0, 0.0, 0.0, 0.0]","[0.0, -1.5707963267948966, 0.0, 0.0, 0.0, 0.0]",0.002,7,1
0,-1,"[-7.135072817021637e-05, -1.5708548031248988, 6.024037496388246e-06, -7.228260376024309e-06, -1.7468129293263246e-05, -1.0315571920216371e-05]","[1.5004800084245378e-15, 0.0, -0.0, 3.5443882854558396e-25, 7.491534051951021e-05, 2.51042619883791e-41]","[0.0, -1.5707963267948966, 0.0, 0.0, 0.0, 0.0]","[0.0, -1.5707963267948966, 0.0, 0.0, 0.0, 0.0]",0.002,7,1
0,-1,"[-5.070363179981996e-06, -1.5708233318724574, 1.0315571920216371e-05, 4.692668579053816e-06, -1.9375477926075746e-05, -8.885060445606996e-06]","[1.5750286118249677e-30, 0.0, -0.0, 1.1707589682572709e-34, 6.743164703948423e-05, 0.0]","[0.0, -1.5707963267948966, 0.0, 0.0, 0.0, 0.0]","[0.0, -1.5707963267948966, 0.0, 0.0, 0.0, 0.0]",0.002,7,1
0,-1,"[-4.7032033101856996e-05, -1.5708261928954066, -2.2691721824230626e-05, 1.6271557612412835e-07, -3.0819569722950746e-05, -1.794496645146637e-05]","[6.846211803274613e-40, 0.0, -0.0, 1.3893033494701966e-40, 6.346874579321593e-05, 0.0]","[0.0, -1.5707963267948966, 0.0, 0.0, 0.0, 0.0]","[0.0, -1.5707963267948966, 0.0, 0.0, 0.0, 0.0]",0.002,7,1
0,-1,"[-2.1282826558888246e-05, -1.5708214245238246, -6.452238449128345e-05, -9.016399719286028e-06, 2.740478521445766e-05, -3.4634266988575746e-05]","[0.0, 0.0, -0.0, 0.0, 4.240219730888839e-09, 0.0]","[0.0, -1.5707963267948966, 0.0, 0.0, 0.0, 0.0]","[0.0, -1.5707963267948966, 0.0, 0.0, 0.0, 0.0]",0.002,7,1
0,-1,"[2.07341890927637e-05, -1.5708023510374964, -3.009759893757291e-05, 2.9130572936963972e-05, 3.471374657237902e-05, 3.619194103521295e-05]","[0.0, 0.0, -0.0, 0.0, 3.285359693340061e-16, 0.0]","[0.0, -1.5707963267948966, 0.0, 0.0, 0.0, 0.0]","[0.0, -1.5707963267948966, 0.0, 0.0, 0.0, 0.0]",0.002,7,1
0,-1,"[-4.941621889287262e-05, -1.570843359033102, 2.2236500875294496e-05, 3.366052593989366e-05, -1.732503072560121e-06, 1.976489875232801e-05]","[0.0, 0.0, -0.0, 0.0, 7.085567909994572e-27, 0.0]","[0.0, -1.5707963267948966, 0.0, 0.0, 0.0, 0.0]","[0.0, -1.5707963267948966, 0.0, 0.0, 0.0, 0.0]",0.002,7,1
0,-1,"[-5.8476124898731996e-05, -1.5708214245238246, -1.308197170146741e-06, -4.367237426805559e-06, -6.024037496388246e-06, -3.892580141240387e-05]","[0.0, 0.0, -0.0, 0.0, 5.489960857813255e-34, 0.0]","[0.0, -1.5707963267948966, 0.0, 0.0, 0.0, 0.0]","[0.0, -1.5707963267948966, 0.0, 0.0, 0.0, 0.0]",0.002,7,1
0,-1,"[-1.3653432027638246e-05, -1.5708261928954066, -2.267362469865475e-05, 1.2083644531202253e-05, -6.372133363896637e-05, -1.794496645146637e-05]","[0.0, 0.0, -0.0, 0.0, 1.1210387714598537e-44, 0.0]","[0.0, -1.5707963267948966, 0.0, 0.0, 0.0, 0.0]","[0.0, -1.5707963267948966, 0.0, 0.0, 0.0, 0.0]",0.002,7,1
0,1,"[-7.56422625940445e-05, -1.5708385906615199, 6.024037496388246e-06, 4.692668579053816e-06, 1.3884813597542234e-05, -3.4634266988575746e-05]","[0.0, 0.0, -0.0, 0.0, 0.0, 1.1063170345104734e-11]","[0.0008776483039858048, -1.5699186784909107, 0.0008776483039858048, 0.0008776483039858048, 0.0008776483039858048, 0.0008776483039858048]","[0.0008776483039858048, -1.5699186784909107, 0.0008776483039858048, 0.0008776483039858048, 0.0008776483039858048, 0.0008776483039858048]",0.002,7,1
0,2,"[-7.56422625940445e-05, -1.5708776913084925, 1.794496645146637e-05, 1.6271557612412835e-07, -2.209340230763246e-06, 1.2554644854390062e-05]","[0.0, 0.0, -0.0, 0.0, 0.0, 4.7164058276276746e-14]","[0.001755291059830304, -1.5690410357350661, 0.001755291059830304, 0.001755291059830304, 0.001755291059830304, 0.001755291059830304]","[0.001755291059830304, -1.5690410357350661, 0.001755291059830304, 0.001755291059830304, 0.001755291059830304, 0.001755291059830304]",0.002,7,1
0,3,"[-3.320375551396637e-05, -1.5708261928954066, -2.3812091967556626e-05, 7.315272949171003e-06, -3.0819569722950746e-05, -7.788287561538709e-07]","[0.0, 0.0, -0.0, 9.384916666022036e-06, 0.0, 1.3128296825573022e-17]","[0.0026329227194272654, -1.5681634040754693, 0.0026329227194272654, 0.0026329227194272654, 0.0026329227194272654, 0.0026329227194272654]","[0.0026329227194272654, -1.5681634040754693, 0.0026329227194272654, 0.0026329227194272654, 0.0026329227194272654, 0.0026329227194272654]",0.002,7,1
0,4,"[-3.797212709599762e-05, -1.5707861107642493, -5.2601099014282227e-05, -9.016399719286028e-06, 3.914508124580607e-05, -3.892580141240387e-05]","[1.3109901374264155e-05, 0.004970917012542486, 0.0003973129205405712, 2.6123279095457974e-09, 0.0, 3.6543122901263e-21]","[0.003510537734740602, -1.567285789060156, 0.003510537734740602, 0.003510537734740602, 0.003510537734740602, 0.003510537734740602]","[0.003510537734740602, -1.567285789060156, 0.003510537734740602, 0.003510537734740602, 0.003510537734740602, 0.003510537734740602]",0.002,7,1
0,5,"[-1.4130269185841371e-05, -1.5708095035948695, -7.397186891466845e-06, 3.830968823237413e-05, -2.209340230763246e-06, 4.082417581230402e-05]","[0.0038277343846857548, 0.0029367415700107813, 0.003393375314772129, 0.003416042309254408, 0.005223538726568222, 0.0036317596677690744]","[0.004388130557839446, -1.566408196237057, 0.004388130557839446, 0.004388130557839446, 0.004388130557839446, 0.004388130557839446]","[0.004388130557839446, -1.566408196237057, 0.004388130557839446, 0.004388130557839446, 0.004388130557839446, 0.004388130557839446]",0.002,7,1
0,6,"[6.418919656425714e-05, -1.5708023510374964, 0.0, 7.315272949171003e-06, 1.8331500541535206e-05, -1.0315571920216371e-05]","[0.00479014590382576, 0.0035594890359789133, 0.0031255122739821672, 0.004234521184116602, 0.006190863437950611, 0.005669540259987116]","[0.00526569564093322, -1.5655306311539634, 0.00526569564093322, 0.00526569564093322, 0.00526569564093322, 0.00526569564093322]","[0.00526569564093322, -1.5655306311539634, 0.00526569564093322, 0.00526569564093322, 0.00526569564093322, 0.00526569564093322]",0.002,7,1
0,7,"[-1.732503072560121e-06, -1.5707785558100404, 2.843538393193512e-05, 8.122503247065538e-05, 3.770353941945359e-05, 6.491314707091078e-05]","[0.004406714346259832, 0.005533553659915924, 0.005830173380672932, 0.004968925844877958, 0.005470378790050745, 0.00628545181825757]","[0.006143227436406706, -1.56465309935849, 0.006143227436406706, 0.006143227436406706, 0.006143227436406706, 0.006143227436406706]","[0.006143227436406706, -1.56465309935849, 0.006143227436406706, 0.006143227436406706, 0.006143227436406706, 0.006143227436406706]",0.002,7,1
0,8,"[1.4552550965163391e-05, -1.5707951561260707, 4.593526021778871e-06, 1.2083644531202253e-05, 4.223591895424761e-05, 6.312634650385007e-05]","[0.004535492975264788, 0.006937164347618818, 0.007439396809786558, 0.005446904338896275, 0.005914014298468828, 0.006503394804894924]","[0.007020720396855121, -1.5637756063980415, 0.007020720396855121, 0.007020720396855121, 0.007020720396855121, 0.007020720396855121]","[0.007020720396855121, -1.5637756063980415, 0.007020720396855121, 0.007020720396855121, 0.007020720396855121, 0.007020720396855121]",0.002,7,1
0,9,"[-1.5560780660450746e-05, -1.5707682211435277, 5.418459047490387e-05, 1.9951457641553816e-05, 7.357162394328043e-05, 3.7524707295233384e-05]","[0.005681596230715513, 0.0076112523674964905, 0.008195550180971622, 0.006803192663937807, 0.0074802241288125515, 0.0073566678911447525]","[0.007898168975119177, -1.5628981578197774, 0.007898168975119177, 0.007898168975119177, 0.007898168975119177, 0.007898168975119177]","[0.007898168975119177, -1.5628981578197774, 0.007898168975119177, 0.007898168975119177, 0.007898168975119177, 0.007898168975119177]",0.002,7,1
0,10,"[2.206564022344537e-05, -1.570724452027509, 8.088747133427887e-05, 8.408605541987413e-05, 3.6434859794098884e-05, 9.636941103963181e-05]","[0.009011605754494667, 0.010953073389828205, 0.011161452159285545, 0.010071665048599243, 0.009533093310892582, 0.009717997163534164]","[0.008775567624320156, -1.5620207591705764, 0.008775567624320156, 0.008775567624320156, 0.008775567624320156, 0.008775567624320156]","[0.008775567624320156, -1.5620207591705764, 0.008775567624320156, 0.008775567624320156, 0.008775567624320156, 0.008775567624320156]",0.002,7,1
0,11,"[2.658367156982422e-05, -1.5707591428802807, 0.00010186830629521637, 0.00010053693737788194, 9.059906005859375e-05, 0.00016068534750957042]","[0.009897076524794102, 0.016218217089772224, 0.014050436206161976, 0.012482088059186935, 0.01272403635084629, 0.013352909125387669]","[0.00965291079789497, -1.5611434159970017, 0.00965291079789497, 0.00965291079789497, 0.00965291079789497, 0.00965291079789497]","[0.00965291079789497, -1.5611434159970017, 0.00965291079789497, 0.00965291079789497, 0.00965291079789497, 0.00965291079789497]",0.002,7,1
0,12,"[7.462501525878906e-05, -1.5707035555863804, 9.709993471318512e-05, 9.147703137202257e-05, 0.00012330124445725232, 0.00018443666340317577]","[0.011176444590091705, 0.017911162227392197, 0.01733139157295227, 0.014972063712775707, 0.014932425692677498, 0.015466580167412758]","[0.010530192949631223, -1.5602661338452652, 0.010530192949631223, 0.010530192949631223, 0.010530192949631223, 0.010530192949631223]","[0.010530192949631223, -1.5602661338452652, 0.010530192949631223, 0.010530192949631223, 0.010530192949631223, 0.010530192949631223]",0.002,7,1
0,13,"[0.00016010749095585197, -1.5706420609970628, 0.0001633802997034195, 0.000194235438964796, 0.0001352310209767893, 0.0001800241880118847]","[0.014394913800060749, 0.021440425887703896, 0.020221179351210594, 0.018962113186717033, 0.01779049262404442, 0.018390744924545288]","[0.011407408533702281, -1.5593889182611942, 0.011407408533702281, 0.011407408533702281, 0.011407408533702281, 0.011407408533702281]","[0.011407408533702281, -1.5593889182611942, 0.011407408533702281, 0.011407408533702281, 0.011407408533702281, 0.011407408533702281]",0.002,7,1
0,14,"[0.00018423295114189386, -1.5706134415853121, 0.00019818941225224762, 0.0001968580433349132, 0.00024031949578784406, 0.0001995654311031103]","[0.016786660999059677, 0.024916576221585274, 0.023840636014938354, 0.02158805914223194, 0.02085832506418228, 0.02127241902053356]","[0.012284552004702319, -1.5585117747901942, 0.012284552004702319, 0.012284552004702319, 0.012284552004702319, 0.012284552004702319]","[0.012284552004702319, -1.5585117747901942, 0.012284552004702319, 0.012284552004702319, 0.012284552004702319, 0.012284552004702319]",0.002,7,1
0,15,"[0.0002127572224708274, -1.570541530938801, 0.0002129713641565445, 0.000228567714355421, 0.0002513168437872082, 0.00026250170776620507]","[0.019142361357808113, 0.025649458169937134, 0.025506149977445602, 0.022812657058238983, 0.02167954482138157, 0.02364654839038849]","[0.01316161781768138, -1.5576347089772151, 0.01316161781768138, 0.01316161781768138, 0.01316161781768138, 0.01316161781768138]","[0.01316161781768138, -1.5576347089772151, 0.01316161781768138, 0.01316161781768138, 0.01316161781768138, 0.01316161781768138]",0.002,7,1
0,16,"[0.000194549560546875, -1.5705340573952817, 0.00024015108217412262, 0.0002807813831786632, 0.00028275552904233336, 0.00028349526110105217]","[0.020832836627960205, 0.026050878688693047, 0.026294874027371407, 0.022747209295630455, 0.02272823452949524, 0.023088917136192322]","[0.01403860042818044, -1.556757726366716, 0.01403860042818044, 0.01403860042818044, 0.01403860042818044, 0.01403860042818044]","[0.01403860042818044, -1.556757726366716, 0.01403860042818044, 0.01403860042818044, 0.01403860042818044, 0.01403860042818044]",0.002,7,1
0,17,"[0.0002665519714355469, -1.5704605226677195, 0.00033027330507451325, 0.0003334718891601085, 0.0002946495951618999, 0.0003554611757863313]","[0.023273056373000145, 0.027132442221045494, 0.028322266414761543, 0.023184066638350487, 0.02122790925204754, 0.022524332627654076]","[0.014915494292266438, -1.55588083250263, 0.014915494292266438, 0.014915494292266438, 0.014915494292266438, 0.014915494292266438]","[0.014915494292266438, -1.55588083250263, 0.014915494292266438, 0.014915494292266438, 0.014915494292266438, 0.014915494292266438]",0.002,7,1
0,18,"[0.00040941787301562726, -1.5704546731761475, 0.0003736654864709976, 0.0003792482563476085, 0.0003338880487717688, 0.0003991127014160156]","[0.022699235007166862, 0.029230330139398575, 0.03043290227651596, 0.024714963510632515, 0.02241700328886509, 0.022780397906899452]","[0.015792293866567334, -1.5550040329283292, 0.015792293866567334, 0.015792293866567334, 0.015792293866567334, 0.015792293866567334]","[0.015792293866567334, -1.5550040329283292, 0.015792293866567334, 0.015792293866567334, 0.015792293866567334, 0.015792293866567334]",0.002,7,1
0,19,"[0.0003808423352893442, -1.5703736374310502, 0.0004594961749475601, 0.00044576703991694444, 0.0004240329726599157, 0.0004319906292948872]","[0.027516324073076248, 0.03080431930720806, 0.032475296407938004, 0.025534963235259056, 0.024073805660009384, 0.023666750639677048]","[0.01666899360830715, -1.5541273331865895, 0.01666899360830715, 0.01666899360830715, 0.01666899360830715, 0.01666899360830715]","[0.01666899360830715, -1.5541273331865895, 0.01666899360830715, 0.01666899360830715, 0.01666899360830715, 0.01666899360830715]",0.002,7,1
0,20,"[0.0004692836955655366, -1.5703585904887696, 0.0005076567279260757, 0.0005060869404296398, 0.0004584855923894793, 0.00048733665607869625]","[0.03131970390677452, 0.03385936841368675, 0.03430929407477379, 0.026909058913588524, 0.02631218358874321, 0.02586594969034195]","[0.017545587975341018, -1.5532507388195556, 0.017545587975341018, 0.017545587975341018, 0.017545587975341018, 0.017545587975341018]","[0.017545587975341018, -1.5532507388195556, 0.017545587975341018, 0.017545587975341018, 0.017545587975341018, 0.017545587975341018]",0.002,7,1
0,21,"[0.0004962036618962884, -1.5703105491450806, 0.000565830861226857, 0.0005416113087157726, 0.0005483150598593056, 0.000547508941963315]","[0.03222697228193283, 0.035638634115457535, 0.03630679100751877, 0.028765397146344185, 0.028495702892541885, 0.028832584619522095]","[0.018422071426190196, -1.5523742553687063, 0.018422071426190196, 0.018422071426190196, 0.018422071426190196, 0.018422071426190196]","[0.018422071426190196, -1.5523742553687063, 0.018422071426190196, 0.018422071426190196, 0.018422071426190196, 0.018422071426190196]",0.002,7,1
0,22,"[0.0005802462110295892, -1.5702220746064377, 0.0007131735431116226, 0.000632925624511671, 0.000563764595426619, 0.0006452032248489559]","[0.03459082916378975, 0.038447849452495575, 0.03896161913871765, 0.030967526137828827, 0.031233035027980804, 0.030358808115124702]","[0.019298438420077113, -1.5514978883748194, 0.019298438420077113, 0.019298438420077113, 0.019298438420077113, 0.019298438420077113]","[0.019298438420077113, -1.5514978883748194, 0.019298438420077113, 0.019298438420077113, 0.019298438420077113, 0.019298438420077113]",0.002,7,1
0,23,"[0.0006596063612960279, -1.5701123865768132, 0.0007551352130334976, 0.0006694036671142101, 0.0006390571361407638, 0.0006645815446972847]","[0.03683118894696236, 0.04246282950043678, 0.040921904146671295, 0.03371409326791763, 0.03450826182961464, 0.03393584489822388]","[0.020174683416960392, -1.550621643377936, 0.020174683416960392, 0.020174683416960392, 0.020174683416960392, 0.020174683416960392]","[0.020174683416960392, -1.550621643377936, 0.020174683416960392, 0.020174683416960392, 0.020174683416960392, 0.020174683416960392]",0.002,7,1
0,24,"[0.0006793329957872629, -1.5699925069678393, 0.0008390585528772476, 0.0007743078419188976, 0.0006705441046506166, 0.0007557630888186395]","[0.04106708988547325, 0.043678030371665955, 0.044959794729948044, 0.03738897293806076, 0.03687800094485283, 0.037890154868364334]","[0.021050800877569876, -1.5497455259173267, 0.021050800877569876, 0.021050800877569876, 0.021050800877569876, 0.021050800877569876]","[0.021050800877569876, -1.5497455259173267, 0.021050800877569876, 0.021050800877569876, 0.021050800877569876, 0.021050800877569876]",0.002,7,1
0,25,"[0.00086687394650653, -1.5699206687025544, 0.0009725729571741226, 0.0008582311817626476, 0.0007892951834946871, 0.0008790469146333635]","[0.04454443231225014, 0.04965353012084961, 0.04827113822102547, 0.04150694981217384, 0.039700720459222794, 0.039253152906894684]","[0.021926785263441637, -1.5488695415314548, 0.021926785263441637, 0.021926785263441637, 0.021926785263441637, 0.021926785263441637]","[0.021926785263441637, -1.5488695415314548, 0.021926785263441637, 0.021926785263441637, 0.021926785263441637, 0.021926785263441637]",0.002,7,1
0,26,"[0.000925423635635525, -1.569824705224466, 0.0010564962970178726, 0.0009323793598632335, 0.0008972987998276949, 0.0008668990340083838]","[0.0466940812766552, 0.05104656517505646, 0.050547003746032715, 0.04225778952240944, 0.043369658291339874, 0.041862402111291885]","[0.022802631036952997, -1.5479936957579437, 0.022802631036952997, 0.022802631036952997, 0.022802631036952997, 0.022802631036952997]","[0.022802631036952997, -1.5479936957579437, 0.022802631036952997, 0.022802631036952997, 0.022802631036952997, 0.022802631036952997]",0.002,7,1
0,27,"[0.0010138649959117174, -1.5696789857796212, 0.0011184851275842789, 0.0010680395313720226, 0.0009887607302516699, 0.0010124158579856157]","[0.0506831631064415, 0.053204212337732315, 0.055267754942178726, 0.045265328139066696, 0.04706326127052307, 0.04676395654678345]","[0.023678332661357517, -1.5471179941335391, 0.023678332661357517, 0.023678332661357517, 0.023678332661357517, 0.023678332661357517]","[0.023678332661357517, -1.5471179941335391, 0.023678332661357517, 0.023678332661357517, 0.023678332661357517, 0.023678332661357517]",0.002,7,1
0,28,"[0.0010842630872502923, -1.5696252773380657, 0.0012477079974573257, 0.0010956960865478038, 0.0011153268860653043, 0.0011219498701393604]","[0.05432510748505592, 0.057827699929475784, 0.0565418116748333, 0.04921500384807587, 0.05073264613747597, 0.05064690485596657]","[0.024553884600820034, -1.5462424421940766, 0.024553884600820034, 0.024553884600820034, 0.024553884600820034, 0.024553884600820034]","[0.024553884600820034, -1.5462424421940766, 0.024553884600820034, 0.024553884600820034, 0.024553884600820034, 0.024553884600820034]",0.002,7,1
0,29,"[0.0012675425969064236, -1.5695216036732127, 0.001336399708883107, 0.0012010770985106944, 0.0011392749147489667, 0.0011924488935619593]","[0.05798672139644623, 0.06473780423402786, 0.059719331562519073, 0.05473366007208824, 0.05485180765390396, 0.05389884486794472]","[0.025429281320451615, -1.545367045474445, 0.025429281320451615, 0.025429281320451615, 0.025429281320451615, 0.025429281320451615]","[0.025429281320451615, -1.545367045474445, 0.025429281320451615, 0.025429281320451615, 0.025429281320451615, 0.025429281320451615]",0.002,7,1
0,30,"[0.0013499159831553698, -1.569385126731806, 0.0015104452716272476, 0.0013214784809569835, 0.0013102673692628741, 0.0013662357814610004]","[0.060860197991132736, 0.06337679177522659, 0.06510070711374283, 0.05842238664627075, 0.05857076868414879, 0.05862490460276604]","[0.02630451728634456, -1.544491809508552, 0.02630451728634456, 0.02630451728634456, 0.02630451728634456, 0.02630451728634456]","[0.02630451728634456, -1.544491809508552, 0.02630451728634456, 0.02630451728634456, 0.02630451728634456, 0.02630451728634456]",0.002,7,1
0,31,"[0.0015361544210463762, -1.5692245607827608, 0.0016334692584436539, 0.0014831262775878429, 0.001459165709093213, 0.0014655833365395665]","[0.06522165238857269, 0.0694781094789505, 0.06866834312677383, 0.059695493429899216, 0.06267321109771729, 0.06304802745580673]","[0.027179586965607412, -1.543616739829289, 0.027179586965607412, 0.027179586965607412, 0.027179586965607412, 0.027179586965607412]","[0.027179586965607412, -1.543616739829289, 0.027179586965607412, 0.027179586965607412, 0.027179586965607412, 0.027179586965607412]",0.002,7,1
0,32,"[0.0016424888744950294, -1.5690505683054035, 0.0017398039447229507, 0.0016453701206664562, 0.001609442988410592, 0.0016064527444541454]","[0.06940384954214096, 0.0742424950003624, 0.07040886580944061, 0.06466863304376602, 0.06616456061601639, 0.06623771786689758]","[0.02805448482639989, -1.5427418419684966, 0.02805448482639989, 0.02805448482639989, 0.02805448482639989, 0.02805448482639989]","[0.02805448482639989, -1.5427418419684966, 0.02805448482639989, 0.02805448482639989, 0.02805448482639989, 0.02805448482639989]",0.002,7,1
0,33,"[0.001774572767317295, -1.5689561640941356, 0.0019052664386194351, 0.0017348962971190929, 0.0016950751887634397, 0.0017624692991375923]","[0.07314241677522659, 0.07813213020563126, 0.07605991512537003, 0.0700143426656723, 0.07188405096530914, 0.07335317134857178]","[0.028929205337967896, -1.5418671214569286, 0.028929205337967896, 0.028929205337967896, 0.028929205337967896, 0.028929205337967896]","[0.028929205337967896, -1.5418671214569286, 0.028929205337967896, 0.028929205337967896, 0.028929205337967896, 0.028929205337967896]",0.002,7,1
0,34,"[0.0019332922529429197, -1.5687790089617302, 0.0020826498614709976, 0.0018488603779296398, 0.0018756464123725891, 0.0019014605786651373]","[0.07729269564151764, 0.08276557177305222, 0.07922878861427307, 0.07397110760211945, 0.07446975260972977, 0.07425257563591003]","[0.029803742970678452, -1.540992583824218, 0.029803742970678452, 0.029803742970678452, 0.029803742970678452, 0.029803742970678452]","[0.029803742970678452, -1.540992583824218, 0.029803742970678452, 0.029803742970678452, 0.029803742970678452, 0.029803742970678452]",0.002,7,1
0,35,"[0.0021074938122183084, -1.5685854961960395, 0.0022190252887170914, 0.002067847842834425, 0.0019506387179717422, 0.0020123524591326714]","[0.08121932297945023, 0.08609776198863983, 0.08342096209526062, 0.07957575470209122, 0.07754882425069809, 0.07872741669416428]","[0.03067809219605467, -1.5401182345988418, 0.03067809219605467, 0.03067809219605467, 0.03067809219605467, 0.03067809219605467]","[0.03067809219605467, -1.5401182345988418, 0.03067809219605467, 0.03067809219605467, 0.03067809219605467, 0.03067809219605467]",0.002,7,1
0,36,"[0.00223317788913846, -1.5684176311227311, 0.0023768583880823257, 0.002188845271728468, 0.002163898665457964, 0.0022270288318395615]","[0.08627162873744965, 0.09053093194961548, 0.08768850564956665, 0.08310746401548386, 0.08597949147224426, 0.08512653410434723]","[0.0315522474868107, -1.539244079308086, 0.0315522474868107, 0.0315522474868107, 0.0315522474868107, 0.0315522474868107]","[0.0315522474868107, -1.539244079308086, 0.0315522474868107, 0.0315522474868107, 0.0315522474868107, 0.0315522474868107]",0.002,7,1
0,37,"[0.002371156122535467, -1.5682211364949872, 0.0025823752032678726, 0.0023721891590575694, 0.0023366794921457767, 0.002411746187135577]","[0.08907073736190796, 0.09456195682287216, 0.09047706425189972, 0.08783214539289474, 0.08810785412788391, 0.08746156841516495]","[0.03242620331688668, -1.5383701234780098, 0.03242620331688668, 0.03242620331688668, 0.03242620331688668, 0.03242620331688668]","[0.03242620331688668, -1.5383701234780098, 0.03242620331688668, 0.03242620331688668, 0.03242620331688668, 0.03242620331688668]",0.002,7,1
0,38,"[0.0026714280247688293, -1.568071245947369, 0.002812210713521779, 0.0025548177906493663, 0.0025529051199555397, 0.0025658400263637304]","[0.09318487346172333, 0.0975012332201004, 0.09635468572378159, 0.09242627024650574, 0.09320129454135895, 0.09229424595832825]","[0.033299954161483625, -1.537496372633413, 0.033299954161483625, 0.033299954161483625, 0.033299954161483625, 0.033299954161483625]","[0.033299954161483625, -1.537496372633413, 0.033299954161483625, 0.033299954161483625, 0.033299954161483625, 0.033299954161483625]",0.002,7,1
0,39,"[0.002822933718562126, -1.5678342753420402, 0.0030091444598596695, 0.0027754741856078624, 0.002762119984254241, 0.0028119601774960756]","[0.10267097502946854, 0.10516185313463211, 0.1028723493218422, 0.09749586135149002, 0.09793926775455475, 0.09691781550645828]","[0.03417349449709842, -1.5366228322977982, 0.03417349449709842, 0.03417349449709842, 0.03417349449709842, 0.03417349449709842]","[0.03417349449709842, -1.5366228322977982, 0.03417349449709842, 0.03417349449709842, 0.03417349449709842, 0.03417349449709842]",0.002,7,1
0,40,"[0.0030630482360720634, -1.567646741434448, 0.0032160917865198257, 0.002995415324829054, 0.0030280607752501965, 0.003003800753504038]","[0.10394799709320068, 0.10507076233625412, 0.10378658771514893, 0.10304778814315796, 0.10267947614192963, 0.10200454294681549]","[0.03504681880155869, -1.5357495079933379, 0.03504681880155869, 0.03504681880155869, 0.03504681880155869, 0.03504681880155869]","[0.03504681880155869, -1.5357495079933379, 0.03504681880155869, 0.03504681880155869, 0.03504681880155869, 0.03504681880155869]",0.002,7,1
0,41,"[0.003254930255934596, -1.5674020876507093, 0.00346547762026006, 0.0031995016285399913, 0.003253535134717822, 0.003181799780577421]","[0.11069927364587784, 0.11398841440677643, 0.11185938864946365, 0.10602410137653351, 0.10823627561330795, 0.10667531192302704]","[0.035919921554057724, -1.5348764052408388, 0.035919921554057724, 0.035919921554057724, 0.035919921554057724, 0.035919921554057724]","[0.035919921554057724, -1.5348764052408388, 0.035919921554057724, 0.035919921554057724, 0.035919921554057724, 0.035919921554057724]",0.002,7,1
0,42,"[0.003532550996169448, -1.567186217788123, 0.003689591084615529, 0.0034441190906981944, 0.0034081635531038046, 0.003447371069341898]","[0.1158146783709526, 0.11615040898323059, 0.11455623060464859, 0.11354426294565201, 0.10931318998336792, 0.11220623552799225]","[0.03679279723518938, -1.5340035295597072, 0.03679279723518938, 0.03679279723518938, 0.03679279723518938, 0.03679279723518938]","[0.03679279723518938, -1.5340035295597072, 0.03679279723518938, 0.03679279723518938, 0.03679279723518938, 0.03679279723518938]",0.002,7,1
0,43,"[0.0037725286092609167, -1.5669252954288204, 0.003935162221090138, 0.003662272090576124, 0.003662104019895196, 0.003668086603283882]","[0.1205642893910408, 0.12125763297080994, 0.12019436061382294, 0.11588609963655472, 0.11719135195016861, 0.11793976277112961]","[0.03766544032698294, -1.5331308864679136, 0.03766544032698294, 0.03766544032698294, 0.03766544032698294, 0.03766544032698294]","[0.03766544032698294, -1.5331308864679136, 0.03766544032698294, 0.03766544032698294, 0.03766544032698294, 0.03766544032698294]",0.002,7,1
0,44,"[0.004062261898070574, -1.566725730230548, 0.004141155873433888, 0.0038947302052001476, 0.0038395251613110304, 0.003882487304508686]","[0.12496433407068253, 0.1262557953596115, 0.12501363456249237, 0.1250147819519043, 0.12178022414445877, 0.12269891798496246]","[0.03853784531293808, -1.5322584814819584, 0.03853784531293808, 0.03853784531293808, 0.03853784531293808, 0.03853784531293808]","[0.03853784531293808, -1.5322584814819584, 0.03853784531293808, 0.03853784531293808, 0.03853784531293808, 0.03853784531293808]",0.002,7,1
0,45,"[0.004296185448765755, -1.5664901931634923, 0.004423920308248341, 0.004191918964050245, 0.004166879691183567, 0.004213851410895586]","[0.13246406614780426, 0.13168898224830627, 0.12829194962978363, 0.1287081390619278, 0.1291261464357376, 0.12754632532596588]","[0.03941000667805963, -1.531386320116837, 0.03941000667805963, 0.03941000667805963, 0.03941000667805963, 0.03941000667805963]","[0.03941000667805963, -1.531386320116837, 0.03941000667805963, 0.03941000667805963, 0.03941000667805963, 0.03941000667805963]",0.002,7,1
0,46,"[0.004621683619916439, -1.566200759527721, 0.004719559346334279, 0.004455609912536573, 0.004422225523740053, 0.004419071599841118]","[0.1348142772912979, 0.1355370730161667, 0.13581465184688568, 0.13445813953876495, 0.1335485577583313, 0.13124248385429382]","[0.04028191890889251, -1.530514407886004, 0.04028191890889251, 0.04028191890889251, 0.04028191890889251, 0.04028191890889251]","[0.04028191890889251, -1.530514407886004, 0.04028191890889251, 0.04028191890889251, 0.04028191890889251, 0.04028191890889251]",0.002,7,1
0,47,"[0.004860119894146919, -1.565903798011579, 0.004997078572408498, 0.0046936708637694835, 0.004733795765787363, 0.004690650850534439]","[0.1415286660194397, 0.1393217146396637, 0.13994814455509186, 0.13910125195980072, 0.13909994065761566, 0.14024078845977783]","[0.041153576493556596, -1.52964275030134, 0.041153576493556596, 0.041153576493556596, 0.041153576493556596, 0.041153576493556596]","[0.041153576493556596, -1.52964275030134, 0.041153576493556596, 0.041153576493556596, 0.041153576493556596, 0.041153576493556596]",0.002,7,1
0,48,"[0.005148129537701607, -1.565619963021465, 0.005253140126363576, 0.005047484035156202, 0.005038429982960224, 0.004983136430382729]","[0.14728626608848572, 0.14562146365642548, 0.14608332514762878, 0.14624376595020294, 0.1452048271894455, 0.14686055481433868]","[0.0420249739217815, -1.528771352873115, 0.0420249739217815, 0.0420249739217815, 0.0420249739217815, 0.0420249739217815]","[0.0420249739217815, -1.528771352873115, 0.0420249739217815, 0.0420249739217815, 0.0420249739217815, 0.0420249739217815]",0.002,7,1
0,49,"[0.005448419135063887, -1.5653909172727545, 0.005560223256246388, 0.005352063769958448, 0.005341972690075636, 0.005303982179611921]","[0.15284553170204163, 0.15363700687885284, 0.15009206533432007, 0.14903941750526428, 0.15223336219787598, 0.15151123702526093]","[0.04289610568494145, -1.527900221109955, 0.04289610568494145, 0.04289610568494145, 0.04289610568494145, 0.04289610568494145]","[0.04289610568494145, -1.527900221109955, 0.04289610568494145, 0.04289610568494145, 0.04289610568494145, 0.04289610568494145]",0.002,7,1
0,50,"[0.0058238268829882145, -1.5649831241792818, 0.005902592335836232, 0.005646987552307081, 0.005675502587109804, 0.0055945985950529575]","[0.15693902969360352, 0.15789327025413513, 0.15652170777320862, 0.15473945438861847, 0.15603220462799072, 0.1567820906639099]","[0.04376696627609011, -1.5270293605188066, 0.04376696627609011, 0.04376696627609011, 0.04376696627609011, 0.04376696627609011]","[0.04376696627609011, -1.5270293605188066, 0.04376696627609011, 0.04376696627609011, 0.04376696627609011, 0.04376696627609011]",0.002,7,1
0,51,"[0.006135870236903429, -1.5646291466294606, 0.006234470997945607, 0.005983157748840284, 0.005986674223095179, 0.005964945070445538]","[0.16277100145816803, 0.1633770763874054, 0.1616954207420349, 0.16143400967121124, 0.16350604593753815, 0.16415905952453613]","[0.044637550189995365, -1.5261587766049012, 0.044637550189995365, 0.044637550189995365, 0.044637550189995365, 0.044637550189995365]","[0.044637550189995365, -1.5261587766049012, 0.044637550189995365, 0.044637550189995365, 0.044637550189995365, 0.044637550189995365]",0.002,7,1
0,52,"[0.0065127476118505, -1.5644011174193402, 0.006580177937642873, 0.006332440967224073, 0.006321837659925222, 0.006289026699960232]","[0.16807667911052704, 0.1687532216310501, 0.1684606522321701, 0.1651354879140854, 0.16739952564239502, 0.16915291547775269]","[0.045507851923174164, -1.5252884748717224, 0.045507851923174164, 0.045507851923174164, 0.045507851923174164, 0.045507851923174164]","[0.045507851923174164, -1.5252884748717224, 0.045507851923174164, 0.045507851923174164, 0.045507851923174164, 0.045507851923174164]",0.002,7,1
0,53,"[0.006818564608693123, -1.5640318470871826, 0.006895367299215138, 0.0066419082828979015, 0.00667338352650404, 0.006620690692216158]","[0.1727987676858902, 0.1740700900554657, 0.17430536448955536, 0.1718946248292923, 0.17379075288772583, 0.17444433271884918]","[0.04637786597392728, -1.5244184608209692, 0.04637786597392728, 0.04637786597392728, 0.04637786597392728, 0.04637786597392728]","[0.04637786597392728, -1.5244184608209692, 0.04637786597392728, 0.04637786597392728, 0.04637786597392728, 0.04637786597392728]",0.002,7,1
0,54,"[0.007241344545036554, -1.5637451426922162, 0.007293526326314748, 0.007002158755920362, 0.007151992525905371, 0.006955655291676521]","[0.18142253160476685, 0.17938119173049927, 0.18000921607017517, 0.17840255796909332, 0.17754194140434265, 0.18083946406841278]","[0.04724758684237411, -1.5235487399525225, 0.04724758684237411, 0.04724758684237411, 0.04724758684237411, 0.04724758684237411]","[0.04724758684237411, -1.5235487399525225, 0.04724758684237411, 0.04724758684237411, 0.04724758684237411, 0.04724758684237411]",0.002,7,1
0,55,"[0.007559620775282383, -1.563340606433787, 0.007611576710836232, 0.00734512388195796, 0.007371091283857822, 0.007306893356144428]","[0.18554364144802094, 0.18706032633781433, 0.18660804629325867, 0.18479038774967194, 0.18384476006031036, 0.1879764199256897]","[0.04811700903048741, -1.5226793177644091, 0.04811700903048741, 0.04811700903048741, 0.04811700903048741, 0.04811700903048741]","[0.04811700903048741, -1.5226793177644091, 0.04811700903048741, 0.04811700903048741, 0.04811700903048741, 0.04811700903048741]",0.002,7,1
0,56,"[0.007971812970936298, -1.5629310750267287, 0.008058849965230763, 0.00783042489971919, 0.007771014701575041, 0.00773592758923769]","[0.19073253870010376, 0.19185598194599152, 0.19260476529598236, 0.19239813089370728, 0.18943491578102112, 0.19310307502746582]","[0.0489861270421281, -1.5218101997527684, 0.0489861270421281, 0.0489861270421281, 0.0489861270421281, 0.0489861270421281]","[0.0489861270421281, -1.5218101997527684, 0.0489861270421281, 0.0489861270421281, 0.0489861270421281, 0.0489861270421281]",0.002,7,1
0,57,"[0.008298924192786217, -1.562534963046648, 0.008413616810933888, 0.008211656207702589, 0.008134022355079651, 0.008127733133733273]","[0.19598174095153809, 0.1984209269285202, 0.19739983975887299, 0.19868341088294983, 0.19581937789916992, 0.19783678650856018]","[0.04985493538307995, -1.5209413914118166, 0.04985493538307995, 0.04985493538307995, 0.04985493538307995, 0.04985493538307995]","[0.04985493538307995, -1.5209413914118166, 0.04985493538307995, 0.04985493538307995, 0.04985493538307995, 0.04985493538307995]",0.002,7,1
0,58,"[0.00878224242478609, -1.5621843126467247, 0.008760754262105763, 0.008626504535339308, 0.008554120548069477, 0.008511612191796303]","[0.20162220299243927, 0.20436562597751617, 0.20366807281970978, 0.20265330374240875, 0.20258177816867828, 0.20393460988998413]","[0.05072342856108438, -1.520072898233812, 0.05072342856108438, 0.05072342856108438, 0.05072342856108438, 0.05072342856108438]","[0.05072342856108438, -1.520072898233812, 0.05072342856108438, 0.05072342856108438, 0.05072342856108438, 0.05072342856108438]",0.002,7,1
0,59,"[0.009164602495729923, -1.5617805889672418, 0.00928050676454717, 0.00904957830395503, 0.009007353335618973, 0.008915122598409653]","[0.20791178941726685, 0.2093270868062973, 0.20697404444217682, 0.20704416930675507, 0.20968575775623322, 0.20969940721988678]","[0.05159160108587512, -1.5192047257090215, 0.05159160108587512, 0.05159160108587512, 0.05159160108587512, 0.05159160108587512]","[0.05159160108587512, -1.5192047257090215, 0.05159160108587512, 0.05159160108587512, 0.05159160108587512, 0.05159160108587512]",0.002,7,1
0,60,"[0.009592361748218536, -1.5613215940869232, 0.009725872670308888, 0.009505076999328566, 0.00944593083113432, 0.009363972581923008]","[0.21465544402599335, 0.21354511380195618, 0.21170079708099365, 0.21232788264751434, 0.21443051099777222, 0.21735291182994843]","[0.05245944746921293, -1.5183368793256837, 0.05245944746921293, 0.05245944746921293, 0.05245944746921293, 0.05245944746921293]","[0.05245944746921293, -1.5183368793256837, 0.05245944746921293, 0.05245944746921293, 0.05245944746921293, 0.05245944746921293]",0.002,7,1
0,61,"[0.01002111192792654, -1.5608972444063802, 0.01009542146791631, 0.009929104442260694, 0.009912662208080292, 0.009791625663638115]","[0.22082793712615967, 0.22094790637493134, 0.21934090554714203, 0.21802754700183868, 0.2194955050945282, 0.22181101143360138]","[0.05332696222492035, -1.5174693645699762, 0.05332696222492035, 0.05332696222492035, 0.05332696222492035, 0.05332696222492035]","[0.05332696222492035, -1.5174693645699762, 0.05332696222492035, 0.05332696222492035, 0.05332696222492035, 0.05332696222492035]",0.002,7,1
0,62,"[0.010514779016375542, -1.560471211825945, 0.010569397603170216, 0.010368986720703077, 0.010349664837121964, 0.010227515362203121]","[0.2263568788766861, 0.22713850438594818, 0.22558662295341492, 0.22499175369739532, 0.22577160596847534, 0.22750407457351685]","[0.05419413986891631, -1.5166021869259803, 0.05419413986891631, 0.05419413986891631, 0.05419413986891631, 0.05419413986891631]","[0.05419413986891631, -1.5166021869259803, 0.05419413986891631, 0.05419413986891631, 0.05419413986891631, 0.05419413986891631]",0.002,7,1
0,63,"[0.010945331305265427, -1.5599520898288866, 0.010969463978902638, 0.010929031963012648, 0.010746962390840054, 0.010721244849264622]","[0.23507465422153473, 0.23223437368869781, 0.23056328296661377, 0.23183926939964294, 0.23157012462615967, 0.2338022142648697]","[0.05506097491925081, -1.5157353518756458, 0.05506097491925081, 0.05506097491925081, 0.05506097491925081, 0.05506097491925081]","[0.05506097491925081, -1.5157353518756458, 0.05506097491925081, 0.05506097491925081, 0.05506097491925081, 0.05506097491925081]",0.002,7,1
0,64,"[0.011434189043939114, -1.559496278209128, 0.011524979268209279, 0.011400027866027784, 0.011274076998233795, 0.011205371469259262]","[0.24026989936828613, 0.23960226774215698, 0.2390105128288269, 0.23766456544399261, 0.23667114973068237, 0.24076370894908905]","[0.055927461896139626, -1.514868864898757, 0.055927461896139626, 0.055927461896139626, 0.055927461896139626, 0.055927461896139626]","[0.055927461896139626, -1.514868864898757, 0.055927461896139626, 0.055927461896139626, 0.055927461896139626, 0.055927461896139626]",0.002,7,1
0,65,"[0.011900885961949825, -1.5590777912041922, 0.011993233357564748, 0.011819286937377882, 0.011751246638596058, 0.011655722744762897]","[0.24375708401203156, 0.2451099008321762, 0.24391202628612518, 0.24217000603675842, 0.2455841302871704, 0.2471839040517807]","[0.056793595321998874, -1.5140027314728977, 0.056793595321998874, 0.056793595321998874, 0.056793595321998874, 0.056793595321998874]","[0.056793595321998874, -1.5140027314728977, 0.056793595321998874, 0.056793595321998874, 0.056793595321998874, 0.056793595321998874]",0.002,7,1
0,66,"[0.0123897735029459, -1.5585079046762367, 0.012472454701558888, 0.012325807208679151, 0.012234289199113846, 0.01222081296145916]","[0.25092172622680664, 0.25098201632499695, 0.24848239123821259, 0.24858257174491882, 0.25363460183143616, 0.25343623757362366]","[0.057659369721479704, -1.5131369570734168, 0.057659369721479704, 0.057659369721479704, 0.057659369721479704, 0.057659369721479704]","[0.057659369721479704, -1.5131369570734168, 0.057659369721479704, 0.057659369721479704, 0.057659369721479704, 0.057659369721479704]",0.002,7,1
0,67,"[0.012965022586286068, -1.5580022384277363, 0.012936894093648732, 0.012830181712768507, 0.012809129431843758, 0.01263056043535471]","[0.257426917552948, 0.25940656661987305, 0.25492075085639954, 0.25659438967704773, 0.25845736265182495, 0.25828367471694946]","[0.05852477962150289, -1.5122715471733936, 0.05852477962150289, 0.05852477962150289, 0.05852477962150289, 0.05852477962150289]","[0.05852477962150289, -1.5122715471733936, 0.05852477962150289, 0.05852477962150289, 0.05852477962150289, 0.05852477962150289]",0.002,7,1
0,68,"[0.013473802246153355, -1.5575327782756467, 0.013478581105367482, 0.013405724162719679, 0.013230713084340096, 0.01323644071817398]","[0.26252228021621704, 0.2663396894931793, 0.2603656053543091, 0.2623242139816284, 0.2644101083278656, 0.26656436920166016]","[0.05938981955129341, -1.5114065072436031, 0.05938981955129341, 0.05938981955129341, 0.05938981955129341, 0.05938981955129341]","[0.05938981955129341, -1.5114065072436031, 0.05938981955129341, 0.05938981955129341, 0.05938981955129341, 0.05938981955129341]",0.002,7,1
0,69,"[0.014022952876985073, -1.5569839061102648, 0.014019314442769826, 0.013973756427429151, 0.013845964334905148, 0.013747814111411572]","[0.2688054144382477, 0.27351099252700806, 0.2681821584701538, 0.2679018974304199, 0.27021658420562744, 0.2724209725856781]","[0.060254484042415055, -1.5105418427524815, 0.060254484042415055, 0.060254484042415055, 0.060254484042415055, 0.060254484042415055]","[0.060254484042415055, -1.5105418427524815, 0.060254484042415055, 0.060254484042415055, 0.060254484042415055, 0.060254484042415055]",0.002,7,1
0,70,"[0.014570856466889381, -1.556476984438934, 0.014556709920064748, 0.01448158800091548, 0.014344404451549053, 0.01431833766400814]","[0.2762736976146698, 0.27980342507362366, 0.27449095249176025, 0.27381134033203125, 0.2758309543132782, 0.2788575291633606]","[0.06111876762880499, -1.5096775591660916, 0.06111876762880499, 0.06111876762880499, 0.06111876762880499, 0.06111876762880499]","[0.06111876762880499, -1.5096775591660916, 0.06111876762880499, 0.06111876762880499, 0.06111876762880499, 0.06111876762880499]",0.002,7,1
0,71,"[0.015170187689363956, -1.5558830623379727, 0.01510936418642217, 0.015026851291320753, 0.014883028343319893, 0.014882206916809082]","[0.283143013715744, 0.2831939160823822, 0.27895838022232056, 0.2783556878566742, 0.2803395390510559, 0.2842358946800232]","[0.061982664846808304, -1.5088136619480883, 0.061982664846808304, 0.061982664846808304, 0.061982664846808304, 0.061982664846808304]","[0.061982664846808304, -1.5088136619480883, 0.061982664846808304, 0.061982664846808304, 0.061982664846808304, 0.061982664846808304]",0.002,7,1
0,72,"[0.015778791159391403, -1.5553159315935154, 0.015702549611226857, 0.01564602434124751, 0.015507753007113934, 0.015461546368896961]","[0.2885092496871948, 0.2911885976791382, 0.2847687602043152, 0.28222817182540894, 0.28714799880981445, 0.2902235686779022]","[0.06284617023521256, -1.507950156559684, 0.06284617023521256, 0.06284617023521256, 0.06284617023521256, 0.06284617023521256]","[0.06284617023521256, -1.507950156559684, 0.06284617023521256, 0.06284617023521256, 0.06284617023521256, 0.06284617023521256]",0.002,7,1
0,73,"[0.016349773854017258, -1.5546996177038928, 0.016245667134420216, 0.0161629158207397, 0.016041569411754608, 0.016061317175626755]","[0.29427412152290344, 0.2959279716014862, 0.29117146134376526, 0.28881168365478516, 0.2944784164428711, 0.29875773191452026]","[0.0637092783352823, -1.5070870484596142, 0.0637092783352823, 0.0637092783352823, 0.0637092783352823, 0.0637092783352823]","[0.0637092783352823, -1.5070870484596142, 0.0637092783352823, 0.0637092783352823, 0.0637092783352823, 0.0637092783352823]",0.002,7,1
0,74,"[0.016912946477532387, -1.5540912070176383, 0.016813580189840138, 0.016777082080505323, 0.016658572480082512, 0.0166518185287714]","[0.29995471239089966, 0.3014494478702545, 0.3012505769729614, 0.2962174415588379, 0.30282846093177795, 0.3047744929790497]","[0.06457198369079356, -1.506224343104103, 0.06457198369079356, 0.06457198369079356, 0.06457198369079356, 0.06457198369079356]","[0.06457198369079356, -1.506224343104103, 0.06457198369079356, 0.06457198369079356, 0.06457198369079356, 0.06457198369079356]",0.002,7,1
0,75,"[0.017543667927384377, -1.5535146214864035, 0.017473999653951466, 0.017429156894348097, 0.017246615141630173, 0.017292039468884468]","[0.30597102642059326, 0.30704981088638306, 0.30416736006736755, 0.3019702732563019, 0.3096471130847931, 0.3118705749511719]","[0.06543428084806839, -1.5053620459468282, 0.06543428084806839, 0.06543428084806839, 0.06543428084806839, 0.06543428084806839]","[0.06543428084806839, -1.5053620459468282, 0.06543428084806839, 0.06543428084806839, 0.06543428084806839, 0.06543428084806839]",0.002,7,1
0,76,"[0.018136654049158096, -1.5528833356550713, 0.01811534563173467, 0.018027229900024366, 0.017889007925987244, 0.01791679859161377]","[0.3120979964733124, 0.3136977255344391, 0.3098083734512329, 0.3115214407444, 0.31613102555274963, 0.3176446557044983]","[0.06629616435600925, -1.5045001624388874, 0.06629616435600925, 0.06629616435600925, 0.06629616435600925, 0.06629616435600925]","[0.06629616435600925, -1.5045001624388874, 0.06629616435600925, 0.06629616435600925, 0.06629616435600925, 0.06629616435600925]",0.002,7,1
0,77,"[0.018823103979229927, -1.5522595860860129, 0.018706623707906544, 0.018614812488220167, 0.018520265817642212, 0.018573736771941185]","[0.31766289472579956, 0.32109391689300537, 0.3168535530567169, 0.31874725222587585, 0.3220570385456085, 0.32164523005485535]","[0.06715762876613363, -1.5036386980287628, 0.06715762876613363, 0.06715762876613363, 0.06715762876613363, 0.06715762876613363]","[0.06715762876613363, -1.5036386980287628, 0.06715762876613363, 0.06715762876613363, 0.06715762876613363, 0.06715762876613363]",0.002,7,1
0,78,"[0.019473664462566376, -1.5515971829048176, 0.01935464540590459, 0.019285841579101515, 0.019227735698223114, 0.019218232482671738]","[0.3258951008319855, 0.3265031576156616, 0.32332926988601685, 0.32675570249557495, 0.32995280623435974, 0.32946330308914185]","[0.06801866863260826, -1.5027776581622883, 0.06801866863260826, 0.06801866863260826, 0.06801866863260826, 0.06801866863260826]","[0.06801866863260826, -1.5027776581622883, 0.06801866863260826, 0.06801866863260826, 0.06801866863260826, 0.06801866863260826]",0.002,7,1
0,79,"[0.02011098712682724, -1.5509049997529765, 0.01997405687441045, 0.0199323135563354, 0.01980419084429741, 0.019933443516492844]","[0.33047184348106384, 0.3312235176563263, 0.3316906988620758, 0.3334310054779053, 0.33650729060173035, 0.33644792437553406]","[0.06887927851228377, -1.5019170482826127, 0.06887927851228377, 0.06887927851228377, 0.06887927851228377, 0.06887927851228377]","[0.06887927851228377, -1.5019170482826127, 0.06887927851228377, 0.06887927851228377, 0.06887927851228377, 0.06887927851228377]",0.002,7,1
0,80,"[0.020814768970012665, -1.5502465900829812, 0.020632092152730763, 0.020572348231933546, 0.020530270412564278, 0.02062605693936348]","[0.3380594849586487, 0.339483380317688, 0.3358682692050934, 0.339889258146286, 0.3422110974788666, 0.34184446930885315]","[0.06973945296472894, -1.5010568738301675, 0.06973945296472894, 0.06973945296472894, 0.06973945296472894, 0.06973945296472894]","[0.06973945296472894, -1.5010568738301675, 0.06973945296472894, 0.06973945296472894, 0.06973945296472894, 0.06973945296472894]",0.002,7,1
0,81,"[0.021503670141100883, -1.5495881804129858, 0.02129251161684209, 0.021226688022277784, 0.021266745403409004, 0.021280748769640923]","[0.3434475362300873, 0.34352490305900574, 0.34211266040802, 0.34592321515083313, 0.3489171266555786, 0.346843421459198]","[0.07059918655226517, -1.5001971402426313, 0.07059918655226517, 0.07059918655226517, 0.07059918655226517, 0.07059918655226517]","[0.07059918655226517, -1.5001971402426313, 0.07059918655226517, 0.07059918655226517, 0.07059918655226517, 0.07059918655226517]",0.002,7,1
0,82,"[0.0221753790974617, -1.5488334012082596, 0.022013489400045216, 0.02193729459728999, 0.02191838249564171, 0.021988876163959503]","[0.3491845428943634, 0.34798455238342285, 0.34791451692581177, 0.3531666398048401, 0.3534795045852661, 0.352468878030777]","[0.07145847384000081, -1.4993378529548957, 0.07145847384000081, 0.07145847384000081, 0.07145847384000081, 0.07145847384000081]","[0.07145847384000081, -1.4993378529548957, 0.07145847384000081, 0.07145847384000081, 0.07145847384000081, 0.07145847384000081]",0.002,7,1
0,83,"[0.022895412519574165, -1.5480973099223156, 0.02276498476137334, 0.022598310107849073, 0.02261064387857914, 0.022717837244272232]","[0.354850172996521, 0.35380563139915466, 0.35275110602378845, 0.35864996910095215, 0.3592965006828308, 0.35733121633529663]","[0.07231730939586554, -1.498479017399031, 0.07231730939586554, 0.07231730939586554, 0.07231730939586554, 0.07231730939586554]","[0.07231730939586554, -1.498479017399031, 0.07231730939586554, 0.07231730939586554, 0.07231730939586554, 0.07231730939586554]",0.002,7,1
0,84,"[0.023569315671920776, -1.5473861017129202, 0.023460213338033498, 0.02328888952221675, 0.023354684934020042, 0.023444971069693565]","[0.3621920943260193, 0.35902661085128784, 0.36043158173561096, 0.3646199405193329, 0.36545276641845703, 0.3626162111759186]","[0.07317568779064473, -1.497620639004252, 0.07317568779064473, 0.07317568779064473, 0.07317568779064473, 0.07317568779064473]","[0.07317568779064473, -1.497620639004252, 0.07317568779064473, 0.07317568779064473, 0.07317568779064473, 0.07317568779064473]",0.002,7,1
0,85,"[0.02437005750834942, -1.5466380764595051, 0.024122063313619435, 0.024090452785156202, 0.024079741910099983, 0.02418091520667076]","[0.3662204444408417, 0.3641760051250458, 0.36416757106781006, 0.3693191707134247, 0.37194889783859253, 0.3673236668109894]","[0.07403360359801374, -1.4967627231968827, 0.07403360359801374, 0.07403360359801374, 0.07403360359801374, 0.07403360359801374]","[0.07403360359801374, -1.4967627231968827, 0.07403360359801374, 0.07403360359801374, 0.07403360359801374, 0.07403360359801374]",0.002,7,1
0,86,"[0.02509644255042076, -1.5458570600352068, 0.024950806294576466, 0.02474801122631831, 0.02489885874092579, 0.02500743605196476]","[0.3736531138420105, 0.36922478675842285, 0.3714894950389862, 0.3762155771255493, 0.3753580152988434, 0.3734801709651947]","[0.0748910513945722, -1.4959052754003244, 0.0748910513945722, 0.0748910513945722, 0.0748910513945722, 0.0748910513945722]","[0.0748910513945722, -1.4959052754003244, 0.0748910513945722, 0.0748910513945722, 0.0748910513945722, 0.0748910513945722]",0.002,7,1
0,87,"[0.025812949985265732, -1.5451222390732546, 0.025652233754293263, 0.025545521373413038, 0.02568117529153824, 0.025663135573267937]","[0.37789347767829895, 0.3751929998397827, 0.375719279050827, 0.3827836513519287, 0.382597416639328, 0.378679096698761]","[0.07574802575987832, -1.4950483010350182, 0.07574802575987832, 0.07574802575987832, 0.07574802575987832, 0.07574802575987832]","[0.07574802575987832, -1.4950483010350182, 0.07574802575987832, 0.07574802575987832, 0.07574802575987832, 0.07574802575987832]",0.002,7,1
0,88,"[0.026640774682164192, -1.544309090157487, 0.0264666716205042, 0.026255889529846144, 0.026427000761032104, 0.026450056582689285]","[0.38427475094795227, 0.3827795386314392, 0.384774386882782, 0.38965943455696106, 0.3883688151836395, 0.3829702138900757]","[0.07660452127648316, -1.4941918055184134, 0.07660452127648316, 0.07660452127648316, 0.07660452127648316, 0.07660452127648316]","[0.07660452127648316, -1.4941918055184134, 0.07660452127648316, 0.07660452127648316, 0.07660452127648316, 0.07660452127648316]",0.002,7,1
0,89,"[0.027292784303426743, -1.5435408160886546, 0.027230564747945607, 0.027061505908630323, 0.02726590633392334, 0.027288051322102547]","[0.39056697487831116, 0.38654226064682007, 0.3933197557926178, 0.39743438363075256, 0.395236074924469, 0.39047613739967346]","[0.07746053252996489, -1.4933357942649317, 0.07746053252996489, 0.07746053252996489, 0.07746053252996489, 0.07746053252996489]","[0.07746053252996489, -1.4933357942649317, 0.07746053252996489, 0.07746053252996489, 0.07746053252996489, 0.07746053252996489]",0.002,7,1
0,90,"[0.028104489669203758, -1.5427157332054158, 0.027964417134420216, 0.027862353915832472, 0.028047505766153336, 0.028087252750992775]","[0.3960125744342804, 0.39465463161468506, 0.39863455295562744, 0.4030040204524994, 0.39949318766593933, 0.3985041677951813]","[0.07831605410896296, -1.4924802726859336, 0.07831605410896296, 0.07831605410896296, 0.07831605410896296, 0.07831605410896296]","[0.07831605410896296, -1.4924802726859336, 0.07831605410896296, 0.07831605410896296, 0.07831605410896296, 0.07831605410896296]",0.002,7,1
0,91,"[0.028865359723567963, -1.5419328597239037, 0.028826061879293263, 0.028679533595703077, 0.028790371492505074, 0.02883254922926426]","[0.40176212787628174, 0.3991556167602539, 0.4031594395637512, 0.4087534248828888, 0.40553921461105347, 0.4042128026485443]","[0.07917108060521237, -1.4916252461896842, 0.07917108060521237, 0.07917108060521237, 0.07917108060521237, 0.07917108060521237]","[0.07917108060521237, -1.4916252461896842, 0.07917108060521237, 0.07917108060521237, 0.07917108060521237, 0.07917108060521237]",0.002,7,1
0,92,"[0.029660925269126892, -1.541060035382845, 0.029630009328023732, 0.029455824489257765, 0.029739078134298325, 0.029728036373853683]","[0.40735387802124023, 0.4026966989040375, 0.4085744321346283, 0.4154033362865448, 0.41333526372909546, 0.40961968898773193]","[0.08002560661357781, -1.4907707201813187, 0.08002560661357781, 0.08002560661357781, 0.08002560661357781, 0.08002560661357781]","[0.08002560661357781, -1.4907707201813187, 0.08002560661357781, 0.08002560661357781, 0.08002560661357781, 0.08002560661357781]",0.002,7,1
0,93,"[0.03047487884759903, -1.540286087696888, 0.030474487935201466, 0.030276580447814894, 0.030602596700191498, 0.030542472377419472]","[0.414683997631073, 0.4098651707172394, 0.4151938855648041, 0.42092597484588623, 0.4173796772956848, 0.41457399725914]","[0.0808796267320879, -1.4899167000628086, 0.0808796267320879, 0.0808796267320879, 0.0808796267320879, 0.0808796267320879]","[0.0808796267320879, -1.4899167000628086, 0.0808796267320879, 0.0808796267320879, 0.0808796267320879, 0.0808796267320879]",0.002,7,1
0,94,"[0.031395263969898224, -1.5393840384534379, 0.03135806718935186, 0.03114573537792964, 0.03144735097885132, 0.03141579031944275]","[0.41864630579948425, 0.4114329218864441, 0.4201226234436035, 0.42586711049079895, 0.42287158966064453, 0.42110034823417664]","[0.08173313556196925, -1.4890631912329273, 0.08173313556196925, 0.08173313556196925, 0.08173313556196925, 0.08173313556196925]","[0.08173313556196925, -1.4890631912329273, 0.08173313556196925, 0.08173313556196925, 0.08173313556196925, 0.08173313556196925]",0.002,7,1
0,95,"[0.032155778259038925, -1.5385994476130982, 0.03224307695497686, 0.03201846658673091, 0.032293181866407394, 0.03225456550717354]","[0.42495378851890564, 0.42126184701919556, 0.42754697799682617, 0.43346360325813293, 0.42663416266441345, 0.4257715940475464]","[0.08258612770768066, -1.4882101990872159, 0.08258612770768066, 0.08258612770768066, 0.08258612770768066, 0.08258612770768066]","[0.08258612770768066, -1.4882101990872159, 0.08258612770768066, 0.08258612770768066, 0.08258612770768066, 0.08258612770768066]",0.002,7,1
0,96,"[0.03299778327345848, -1.5376752328923722, 0.033057514821187794, 0.0329635578342895, 0.03310764208436012, 0.03311072662472725]","[0.43353909254074097, 0.4252610206604004, 0.4306975305080414, 0.44084277749061584, 0.43299001455307007, 0.4305521845817566]","[0.08343859777694718, -1.4873577290179494, 0.08343859777694718, 0.08343859777694718, 0.08343859777694718, 0.08343859777694718]","[0.08343859777694718, -1.4873577290179494, 0.08343859777694718, 0.08343859777694718, 0.08343859777694718, 0.08343859777694718]",0.002,7,1
0,97,"[0.033869076520204544, -1.5368233931115647, 0.033925835286275685, 0.03383926927532954, 0.03396742790937424, 0.033990755677223206]","[0.43874800205230713, 0.43300992250442505, 0.43572473526000977, 0.4423922598361969, 0.435850590467453, 0.4346495270729065]","[0.08429054038079421, -1.4865057864141022, 0.08429054038079421, 0.08429054038079421, 0.08429054038079421, 0.08429054038079421]","[0.08429054038079421, -1.4865057864141022, 0.08429054038079421, 0.08429054038079421, 0.08429054038079421, 0.08429054038079421]",0.002,7,1
0,98,"[0.0348229706287384, -1.5359523941627522, 0.03481418291200811, 0.03475646554913325, 0.03486848622560501, 0.0348331443965435]","[0.4415578544139862, 0.4374738335609436, 0.4383692741394043, 0.4474795460700989, 0.44039326906204224, 0.43888047337532043]","[0.08514195013358164, -1.4856543766613148, 0.08514195013358164, 0.08514195013358164, 0.08514195013358164, 0.08514195013358164]","[0.08514195013358164, -1.4856543766613148, 0.08514195013358164, 0.08514195013358164, 0.08514195013358164, 0.08514195013358164]",0.002,7,1
0,99,"[0.035646092146635056, -1.5350313049605866, 0.03573161760439092, 0.03563193857159419, 0.03583158552646637, 0.03575536608695984]","[0.4451301097869873, 0.44391828775405884, 0.44284340739250183, 0.4503924250602722, 0.44620373845100403, 0.4439907670021057]","[0.08599282165303773, -1.4848035051418589, 0.08599282165303773, 0.08599282165303773, 0.08599282165303773, 0.08599282165303773]","[0.08599282165303773, -1.4848035051418589, 0.08599282165303773, 0.08599282165303773, 0.08599282165303773, 0.08599282165303773]",0.002,7,1
0,100,"[0.03663047030568123, -1.5341152374497433, 0.03665477434267217, 0.036601586932800245, 0.03671857342123985, 0.03661351650953293]","[0.45510029792785645, 0.4472925662994385, 0.45105987787246704, 0.4547852575778961, 0.45125287771224976, 0.44939422607421875]","[0.08684314956029332, -1.4839531772346033, 0.08684314956029332, 0.08684314956029332, 0.08684314956029332, 0.08684314956029332]","[0.08684314956029332, -1.4839531772346033, 0.08684314956029332, 0.08684314956029332, 0.08684314956029332, 0.08684314956029332]",0.002,7,1
0,101,"[0.03755364567041397, -1.5332160864821454, 0.03755361238588506, 0.037540121669433546, 0.037651896476745605, 0.037555526942014694]","[0.4586167633533478, 0.4554881453514099, 0.4563964009284973, 0.45764219760894775, 0.4569390118122101, 0.4575011730194092]","[0.0876929284799157, -1.4831033983149808, 0.0876929284799157, 0.0876929284799157, 0.0876929284799157, 0.0876929284799157]","[0.0876929284799157, -1.4831033983149808, 0.0876929284799157, 0.0876929284799157, 0.0876929284799157, 0.0876929284799157]",0.002,7,1
0,102,"[0.038508158177137375, -1.5322927397540589, 0.03852254549135381, 0.03858189165081782, 0.03854070231318474, 0.03841230273246765]","[0.46301111578941345, 0.4605426490306854, 0.4646594822406769, 0.46299728751182556, 0.46143674850463867, 0.46120214462280273]","[0.08854215303994269, -1.482254173754954, 0.08854215303994269, 0.08854215303994269, 0.08854215303994269, 0.08854215303994269]","[0.08854215303994269, -1.482254173754954, 0.08854215303994269, 0.08854215303994269, 0.08854215303994269, 0.08854215303994269]",0.002,7,1
0,103,"[0.03936868533492088, -1.5314339485815545, 0.039425198231832326, 0.03956524908032222, 0.03937353566288948, 0.03937257453799248]","[0.46812793612480164, 0.46846747398376465, 0.47006165981292725, 0.46898266673088074, 0.4644593298435211, 0.468172550201416]","[0.08939081787191647, -1.48140550892298, 0.08939081787191647, 0.08939081787191647, 0.08939081787191647, 0.08939081787191647]","[0.08939081787191647, -1.48140550892298, 0.08939081787191647, 0.08939081787191647, 0.08939081787191647, 0.08939081787191647]",0.002,7,1
0,104,"[0.040302202105522156, -1.5304623444429417, 0.04040986696352178, 0.04045311986889644, 0.040389638394117355, 0.04031261056661606]","[0.4732736349105835, 0.47319865226745605, 0.47182464599609375, 0.474820077419281, 0.4699259102344513, 0.4727989733219147]","[0.09023891761091771, -1.4805574091839788, 0.09023891761091771, 0.09023891761091771, 0.09023891761091771, 0.09023891761091771]","[0.09023891761091771, -1.4805574091839788, 0.09023891761091771, 0.09023891761091771, 0.09023891761091771, 0.09023891761091771]",0.002,7,1
0,105,"[0.04127508029341698, -1.5295316849699994, 0.04140168825258428, 0.0414619880863647, 0.041363563388586044, 0.04121097922325134]","[0.47494077682495117, 0.4787256121635437, 0.47840189933776855, 0.4786278009414673, 0.4725864827632904, 0.47822731733322144]","[0.09108644689559922, -1.4797098798992974, 0.09108644689559922, 0.09108644689559922, 0.09108644689559922, 0.09108644689559922]","[0.09108644689559922, -1.4797098798992974, 0.09108644689559922, 0.09108644689559922, 0.09108644689559922, 0.09108644689559922]",0.002,7,1
0,106,"[0.04221417382359505, -1.5285350394300004, 0.0423505941974085, 0.04240111886944575, 0.0422697551548481, 0.04216014966368675]","[0.48177406191825867, 0.481134295463562, 0.4807257056236267, 0.47849345207214355, 0.4795590043067932, 0.4829179346561432]","[0.09193340036822013, -1.4788629264266764, 0.09193340036822013, 0.09193340036822013, 0.09193340036822013, 0.09193340036822013]","[0.09193340036822013, -1.4788629264266764, 0.09193340036822013, 0.09193340036822013, 0.09193340036822013, 0.09193340036822013]",0.002,7,1
0,107,"[0.04321838542819023, -1.5276377883604546, 0.043309990559713185, 0.043333812350891066, 0.04332268610596657, 0.04312223196029663]","[0.48761579394340515, 0.488325297832489, 0.48418205976486206, 0.4829959273338318, 0.48621535301208496, 0.4876656234264374]","[0.09277977267467959, -1.478016554120217, 0.09277977267467959, 0.09277977267467959, 0.09277977267467959, 0.09277977267467959]","[0.09277977267467959, -1.478016554120217, 0.09277977267467959, 0.09277977267467959, 0.09277977267467959, 0.09277977267467959]",0.002,7,1
0,108,"[0.04423917457461357, -1.526653268640377, 0.044332329426900685, 0.04438750326123042, 0.04423675313591957, 0.04413861036300659]","[0.4919672906398773, 0.4913325905799866, 0.4915039539337158, 0.48655062913894653, 0.49093547463417053, 0.49284788966178894]","[0.09362555846455059, -1.4771707683303459, 0.09362555846455059, 0.09362555846455059, 0.09362555846455059, 0.09362555846455059]","[0.09362555846455059, -1.4771707683303459, 0.09362555846455059, 0.09362555846455059, 0.09362555846455059, 0.09362555846455059]",0.002,7,1
0,109,"[0.04523947462439537, -1.525628214036562, 0.045237366353170216, 0.04537562906231685, 0.045196451246738434, 0.0451057069003582]","[0.49703744053840637, 0.4961147904396057, 0.49351561069488525, 0.49191343784332275, 0.4950345456600189, 0.4976966679096222]","[0.09447075239111392, -1.4763255744037826, 0.09447075239111392, 0.09447075239111392, 0.09447075239111392, 0.09447075239111392]","[0.09447075239111392, -1.4763255744037826, 0.09447075239111392, 0.09447075239111392, 0.09447075239111392, 0.09447075239111392]",0.002,7,1
0,110,"[0.04619886726140976, -1.5246246990612526, 0.046189133320943654, 0.04638604700054927, 0.046153292059898376, 0.04607977718114853]","[0.5000262260437012, 0.5013527870178223, 0.49766525626182556, 0.49639269709587097, 0.4983198046684265, 0.502248227596283]","[0.09531534911139185, -1.4754809776835047, 0.09531534911139185, 0.09531534911139185, 0.09531534911139185, 0.09531534911139185]","[0.09531534911139185, -1.4754809776835047, 0.09531534911139185, 0.09531534911139185, 0.09531534911139185, 0.09531534911139185]",0.002,7,1
0,111,"[0.04721615090966225, -1.5236746569028874, 0.047211472188131154, 0.04736570894207759, 0.047197893261909485, 0.04706596955657005]","[0.5049522519111633, 0.5068142414093018, 0.5028985738754272, 0.5012186765670776, 0.5040720701217651, 0.506816565990448]","[0.09615934328618193, -1.4746369835087145, 0.09615934328618193, 0.09615934328618193, 0.09615934328618193, 0.09615934328618193]","[0.09615934328618193, -1.4746369835087145, 0.09615934328618193, 0.09615934328618193, 0.09615934328618193, 0.09615934328618193]",0.002,7,1
0,112,"[0.04823119193315506, -1.5227056865445157, 0.04821139970888311, 0.048372073764465284, 0.04814179614186287, 0.048134882003068924]","[0.5101814270019531, 0.5088016986846924, 0.5085906386375427, 0.5037648677825928, 0.5086907744407654, 0.5125782489776611]","[0.09700272958009082, -1.4737935972148057, 0.09700272958009082, 0.09700272958009082, 0.09700272958009082, 0.09700272958009082]","[0.09700272958009082, -1.4737935972148057, 0.09700272958009082, 0.09700272958009082, 0.09700272958009082, 0.09700272958009082]",0.002,7,1
0,113,"[0.049250755459070206, -1.5216768731227894, 0.049202744160787404, 0.04937498151745601, 0.04919388145208359, 0.049168094992637634]","[0.5141603350639343, 0.5118102431297302, 0.512715220451355, 0.5062376856803894, 0.514643669128418, 0.5173729658126831]","[0.09784550266156791, -1.4729508241333287, 0.09784550266156791, 0.09784550266156791, 0.09784550266156791, 0.09784550266156791]","[0.09784550266156791, -1.4729508241333287, 0.09784550266156791, 0.09784550266156791, 0.09784550266156791, 0.09784550266156791]",0.002,7,1
0,114,"[0.0502975694835186, -1.520666816537716, 0.050209824238912404, 0.05034415304150386, 0.0501449778676033, 0.05022758990526199]","[0.5181602835655212, 0.5152391195297241, 0.5177077651023865, 0.5118520259857178, 0.518797755241394, 0.5226748585700989]","[0.09868765720293912, -1.4721086695919574, 0.09868765720293912, 0.09868765720293912, 0.09868765720293912, 0.09868765720293912]","[0.09868765720293912, -1.4721086695919574, 0.09868765720293912, 0.09868765720293912, 0.09868765720293912, 0.09868765720293912]",0.002,7,1
0,115,"[0.05137185379862785, -1.5196143810502072, 0.05126411119569951, 0.05139152585949702, 0.051239319145679474, 0.05122460424900055]","[0.5220476388931274, 0.5191083550453186, 0.5185315608978271, 0.5195081830024719, 0.5228295922279358, 0.5248875617980957]","[0.09952918788044049, -1.471267138914456, 0.09952918788044049, 0.09952918788044049, 0.09952918788044049, 0.09952918788044049]","[0.09952918788044049, -1.471267138914456, 0.09952918788044049, 0.09952918788044049, 0.09952918788044049, 0.09952918788044049]",0.002,7,1
0,116,"[0.052450764924287796, -1.5185040061226864, 0.05230075517763311, 0.05240099012341304, 0.052299659699201584, 0.052355457097291946]","[0.5261146426200867, 0.5220054388046265, 0.5245519876480103, 0.5228077173233032, 0.5294688940048218, 0.5302626490592957]","[0.10037008937425189, -1.4704262374206447, 0.10037008937425189, 0.10037008937425189, 0.10037008937425189, 0.10037008937425189]","[0.10037008937425189, -1.4704262374206447, 0.10037008937425189, 0.10037008937425189, 0.10037008937425189, 0.10037008937425189]",0.002,7,1
0,117,"[0.053465668112039566, -1.5174507920495053, 0.05334693590273076, 0.05343918382611079, 0.05336357280611992, 0.05343037471175194]","[0.5309798717498779, 0.5255852937698364, 0.5299699902534485, 0.530392587184906, 0.5309696793556213, 0.534093976020813]","[0.10121035636853062, -1.4695859704263659, 0.10121035636853062, 0.10121035636853062, 0.10121035636853062, 0.10121035636853062]","[0.10121035636853062, -1.4695859704263659, 0.10121035636853062, 0.10121035636853062, 0.10121035636853062, 0.10121035636853062]",0.002,7,1
0,118,"[0.05458597093820572, -1.5164523248425503, 0.05444556871523076, 0.05441121637310786, 0.05441080033779144, 0.05453275144100189]","[0.5357882976531982, 0.5262607336044312, 0.5318717956542969, 0.5335921049118042, 0.5362939834594727, 0.5370332598686218]","[0.10204998355144514, -1.4687463432434513, 0.10204998355144514, 0.10204998355144514, 0.10204998355144514, 0.10204998355144514]","[0.10204998355144514, -1.4687463432434513, 0.10204998355144514, 0.10204998355144514, 0.10204998355144514, 0.10204998355144514]",0.002,7,1
0,119,"[0.05560465157032013, -1.5153686304441472, 0.05555612245668584, 0.05548028528179927, 0.05554085969924927, 0.055610090494155884]","[0.5398505330085754, 0.5269431471824646, 0.5322262048721313, 0.5373020172119141, 0.5388531684875488, 0.5381884574890137]","[0.10288896561520831, -1.4679073611796882, 0.10288896561520831, 0.10288896561520831, 0.10288896561520831, 0.10288896561520831]","[0.10288896561520831, -1.4679073611796882, 0.10288896561520831, 0.10288896561520831, 0.10288896561520831, 0.10288896561520831]",0.002,7,1
0,120,"[0.056694891303777695, -1.514317301367857, 0.05656129518617803, 0.056553764934204054, 0.05660016089677811, 0.05666128918528557]","[0.5434651374816895, 0.5297346115112305, 0.5341838002204895, 0.5435813069343567, 0.5428956747055054, 0.5401054620742798]","[0.10372729725611143, -1.4670690295387852, 0.10372729725611143, 0.10372729725611143, 0.10372729725611143, 0.10372729725611143]","[0.10372729725611143, -1.4670690295387852, 0.10372729725611143, 0.10372729725611143, 0.10372729725611143, 0.10372729725611143]",0.002,7,1
0,121,"[0.057854846119880676, -1.5131966558149834, 0.057621304188863576, 0.05760423719372554, 0.05770483240485191, 0.057832296937704086]","[0.5476385951042175, 0.5345273017883301, 0.5415505766868591, 0.5465696454048157, 0.5475387573242188, 0.5441609025001526]","[0.10456497317455739, -1.466231353620339, 0.10456497317455739, 0.10456497317455739, 0.10456497317455739, 0.10456497317455739]","[0.10456497317455739, -1.466231353620339, 0.10456497317455739, 0.10456497317455739, 0.10456497317455739, 0.10456497317455739]",0.002,7,1
0,122,"[0.05889543890953064, -1.5121015657535573, 0.05867654481996709, 0.05870477735485835, 0.058812547475099564, 0.058964867144823074]","[0.550257682800293, 0.5390721559524536, 0.5432508587837219, 0.5498724579811096, 0.5509030818939209, 0.5479469299316406]","[0.10540198807509427, -1.4653943387198023, 0.10540198807509427, 0.10540198807509427, 0.10540198807509427, 0.10540198807509427]","[0.10540198807509427, -1.4653943387198023, 0.10540198807509427, 0.10540198807509427, 0.10540198807509427, 0.10540198807509427]",0.002,7,1
0,123,"[0.05998002365231514, -1.5110358645072957, 0.05975038210024053, 0.059834643001220655, 0.05990385636687279, 0.06006653606891632]","[0.5532148480415344, 0.542561948299408, 0.5477432608604431, 0.5545263886451721, 0.5556108951568604, 0.5513779520988464]","[0.1062383366664489, -1.4645579901284476, 0.1062383366664489, 0.1062383366664489, 0.1062383366664489, 0.1062383366664489]","[0.1062383366664489, -1.4645579901284476, 0.1062383366664489, 0.1062383366664489, 0.1062383366664489, 0.1062383366664489]",0.002,7,1
0,124,"[0.06105848401784897, -1.50997323290024, 0.0609667936908167, 0.06094448148693843, 0.061092671006917953, 0.061186131089925766]","[0.5573629140853882, 0.5429374575614929, 0.5536433458328247, 0.5597478747367859, 0.557723343372345, 0.5537146925926208]","[0.10707401366156022, -1.4637223131333363, 0.10707401366156022, 0.10707401366156022, 0.10707401366156022, 0.10707401366156022]","[0.10707401366156022, -1.4637223131333363, 0.10707401366156022, 0.10707401366156022, 0.10707401366156022, 0.10707401366156022]",0.002,7,1
0,125,"[0.062138449400663376, -1.5088628095439454, 0.06203776994814092, 0.062076135272643995, 0.06220723316073418, 0.06227516010403633]","[0.5600166916847229, 0.5475515127182007, 0.5537758469581604, 0.5641154646873474, 0.5593110918998718, 0.5582320690155029]","[0.10790901377761274, -1.462887313017284, 0.10790901377761274, 0.10790901377761274, 0.10790901377761274, 0.10790901377761274]","[0.10790901377761274, -1.462887313017284, 0.10790901377761274, 0.10790901377761274, 0.10790901377761274, 0.10790901377761274]",0.002,7,1
0,126,"[0.06332788616418839, -1.5077265065959473, 0.0632103125201624, 0.06322471677746577, 0.06338545680046082, 0.06347312033176422]","[0.5627487897872925, 0.5502293109893799, 0.5585899949073792, 0.5672125816345215, 0.5622369647026062, 0.5612390637397766]","[0.10874333173606994, -1.4620529950588266, 0.10874333173606994, 0.10874333173606994, 0.10874333173606994, 0.10874333173606994]","[0.10874333173606994, -1.4620529950588266, 0.10874333173606994, 0.10874333173606994, 0.10874333173606994, 0.10874333173606994]",0.002,7,1
0,127,"[0.0644569844007492, -1.5065448445132752, 0.06436759630312139, 0.06439702093090816, 0.06452637910842896, 0.06460317969322205]","[0.5670976638793945, 0.5514847636222839, 0.5611463785171509, 0.5719215273857117, 0.5661242604255676, 0.5627533793449402]","[0.1095769622627076, -1.461219364532189, 0.1095769622627076, 0.1095769622627076, 0.1095769622627076, 0.1095769622627076]","[0.1095769622627076, -1.461219364532189, 0.1095769622627076, 0.1095769622627076, 0.1095769622627076, 0.1095769622627076]",0.002,7,1
0,128,"[0.06561106443405151, -1.5054435741952439, 0.06550723711122686, 0.06552271425213618, 0.06573008745908737, 0.06566795706748962]","[0.5690958499908447, 0.5582429766654968, 0.5645148158073425, 0.5727264881134033, 0.5683416724205017, 0.5647421479225159]","[0.1104099000876472, -1.4603864267072493, 0.1104099000876472, 0.1104099000876472, 0.1104099000876472, 0.1104099000876472]","[0.1104099000876472, -1.4603864267072493, 0.1104099000876472, 0.1104099000876472, 0.1104099000876472, 0.1104099000876472]",0.002,7,1
0,129,"[0.06674123555421829, -1.5043245267919083, 0.0666587988482874, 0.06675045072521968, 0.06686529517173767, 0.06682080030441284]","[0.5732705593109131, 0.5621709227561951, 0.5664571523666382, 0.5737802982330322, 0.5706482529640198, 0.5667142868041992]","[0.11124213994538917, -1.4595541868495074, 0.11124213994538917, 0.11124213994538917, 0.11124213994538917, 0.11124213994538917]","[0.11124213994538917, -1.4595541868495074, 0.11124213994538917, 0.11124213994538917, 0.11124213994538917, 0.11124213994538917]",0.002,7,1
0,130,"[0.06789696216583252, -1.5031879556230088, 0.06775933900942022, 0.06786028921093745, 0.06797021627426147, 0.06803562492132187]","[0.5747485756874084, 0.565845251083374, 0.5685151219367981, 0.5773518681526184, 0.5716037154197693, 0.5690293908119202]","[0.11207367657484625, -1.4587226502200503, 0.11207367657484625, 0.11207367657484625, 0.11207367657484625, 0.11207367657484625]","[0.11207367657484625, -1.4587226502200503, 0.11207367657484625, 0.11207367657484625, 0.11207367657484625, 0.11207367657484625]",0.002,7,1
0,131,"[0.06909675896167755, -1.5020045054009934, 0.06891519228090459, 0.06900612890209956, 0.06910496205091476, 0.0690716952085495]","[0.5749027729034424, 0.5697855949401855, 0.5720818638801575, 0.579591691493988, 0.5740637183189392, 0.5723785161972046]","[0.11290450471937667, -1.45789182207552, 0.11290450471937667, 0.11290450471937667, 0.11290450471937667, 0.11290450471937667]","[0.11290450471937667, -1.45789182207552, 0.11290450471937667, 0.11290450471937667, 0.11290450471937667, 0.11290450471937667]",0.002,7,1
0,132,"[0.07025475800037384, -1.5008876857212563, 0.07011491457094365, 0.07024459421124263, 0.07031917572021484, 0.07023967802524567]","[0.5787099599838257, 0.5732389688491821, 0.5765494704246521, 0.5800198316574097, 0.5762341022491455, 0.5767505168914795]","[0.11373461912681745, -1.4570617076680792, 0.11373461912681745, 0.11373461912681745, 0.11373461912681745, 0.11373461912681745]","[0.11373461912681745, -1.4570617076680792, 0.11373461912681745, 0.11373461912681745, 0.11373461912681745, 0.11373461912681745]",0.002,7,1
0,133,"[0.07138236612081528, -1.4996780765107651, 0.07128745714296514, 0.07141356050457759, 0.07143356651067734, 0.07134275883436203]","[0.5826271176338196, 0.5800054669380188, 0.5833060145378113, 0.5811108350753784, 0.579240620136261, 0.5804328322410583]","[0.11456401454951752, -1.456232312245379, 0.11456401454951752, 0.11456401454951752, 0.11456401454951752, 0.11456401454951752]","[0.11456401454951752, -1.456232312245379, 0.11456401454951752, 0.11456401454951752, 0.11456401454951752, 0.11456401454951752]",0.002,7,1
0,134,"[0.07253865152597427, -1.4984928977540513, 0.0724557081805628, 0.07266382753338618, 0.07263459265232086, 0.07251305878162384]","[0.5836712121963501, 0.5855173468589783, 0.5845317840576172, 0.5812230706214905, 0.580769956111908, 0.5840946435928345]","[0.11539268574437102, -1.4554036410505256, 0.11539268574437102, 0.11539268574437102, 0.11539268574437102, 0.11539268574437102]","[0.11539268574437102, -1.4554036410505256, 0.11539268574437102, 0.11539268574437102, 0.11539268574437102, 0.11539268574437102]",0.002,7,1
0,135,"[0.0736531913280487, -1.497361348276474, 0.07362538972963506, 0.0738496023365478, 0.07370231300592422, 0.07363530248403549]","[0.5839581489562988, 0.588331937789917, 0.583859920501709, 0.5852817296981812, 0.5824525952339172, 0.586103618144989]","[0.11622062747285028, -1.4545756993220462, 0.11622062747285028, 0.11622062747285028, 0.11622062747285028, 0.11622062747285028]","[0.11622062747285028, -1.4545756993220462, 0.11622062747285028, 0.11622062747285028, 0.11622062747285028, 0.11622062747285028]",0.002,7,1
0,136,"[0.07484544068574905, -1.496214972143509, 0.07481652895082647, 0.07504622518505855, 0.07487715780735016, 0.07480607181787491]","[0.5863893032073975, 0.590755045413971, 0.5889763236045837, 0.5895490646362305, 0.5854347348213196, 0.5894281268119812]","[0.11704783450103912, -1.4537484922938575, 0.11704783450103912, 0.11704783450103912, 0.11704783450103912, 0.11704783450103912]","[0.11704783450103912, -1.4537484922938575, 0.11704783450103912, 0.11704783450103912, 0.11704783450103912, 0.11704783450103912]",0.002,7,1
0,137,"[0.07600714266300201, -1.4950653252056618, 0.07594186464418584, 0.07626418649639888, 0.07606211304664612, 0.07602512091398239]","[0.5869728922843933, 0.5946670770645142, 0.5882942080497742, 0.5879855751991272, 0.5891372561454773, 0.5922669768333435]","[0.11787430159966572, -1.4529220251952308, 0.11787430159966572, 0.11787430159966572, 0.11787430159966572, 0.11787430159966572]","[0.11787430159966572, -1.4529220251952308, 0.11787430159966572, 0.11787430159966572, 0.11787430159966572, 0.11787430159966572]",0.002,7,1
0,138,"[0.0772421583533287, -1.4938266661814232, 0.07712728181947881, 0.07739810525860591, 0.07722390443086624, 0.07710977643728256]","[0.5914703011512756, 0.5980704426765442, 0.5934097766876221, 0.5873083472251892, 0.5924474000930786, 0.5940765142440796]","[0.11870002354413592, -1.4520963032507606, 0.11870002354413592, 0.11870002354413592, 0.11870002354413592, 0.11870002354413592]","[0.11870002354413592, -1.4520963032507606, 0.11870002354413592, 0.11870002354413592, 0.11870002354413592, 0.11870002354413592]",0.002,7,1
0,139,"[0.07846353203058243, -1.4926252377084275, 0.07832652727235967, 0.07861988126721187, 0.07842572033405304, 0.07833408564329147]","[0.5935724973678589, 0.6001300811767578, 0.5942315459251404, 0.5863482356071472, 0.5964042544364929, 0.5968081951141357]","[0.1195249951145661, -1.4512713316803305, 0.1195249951145661, 0.1195249951145661, 0.1195249951145661, 0.1195249951145661]","[0.1195249951145661, -1.4512713316803305, 0.1195249951145661, 0.1195249951145661, 0.1195249951145661, 0.1195249951145661]",0.002,7,1
0,140,"[0.07960417866706848, -1.4914143544486542, 0.07956344286073858, 0.07974831640209956, 0.07960818707942963, 0.07955946028232574]","[0.5969741344451904, 0.6019198894500732, 0.5972822904586792, 0.5880762934684753, 0.5974616408348083, 0.5991873741149902]","[0.12034921109581614, -1.4504471156990804, 0.12034921109581614, 0.12034921109581614, 0.12034921109581614, 0.12034921109581614]","[0.12034921109581614, -1.4504471156990804, 0.12034921109581614, 0.12034921109581614, 0.12034921109581614, 0.12034921109581614]",0.002,7,1
0,141,"[0.08074865490198135, -1.490198293035366, 0.08072406450380498, 0.08095984041180415, 0.08076422661542892, 0.0807507261633873]","[0.5953969955444336, 0.6011896133422852, 0.5974886417388916, 0.5911452770233154, 0.5993649959564209, 0.6011208891868591]","[0.12117266627752252, -1.449623660517374, 0.12117266627752252, 0.12117266627752252, 0.12117266627752252, 0.12117266627752252]","[0.12117266627752252, -1.449623660517374, 0.12117266627752252, 0.12117266627752252, 0.12117266627752252, 0.12117266627752252]",0.002,7,1
0,142,"[0.08204726874828339, -1.4890111249736329, 0.0819161573993128, 0.08217303335156245, 0.08191080391407013, 0.0819559097290039]","[0.5989354848861694, 0.6035753488540649, 0.6014165878295898, 0.5955013036727905, 0.6000398397445679, 0.6032968163490295]","[0.12199535545413111, -1.4488009713407655, 0.12199535545413111, 0.12199535545413111, 0.12199535545413111, 0.12199535545413111]","[0.12199535545413111, -1.4488009713407655, 0.12199535545413111, 0.12199535545413111, 0.12199535545413111, 0.12199535545413111]",0.002,7,1
0,143,"[0.08326271921396255, -1.4878202986768265, 0.08311444917787725, 0.08329836904492183, 0.08316504955291748, 0.08319655060768127]","[0.6005454659461975, 0.6048240065574646, 0.6007881760597229, 0.5996286273002625, 0.6013574004173279, 0.6064351797103882]","[0.12281727342493026, -1.4479790533699664, 0.12281727342493026, 0.12281727342493026, 0.12281727342493026, 0.12281727342493026]","[0.12281727342493026, -1.4479790533699664, 0.12281727342493026, 0.12281727342493026, 0.12281727342493026, 0.12281727342493026]",0.002,7,1
0,144,"[0.08443938195705414, -1.4865733695081254, 0.08437139192690069, 0.08440689622845454, 0.08440156280994415, 0.08442838490009308]","[0.6026595234870911, 0.6063597798347473, 0.6052548289299011, 0.6009669303894043, 0.6055523753166199, 0.6069718599319458]","[0.12363841499408351, -1.447157911800813, 0.12363841499408351, 0.12363841499408351, 0.12363841499408351, 0.12363841499408351]","[0.12363841499408351, -1.447157911800813, 0.12363841499408351, 0.12363841499408351, 0.12363841499408351, 0.12363841499408351]",0.002,7,1
0,145,"[0.0856747105717659, -1.4852920037559052, 0.08554202715028936, 0.08555547773327632, 0.08557505905628204, 0.08570148795843124]","[0.6041470170021057, 0.6045769453048706, 0.6059390306472778, 0.601150393486023, 0.608634352684021, 0.6065865159034729]","[0.1244587749706625, -1.446337551824234, 0.1244587749706625, 0.1244587749706625, 0.1244587749706625, 0.1244587749706625]","[0.1244587749706625, -1.446337551824234, 0.1244587749706625, 0.1244587749706625, 0.1244587749706625, 0.1244587749706625]",0.002,7,1
0,146,"[0.08686848729848862, -1.484125943189003, 0.08671743074526006, 0.08675686895336909, 0.08686702698469162, 0.08691559731960297]","[0.6056704521179199, 0.6042035818099976, 0.6017922759056091, 0.602046012878418, 0.6113610863685608, 0.606864869594574]","[0.12527834816867986, -1.4455179786262167, 0.12527834816867986, 0.12527834816867986, 0.12527834816867986, 0.12527834816867986]","[0.12527834816867986, -1.4455179786262167, 0.12527834816867986, 0.12527834816867986, 0.12527834816867986, 0.12527834816867986]",0.002,7,1
0,147,"[0.08812040835618973, -1.4829083767584343, 0.08794671693910772, 0.08800272523846431, 0.08796831965446472, 0.08819185942411423]","[0.6074016690254211, 0.6029369831085205, 0.6015238761901855, 0.6069307923316956, 0.609559178352356, 0.6072344779968262]","[0.12609712940712178, -1.4446991973877747, 0.12609712940712178, 0.12609712940712178, 0.12609712940712178, 0.12609712940712178]","[0.12609712940712178, -1.4446991973877747, 0.12609712940712178, 0.12609712940712178, 0.12609712940712178, 0.12609712940712178]",0.002,7,1
0,148,"[0.08936473727226257, -1.4817027759603043, 0.08918458620180303, 0.08924309789624019, 0.08931248635053635, 0.08941151946783066]","[0.6081299185752869, 0.6026849150657654, 0.6053163409233093, 0.6126841306686401, 0.6104223132133484, 0.6056633591651917]","[0.12691511350998105, -1.4438812132849155, 0.12691511350998105, 0.12691511350998105, 0.12691511350998105, 0.12691511350998105]","[0.12691511350998105, -1.4438812132849155, 0.12691511350998105, 0.12691511350998105, 0.12691511350998105, 0.12691511350998105]",0.002,7,1
0,149,"[0.09051887691020966, -1.4804662403515358, 0.09041005769838506, 0.09036259233441157, 0.09048300981521606, 0.09062765538692474]","[0.6091307997703552, 0.6048145294189453, 0.6071261167526245, 0.6142807602882385, 0.6094653606414795, 0.6077515482902527]","[0.1277322953062895, -1.443064031488607, 0.1277322953062895, 0.1277322953062895, 0.1277322953062895, 0.1277322953062895]","[0.1277322953062895, -1.443064031488607, 0.1277322953062895, 0.1277322953062895, 0.1277322953062895, 0.1277322953062895]",0.002,7,1
0,150,"[0.09176753461360931, -1.479240046148636, 0.09160405794252569, 0.09157852708782954, 0.09184955805540085, 0.0918232649564743]","[0.6105093359947205, 0.6046621799468994, 0.6074716448783875, 0.6138250231742859, 0.6113782525062561, 0.6102290153503418]","[0.12854866963015096, -1.4422476571647456, 0.12854866963015096, 0.12854866963015096, 0.12854866963015096, 0.12854866963015096]","[0.12854866963015096, -1.4422476571647456, 0.12854866963015096, 0.12854866963015096, 0.12854866963015096, 0.12854866963015096]",0.002,7,1
0,151,"[0.09294503182172775, -1.4779805329493065, 0.09283334413637334, 0.09274940072979732, 0.09304401278495789, 0.09311658889055252]","[0.6147623062133789, 0.6051527857780457, 0.6087825298309326, 0.6146668791770935, 0.611811637878418, 0.6079672574996948]","[0.12936423132077363, -1.4414320954741229, 0.12936423132077363, 0.12936423132077363, 0.12936423132077363, 0.12936423132077363]","[0.12936423132077363, -1.4414320954741229, 0.12936423132077363, 0.12936423132077363, 0.12936423132077363, 0.12936423132077363]",0.002,7,1
